aces/luts/slog.spi1d
Version 1
From -0.125 1.125
Length 16384
Components 1
{
        -0.0248367707262
        -0.0248325076411
        -0.0248282425341
        -0.0248239754044
        -0.0248197062509
        -0.0248154350727
        -0.0248111618689
        -0.0248068866384
        -0.0248026093803
        -0.0247983300936
        -0.0247940487775
        -0.0247897654309
        -0.0247854800528
        -0.0247811926423
        -0.0247769031985
        -0.0247726117203
        -0.0247683182069
        -0.0247640226571
        -0.0247597250702
        -0.024755425445
        -0.0247511237807
        -0.0247468200763
        -0.0247425143307
        -0.0247382065431
        -0.0247338967125
        -0.0247295848379
        -0.0247252709183
        -0.0247209549527
        -0.0247166369403
        -0.0247123168799
        -0.0247079947707
        -0.0247036706117
        -0.0246993444019
        -0.0246950161403
        -0.024690685826
        -0.024686353458
        -0.0246820190353
        -0.0246776825569
        -0.0246733440219
        -0.0246690034292
        -0.024664660778
        -0.0246603160672
        -0.0246559692958
        -0.024651620463
        -0.0246472695676
        -0.0246429166088
        -0.0246385615855
        -0.0246342044968
        -0.0246298453416
        -0.0246254841191
        -0.0246211208282
        -0.0246167554679
        -0.0246123880373
        -0.0246080185354
        -0.0246036469612
        -0.0245992733137
        -0.0245948975919
        -0.0245905197949
        -0.0245861399216
        -0.0245817579712
        -0.0245773739425
        -0.0245729878346
        -0.0245685996466
        -0.0245642093774
        -0.024559817026
        -0.0245554225915
        -0.0245510260729
        -0.0245466274692
        -0.0245422267793
        -0.0245378240024
        -0.0245334191374
        -0.0245290121833
        -0.0245246031391
        -0.0245201920039
        -0.0245157787767
        -0.0245113634564
        -0.0245069460421
        -0.0245025265327
        -0.0244981049274
        -0.024493681225
        -0.0244892554246
        -0.0244848275253
        -0.0244803975259
        -0.0244759654255
        -0.0244715312232
        -0.0244670949178
        -0.0244626565085
        -0.0244582159942
        -0.0244537733739
        -0.0244493286466
        -0.0244448818114
        -0.0244404328672
        -0.024435981813
        -0.0244315286478
        -0.0244270733706
        -0.0244226159805
        -0.0244181564764
        -0.0244136948573
        -0.0244092311222
        -0.0244047652701
        -0.0244002973
        -0.0243958272109
        -0.0243913550018
        -0.0243868806717
        -0.0243824042196
        -0.0243779256445
        -0.0243734449453
        -0.0243689621211
        -0.0243644771708
        -0.0243599900935
        -0.0243555008882
        -0.0243510095537
        -0.0243465160892
        -0.0243420204936
        -0.0243375227659
        -0.024333022905
        -0.0243285209101
        -0.02432401678
        -0.0243195105137
        -0.0243150021103
        -0.0243104915687
        -0.0243059788879
        -0.024301464067
        -0.0242969471048
        -0.0242924280003
        -0.0242879067526
        -0.0242833833607
        -0.0242788578234
        -0.0242743301399
        -0.024269800309
        -0.0242652683298
        -0.0242607342012
        -0.0242561979223
        -0.0242516594919
        -0.0242471189092
        -0.024242576173
        -0.0242380312823
        -0.0242334842362
        -0.0242289350335
        -0.0242243836734
        -0.0242198301546
        -0.0242152744763
        -0.0242107166374
        -0.0242061566369
        -0.0242015944738
        -0.0241970301469
        -0.0241924636554
        -0.0241878949981
        -0.0241833241741
        -0.0241787511823
        -0.0241741760217
        -0.0241695986913
        -0.02416501919
        -0.0241604375168
        -0.0241558536706
        -0.0241512676506
        -0.0241466794555
        -0.0241420890844
        -0.0241374965362
        -0.02413290181
        -0.0241283049047
        -0.0241237058192
        -0.0241191045525
        -0.0241145011036
        -0.0241098954714
        -0.024105287655
        -0.0241006776532
        -0.0240960654651
        -0.0240914510896
        -0.0240868345256
        -0.0240822157722
        -0.0240775948282
        -0.0240729716927
        -0.0240683463646
        -0.0240637188429
        -0.0240590891265
        -0.0240544572144
        -0.0240498231056
        -0.0240451867989
        -0.0240405482934
        -0.0240359075881
        -0.0240312646818
        -0.0240266195735
        -0.0240219722623
        -0.0240173227469
        -0.0240126710265
        -0.0240080170999
        -0.0240033609662
        -0.0239987026242
        -0.0239940420729
        -0.0239893793112
        -0.0239847143382
        -0.0239800471528
        -0.0239753777539
        -0.0239707061404
        -0.0239660323114
        -0.0239613562657
        -0.0239566780023
        -0.0239519975202
        -0.0239473148184
        -0.0239426298957
        -0.023937942751
        -0.0239332533835
        -0.0239285617919
        -0.0239238679753
        -0.0239191719326
        -0.0239144736627
        -0.0239097731645
        -0.0239050704371
        -0.0239003654794
        -0.0238956582903
        -0.0238909488687
        -0.0238862372136
        -0.0238815233239
        -0.0238768071986
        -0.0238720888366
        -0.0238673682368
        -0.0238626453983
        -0.0238579203198
        -0.0238531930004
        -0.0238484634391
        -0.0238437316346
        -0.023838997586
        -0.0238342612923
        -0.0238295227522
        -0.0238247819649
        -0.0238200389292
        -0.023815293644
        -0.0238105461083
        -0.023805796321
        -0.023801044281
        -0.0237962899873
        -0.0237915334388
        -0.0237867746345
        -0.0237820135732
        -0.0237772502539
        -0.0237724846756
        -0.0237677168371
        -0.0237629467374
        -0.0237581743754
        -0.02375339975
        -0.0237486228602
        -0.0237438437049
        -0.023739062283
        -0.0237342785934
        -0.0237294926351
        -0.023724704407
        -0.023719913908
        -0.0237151211371
        -0.0237103260931
        -0.0237055287749
        -0.0237007291816
        -0.023695927312
        -0.023691123165
        -0.0236863167397
        -0.0236815080347
        -0.0236766970492
        -0.023671883782
        -0.0236670682321
        -0.0236622503983
        -0.0236574302795
        -0.0236526078748
        -0.0236477831829
        -0.0236429562029
        -0.0236381269336
        -0.023633295374
        -0.0236284615229
        -0.0236236253793
        -0.0236187869421
        -0.0236139462102
        -0.0236091031825
        -0.0236042578579
        -0.0235994102353
        -0.0235945603137
        -0.023589708092
        -0.023584853569
        -0.0235799967436
        -0.0235751376149
        -0.0235702761816
        -0.0235654124428
        -0.0235605463972
        -0.0235556780438
        -0.0235508073816
        -0.0235459344094
        -0.0235410591261
        -0.0235361815306
        -0.0235313016218
        -0.0235264193987
        -0.0235215348601
        -0.0235166480049
        -0.0235117588321
        -0.0235068673405
        -0.0235019735291
        -0.0234970773967
        -0.0234921789422
        -0.0234872781646
        -0.0234823750627
        -0.0234774696354
        -0.0234725618817
        -0.0234676518004
        -0.0234627393904
        -0.0234578246506
        -0.0234529075799
        -0.0234479881773
        -0.0234430664415
        -0.0234381423716
        -0.0234332159663
        -0.0234282872246
        -0.0234233561454
        -0.0234184227275
        -0.0234134869699
        -0.0234085488714
        -0.023403608431
        -0.0233986656475
        -0.0233937205198
        -0.0233887730468
        -0.0233838232274
        -0.0233788710605
        -0.0233739165449
        -0.0233689596796
        -0.0233640004634
        -0.0233590388952
        -0.0233540749739
        -0.0233491086984
        -0.0233441400676
        -0.0233391690804
        -0.0233341957356
        -0.023329220032
        -0.0233242419687
        -0.0233192615445
        -0.0233142787583
        -0.0233092936088
        -0.0233043060951
        -0.023299316216
        -0.0232943239704
        -0.0232893293571
        -0.0232843323751
        -0.0232793330231
        -0.0232743313002
        -0.0232693272051
        -0.0232643207367
        -0.0232593118939
        -0.0232543006757
        -0.0232492870808
        -0.0232442711081
        -0.0232392527565
        -0.0232342320249
        -0.0232292089121
        -0.023224183417
        -0.0232191555386
        -0.0232141252755
        -0.0232090926269
        -0.0232040575913
        -0.0231990201679
        -0.0231939803554
        -0.0231889381527
        -0.0231838935586
        -0.0231788465721
        -0.0231737971919
        -0.0231687454171
        -0.0231636912463
        -0.0231586346785
        -0.0231535757126
        -0.0231485143474
        -0.0231434505817
        -0.0231383844145
        -0.0231333158446
        -0.0231282448708
        -0.0231231714921
        -0.0231180957072
        -0.0231130175151
        -0.0231079369145
        -0.0231028539044
        -0.0230977684837
        -0.023092680651
        -0.0230875904054
        -0.0230824977457
        -0.0230774026707
        -0.0230723051793
        -0.0230672052703
        -0.0230621029426
        -0.0230569981951
        -0.0230518910266
        -0.0230467814359
        -0.0230416694219
        -0.0230365549835
        -0.0230314381195
        -0.0230263188287
        -0.02302119711
        -0.0230160729623
        -0.0230109463843
        -0.0230058173751
        -0.0230006859333
        -0.0229955520578
        -0.0229904157475
        -0.0229852770013
        -0.0229801358179
        -0.0229749921963
        -0.0229698461352
        -0.0229646976335
        -0.0229595466901
        -0.0229543933037
        -0.0229492374733
        -0.0229440791976
        -0.0229389184756
        -0.022933755306
        -0.0229285896877
        -0.0229234216195
        -0.0229182511003
        -0.022913078129
        -0.0229079027042
        -0.0229027248249
        -0.02289754449
        -0.0228923616982
        -0.0228871764483
        -0.0228819887393
        -0.02287679857
        -0.0228716059391
        -0.0228664108456
        -0.0228612132882
        -0.0228560132657
        -0.0228508107771
        -0.0228456058212
        -0.0228403983967
        -0.0228351885025
        -0.0228299761374
        -0.0228247613003
        -0.02281954399
        -0.0228143242053
        -0.0228091019451
        -0.0228038772081
        -0.0227986499932
        -0.0227934202992
        -0.0227881881249
        -0.0227829534692
        -0.0227777163309
        -0.0227724767089
        -0.0227672346018
        -0.0227619900086
        -0.0227567429281
        -0.022751493359
        -0.0227462413003
        -0.0227409867507
        -0.0227357297091
        -0.0227304701743
        -0.022725208145
        -0.0227199436201
        -0.0227146765985
        -0.0227094070789
        -0.0227041350601
        -0.022698860541
        -0.0226935835204
        -0.0226883039971
        -0.0226830219699
        -0.0226777374376
        -0.022672450399
        -0.022667160853
        -0.0226618687984
        -0.0226565742339
        -0.0226512771584
        -0.0226459775706
        -0.0226406754695
        -0.0226353708538
        -0.0226300637222
        -0.0226247540737
        -0.022619441907
        -0.022614127221
        -0.0226088100143
        -0.0226034902859
        -0.0225981680346
        -0.022592843259
        -0.0225875159582
        -0.0225821861307
        -0.0225768537756
        -0.0225715188915
        -0.0225661814772
        -0.0225608415316
        -0.0225554990534
        -0.0225501540415
        -0.0225448064946
        -0.0225394564116
        -0.0225341037912
        -0.0225287486323
        -0.0225233909336
        -0.022518030694
        -0.0225126679121
        -0.0225073025869
        -0.0225019347171
        -0.0224965643015
        -0.0224911913389
        -0.0224858158281
        -0.0224804377679
        -0.0224750571571
        -0.0224696739944
        -0.0224642882787
        -0.0224589000087
        -0.0224535091833
        -0.0224481158012
        -0.0224427198612
        -0.022437321362
        -0.0224319203026
        -0.0224265166817
        -0.0224211104979
        -0.0224157017503
        -0.0224102904374
        -0.0224048765582
        -0.0223994601113
        -0.0223940410956
        -0.0223886195099
        -0.0223831953529
        -0.0223777686234
        -0.0223723393202
        -0.0223669074421
        -0.0223614729878
        -0.0223560359562
        -0.022350596346
        -0.0223451541559
        -0.0223397093848
        -0.0223342620315
        -0.0223288120946
        -0.0223233595731
        -0.0223179044656
        -0.0223124467709
        -0.0223069864879
        -0.0223015236152
        -0.0222960581517
        -0.0222905900961
        -0.0222851194472
        -0.0222796462038
        -0.0222741703646
        -0.0222686919284
        -0.0222632108939
        -0.02225772726
        -0.0222522410254
        -0.0222467521889
        -0.0222412607493
        -0.0222357667052
        -0.0222302700555
        -0.0222247707989
        -0.0222192689342
        -0.0222137644602
        -0.0222082573756
        -0.0222027476792
        -0.0221972353698
        -0.022191720446
        -0.0221862029067
        -0.0221806827506
        -0.0221751599765
        -0.0221696345832
        -0.0221641065694
        -0.0221585759338
        -0.0221530426752
        -0.0221475067924
        -0.0221419682842
        -0.0221364271492
        -0.0221308833862
        -0.022125336994
        -0.0221197879714
        -0.0221142363171
        -0.0221086820298
        -0.0221031251083
        -0.0220975655514
        -0.0220920033577
        -0.0220864385261
        -0.0220808710553
        -0.0220753009441
        -0.0220697281911
        -0.0220641527952
        -0.0220585747551
        -0.0220529940694
        -0.0220474107371
        -0.0220418247568
        -0.0220362361273
        -0.0220306448472
        -0.0220250509155
        -0.0220194543307
        -0.0220138550916
        -0.0220082531971
        -0.0220026486457
        -0.0219970414363
        -0.0219914315677
        -0.0219858190384
        -0.0219802038473
        -0.0219745859932
        -0.0219689654746
        -0.0219633422905
        -0.0219577164395
        -0.0219520879204
        -0.0219464567318
        -0.0219408228726
        -0.0219351863414
        -0.021929547137
        -0.0219239052582
        -0.0219182607035
        -0.0219126134719
        -0.021906963562
        -0.0219013109726
        -0.0218956557023
        -0.0218899977499
        -0.0218843371142
        -0.0218786737938
        -0.0218730077875
        -0.021867339094
        -0.0218616677121
        -0.0218559936404
        -0.0218503168777
        -0.0218446374227
        -0.0218389552742
        -0.0218332704308
        -0.0218275828913
        -0.0218218926544
        -0.0218161997188
        -0.0218105040833
        -0.0218048057465
        -0.0217991047072
        -0.0217934009641
        -0.0217876945159
        -0.0217819853613
        -0.0217762734991
        -0.0217705589279
        -0.0217648416466
        -0.0217591216537
        -0.021753398948
        -0.0217476735283
        -0.0217419453932
        -0.0217362145414
        -0.0217304809717
        -0.0217247446828
        -0.0217190056734
        -0.0217132639421
        -0.0217075194877
        -0.021701772309
        -0.0216960224046
        -0.0216902697731
        -0.0216845144135
        -0.0216787563242
        -0.0216729955041
        -0.0216672319518
        -0.0216614656661
        -0.0216556966457
        -0.0216499248892
        -0.0216441503953
        -0.0216383731628
        -0.0216325931904
        -0.0216268104768
        -0.0216210250206
        -0.0216152368205
        -0.0216094458754
        -0.0216036521838
        -0.0215978557444
        -0.021592056556
        -0.0215862546172
        -0.0215804499268
        -0.0215746424835
        -0.0215688322858
        -0.0215630193326
        -0.0215572036225
        -0.0215513851543
        -0.0215455639265
        -0.0215397399379
        -0.0215339131872
        -0.0215280836731
        -0.0215222513943
        -0.0215164163494
        -0.0215105785372
        -0.0215047379563
        -0.0214988946054
        -0.0214930484832
        -0.0214871995884
        -0.0214813479197
        -0.0214754934757
        -0.0214696362552
        -0.0214637762568
        -0.0214579134792
        -0.0214520479211
        -0.0214461795812
        -0.0214403084582
        -0.0214344345506
        -0.0214285578573
        -0.0214226783769
        -0.021416796108
        -0.0214109110494
        -0.0214050231997
        -0.0213991325576
        -0.0213932391218
        -0.021387342891
        -0.0213814438637
        -0.0213755420388
        -0.0213696374148
        -0.0213637299905
        -0.0213578197645
        -0.0213519067355
        -0.0213459909021
        -0.0213400722631
        -0.0213341508171
        -0.0213282265627
        -0.0213222994987
        -0.0213163696237
        -0.0213104369363
        -0.0213045014353
        -0.0212985631193
        -0.0212926219869
        -0.0212866780369
        -0.0212807312679
        -0.0212747816785
        -0.0212688292675
        -0.0212628740334
        -0.0212569159749
        -0.0212509550908
        -0.0212449913797
        -0.0212390248401
        -0.0212330554709
        -0.0212270832705
        -0.0212211082378
        -0.0212151303713
        -0.0212091496698
        -0.0212031661318
        -0.021197179756
        -0.0211911905411
        -0.0211851984857
        -0.0211792035885
        -0.0211732058481
        -0.0211672052632
        -0.0211612018324
        -0.0211551955545
        -0.0211491864279
        -0.0211431744515
        -0.0211371596238
        -0.0211311419434
        -0.0211251214091
        -0.0211190980194
        -0.0211130717731
        -0.0211070426687
        -0.021101010705
        -0.0210949758805
        -0.0210889381939
        -0.0210828976438
        -0.0210768542289
        -0.0210708079478
        -0.0210647587992
        -0.0210587067817
        -0.021052651894
        -0.0210465941346
        -0.0210405335022
        -0.0210344699955
        -0.0210284036131
        -0.0210223343536
        -0.0210162622157
        -0.0210101871979
        -0.021004109299
        -0.0209980285176
        -0.0209919448523
        -0.0209858583017
        -0.0209797688644
        -0.0209736765392
        -0.0209675813246
        -0.0209614832192
        -0.0209553822218
        -0.0209492783308
        -0.020943171545
        -0.0209370618629
        -0.0209309492832
        -0.0209248338046
        -0.0209187154256
        -0.0209125941449
        -0.020906469961
        -0.0209003428727
        -0.0208942128785
        -0.0208880799771
        -0.020881944167
        -0.020875805447
        -0.0208696638155
        -0.0208635192714
        -0.020857371813
        -0.0208512214392
        -0.0208450681484
        -0.0208389119394
        -0.0208327528107
        -0.0208265907609
        -0.0208204257887
        -0.0208142578926
        -0.0208080870714
        -0.0208019133235
        -0.0207957366476
        -0.0207895570424
        -0.0207833745064
        -0.0207771890382
        -0.0207710006365
        -0.0207648092998
        -0.0207586150269
        -0.0207524178161
        -0.0207462176663
        -0.020740014576
        -0.0207338085437
        -0.0207275995682
        -0.0207213876479
        -0.0207151727815
        -0.0207089549677
        -0.020702734205
        -0.020696510492
        -0.0206902838272
        -0.0206840542094
        -0.0206778216372
        -0.020671586109
        -0.0206653476235
        -0.0206591061794
        -0.0206528617751
        -0.0206466144094
        -0.0206403640807
        -0.0206341107877
        -0.020627854529
        -0.0206215953032
        -0.0206153331089
        -0.0206090679446
        -0.020602799809
        -0.0205965287006
        -0.020590254618
        -0.0205839775599
        -0.0205776975248
        -0.0205714145113
        -0.0205651285179
        -0.0205588395434
        -0.0205525475862
        -0.020546252645
        -0.0205399547182
        -0.0205336538047
        -0.0205273499028
        -0.0205210430111
        -0.0205147331284
        -0.0205084202531
        -0.0205021043838
        -0.0204957855191
        -0.0204894636576
        -0.0204831387979
        -0.0204768109385
        -0.020470480078
        -0.0204641462151
        -0.0204578093482
        -0.0204514694759
        -0.0204451265969
        -0.0204387807096
        -0.0204324318128
        -0.0204260799049
        -0.0204197249844
        -0.0204133670501
        -0.0204070061004
        -0.020400642134
        -0.0203942751494
        -0.0203879051451
        -0.0203815321197
        -0.0203751560719
        -0.0203687770001
        -0.0203623949029
        -0.0203560097789
        -0.0203496216267
        -0.0203432304449
        -0.0203368362319
        -0.0203304389863
        -0.0203240387068
        -0.0203176353918
        -0.02031122904
        -0.0203048196499
        -0.02029840722
        -0.0202919917489
        -0.0202855732352
        -0.0202791516775
        -0.0202727270742
        -0.0202662994239
        -0.0202598687253
        -0.0202534349767
        -0.0202469981769
        -0.0202405583244
        -0.0202341154176
        -0.0202276694552
        -0.0202212204357
        -0.0202147683576
        -0.0202083132196
        -0.0202018550201
        -0.0201953937578
        -0.020188929431
        -0.0201824620385
        -0.0201759915787
        -0.0201695180502
        -0.0201630414516
        -0.0201565617813
        -0.0201500790379
        -0.02014359322
        -0.0201371043261
        -0.0201306123548
        -0.0201241173045
        -0.0201176191739
        -0.0201111179614
        -0.0201046136656
        -0.0200981062851
        -0.0200915958184
        -0.0200850822639
        -0.0200785656204
        -0.0200720458862
        -0.0200655230599
        -0.0200589971401
        -0.0200524681252
        -0.0200459360139
        -0.0200394008046
        -0.020032862496
        -0.0200263210864
        -0.0200197765744
        -0.0200132289587
        -0.0200066782376
        -0.0200001244098
        -0.0199935674737
        -0.0199870074278
        -0.0199804442708
        -0.0199738780011
        -0.0199673086173
        -0.0199607361178
        -0.0199541605012
        -0.0199475817661
        -0.0199409999108
        -0.0199344149341
        -0.0199278268343
        -0.01992123561
        -0.0199146412597
        -0.019908043782
        -0.0199014431753
        -0.0198948394381
        -0.0198882325691
        -0.0198816225666
        -0.0198750094293
        -0.0198683931556
        -0.019861773744
        -0.019855151193
        -0.0198485255012
        -0.0198418966671
        -0.0198352646892
        -0.0198286295659
        -0.0198219912958
        -0.0198153498775
        -0.0198087053093
        -0.0198020575899
        -0.0197954067177
        -0.0197887526912
        -0.0197820955089
        -0.0197754351694
        -0.0197687716711
        -0.0197621050126
        -0.0197554351923
        -0.0197487622087
        -0.0197420860603
        -0.0197354067457
        -0.0197287242634
        -0.0197220386118
        -0.0197153497894
        -0.0197086577947
        -0.0197019626262
        -0.0196952642825
        -0.019688562762
        -0.0196818580632
        -0.0196751501846
        -0.0196684391246
        -0.0196617248819
        -0.0196550074548
        -0.0196482868419
