iif/luts/aceslg2_to_P3D60.cube
TITLE "Generated by Foundry::LUT"
LUT_3D_SIZE 32
0.033122 0.033064 0.033060
0.033483 0.033160 0.033089
0.034914 0.033536 0.033201
0.037008 0.034079 0.033366
0.040210 0.034942 0.033630
0.045883 0.036308 0.033974
0.053851 0.038415 0.034199
0.070133 0.044300 0.035695
0.096469 0.049915 0.036940
0.139603 0.058390 0.039250
0.207367 0.068170 0.042593
0.296359 0.069459 0.046392
0.384122 0.070530 0.047107
0.477282 0.049064 0.052011
0.556143 0.000000 0.055486
0.616259 0.000000 0.058384
0.663437 0.000000 0.061084
0.709558 0.000000 0.064224
0.754046 0.000000 0.067874
0.801811 0.000000 0.071706
0.853032 0.000000 0.076214
0.910276 0.000000 0.082758
0.971521 0.000000 0.092208
1.028992 0.000000 0.100323
1.095720 0.000000 0.111922
1.158722 0.000000 0.127256
1.221901 0.000000 0.144110
1.276530 0.000000 0.170701
1.291255 0.000000 0.177049
1.291155 0.000000 0.184516
1.290994 0.000000 0.195601
1.290836 0.000000 0.205650
0.033106 0.033142 0.033081
0.033314 0.033150 0.033085
0.034743 0.033491 0.033188
0.036825 0.034029 0.033351
0.039968 0.034876 0.033608
0.045695 0.036266 0.033966
0.053686 0.038369 0.034203
0.069746 0.044216 0.035661
0.096066 0.049818 0.036893
0.139213 0.058380 0.039249
0.207008 0.068107 0.042592
0.296082 0.069409 0.046381
0.383909 0.070574 0.047110
0.477141 0.049152 0.052005
0.556068 0.000000 0.055483
0.616219 0.000000 0.058381
0.663420 0.000000 0.061083
0.709545 0.000000 0.064223
0.754041 0.000000 0.067874
0.801808 0.000000 0.071706
0.853032 0.000000 0.076214
0.910279 0.000000 0.082747
0.971528 0.000000 0.092199
1.029000 0.000000 0.100310
1.095727 0.000000 0.111907
1.158728 0.000000 0.127238
1.221903 0.000000 0.144096
1.276530 0.000000 0.170691
1.291255 0.000000 0.177040
1.291155 0.000000 0.184507
1.290995 0.000000 0.195591
1.290836 0.000000 0.205641
0.033002 0.033634 0.033209
0.033013 0.033585 0.033196
0.034398 0.033904 0.033291
0.036491 0.034377 0.033433
0.039586 0.035093 0.033648
0.045358 0.036328 0.033972
0.053449 0.038304 0.034209
0.069194 0.044095 0.035611
0.095491 0.049677 0.036825
0.138692 0.058352 0.039249
0.206495 0.068017 0.042591
0.295686 0.069337 0.046365
0.383606 0.070637 0.047116
0.476933 0.049280 0.051996
0.555961 0.000000 0.055478
0.616160 0.000000 0.058378
0.663395 0.000000 0.061081
0.709527 0.000000 0.064221
0.754034 0.000000 0.067873
0.801804 0.000000 0.071705
0.853033 0.000000 0.076214
0.910284 0.000000 0.082733
0.971539 0.000000 0.092184
1.029012 0.000000 0.100292
1.095735 0.000000 0.111885
1.158736 0.000000 0.127214
1.221907 0.000000 0.144076
1.276530 0.000000 0.170677
1.291255 0.000000 0.177028
1.291155 0.000000 0.184494
1.290995 0.000000 0.195578
1.290836 0.000000 0.205628
0.032832 0.034380 0.033401
0.032841 0.034346 0.033393
0.033926 0.034588 0.033461
0.036032 0.035071 0.033599
0.039165 0.035796 0.033808
0.044659 0.036958 0.034069
0.052645 0.038481 0.034233
0.067900 0.043805 0.035492
0.094669 0.049474 0.036727
0.137964 0.058302 0.039249
0.205763 0.067887 0.042590
0.295120 0.069233 0.046342
0.383171 0.070725 0.047123
0.476635 0.049465 0.051984
0.555810 0.000000 0.055472
0.616077 0.000000 0.058374
0.663356 0.000000 0.061079
0.709501 0.000000 0.064219
0.754025 0.000000 0.067872
0.801798 0.000000 0.071705
0.853035 0.000000 0.076214
0.910291 0.000000 0.082712
0.971554 0.000000 0.092164
1.029030 0.000000 0.100267
1.095747 0.000000 0.111853
1.158749 0.000000 0.127178
1.221911 0.000000 0.144046
1.276530 0.000000 0.170656
1.291255 0.000000 0.177011
1.291155 0.000000 0.184477
1.290995 0.000000 0.195558
1.290836 0.000000 0.205610
0.032807 0.036032 0.033876
0.032792 0.035966 0.033857
0.033374 0.036010 0.033858
0.035498 0.036401 0.033951
0.038539 0.036928 0.034056
0.043691 0.037782 0.034229
0.051415 0.039236 0.034335
0.065579 0.043915 0.035498
0.091301 0.048617 0.036318
0.136397 0.058187 0.039245
0.204715 0.067698 0.042586
0.294310 0.069081 0.046308
0.382552 0.070848 0.047134
0.476209 0.049727 0.051965
0.555593 0.000000 0.055463
0.615958 0.000000 0.058367
0.663296 0.000000 0.061075
0.709465 0.000000 0.064215
0.754007 0.000000 0.067871
0.801789 0.000000 0.071704
0.853038 0.000000 0.076215
0.910301 0.000000 0.082682
0.971575 0.000000 0.092135
1.029055 0.000000 0.100229
1.095765 0.000000 0.111808
1.158766 0.000000 0.127128
1.221917 0.000000 0.144009
1.276530 0.000000 0.170627
1.291255 0.000000 0.176987
1.291156 0.000000 0.184451
1.290995 0.000000 0.195529
1.290837 0.000000 0.205583
0.033395 0.038586 0.034572
0.033382 0.038523 0.034558
0.033362 0.038433 0.034536
0.034651 0.038479 0.034480
0.037753 0.038923 0.034541
0.042551 0.039650 0.034641
0.049920 0.040764 0.034564
0.063042 0.044641 0.035724
0.087445 0.049192 0.036515
0.130427 0.057817 0.039216
0.200134 0.066837 0.042553
0.293136 0.068873 0.046258
0.381662 0.071022 0.047149
0.475599 0.050096 0.051940
0.555280 0.000000 0.055450
0.615789 0.000000 0.058358
0.663211 0.000000 0.061070
0.709414 0.000000 0.064211
0.753976 0.000000 0.067868
0.801778 0.000000 0.071703
0.853041 0.000000 0.076215
0.910317 0.000000 0.082638
0.971606 0.000000 0.092093
1.029091 0.000000 0.100177
1.095790 0.000000 0.111744
1.158791 0.000000 0.127056
1.221927 0.000000 0.143956
1.276531 0.000000 0.170586
1.291256 0.000000 0.176952
1.291156 0.000000 0.184414
1.290996 0.000000 0.195489
1.290837 0.000000 0.205545
0.033778 0.042660 0.035392
0.033790 0.042574 0.035385
0.033806 0.042451 0.035376
0.033853 0.042113 0.035307
0.036274 0.042133 0.035193
0.040753 0.042476 0.035068
0.047890 0.043893 0.035272
0.060518 0.046744 0.036430
0.083276 0.050909 0.037072
0.123947 0.059106 0.039631
0.189941 0.065500 0.042569
0.281673 0.068552 0.045644
0.380388 0.071260 0.047170
0.474725 0.050617 0.051903
0.554757 0.000000 0.055428
0.615551 0.000000 0.058345
0.663091 0.000000 0.061062
0.709343 0.000000 0.064204
0.753932 0.000000 0.067865
0.801762 0.000000 0.071702
0.853048 0.000000 0.076216
0.910338 0.000000 0.082576
0.971651 0.000000 0.092034
1.029142 0.000000 0.100101
1.095826 0.000000 0.111652
1.158826 0.000000 0.126953
1.221941 0.000000 0.143882
1.276531 0.000000 0.170526
1.291257 0.000000 0.176902
1.291157 0.000000 0.184362
1.290997 0.000000 0.195432
1.290838 0.000000 0.205491
0.036266 0.048785 0.037294
0.036193 0.048662 0.037242
0.036078 0.048476 0.037159
0.035913 0.048210 0.037040
0.035442 0.047457 0.036700
0.040030 0.047716 0.036826
0.046318 0.048478 0.037110
0.057312 0.050550 0.037814
0.078563 0.054482 0.038037
0.116781 0.062062 0.040601
0.177618 0.068947 0.043121
0.259402 0.071748 0.044585
0.365097 0.073213 0.047382
0.473472 0.051340 0.051850
0.554009 0.000000 0.055397
0.615216 0.000000 0.058327
0.662921 0.000000 0.061052
0.709245 0.000000 0.064195
0.753871 0.000000 0.067860
0.801741 0.000000 0.071700
0.853059 0.000000 0.076217
0.910371 0.000000 0.082486
0.971716 0.000000 0.091948
1.029217 0.000000 0.099992
1.095878 0.000000 0.111520
1.158879 0.000000 0.126803
1.221960 0.000000 0.143775
1.276532 0.000000 0.170441
1.291258 0.000000 0.176831
1.291158 0.000000 0.184287
1.290998 0.000000 0.195349
1.290840 0.000000 0.205414
0.036563 0.061650 0.041278
0.036541 0.061570 0.041248
0.036510 0.061454 0.041204
0.036465 0.061290 0.041141
0.036463 0.060847 0.041007
0.037012 0.059373 0.040720
0.042589 0.059300 0.040570
0.052477 0.060217 0.040423
0.073592 0.063834 0.041471
0.108968 0.068896 0.042932
0.160824 0.077571 0.044533
0.237576 0.080804 0.044244
0.340902 0.086338 0.047324
0.451232 0.061594 0.050872
0.552938 0.000000 0.055351
0.614610 0.000000 0.058295
0.662687 0.000000 0.061037
0.709100 0.000000 0.064182
0.753789 0.000000 0.067854
0.801716 0.000000 0.071697
0.853078 0.000000 0.076219
0.910417 0.000000 0.082373
0.971811 0.000000 0.091823
1.029325 0.000000 0.099837
1.095952 0.000000 0.111332
1.158946 0.000000 0.126589
1.221988 0.000000 0.143623
1.276533 0.000000 0.170320
1.291259 0.000000 0.176730
1.291160 0.000000 0.184180
1.291000 0.000000 0.195232
1.290841 0.000000 0.205303
0.041789 0.080583 0.046783
0.041774 0.080451 0.046759
0.041752 0.080261 0.046725
0.041723 0.079987 0.046677
0.041696 0.079587 0.046607
0.041570 0.078084 0.046335
0.041823 0.075509 0.045803
0.052580 0.075488 0.045637
0.069456 0.078209 0.045680
0.100153 0.083011 0.045234
0.146467 0.093099 0.046619
0.215356 0.098865 0.045390
0.314085 0.109276 0.047342
0.422313 0.096997 0.049187
0.525841 0.000000 0.053777
0.613580 0.000000 0.058240
0.662310 0.000000 0.061013
0.708860 0.000000 0.064160
0.753682 0.000000 0.067845
0.801688 0.000000 0.071695
0.853083 0.000000 0.076219
0.910478 0.000000 0.082244
0.971952 0.000000 0.091645
1.029483 0.000000 0.099614
1.096061 0.000000 0.111064
1.159035 0.000000 0.126294
1.222029 0.000000 0.143407
1.276534 0.000000 0.170146
1.291261 0.000000 0.176585
1.291162 0.000000 0.184027
1.291003 0.000000 0.195064
1.290844 0.000000 0.205145
0.032613 0.108559 0.052929
0.032648 0.108432 0.052899
0.032706 0.108247 0.052857
0.032798 0.107981 0.052797
0.032929 0.107599 0.052710
0.033104 0.107053 0.052585
0.033931 0.103909 0.051831
0.039610 0.100201 0.050659
0.062282 0.100931 0.050304
0.094719 0.105786 0.050517
0.137029 0.113011 0.050120
0.198331 0.123634 0.048126
0.291966 0.136160 0.048429
0.397823 0.135965 0.048039
0.499064 0.118499 0.050624
0.588563 0.000000 0.055755
0.660084 0.000000 0.060873
0.708553 0.000000 0.064131
0.753556 0.000000 0.067835
0.801639 0.000000 0.071691
0.853065 0.000000 0.076217
0.910546 0.000000 0.082172
0.972164 0.000000 0.091385
1.029724 0.000000 0.099279
1.096216 0.000000 0.110699
1.159159 0.000000 0.125919
1.222086 0.000000 0.143098
1.276536 0.000000 0.169899
1.291263 0.000000 0.176379
1.291165 0.000000 0.183810
1.291006 0.000000 0.194824
1.290848 0.000000 0.204920
0.000000 0.147529 0.057263
0.000000 0.147399 0.057232
0.000000 0.147213 0.057186
0.000000 0.146948 0.057121
0.000000 0.146567 0.057027
0.000000 0.146023 0.056893
0.000000 0.145253 0.056706
0.000000 0.140250 0.056323
0.032586 0.136966 0.055792
0.079036 0.138927 0.054522
0.127797 0.145702 0.053716
0.187375 0.157106 0.053659
0.274690 0.168823 0.050778
0.376227 0.179244 0.047757
0.483404 0.177856 0.045585
0.573189 0.155009 0.048182
0.641108 0.080699 0.055918
0.703887 0.000000 0.063719
0.753314 0.000000 0.067816
0.801543 0.000000 0.071682
0.853070 0.000000 0.076218
0.910640 0.000000 0.082182
0.972489 0.000000 0.091005
1.030154 0.000000 0.098753
1.096430 0.000000 0.110274
1.159338 0.000000 0.125396
1.222172 0.000000 0.142660
1.276539 0.000000 0.169531
1.291267 0.000000 0.176088
1.291169 0.000000 0.183501
1.291011 0.000000 0.194482
1.290853 0.000000 0.204598
0.000000 0.199924 0.064532
0.000000 0.199814 0.064527
0.000000 0.199657 0.064520
0.000000 0.199433 0.064511
0.000000 0.199111 0.064497
0.000000 0.198650 0.064476
0.000000 0.197991 0.064443
0.000000 0.196942 0.064388
0.000000 0.185921 0.063528
0.061418 0.183445 0.061930
0.117925 0.190205 0.059686
0.174707 0.201677 0.055438
0.256945 0.218316 0.047979
0.361442 0.232473 0.041998
0.471028 0.235693 0.033502
0.572428 0.223798 0.036221
0.650155 0.186849 0.047849
0.694955 0.097409 0.058029
0.745929 0.000000 0.067231
0.801441 0.000000 0.071673
0.853144 0.000000 0.076225
0.910827 0.000000 0.082204
0.973007 0.000000 0.090444
1.030778 0.000000 0.098027
1.096755 0.000000 0.109661
1.159600 0.000000 0.124656
1.222295 0.000000 0.142068
1.276547 0.000000 0.168903
1.291272 0.000000 0.175674
1.291175 0.000000 0.183062
1.291019 0.000000 0.193991
1.290860 0.000000 0.204139
0.000000 0.251832 0.070544
0.000000 0.251770 0.070538
0.000000 0.251682 0.070530
0.000000 0.251556 0.070518
0.000000 0.251375 0.070501
0.000000 0.251117 0.070477
0.000000 0.250748 0.070442
0.000000 0.250217 0.070390
0.000000 0.248571 0.070224
0.000000 0.234056 0.068398
0.076698 0.239159 0.065341
0.160787 0.253336 0.061951
0.242142 0.271781 0.054476
0.346165 0.291723 0.036351
0.464330 0.307760 0.000000
0.571813 0.306665 0.000000
0.668386 0.284761 0.000000
0.724341 0.238029 0.035064
0.747017 0.144114 0.058079
0.789546 0.000000 0.070707
0.853214 0.000000 0.076232
0.911010 0.000000 0.082225
0.973465 0.000000 0.090035
1.031295 0.000000 0.097365
1.097271 0.000000 0.108742
1.159992 0.000000 0.123637
1.222478 0.000000 0.141254
1.276561 0.000000 0.167927
1.291280 0.000000 0.175093
1.291183 0.000000 0.182441
1.291029 0.000000 0.193293
1.290871 0.000000 0.203485
0.000000 0.301273 0.070412
0.000000 0.301234 0.070416
0.000000 0.301178 0.070421
0.000000 0.301098 0.070429
0.000000 0.300983 0.070440
0.000000 0.300820 0.070456
0.000000 0.300586 0.070478
0.000000 0.300250 0.070510
0.000000 0.299770 0.070555
0.000000 0.297170 0.070775
0.000000 0.286869 0.070110
0.128230 0.302629 0.062573
0.212769 0.328477 0.046891
0.326563 0.356837 0.000000
0.446447 0.380399 0.000000
0.576052 0.395214 0.000000
0.685719 0.387417 0.000000
0.752067 0.358100 0.000000
0.787377 0.302529 0.000000
0.803939 0.200054 0.049897
0.834288 0.000000 0.074498
0.911387 0.000000 0.082269
0.973984 0.000000 0.090099
1.032163 0.000000 0.096376
1.098068 0.000000 0.107521
1.160582 0.000000 0.122238
1.222752 0.000000 0.140111
1.276584 0.000000 0.166538
1.291290 0.000000 0.174280
1.291194 0.000000 0.181624
1.291044 0.000000 0.192306
1.290886 0.000000 0.202556
0.000000 0.343606 0.069556
0.000000 0.343583 0.069553
0.000000 0.343551 0.069550
0.000000 0.343504 0.069544
0.000000 0.343438 0.069537
0.000000 0.343343 0.069526
0.000000 0.343207 0.069511
0.000000 0.343012 0.069488
0.000000 0.342732 0.069457
0.000000 0.342331 0.069411
0.000000 0.338994 0.069351
0.000000 0.338528 0.064848
0.165423 0.367323 0.050454
0.288274 0.405494 0.000000
0.419963 0.447332 0.000000
0.560384 0.472213 0.000000
0.684706 0.483023 0.000000
0.782053 0.473950 0.000000
0.839537 0.437095 0.000000
0.864659 0.374219 0.000000
0.873539 0.251928 0.000000
0.880713 0.000000 0.078829
0.974809 0.000000 0.090201
1.033472 0.000000 0.095277
1.099431 0.000000 0.105833
1.161495 0.000000 0.120355
1.223161 0.000000 0.138587
1.276619 0.000000 0.164636
1.291304 0.000000 0.173164
1.291210 0.000000 0.180495
1.291064 0.000000 0.190905
1.290907 0.000000 0.201250
0.000000 0.375446 0.072591
0.000000 0.375434 0.072591
0.000000 0.375417 0.072590
0.000000 0.375393 0.072589
0.000000 0.375359 0.072587
0.000000 0.375310 0.072585
0.000000 0.375240 0.072582
0.000000 0.375140 0.072577
0.000000 0.374996 0.072570
0.000000 0.374790 0.072560
0.000000 0.374495 0.072546
0.000000 0.370712 0.072337
0.000000 0.387248 0.062506
0.228754 0.434679 0.000000
0.368139 0.488778 0.000000
0.522330 0.536003 0.000000
0.667337 0.568467 0.000000
0.793631 0.576593 0.000000
0.867786 0.563552 0.000000
0.910520 0.531598 0.000000
0.944939 0.460946 0.000000
0.953167 0.328415 0.000000
0.936524 0.000000 0.084008
1.034790 0.000000 0.095403
1.101335 0.000000 0.103791
1.162921 0.000000 0.118235
1.223827 0.000000 0.136469
1.276674 0.000000 0.162092
1.291323 0.000000 0.171650
1.291230 0.000000 0.178930
1.291094 0.000000 0.188876
1.290934 0.000000 0.199519
0.000000 0.398272 0.073341
0.000000 0.398265 0.073341
0.000000 0.398256 0.073341
0.000000 0.398256 0.073341
0.000000 0.398256 0.073341
0.000000 0.398256 0.073341
0.000000 0.398256 0.073341
0.000000 0.398256 0.073341
0.000000 0.398256 0.073341
0.000000 0.398256 0.073341
0.000000 0.398256 0.073341
0.000000 0.398256 0.073341
0.000000 0.398256 0.073341
0.000000 0.398256 0.073341
0.000000 0.398256 0.073341
0.000000 0.398256 0.073341
0.000000 0.398256 0.073341
0.000000 0.398256 0.073341
0.000000 0.398256 0.073341
0.000000 0.398256 0.073341
0.987384 0.605911 0.000000
1.025084 0.548955 0.000000
1.040201 0.404274 0.000000
0.996914 0.000000 0.088178
1.103790 0.000000 0.102935
1.165498 0.000000 0.115600
1.225372 0.000000 0.133208
1.276760 0.000000 0.159018
1.291346 0.000000 0.169767
1.291262 0.000000 0.176509
1.291133 0.000000 0.186075
1.290971 0.000000 0.197136
0.000000 0.418125 0.073277
0.000000 0.418120 0.073276
0.000000 0.418113 0.073276
0.000000 0.418104 0.073275
0.000000 0.418090 0.073274
0.000000 0.418070 0.073272
0.000000 0.418042 0.073269
0.000000 0.418001 0.073266
0.000000 0.417943 0.073261
0.000000 0.417861 0.073254
0.000000 0.417742 0.073244
0.000000 0.417572 0.073229
0.000000 0.417329 0.073208
0.000000 0.411174 0.072481
0.167392 0.481332 0.000000
0.360601 0.567396 0.000000
0.570785 0.639964 0.000000
0.734230 0.691671 0.000000
0.860944 0.715762 0.000000
0.944599 0.721718 0.000000
0.999389 0.713154 0.000000
1.044824 0.691654 0.000000
1.093750 0.637336 0.000000
1.117785 0.503249 0.000000
1.059769 0.000000 0.089773
1.169516 0.000000 0.113282
1.228348 0.000000 0.129697
1.276954 0.000000 0.155736
1.291374 0.000000 0.167405
1.291307 0.000000 0.172959
1.291185 0.000000 0.182297
1.291021 0.000000 0.193813
0.000000 0.440933 0.071289
0.000000 0.440930 0.071289
0.000000 0.440925 0.071290
0.000000 0.440918 0.071291
0.000000 0.440908 0.071293
0.000000 0.440893 0.071294
0.000000 0.440872 0.071298
0.000000 0.440843 0.071302
0.000000 0.440800 0.071308
0.000000 0.440739 0.071317
0.000000 0.440652 0.071329
0.000000 0.440527 0.071346
0.000000 0.440348 0.071370
0.000000 0.440091 0.071405
0.000000 0.430426 0.072583
0.215812 0.529761 0.000000
0.463667 0.630513 0.000000
0.662632 0.707489 0.000000
0.820701 0.746222 0.000000
0.931996 0.764801 0.000000
0.993179 0.769209 0.000000
1.055133 0.768121 0.000000
1.110904 0.755227 0.000000
1.158226 0.715519 0.000000
1.194865 0.586569 0.000000
1.134288 0.000000 0.092971
1.235004 0.000000 0.126609
1.277428 0.000000 0.152157
1.291409 0.000000 0.164368
1.291357 0.000000 0.168873
1.291244 0.000000 0.177869
1.291088 0.000000 0.189253
0.000000 0.464137 0.064351
0.000000 0.464135 0.064352
0.000000 0.464131 0.064353
0.000000 0.464126 0.064355
0.000000 0.464119 0.064357
0.000000 0.464109 0.064361
0.000000 0.464095 0.064367
0.000000 0.464074 0.064375
0.000000 0.464043 0.064388
0.000000 0.463998 0.064407
0.000000 0.463933 0.064435
0.000000 0.463841 0.064475
0.000000 0.463709 0.064532
0.000000 0.463519 0.064613
0.000000 0.463247 0.064729
0.000000 0.457184 0.065224
0.282447 0.590154 0.000000
0.553365 0.701538 0.000000
0.763450 0.763286 0.000000
0.902266 0.796316 0.000000
0.978163 0.809031 0.000000
1.049489 0.816852 0.000000
1.105345 0.818602 0.000000
1.151335 0.810450 0.000000
1.178169 0.786184 0.000000
1.207596 0.680075 0.000000
1.206374 0.000000 0.093626
1.279383 0.000000 0.149501
1.291443 0.000000 0.161355
1.291406 0.000000 0.164647
1.291315 0.000000 0.172260
1.291174 0.000000 0.183104
0.000000 0.487740 0.051091
0.000000 0.487738 0.051092
0.000000 0.487736 0.051094
0.000000 0.487732 0.051097
0.000000 0.487727 0.051101
0.000000 0.487720 0.051107
0.000000 0.487710 0.051116
0.000000 0.487695 0.051128
0.000000 0.487673 0.051145
0.000000 0.487643 0.051171
0.000000 0.487599 0.051206
0.000000 0.487536 0.051257
0.000000 0.487447 0.051330
0.000000 0.487319 0.051433
0.000000 0.487135 0.051582
0.000000 0.486872 0.051792
0.000000 0.490716 0.036253
0.373943 0.657876 0.000000
0.663239 0.764850 0.000000
0.853025 0.819851 0.000000
0.962453 0.845161 0.000000
1.037176 0.857466 0.000000
1.092037 0.862882 0.000000
1.136894 0.864739 0.000000
1.156443 0.866976 0.000000
1.166506 0.859029 0.000000
1.189027 0.800127 0.000000
1.261477 0.000000 0.096733
1.291454 0.000000 0.160367
1.291447 0.000000 0.161009
1.291391 0.000000 0.165959
1.291286 0.000000 0.174603
0.000000 0.512124 0.000000
0.000000 0.512123 0.000000
0.000000 0.512121 0.000000
0.000000 0.512118 0.000000
0.000000 0.512115 0.000000
0.000000 0.512110 0.000000
0.000000 0.512102 0.000000
0.000000 0.512102 0.000000
0.000000 0.512102 0.000000
0.000000 0.512102 0.000000
0.000000 0.512102 0.000000
0.000000 0.512102 0.000000
0.000000 0.512102 0.000000
0.000000 0.512102 0.000000
0.000000 0.512102 0.000000
0.000000 0.512102 0.000000
0.000000 0.512102 0.000000
0.000000 0.512102 0.000000
0.000000 0.512102 0.000000
0.000000 0.512102 0.000000
0.000000 0.512102 0.000000
0.000000 0.512102 0.000000
0.000000 0.512102 0.000000
0.000000 0.512102 0.000000
1.139588 0.917751 0.000000
1.141745 0.934854 0.000000
1.135733 0.963385 0.000000
1.161494 0.891919 0.000000
1.287461 0.000000 0.149473
1.291454 0.000000 0.160367
1.291452 0.000000 0.160565
1.291396 0.000000 0.165561
0.000000 0.536079 0.000000
0.000000 0.536078 0.000000
0.000000 0.536076 0.000000
0.000000 0.536075 0.000000
0.000000 0.536072 0.000000
0.000000 0.536069 0.000000
0.000000 0.536064 0.000000
0.000000 0.536056 0.000000
0.000000 0.536046 0.000000
0.000000 0.536030 0.000000
0.000000 0.536009 0.000000
0.000000 0.535978 0.000000
0.000000 0.535934 0.000000
0.000000 0.535871 0.000000
0.000000 0.535780 0.000000
0.000000 0.535651 0.000000
0.000000 0.535465 0.000000
0.000000 0.535199 0.000000
0.000000 0.573951 0.000000
0.569970 0.808362 0.000000
0.858354 0.895393 0.000000
0.990565 0.927273 0.000000
1.061413 0.942859 0.000000
1.105854 0.954711 0.000000
1.119580 0.970513 0.000000
1.113991 1.011882 0.000000
1.117510 1.007873 0.000000
1.122318 0.996552 0.000000
1.147304 0.932683 0.000000
1.291454 0.000000 0.160367
1.291454 0.000000 0.160367
1.291454 0.000000 0.160367
0.000000 0.564339 0.000000
0.000000 0.564338 0.000000
0.000000 0.564337 0.000000
0.000000 0.564335 0.000000
0.000000 0.564333 0.000000
0.000000 0.564330 0.000000
0.000000 0.564325 0.000000
0.000000 0.564319 0.000000
0.000000 0.564310 0.000000
0.000000 0.564296 0.000000
0.000000 0.564277 0.000000
0.000000 0.564250 0.000000
0.000000 0.564211 0.000000
0.000000 0.564155 0.000000
0.000000 0.564076 0.000000
0.000000 0.563962 0.000000
0.000000 0.563798 0.000000
0.000000 0.563564 0.000000
0.000000 0.563228 0.000000
0.000000 0.627748 0.000000
0.664611 0.880716 0.000000
0.932526 0.957467 0.000000
1.039350 0.976730 0.000000
1.089215 0.993353 0.000000
1.101991 1.017330 0.000000
1.108561 1.021971 0.000000
1.111449 1.021752 0.000000
1.111860 1.020826 0.000000
1.114064 1.015817 0.000000
1.135584 0.963766 0.000000
1.291454 0.000000 0.160367
1.291454 0.000000 0.160367
0.000000 0.595220 0.000000
0.000000 0.595219 0.000000
0.000000 0.595218 0.000000
0.000000 0.595217 0.000000
0.000000 0.595215 0.000000
0.000000 0.595213 0.000000
0.000000 0.595210 0.000000
0.000000 0.595205 0.000000
0.000000 0.595199 0.000000
0.000000 0.595189 0.000000
0.000000 0.595175 0.000000
0.000000 0.595156 0.000000
0.000000 0.595128 0.000000
0.000000 0.595088 0.000000
0.000000 0.595031 0.000000
0.000000 0.594949 0.000000
0.000000 0.594832 0.000000
0.000000 0.594665 0.000000
0.000000 0.594425 0.000000
0.000000 0.594081 0.000000
0.000000 0.594081 0.000000
0.000000 0.594081 0.000000
0.000000 0.594081 0.000000
0.000000 0.594081 0.000000
0.000000 0.594081 0.000000
0.000000 0.594081 0.000000
0.000000 0.594081 0.000000
0.000000 0.594081 0.000000
0.000000 0.594081 0.000000
0.000000 0.594081 0.000000
0.000000 0.594081 0.000000
0.000000 0.594081 0.000000
0.000000 0.594081 0.000000
0.000000 0.594081 0.000000
0.000000 0.594081 0.000000
0.000000 0.594081 0.000000
0.000000 0.594081 0.000000
0.000000 0.594081 0.000000
0.000000 0.594081 0.000000
0.000000 0.594081 0.000000
0.000000 0.594081 0.000000
0.000000 0.594081 0.000000
0.000000 0.594081 0.000000
0.000000 0.594081 0.000000
0.000000 0.594081 0.000000
0.000000 0.594081 0.000000
0.000000 0.594081 0.000000
0.000000 0.594081 0.000000
0.000000 0.594081 0.000000
0.000000 0.594081 0.000000
0.000000 0.594081 0.000000
0.000000 0.594081 0.000000
0.000000 0.594081 0.000000
0.000000 0.594081 0.000000
0.000000 0.594081 0.000000
0.000000 0.594081 0.000000
0.000000 0.594081 0.000000
0.000000 0.594081 0.000000
0.000000 0.594081 0.000000
0.000000 0.594081 0.000000
0.000000 0.594081 0.000000
0.000000 0.594081 0.000000
0.000000 0.594081 0.000000
0.000000 0.594081 0.000000
0.000000 0.594081 0.000000
0.000000 0.594081 0.000000
0.000000 0.594081 0.000000
0.000000 0.594081 0.000000
0.000000 0.594081 0.000000
0.000000 0.594081 0.000000
0.000000 0.594081 0.000000
0.000000 0.594081 0.000000
0.000000 0.594081 0.000000
0.000000 0.594081 0.000000
0.000000 0.594081 0.000000
0.000000 0.594081 0.000000
0.000000 0.594081 0.000000
0.000000 0.594081 0.000000
0.000000 0.594081 0.000000
0.000000 0.594081 0.000000
0.000000 0.594081 0.000000
0.000000 0.594081 0.000000
0.000000 0.594081 0.000000
0.000000 0.594081 0.000000
0.000000 0.594081 0.000000
0.000000 0.594081 0.000000
0.000000 0.594081 0.000000
