iif/luts/aceslg2_to_P3D60.cube
TITLE "Generated by Foundry::LUT"
LUT_3D_SIZE 8
DOMAIN_MIN 0.000000 0.000000 0.000000
DOMAIN_MAX 0.903226 0.903226 0.903226
0.033122 0.033064 0.033060
0.040210 0.034942 0.033630
0.096469 0.049915 0.036940
0.384122 0.070530 0.047107
0.663437 0.000000 0.061084
0.853032 0.000000 0.076214
1.095720 0.000000 0.111922
1.291255 0.000000 0.177049
0.032807 0.036032 0.033876
0.038539 0.036928 0.034056
0.091301 0.048617 0.036318
0.382552 0.070848 0.047134
0.663296 0.000000 0.061075
0.853038 0.000000 0.076215
1.095765 0.000000 0.111808
1.291255 0.000000 0.176987
0.036563 0.061650 0.041278
0.036463 0.060847 0.041007
0.073592 0.063834 0.041471
0.340902 0.086338 0.047324
0.662687 0.000000 0.061037
0.853078 0.000000 0.076219
1.095952 0.000000 0.111332
1.291259 0.000000 0.176730
0.000000 0.199924 0.064532
0.000000 0.199111 0.064497
0.000000 0.185921 0.063528
0.256945 0.218316 0.047979
0.650155 0.186849 0.047849
0.853144 0.000000 0.076225
1.096755 0.000000 0.109661
1.291272 0.000000 0.175674
0.000000 0.375446 0.072591
0.000000 0.375359 0.072587
0.000000 0.374996 0.072570
0.000000 0.387248 0.062506
0.667337 0.568467 0.000000
0.944939 0.460946 0.000000
1.101335 0.000000 0.103791
1.291323 0.000000 0.171650
0.000000 0.464137 0.064351
0.000000 0.464119 0.064357
0.000000 0.464043 0.064388
0.000000 0.463709 0.064532
0.282447 0.590154 0.000000
0.978163 0.809031 0.000000
1.178169 0.786184 0.000000
1.291443 0.000000 0.161355
0.000000 0.564339 0.000000
0.000000 0.564333 0.000000
0.000000 0.564310 0.000000
0.000000 0.564211 0.000000
0.000000 0.563798 0.000000
0.664611 0.880716 0.000000
1.101991 1.017330 0.000000
1.114064 1.015817 0.000000
1.107289 1.031040 0.000000
1.107289 1.031040 0.000000
1.107289 1.031040 0.000000
1.107289 1.031040 0.000000
0.000000 0.695633 0.000000
0.000000 0.695633 0.000000
0.000000 0.695633 0.000000
0.000000 0.695633 0.000000
0.032298 0.033306 0.035770
0.038191 0.034828 0.036264
0.092123 0.049129 0.039229
0.379758 0.071206 0.048208
0.661886 0.000000 0.061173
0.850968 0.000000 0.078047
1.094206 0.000000 0.115013
1.291233 0.000000 0.178709
0.032056 0.035989 0.036425
0.036583 0.036552 0.036559
0.087946 0.048233 0.038697
0.378308 0.071480 0.048107
0.661761 0.000000 0.061076
0.851002 0.000000 0.077929
1.094244 0.000000 0.114888
1.291234 0.000000 0.178644
0.035708 0.060983 0.042826
0.035868 0.060161 0.042762
0.070552 0.062333 0.041433
0.337214 0.084576 0.047361
0.661144 0.000000 0.060939
0.851153 0.000000 0.077432
1.094407 0.000000 0.114364
1.291237 0.000000 0.178375
0.000000 0.199450 0.064511
0.000000 0.198617 0.064474
0.000000 0.186269 0.063559
0.254845 0.216656 0.048106
0.648082 0.184896 0.048189
0.851424 0.000000 0.076061
1.095131 0.000000 0.112268
1.291252 0.000000 0.177270
0.000000 0.375395 0.072589
0.000000 0.375308 0.072585
0.000000 0.374945 0.072568
0.000000 0.386398 0.062902
0.666845 0.568190 0.000000
0.944775 0.460611 0.000000
1.099244 0.000000 0.105502
1.291306 0.000000 0.173020
0.000000 0.464127 0.064354
0.000000 0.464109 0.064361
0.000000 0.464032 0.064392
0.000000 0.463697 0.064537
0.280932 0.589487 0.000000
0.978099 0.808999 0.000000
1.178177 0.786134 0.000000
1.291438 0.000000 0.161840
0.000000 0.564335 0.000000
0.000000 0.564330 0.000000
0.000000 0.564306 0.000000
0.000000 0.564208 0.000000
0.000000 0.563795 0.000000
0.664170 0.880568 0.000000
1.101991 1.017316 0.000000
1.114065 1.015815 0.000000
0.000000 0.626884 0.000000
0.000000 0.626884 0.000000
0.000000 0.626884 0.000000
0.000000 0.626884 0.000000
0.000000 0.695654 0.000000
0.000000 0.695654 0.000000
0.000000 0.695654 0.000000
0.000000 0.695654 0.000000
0.025828 0.036407 0.055659
0.026787 0.036588 0.055730
0.076874 0.048063 0.058659
0.360711 0.071526 0.069431
0.602690 0.000000 0.077249
0.602361 0.000000 0.080170
0.600196 0.000000 0.102230
0.596538 0.000000 0.186983
0.026090 0.037528 0.055468
0.026040 0.037183 0.055437
0.074963 0.047646 0.058377
0.359299 0.071657 0.069213
0.652133 0.000000 0.079458
0.842088 0.000000 0.094460
1.089705 0.000000 0.128938
1.291123 0.000000 0.186819
0.026812 0.059326 0.059667
0.026687 0.058786 0.059594
0.057904 0.057817 0.057814
0.318591 0.076484 0.066567
0.651523 0.000000 0.078469
0.842121 0.000000 0.093659
1.089766 0.000000 0.128395
1.291128 0.000000 0.186465
0.000000 0.187800 0.081876
0.000000 0.187023 0.081839
0.000000 0.178761 0.080297
0.235244 0.196168 0.066925
0.631134 0.170246 0.064917
0.842291 0.000000 0.090384
1.090025 0.000000 0.126189
1.291148 0.000000 0.185012
0.000000 0.372843 0.072676
0.000000 0.372756 0.072702
0.000000 0.372391 0.072809
0.000000 0.378033 0.064781
0.657998 0.556648 0.000000
0.932033 0.440562 0.000000
1.091859 0.000000 0.116530
1.291221 0.000000 0.179626
0.000000 0.464083 0.064371
0.000000 0.464065 0.064378
0.000000 0.463985 0.064413
0.000000 0.463651 0.064556
0.274938 0.586776 0.000000
0.977827 0.808861 0.000000
1.178207 0.785923 0.000000
1.291404 0.000000 0.164866
0.000000 0.564322 0.000000
0.000000 0.564316 0.000000
0.000000 0.564293 0.000000
0.000000 0.564194 0.000000
0.000000 0.563781 0.000000
0.662320 0.879946 0.000000
1.101991 1.017256 0.000000
1.114069 1.015806 0.000000
1.107289 1.031040 0.000000
1.107289 1.031040 0.000000
1.107289 1.031040 0.000000
0.000000 0.695666 0.000000
0.000000 0.695666 0.000000
0.000000 0.695666 0.000000
0.000000 0.695666 0.000000
0.000000 0.695666 0.000000
0.000000 0.040930 0.155457
0.000000 0.040927 0.155476
0.028096 0.042143 0.154297
0.302388 0.072707 0.176134
0.633266 0.000000 0.183869
0.827036 0.000000 0.186773
1.079709 0.000000 0.204916
1.290494 0.000000 0.224955
0.064865 0.047370 0.165559
0.064862 0.047368 0.165580
0.065306 0.047681 0.162185
0.065707 0.047509 0.143367
0.061808 0.047461 0.132618
0.059901 0.047460 0.127207
0.062733 0.047510 0.134914
0.061835 0.044516 0.187798
0.000000 0.059007 0.154518
0.000000 0.057909 0.154247
0.000000 0.052640 0.150977
0.278673 0.069840 0.169848
0.501734 0.000000 0.175328
0.501933 0.000000 0.168023
0.501669 0.000000 0.178529
0.501019 0.000000 0.241153
0.000000 0.183785 0.186899
0.000000 0.182992 0.186742
0.000000 0.179657 0.186057
0.169480 0.169195 0.169249
0.592752 0.131741 0.169873
0.826104 0.000000 0.182199
1.079541 0.000000 0.200739
1.290535 0.000000 0.222802
0.000000 0.389822 0.202872
0.000000 0.389699 0.202891
0.000000 0.389181 0.202974
0.000000 0.371006 0.192041
0.589649 0.513670 0.162220
0.888546 0.383798 0.155635
1.079104 0.000000 0.187550
1.290658 0.000000 0.216016
0.000000 0.470288 0.114174
0.000000 0.470279 0.114213
0.000000 0.470241 0.114378
0.000000 0.470081 0.115063
0.216371 0.564791 0.000000
0.959002 0.797165 0.000000
1.175312 0.750195 0.000000
1.291051 0.000000 0.191824
0.000000 0.564264 0.000000
0.000000 0.564259 0.000000
0.000000 0.564235 0.000000
0.000000 0.564137 0.000000
0.000000 0.563724 0.000000
0.656022 0.877463 0.000000
1.101990 1.017014 0.000000
1.114084 1.015770 0.000000
0.000000 0.626842 0.000000
0.000000 0.626842 0.000000
0.000000 0.626842 0.000000
0.000000 0.695661 0.000000
0.000000 0.695661 0.000000
0.000000 0.695661 0.000000
0.000000 0.695661 0.000000
0.000000 0.695661 0.000000
0.081547 0.000000 0.333347
0.081550 0.000000 0.333351
0.081563 0.000000 0.333368
0.154743 0.000000 0.355424
0.273781 0.000000 0.365840
0.272407 0.000000 0.352232
0.271502 0.000000 0.343301
0.272676 0.000000 0.355295
1.001943 0.000000 0.488296
1.001943 0.000000 0.488303
1.001943 0.000000 0.488329
1.001724 0.000000 0.467617
1.001036 0.000000 0.436632
1.000555 0.000000 0.420589
1.000139 0.000000 0.410667
1.000676 0.000000 0.424058
0.081391 0.000000 0.333143
0.081394 0.000000 0.333147
0.081408 0.000000 0.333164
0.073525 0.000000 0.320995
0.610494 0.000000 0.410097
0.815786 0.000000 0.413241
1.072387 0.000000 0.413736
1.286828 0.000000 0.353029
0.000000 0.161550 0.386357
0.000000 0.160801 0.385997
0.000000 0.157615 0.384455
0.000000 0.124519 0.363601
0.553660 0.000000 0.395423
0.814628 0.000000 0.412251
1.072015 0.000000 0.412763
1.286851 0.000000 0.352457
0.000000 0.424500 0.479006
0.000000 0.424341 0.478982
0.000000 0.423675 0.478884
0.000000 0.420164 0.478306
0.476139 0.475012 0.475139
0.843810 0.316961 0.436734
1.070450 0.000000 0.408638
1.286945 0.000000 0.350042
0.000000 0.540903 0.452969
0.000000 0.540884 0.452980
0.000000 0.540807 0.453025
0.000000 0.540484 0.453215
0.000000 0.569797 0.425823
0.899048 0.829023 0.386994
1.154845 0.730649 0.366739
1.287441 0.000000 0.336811
0.000000 0.612701 0.255797
0.000000 0.612701 0.255821
0.000000 0.612703 0.255917
0.000000 0.612711 0.256321
0.000000 0.612740 0.258009
0.504046 0.860078 0.000000
1.092766 0.986747 0.000000
1.125942 0.987476 0.000000
1.089363 1.032885 0.000000
1.089363 1.032885 0.000000
1.089363 1.032885 0.000000
0.000000 0.695602 0.000000
0.000000 0.695602 0.000000
0.000000 0.695602 0.000000
0.000000 0.695602 0.000000
1.107289 1.031040 0.000000
0.107514 0.000000 0.428117
0.107514 0.000000 0.428118
0.107512 0.000000 0.428121
0.107506 0.000000 0.428132
0.402537 0.000000 0.539807
0.794516 0.000000 0.583013
1.060533 0.000000 0.592837
1.279135 0.000000 0.497372
0.107518 0.000000 0.428111
0.107517 0.000000 0.428112
0.107516 0.000000 0.428114
0.107510 0.000000 0.428126
0.111593 0.000000 0.414517
0.114436 0.000000 0.406213
0.113432 0.000000 0.400473
0.114828 0.000000 0.397567
1.198404 0.000000 0.634767
1.198404 0.000000 0.634767
1.198404 0.000000 0.634771
0.107525 0.000000 0.428099
0.111594 0.000000 0.414576
0.114435 0.000000 0.406200
0.113448 0.000000 0.400457
0.114833 0.000000 0.397548
0.107595 0.000000 0.427972
0.107595 0.000000 0.427973
0.107594 0.000000 0.427976
0.107587 0.000000 0.427987
0.375342 0.000000 0.534214
0.792873 0.000000 0.582769
1.060201 0.000000 0.592613
1.279149 0.000000 0.497166
0.000000 0.374190 0.645512
0.000000 0.373894 0.645399
0.000000 0.372655 0.644924
0.000000 0.367626 0.642955
0.000000 0.315090 0.640126
0.767346 0.000000 0.638922
1.058851 0.000000 0.591886
1.279195 0.000000 0.496500
0.000000 0.565402 0.704705
0.000000 0.565377 0.704701
0.000000 0.565272 0.704686
0.000000 0.564834 0.704621
0.000000 0.562975 0.704342
0.812168 0.809590 0.809723
1.114671 0.660776 0.780650
1.279387 0.000000 0.493679
0.000000 0.683295 0.707524
0.000000 0.683289 0.707524
0.000000 0.683263 0.707527
0.000000 0.683155 0.707540
0.000000 0.682704 0.707591
0.000000 0.826804 0.739969
1.030797 0.987395 0.671199
1.094091 0.976913 0.600056
0.000000 0.809877 0.528098
0.000000 0.809876 0.528107
0.000000 0.809872 0.528140
0.000000 0.809856 0.528279
0.000000 0.809786 0.528859
0.000000 0.809497 0.531261
0.897067 1.040338 0.000000
1.105762 1.030953 0.000000
0.073896 0.000000 0.520972
0.073897 0.000000 0.520973
0.073896 0.000000 0.520973
0.073894 0.000000 0.520976
0.073893 0.000000 0.520988
0.078298 0.000000 0.498767
0.080430 0.000000 0.487642
0.081636 0.000000 0.481115
0.779541 0.000000 0.748288
0.779541 0.000000 0.748289
0.779542 0.000000 0.748290
0.779542 0.000000 0.748294
0.779543 0.000000 0.748312
0.777083 0.000000 0.713896
0.775536 0.000000 0.696229
0.774361 0.000000 0.686331
0.073898 0.000000 0.520965
0.073899 0.000000 0.520965
0.073898 0.000000 0.520965
0.073897 0.000000 0.520968
0.073893 0.000000 0.520980
0.078293 0.000000 0.498788
0.080432 0.000000 0.487637
0.081637 0.000000 0.481109
0.940664 0.000000 0.764175
0.940664 0.000000 0.764175
0.940664 0.000000 0.764177
0.940664 0.000000 0.764181
0.940664 0.000000 0.764199
0.940852 0.000000 0.728429
0.940360 0.000000 0.711013
0.940054 0.000000 0.700510
0.073929 0.000000 0.520824
0.073929 0.000000 0.520824
0.073928 0.000000 0.520825
0.073927 0.000000 0.520828
0.073925 0.000000 0.520839
0.078219 0.000000 0.499191
0.080449 0.000000 0.487553
1.268942 0.000000 0.619900
0.000000 0.546543 0.848352
0.000000 0.546507 0.848339
0.000000 0.546356 0.848289
0.000000 0.545722 0.848077
0.000000 0.543024 0.847170
0.000000 0.639804 0.938789
1.031819 0.368296 0.914983
1.269018 0.000000 0.619130
0.000000 0.683307 0.879183
0.000000 0.683301 0.879183
0.000000 0.683273 0.879179
0.000000 0.683157 0.879163
0.000000 0.682670 0.879097
0.000000 0.680601 0.878815
0.962141 0.959231 0.959452
1.037006 0.938034 0.941544
0.000000 0.834413 0.879558
0.000000 0.834410 0.879559
0.000000 0.834402 0.879559
0.000000 0.834365 0.879564
0.000000 0.834209 0.879582
0.000000 0.833557 0.879658
0.380956 1.018411 0.924691
1.022165 1.000575 0.875740
0.000000 0.000000 0.640427
0.000000 0.000000 0.640427
0.000000 0.000000 0.640428
0.000000 0.000000 0.640428
0.000000 0.000000 0.640432
0.000000 0.000000 0.640447
0.853271 0.000000 0.872418
1.246059 0.000000 0.802782
0.000000 0.000000 0.640427
0.000000 0.000000 0.640427
0.000000 0.000000 0.640427
0.000000 0.000000 0.640428
0.000000 0.000000 0.640432
0.000000 0.000000 0.640447
0.000000 0.000000 0.602617
0.000000 0.000000 0.588072
0.854283 0.000000 0.924595
0.854283 0.000000 0.924595
0.854283 0.000000 0.924595
0.000000 0.000000 0.640426
0.000000 0.000000 0.640430
0.000000 0.000000 0.640445
0.000000 0.000000 0.602622
1.184808 0.000000 0.880477
0.000000 0.000000 0.640416
0.000000 0.000000 0.640416
0.000000 0.000000 0.640417
0.000000 0.000000 0.640418
0.000000 0.000000 0.640421
0.000000 0.000000 0.640436
0.000000 0.000000 0.602644
0.000000 0.000000 0.588065
0.000000 0.000000 0.640382
0.000000 0.000000 0.640382
0.000000 0.000000 0.640382
0.000000 0.000000 0.640383
0.000000 0.000000 0.640386
0.000000 0.000000 0.640401
0.000000 0.000000 0.602739
1.184394 0.000000 0.880393
0.000000 0.000000 0.640235
0.000000 0.000000 0.640235
0.000000 0.000000 0.640236
0.000000 0.000000 0.640237
0.000000 0.000000 0.640240
0.000000 0.000000 0.640255
0.835747 0.000000 0.870855
1.246094 0.000000 0.802551
0.000000 0.684183 0.992045
0.000000 0.684174 0.992044
0.000000 0.684136 0.992044
0.000000 0.683979 0.992041
0.000000 0.683316 0.992030
0.000000 0.680483 0.991982
0.735091 0.927511 0.996218
1.062185 0.827708 1.000008
0.000000 0.852525 0.990370
0.000000 0.852523 0.990370
0.000000 0.852515 0.990370
0.000000 0.852480 0.990371
0.000000 0.852336 0.990375
0.000000 0.851729 0.990394
0.000000 0.849145 0.990470
0.990258 0.989134 0.989838
