iif/luts/aceslg2_to_Rec709.cube
TITLE "Generated by Foundry::LUT"
LUT_3D_SIZE 8
DOMAIN_MIN 0.000000 0.000000 0.000000
DOMAIN_MAX 0.903226 0.903226 0.903226
0.000901 -0.000030 -0.001472
0.006069 0.001005 -0.001290
0.047515 0.007331 -0.001145
0.354449 -0.040997 -0.040997
0.683280 -0.040997 -0.040997
0.916052 -0.040997 -0.040997
1.223179 -0.040997 -0.040997
1.481060 -0.040997 -0.040997
0.000285 0.001894 -0.001075
0.004512 0.002302 -0.001077
0.042588 0.007227 -0.001322
0.352663 -0.040997 -0.040997
0.683109 -0.040997 -0.040997
0.916060 -0.040997 -0.040997
1.223234 -0.040997 -0.040997
1.481061 -0.040997 -0.040997
0.001794 0.015987 0.002414
0.001721 0.015596 0.002283
0.025809 0.016094 0.001953
0.305344 -0.040997 -0.040997
0.682374 -0.040997 -0.040997
0.916110 -0.040997 -0.040997
1.223466 -0.040997 -0.040997
1.481065 -0.040997 -0.040997
-0.040997 0.137236 -0.040997
-0.040997 0.136452 -0.040997
-0.040997 0.123768 -0.017323
0.200471 0.149505 -0.040997
0.664628 -0.040997 -0.040997
0.916191 -0.040997 -0.040997
1.224464 -0.040997 -0.040997
1.481082 -0.040997 -0.040997
-0.040997 0.313955 -0.040997
-0.040997 0.313864 -0.040997
-0.040997 0.313485 -0.040997
-0.040997 0.325785 -0.040997
0.649989 0.503707 -0.040997
1.016485 0.347804 -0.040997
1.230174 -0.040997 -0.040997
1.481145 -0.040997 -0.040997
-0.040997 0.407540 -0.040997
-0.040997 0.407521 -0.040997
-0.040997 0.407440 -0.040997
-0.040997 0.407083 -0.040997
-0.040997 0.541205 -0.040997
1.017949 0.761695 -0.040997
1.288164 0.718207 -0.040997
1.481285 -0.040997 -0.040997
-0.040997 0.515929 -0.040997
-0.040997 0.515923 -0.040997
-0.040997 0.515897 -0.040997
-0.040997 0.515790 -0.040997
-0.040997 0.515339 -0.040997
0.555580 0.859877 -0.040997
1.146341 1.001125 -0.040997
1.163460 0.998624 -0.040997
1.150734 1.017206 -0.040997
1.150734 1.017206 -0.040997
1.150734 1.017206 -0.040997
1.150734 1.017206 -0.040997
-0.040997 0.661271 -0.040997
-0.040997 0.661271 -0.040997
-0.040997 0.661271 -0.040997
-0.040997 0.661271 -0.040997
0.000267 0.000157 0.000312
0.004509 0.000985 0.000476
0.043319 0.007340 0.000540
0.349489 -0.040997 -0.040997
0.681406 -0.040997 -0.040997
0.913513 -0.040997 -0.040997
1.221286 -0.040997 -0.040997
1.481034 -0.040997 -0.040997
-0.000232 0.001880 0.000598
0.003067 0.002112 0.000602
0.039281 0.007304 0.000374
0.347841 -0.040997 -0.040997
0.681254 -0.040997 -0.040997
0.913554 -0.040997 -0.040997
1.221334 -0.040997 -0.040997
1.481035 -0.040997 -0.040997
0.001295 0.015647 0.003363
0.001365 0.015235 0.003356
0.023111 0.015420 0.002068
0.301235 -0.040997 -0.040997
0.680508 -0.040997 -0.040997
0.913734 -0.040997 -0.040997
1.221535 -0.040997 -0.040997
1.481040 -0.040997 -0.040997
-0.040997 0.136778 -0.040997
-0.040997 0.135975 -0.040997
-0.040997 0.124104 -0.017591
0.198321 0.147953 -0.040997
0.662181 -0.040997 -0.040997
0.914050 -0.040997 -0.040997
1.222430 -0.040997 -0.040997
1.481057 -0.040997 -0.040997
-0.040997 0.313902 -0.040997
-0.040997 0.313811 -0.040997
-0.040997 0.313432 -0.040997
-0.040997 0.324916 -0.040997
0.649400 0.503424 -0.040997
1.016301 0.347406 -0.040997
1.227551 -0.040997 -0.040997
1.481123 -0.040997 -0.040997
-0.040997 0.407529 -0.040997
-0.040997 0.407510 -0.040997
-0.040997 0.407428 -0.040997
-0.040997 0.407071 -0.040997
-0.040997 0.540495 -0.040997
1.017869 0.761661 -0.040997
1.288180 0.718146 -0.040997
1.481277 -0.040997 -0.040997
-0.040997 0.515926 -0.040997
-0.040997 0.515920 -0.040997
-0.040997 0.515894 -0.040997
-0.040997 0.515786 -0.040997
-0.040997 0.515335 -0.040997
0.554952 0.859719 -0.040997
1.146344 1.001108 -0.040997
1.163461 0.998622 -0.040997
-0.040997 0.584654 -0.040997
-0.040997 0.584654 -0.040997
-0.040997 0.584654 -0.040997
-0.040997 0.584654 -0.040997
-0.040997 0.661294 -0.040997
-0.040997 0.661294 -0.040997
-0.040997 0.661294 -0.040997
-0.040997 0.661294 -0.040997
-0.001781 0.002589 0.011547
-0.001317 0.002678 0.011571
0.029319 0.007863 0.012038
0.327977 -0.040997 -0.040997
0.610314 -0.040997 -0.040997
0.609927 -0.040997 -0.040997
0.607391 -0.040997 -0.040997
0.603131 -0.040997 0.092798
-0.001821 0.003212 0.011402
-0.001813 0.003017 0.011401
0.027601 0.007778 0.011946
0.326382 -0.040997 -0.040997
0.669755 -0.040997 -0.040997
0.902630 -0.040997 -0.040997
1.215664 -0.040997 -0.040997
1.480901 -0.040997 -0.040997
-0.001761 0.014759 0.012591
-0.001828 0.014496 0.012577
0.014650 0.013421 0.011507
0.280591 -0.040997 -0.023085
0.669014 -0.040997 -0.040997
0.902664 -0.040997 -0.040997
1.215737 -0.040997 -0.040997
1.480907 -0.040997 -0.040997
-0.040997 0.125667 0.010105
-0.040997 0.124917 0.010322
-0.040997 0.116956 0.011102
0.179090 0.128529 -0.040997
0.642157 -0.040997 -0.040997
0.902852 -0.040997 -0.040997
1.216052 -0.040997 -0.040997
1.480932 -0.040997 -0.040997
-0.040997 0.311238 -0.040997
-0.040997 0.311147 -0.040997
-0.040997 0.310767 -0.040997
-0.040997 0.316276 -0.040997
0.639981 0.490943 -0.040997
1.001504 0.323911 -0.040997
1.218305 -0.040997 -0.040997
1.481020 -0.040997 -0.040997
-0.040997 0.407483 -0.040997
-0.040997 0.407463 -0.040997
-0.040997 0.407378 -0.040997
-0.040997 0.407021 -0.040997
-0.040997 0.537608 -0.040997
1.017528 0.761516 -0.040997
1.288247 0.717888 -0.040997
1.481242 -0.040997 -0.040997
-0.040997 0.515911 -0.040997
-0.040997 0.515904 -0.040997
-0.040997 0.515879 -0.040997
-0.040997 0.515772 -0.040997
-0.040997 0.515321 -0.040997
0.552318 0.859058 -0.040997
1.146356 1.001037 -0.040997
1.163468 0.998611 -0.040997
1.150734 1.017206 -0.040997
1.150734 1.017206 -0.040997
1.150734 1.017206 -0.040997
-0.040997 0.661307 -0.040997
-0.040997 0.661307 -0.040997
-0.040997 0.661307 -0.040997
-0.040997 0.661307 -0.040997
-0.040997 0.661307 -0.040997
-0.011954 0.003481 0.093199
-0.011947 0.003480 0.093216
-0.002730 0.003867 0.092123
0.262605 -0.040997 0.106714
0.647209 -0.040997 0.082948
0.884269 -0.040997 0.034349
1.203181 -0.040997 -0.040997
1.480138 -0.040997 -0.040997
0.021287 0.005886 0.102335
0.021285 0.005885 0.102355
0.021630 0.006053 0.099158
0.021231 0.005781 0.082132
0.018092 0.005869 0.072495
0.016687 0.005934 0.067645
0.018735 0.005894 0.074551
0.018741 0.004147 0.123376
-0.040997 0.014384 0.092160
-0.040997 0.013644 0.091932
-0.034706 0.010127 0.089066
0.236405 -0.040997 0.101628
0.490784 -0.040997 0.090943
0.491011 -0.040997 0.082399
0.490711 -0.040997 0.094620
0.490075 -0.040997 0.162500
-0.040997 0.122351 0.117940
-0.040997 0.121593 0.117843
-0.040997 0.118407 0.117403
0.108603 0.105180 0.100030
0.597027 -0.040997 0.065232
0.883101 -0.040997 0.020976
1.202955 -0.040997 -0.040997
1.480187 -0.040997 -0.040997
-0.040997 0.329632 0.103444
-0.040997 0.329502 0.103503
-0.040997 0.328960 0.103745
-0.040997 0.309851 0.094665
0.559623 0.446843 -0.040997
0.950117 0.257476 -0.040997
1.202359 -0.040997 -0.040997
1.480338 -0.040997 -0.040997
-0.040997 0.414331 -0.040997
-0.040997 0.414322 -0.040997
-0.040997 0.414282 -0.040997
-0.040997 0.414114 -0.040997
-0.040997 0.514281 -0.040997
0.994328 0.749005 -0.040997
1.288653 0.674755 -0.040997
1.480812 -0.040997 -0.040997
-0.040997 0.515848 -0.040997
-0.040997 0.515842 -0.040997
-0.040997 0.515816 -0.040997
-0.040997 0.515709 -0.040997
-0.040997 0.515258 -0.040997
0.543485 0.856385 -0.040997
1.146406 1.000748 -0.040997
1.163498 0.998568 -0.040997
-0.040997 0.584608 -0.040997
-0.040997 0.584608 -0.040997
-0.040997 0.584608 -0.040997
-0.040997 0.661301 -0.040997
-0.040997 0.661301 -0.040997
-0.040997 0.661301 -0.040997
-0.040997 0.661301 -0.040997
-0.040997 0.661301 -0.040997
0.040160 -0.040997 0.266677
0.040163 -0.040997 0.266681
0.040175 -0.040997 0.266698
0.108622 -0.040997 0.289034
0.233002 -0.040997 0.298673
0.231289 -0.040997 0.284630
0.230154 -0.040997 0.275436
0.231631 -0.040997 0.287788
1.105091 -0.040997 0.406059
1.105091 -0.040997 0.406066
1.105091 -0.040997 0.406096
1.104706 -0.040997 0.382553
1.103696 -0.040997 0.347166
1.103021 -0.040997 0.328764
1.102458 -0.040997 0.317337
1.103187 -0.040997 0.332752
0.040016 -0.040997 0.266469
0.040019 -0.040997 0.266473
0.040031 -0.040997 0.266490
0.032779 -0.040997 0.254126
0.620767 -0.040997 0.337195
0.871074 -0.040997 0.331522
1.194409 -0.040997 0.315336
1.475705 -0.040997 0.229711
-0.040997 0.102200 0.319798
-0.040997 0.101497 0.319438
-0.040997 0.098513 0.317893
-0.040997 0.067940 0.296843
0.552520 -0.040997 0.323159
0.869632 -0.040997 0.330483
1.193932 -0.040997 0.314218
1.475732 -0.040997 0.228944
-0.040997 0.367727 0.407648
-0.040997 0.367559 0.407632
-0.040997 0.366856 0.407567
-0.040997 0.363150 0.407160
0.421105 0.410090 0.394167
0.897549 0.172598 0.346535
1.191921 -0.040997 0.309473
1.475846 -0.040997 0.225689
-0.040997 0.492402 0.369002
-0.040997 0.492382 0.369016
-0.040997 0.492299 0.369075
-0.040997 0.491950 0.369325
-0.040997 0.522792 0.333888
0.907217 0.789980 0.163863
1.263794 0.653117 0.108204
1.476446 -0.040997 0.207550
-0.040997 0.569958 0.097551
-0.040997 0.569959 0.097597
-0.040997 0.569961 0.097785
-0.040997 0.569972 0.098571
-0.040997 0.570012 0.101813
0.274958 0.840243 -0.040997
1.140042 0.965155 -0.040997
1.185704 0.964030 -0.040997
1.125260 1.020400 -0.040997
1.125260 1.020400 -0.040997
1.125260 1.020400 -0.040997
-0.040997 0.661235 -0.040997
-0.040997 0.661235 -0.040997
-0.040997 0.661235 -0.040997
-0.040997 0.661235 -0.040997
1.150734 1.017206 -0.040997
0.067806 -0.040997 0.364541
0.067806 -0.040997 0.364542
0.067805 -0.040997 0.364545
0.067800 -0.040997 0.364557
0.379338 -0.040997 0.481141
0.846094 -0.040997 0.520187
1.180256 -0.040997 0.521800
1.466405 -0.040997 0.407281
0.067809 -0.040997 0.364534
0.067808 -0.040997 0.364535
0.067808 -0.040997 0.364538
0.067803 -0.040997 0.364550
0.070623 -0.040997 0.350338
0.072757 -0.040997 0.341691
0.071559 -0.040997 0.335725
0.072677 -0.040997 0.332706
1.359100 -0.040997 0.565238
1.359100 -0.040997 0.565239
1.359100 -0.040997 0.565243
0.067813 -0.040997 0.364522
0.070628 -0.040997 0.350399
0.072756 -0.040997 0.341677
0.071571 -0.040997 0.335707
0.072680 -0.040997 0.332686
0.067862 -0.040997 0.364389
0.067862 -0.040997 0.364390
0.067861 -0.040997 0.364393
0.067857 -0.040997 0.364405
0.348550 -0.040997 0.475436
0.844064 -0.040997 0.519962
1.179830 -0.040997 0.521560
1.466422 -0.040997 0.407039
-0.040997 0.317071 0.592570
-0.040997 0.316763 0.592455
-0.040997 0.315473 0.591970
-0.040997 0.310236 0.589954
-0.040997 0.254709 0.588009
0.810077 -0.040997 0.581278
1.178101 -0.040997 0.520790
1.466477 -0.040997 0.406257
-0.040997 0.521491 0.650361
-0.040997 0.521464 0.650358
-0.040997 0.521349 0.650346
-0.040997 0.520869 0.650296
-0.040997 0.518835 0.650082
0.792747 0.771955 0.743175
1.218409 0.572398 0.710948
1.466709 -0.040997 0.402943
-0.040997 0.651627 0.645945
-0.040997 0.651620 0.645946
-0.040997 0.651591 0.645952
-0.040997 0.651471 0.645974
-0.040997 0.650967 0.646066
-0.040997 0.810090 0.669115
1.053831 0.969427 0.540496
1.143900 0.953378 0.442111
-0.040997 0.793097 0.420868
-0.040997 0.793096 0.420878
-0.040997 0.793091 0.420920
-0.040997 0.793073 0.421094
-0.040997 0.792999 0.421819
-0.040997 0.792684 0.424817
0.847706 1.038171 -0.040997
1.148616 1.017187 -0.040997
0.052945 -0.040997 0.462870
0.052946 -0.040997 0.462870
0.052945 -0.040997 0.462871
0.052945 -0.040997 0.462874
0.052945 -0.040997 0.462886
0.053051 -0.040997 0.439188
0.053202 -0.040997 0.427363
0.053305 -0.040997 0.420439
0.829992 -0.040997 0.705180
0.829992 -0.040997 0.705181
0.829992 -0.040997 0.705182
0.829992 -0.040997 0.705187
0.829993 -0.040997 0.705207
0.826401 -0.040997 0.666572
0.824223 -0.040997 0.646799
0.822635 -0.040997 0.635745
0.052946 -0.040997 0.462861
0.052946 -0.040997 0.462862
0.052946 -0.040997 0.462862
0.052946 -0.040997 0.462865
0.052945 -0.040997 0.462878
0.053050 -0.040997 0.439210
0.053203 -0.040997 0.427358
0.053305 -0.040997 0.420432
1.030398 -0.040997 0.719736
1.030398 -0.040997 0.719736
1.030398 -0.040997 0.719737
1.030398 -0.040997 0.719742
1.030398 -0.040997 0.719763
1.030166 -0.040997 0.679234
1.029341 -0.040997 0.659561
1.028835 -0.040997 0.647707
0.052947 -0.040997 0.462711
0.052947 -0.040997 0.462711
0.052946 -0.040997 0.462712
0.052946 -0.040997 0.462715
0.052947 -0.040997 0.462728
0.053048 -0.040997 0.439639
0.053205 -0.040997 0.427269
1.454104 -0.040997 0.549330
-0.040997 0.503257 0.814389
-0.040997 0.503217 0.814376
-0.040997 0.503054 0.814325
-0.040997 0.502364 0.814107
-0.040997 0.499431 0.813176
-0.040997 0.599365 0.912493
1.132282 0.193031 0.882765
1.454196 -0.040997 0.548443
-0.040997 0.653796 0.843532
-0.040997 0.653788 0.843531
-0.040997 0.653757 0.843528
-0.040997 0.653628 0.843516
-0.040997 0.653084 0.843465
-0.040997 0.650774 0.843246
0.964541 0.939667 0.905023
1.073245 0.910564 0.883378
-0.040997 0.824539 0.834718
-0.040997 0.824537 0.834718
-0.040997 0.824527 0.834720
-0.040997 0.824484 0.834728
-0.040997 0.824307 0.834760
-0.040997 0.823561 0.834895
-0.040997 1.024655 0.865515
1.038655 0.985553 0.797049
-0.040997 -0.040997 0.592256
-0.040997 -0.040997 0.592256
-0.040997 -0.040997 0.592257
-0.040997 -0.040997 0.592258
-0.040997 -0.040997 0.592262
-0.040997 -0.040997 0.592278
0.923053 -0.040997 0.844604
1.426564 -0.040997 0.759781
-0.040997 -0.040997 0.592256
-0.040997 -0.040997 0.592256
-0.040997 -0.040997 0.592256
-0.040997 -0.040997 0.592257
-0.040997 -0.040997 0.592261
-0.040997 -0.040997 0.592278
-0.005672 -0.040997 0.550983
0.000503 -0.040997 0.535180
0.925429 -0.040997 0.904355
0.925429 -0.040997 0.904355
0.925429 -0.040997 0.904355
-0.040997 -0.040997 0.592255
-0.040997 -0.040997 0.592259
-0.040997 -0.040997 0.592276
-0.005672 -0.040997 0.550988
1.344176 -0.040997 0.847813
-0.040997 -0.040997 0.592245
-0.040997 -0.040997 0.592245
-0.040997 -0.040997 0.592245
-0.040997 -0.040997 0.592246
-0.040997 -0.040997 0.592250
-0.040997 -0.040997 0.592266
-0.005679 -0.040997 0.551013
0.000509 -0.040997 0.535173
-0.040997 -0.040997 0.592207
-0.040997 -0.040997 0.592207
-0.040997 -0.040997 0.592207
-0.040997 -0.040997 0.592208
-0.040997 -0.040997 0.592212
-0.040997 -0.040997 0.592228
-0.005704 -0.040997 0.551116
1.343632 -0.040997 0.847719
-0.040997 -0.040997 0.592047
-0.040997 -0.040997 0.592047
-0.040997 -0.040997 0.592047
-0.040997 -0.040997 0.592048
-0.040997 -0.040997 0.592052
-0.040997 -0.040997 0.592068
0.901393 -0.040997 0.843124
1.426607 -0.040997 0.759515
-0.040997 0.655218 0.973957
-0.040997 0.655208 0.973957
-0.040997 0.655166 0.973958
-0.040997 0.654991 0.973962
-0.040997 0.654256 0.973979
-0.040997 0.651114 0.974048
0.645283 0.911931 0.956365
1.127566 0.778002 0.961741
-0.040997 0.845912 0.963401
-0.040997 0.845910 0.963401
-0.040997 0.845901 0.963401
-0.040997 0.845861 0.963405
-0.040997 0.845695 0.963418
-0.040997 0.844999 0.963476
-0.040997 0.842035 0.963721
0.996622 0.973624 0.938313
