iif/luts/aceslg2_to_Rec709.cube
TITLE "Generated by Foundry::LUT"
LUT_3D_SIZE 5
DOMAIN_MIN 0.000000 0.000000 0.000000
DOMAIN_MAX 0.903226 0.903226 0.903226
0.000901 -0.000030 -0.001472
0.024765 0.006189 -0.000922
0.554679 -0.040997 -0.040997
0.987755 -0.040997 -0.040997
1.481060 -0.040997 -0.040997
0.001747 0.009329 0.000494
0.015691 0.009760 0.000471
0.552146 -0.040997 -0.040997
0.987869 -0.040997 -0.040997
1.481064 -0.040997 -0.040997
-0.040997 0.237664 -0.040997
-0.040997 0.236627 -0.040997
0.402276 0.308758 -0.040997
0.989141 -0.040997 -0.040997
1.481103 -0.040997 -0.040997
-0.040997 0.432842 -0.040997
-0.040997 0.432794 -0.040997
-0.040997 0.432192 -0.040997
1.088905 0.814957 -0.040997
1.481304 -0.040997 -0.040997
1.150734 1.017206 -0.040997
1.150734 1.017206 -0.040997
-0.040997 0.661271 -0.040997
-0.040997 0.661271 -0.040997
-0.040997 0.661271 -0.040997
-0.001345 0.001208 0.006311
0.016480 0.005439 0.006637
0.541294 -0.040997 -0.040997
0.978080 -0.040997 -0.040997
0.974276 -0.040997 0.017729
-0.000276 0.008550 0.007087
0.009539 0.008427 0.006694
0.538809 -0.040997 -0.040997
0.978185 -0.040997 -0.040997
1.480965 -0.040997 -0.040997
-0.040997 0.233443 -0.040997
-0.040997 0.232409 -0.040997
0.387927 0.296350 -0.040997
0.980152 -0.040997 -0.040997
1.481014 -0.040997 -0.040997
-0.040997 0.432814 -0.040997
-0.040997 0.432765 -0.040997
-0.040997 0.432164 -0.040997
1.088733 0.814874 -0.040997
1.481304 -0.040997 -0.040997
1.143304 1.016882 -0.040997
1.143304 1.016882 -0.040997
1.143304 1.016882 -0.040997
1.143304 1.016882 -0.040997
1.143304 1.016882 -0.040997
0.023949 -0.019240 0.182593
0.023945 -0.019268 0.182629
0.458410 -0.040997 0.215979
0.951826 -0.040997 0.187035
1.199747 -0.040997 0.224165
0.024111 -0.018180 0.181129
0.023988 -0.018989 0.182256
-0.005097 -0.002466 0.150569
0.951652 -0.040997 0.186504
1.478661 -0.040997 0.115057
-0.040997 0.242663 0.243315
-0.040997 0.241058 0.243108
0.235063 0.228490 0.218957
0.949473 -0.040997 0.178856
1.478770 -0.040997 0.108410
-0.040997 0.468918 0.090976
-0.040997 0.468892 0.091148
-0.040997 0.468570 0.093233
1.030700 0.813862 -0.040997
1.480008 -0.040997 -0.040997
1.151624 1.015930 -0.040997
1.151624 1.015930 -0.040997
1.151624 1.015930 -0.040997
1.151624 1.015930 -0.040997
1.151624 1.015930 -0.040997
0.059326 -0.040997 0.389411
0.059326 -0.040997 0.389412
0.059318 -0.040997 0.389434
0.914151 -0.040997 0.555017
1.464025 -0.040997 0.439429
0.059332 -0.040997 0.389394
0.059332 -0.040997 0.389396
0.059324 -0.040997 0.389417
0.913946 -0.040997 0.554998
0.913247 -0.040997 0.539651
-0.040997 -0.040997 0.432988
-0.040997 -0.040997 0.431084
0.040168 -0.040997 0.397241
0.911416 -0.040997 0.554771
1.464050 -0.040997 0.439117
-0.040997 0.553876 0.693801
-0.040997 0.553813 0.693793
-0.040997 0.553035 0.693685
0.855529 0.832531 0.801473
1.464319 -0.040997 0.435620
-0.040997 0.816029 0.614146
-0.040997 0.816022 0.614155
-0.040997 0.815930 0.614267
-0.040997 0.814801 0.615622
1.132353 1.012757 -0.040997
-0.040997 -0.040997 0.592256
-0.040997 -0.040997 0.592257
-0.040997 -0.040997 0.592259
-0.040997 -0.040997 0.592287
1.426564 -0.040997 0.759781
-0.040997 -0.040997 0.592255
-0.040997 -0.040997 0.592255
-0.040997 -0.040997 0.592257
-0.040997 -0.040997 0.592286
0.922785 -0.040997 0.817803
-0.040997 -0.040997 0.592232
-0.040997 -0.040997 0.592232
-0.040997 -0.040997 0.592235
-0.040997 -0.040997 0.592263
0.000517 -0.040997 0.535165
-0.040997 0.365032 0.946226
-0.040997 0.364339 0.946042
-0.040997 0.355497 0.943239
-0.040997 0.163065 0.871292
1.426626 -0.040997 0.759398
-0.040997 0.845912 0.963401
-0.040997 0.845904 0.963401
-0.040997 0.845807 0.963409
-0.040997 0.844604 0.963509
0.996622 0.973624 0.938313
