iif/luts/aceslg2_to_Rec709.cube
TITLE "Generated by Foundry::LUT"
LUT_3D_SIZE 32
0.000901 -0.000030 -0.001472
0.001170 0.000023 -0.001463
0.002230 0.000230 -0.001426
0.003767 0.000528 -0.001374
0.006069 0.001005 -0.001290
0.010042 0.001747 -0.001222
0.015308 0.002915 -0.001321
0.024765 0.006189 -0.000922
0.047515 0.007331 -0.001145
0.089558 0.006973 -0.002486
0.159481 0.003086 -0.010114
0.255920 -0.040997 -0.040997
0.354449 -0.040997 -0.040997
0.461875 -0.040997 -0.040997
0.554679 -0.040997 -0.040997
0.626456 -0.040997 -0.040997
0.683280 -0.040997 -0.040997
0.739278 -0.040997 -0.040997
0.793756 -0.040997 -0.040997
0.852502 -0.040997 -0.040997
0.916052 -0.040997 -0.040997
0.987755 -0.040997 -0.040997
1.065207 -0.040997 -0.040997
1.137962 -0.040997 -0.040997
1.223179 -0.040997 -0.040997
1.304687 -0.040997 -0.040997
1.387158 -0.040997 -0.040997
1.460445 -0.040997 -0.040997
1.481060 -0.040997 -0.040997
1.480940 -0.040997 -0.040997
1.480744 -0.040997 -0.040997
1.480554 -0.040997 -0.040997
0.000878 0.000022 -0.001462
0.001039 0.000021 -0.001462
0.002104 0.000205 -0.001431
0.003633 0.000501 -0.001379
0.005897 0.000968 -0.001297
0.009913 0.001724 -0.001222
0.015202 0.002890 -0.001313
0.024546 0.006143 -0.000933
0.047134 0.007327 -0.001158
0.089153 0.007023 -0.002453
0.159098 0.003112 -0.010029
0.255613 -0.040997 -0.040997
0.354207 -0.040997 -0.040997
0.461711 -0.040997 -0.040997
0.554591 -0.040997 -0.040997
0.626407 -0.040997 -0.040997
0.683259 -0.040997 -0.040997
0.739263 -0.040997 -0.040997
0.793749 -0.040997 -0.040997
0.852498 -0.040997 -0.040997
0.916053 -0.040997 -0.040997
0.987759 -0.040997 -0.040997
1.065216 -0.040997 -0.040997
1.137972 -0.040997 -0.040997
1.223187 -0.040997 -0.040997
1.304694 -0.040997 -0.040997
1.387161 -0.040997 -0.040997
1.460445 -0.040997 -0.040997
1.481060 -0.040997 -0.040997
1.480940 -0.040997 -0.040997
1.480744 -0.040997 -0.040997
1.480554 -0.040997 -0.040997
0.000731 0.000346 -0.001400
0.000746 0.000314 -0.001406
0.001778 0.000483 -0.001378
0.003324 0.000734 -0.001336
0.005575 0.001116 -0.001275
0.009657 0.001769 -0.001215
0.015050 0.002853 -0.001301
0.024232 0.006078 -0.000949
0.046588 0.007319 -0.001176
0.088641 0.007065 -0.002408
0.158551 0.003148 -0.009908
0.255175 -0.040997 -0.040997
0.353861 -0.040997 -0.040997
0.461467 -0.040997 -0.040997
0.554464 -0.040997 -0.040997
0.626337 -0.040997 -0.040997
0.683229 -0.040997 -0.040997
0.739241 -0.040997 -0.040997
0.793741 -0.040997 -0.040997
0.852493 -0.040997 -0.040997
0.916054 -0.040997 -0.040997
0.987765 -0.040997 -0.040997
1.065229 -0.040997 -0.040997
1.137987 -0.040997 -0.040997
1.223197 -0.040997 -0.040997
1.304705 -0.040997 -0.040997
1.387165 -0.040997 -0.040997
1.460445 -0.040997 -0.040997
1.481061 -0.040997 -0.040997
1.480941 -0.040997 -0.040997
1.480744 -0.040997 -0.040997
1.480554 -0.040997 -0.040997
0.000502 0.000836 -0.001307
0.000513 0.000813 -0.001312
0.001319 0.000940 -0.001293
0.002872 0.001192 -0.001253
0.005148 0.001573 -0.001196
0.009047 0.002175 -0.001167
0.014469 0.002970 -0.001276
0.023493 0.005921 -0.000986
0.045807 0.007306 -0.001203
0.087944 0.007107 -0.002346
0.157769 0.003198 -0.009737
0.254549 -0.040997 -0.040997
0.353367 -0.040997 -0.040997
0.461120 -0.040997 -0.040997
0.554284 -0.040997 -0.040997
0.626237 -0.040997 -0.040997
0.683182 -0.040997 -0.040997
0.739210 -0.040997 -0.040997
0.793729 -0.040997 -0.040997
0.852486 -0.040997 -0.040997
0.916056 -0.040997 -0.040997
0.987773 -0.040997 -0.040997
1.065247 -0.040997 -0.040997
1.138009 -0.040997 -0.040997
1.223212 -0.040997 -0.040997
1.304720 -0.040997 -0.040997
1.387170 -0.040997 -0.040997
1.460445 -0.040997 -0.040997
1.481061 -0.040997 -0.040997
1.480941 -0.040997 -0.040997
1.480744 -0.040997 -0.040997
1.480554 -0.040997 -0.040997
0.000285 0.001894 -0.001075
0.000281 0.001853 -0.001085
0.000719 0.001864 -0.001093
0.002285 0.002052 -0.001079
0.004512 0.002302 -0.001077
0.008210 0.002706 -0.001084
0.013497 0.003441 -0.001218
0.022039 0.005992 -0.000933
0.042588 0.007227 -0.001322
0.086443 0.007189 -0.002215
0.156652 0.003263 -0.009498
0.253654 -0.040997 -0.040997
0.352663 -0.040997 -0.040997
0.460623 -0.040997 -0.040997
0.554027 -0.040997 -0.040997
0.626095 -0.040997 -0.040997
0.683109 -0.040997 -0.040997
0.739166 -0.040997 -0.040997
0.793708 -0.040997 -0.040997
0.852475 -0.040997 -0.040997
0.916060 -0.040997 -0.040997
0.987786 -0.040997 -0.040997
1.065274 -0.040997 -0.040997
1.138040 -0.040997 -0.040997
1.223234 -0.040997 -0.040997
1.304742 -0.040997 -0.040997
1.387178 -0.040997 -0.040997
1.460445 -0.040997 -0.040997
1.481061 -0.040997 -0.040997
1.480941 -0.040997 -0.040997
1.480745 -0.040997 -0.040997
1.480555 -0.040997 -0.040997
0.000456 0.003473 -0.000751
0.000452 0.003435 -0.000757
0.000447 0.003379 -0.000766
0.001401 0.003372 -0.000821
0.003659 0.003559 -0.000843
0.007098 0.003876 -0.000881
0.012214 0.004381 -0.001105
0.020320 0.006417 -0.000757
0.038843 0.007861 -0.001066
0.080701 0.007530 -0.001756
0.151771 0.003479 -0.008505
0.252356 -0.040997 -0.040997
0.351650 -0.040997 -0.040997
0.459912 -0.040997 -0.040997
0.553654 -0.040997 -0.040997
0.625893 -0.040997 -0.040997
0.683007 -0.040997 -0.040997
0.739104 -0.040997 -0.040997
0.793669 -0.040997 -0.040997
0.852461 -0.040997 -0.040997
0.916064 -0.040997 -0.040997
0.987804 -0.040997 -0.040997
1.065312 -0.040997 -0.040997
1.138085 -0.040997 -0.040997
1.223265 -0.040997 -0.040997
1.304773 -0.040997 -0.040997
1.387190 -0.040997 -0.040997
1.460445 -0.040997 -0.040997
1.481062 -0.040997 -0.040997
1.480942 -0.040997 -0.040997
1.480746 -0.040997 -0.040997
1.480556 -0.040997 -0.040997
0.000392 0.005915 -0.000418
0.000406 0.005864 -0.000419
0.000426 0.005791 -0.000419
0.000485 0.005590 -0.000448
0.002225 0.005535 -0.000551
0.005429 0.005617 -0.000705
0.010325 0.006262 -0.000741
0.018358 0.007619 -0.000326
0.034954 0.009023 -0.000616
0.074324 0.009169 -0.001111
0.141256 0.004187 -0.006544
0.239823 -0.040997 -0.040997
0.350203 -0.040997 -0.040997
0.458892 -0.040997 -0.040997
0.553034 -0.040997 -0.040997
0.625607 -0.040997 -0.040997
0.682861 -0.040997 -0.040997
0.739017 -0.040997 -0.040997
0.793615 -0.040997 -0.040997
0.852442 -0.040997 -0.040997
0.916073 -0.040997 -0.040997
0.987830 -0.040997 -0.040997
1.065367 -0.040997 -0.040997
1.138148 -0.040997 -0.040997
1.223310 -0.040997 -0.040997
1.304817 -0.040997 -0.040997
1.387208 -0.040997 -0.040997
1.460445 -0.040997 -0.040997
1.481062 -0.040997 -0.040997
1.480943 -0.040997 -0.040997
1.480747 -0.040997 -0.040997
1.480557 -0.040997 -0.040997
0.001747 0.009329 0.000494
0.001703 0.009263 0.000468
0.001636 0.009164 0.000424
0.001539 0.009022 0.000362
0.001259 0.008618 0.000184
0.004378 0.008638 0.000204
0.008622 0.008892 0.000273
0.015691 0.009760 0.000471
0.030456 0.011135 0.000031
0.067096 0.012105 -0.000239
0.128454 0.009890 -0.004672
0.215572 -0.016426 -0.029908
0.332861 -0.040997 -0.040997
0.457431 -0.040997 -0.040997
0.552146 -0.040997 -0.040997
0.625205 -0.040997 -0.040997
0.682656 -0.040997 -0.040997
0.738897 -0.040997 -0.040997
0.793541 -0.040997 -0.040997
0.852416 -0.040997 -0.040997
0.916086 -0.040997 -0.040997
0.987869 -0.040997 -0.040997
1.065447 -0.040997 -0.040997
1.138241 -0.040997 -0.040997
1.223374 -0.040997 -0.040997
1.304882 -0.040997 -0.040997
1.387231 -0.040997 -0.040997
1.460445 -0.040997 -0.040997
1.481064 -0.040997 -0.040997
1.480944 -0.040997 -0.040997
1.480748 -0.040997 -0.040997
1.480558 -0.040997 -0.040997
0.001794 0.015987 0.002414
0.001781 0.015949 0.002399
0.001760 0.015893 0.002378
0.001732 0.015813 0.002347
0.001721 0.015596 0.002283
0.002013 0.014851 0.002163
0.005365 0.014686 0.002027
0.011486 0.014904 0.001797
0.025809 0.016094 0.001953
0.058838 0.017975 0.001109
0.110646 0.020357 -0.002681
0.191660 0.009121 -0.019588
0.305344 -0.040997 -0.040997
0.431560 -0.040997 -0.040997
0.550874 -0.040997 -0.040997
0.624478 -0.040997 -0.040997
0.682374 -0.040997 -0.040997
0.738720 -0.040997 -0.040997
0.793440 -0.040997 -0.040997
0.852385 -0.040997 -0.040997
0.916110 -0.040997 -0.040997
0.987924 -0.040997 -0.040997
1.065564 -0.040997 -0.040997
1.138375 -0.040997 -0.040997
1.223466 -0.040997 -0.040997
1.304966 -0.040997 -0.040997
1.387266 -0.040997 -0.040997
1.460445 -0.040997 -0.040997
1.481065 -0.040997 -0.040997
1.480946 -0.040997 -0.040997
1.480750 -0.040997 -0.040997
1.480560 -0.040997 -0.040997
-0.002180 0.029364 0.004017
-0.002094 0.029255 0.004019
-0.001973 0.029099 0.004022
-0.001799 0.028875 0.004026
-0.001541 0.028546 0.004032
-0.000620 0.027308 0.004046
0.000934 0.025268 0.004004
0.007060 0.025208 0.003796
0.019699 0.027126 0.003232
0.048550 0.029851 0.001417
0.094490 0.035807 -0.002260
0.166878 0.033368 -0.015802
0.274592 0.024396 -0.040997
0.397683 -0.040997 -0.040997
0.518759 -0.040997 -0.040997
0.623243 -0.040997 -0.040997
0.681918 -0.040997 -0.040997
0.738427 -0.040997 -0.040997
0.793309 -0.040997 -0.040997
0.852350 -0.040997 -0.040997
0.916116 -0.040997 -0.040997
0.987998 -0.040997 -0.040997
1.065738 -0.040997 -0.040997
1.138571 -0.040997 -0.040997
1.223600 -0.040997 -0.040997
1.305077 -0.040997 -0.040997
1.387316 -0.040997 -0.040997
1.460446 -0.040997 -0.040997
1.481068 -0.040997 -0.040997
1.480949 -0.040997 -0.040997
1.480753 -0.040997 -0.040997
1.480564 -0.040997 -0.040997
-0.040997 0.052952 0.003151
-0.040997 0.052843 0.003160
-0.040997 0.052686 0.003173
-0.040997 0.052458 0.003192
-0.040997 0.052132 0.003219
-0.040997 0.051665 0.003256
-0.040997 0.048977 0.003435
-0.024277 0.045762 0.003412
0.005798 0.046117 0.002759
0.039295 0.049502 0.001001
0.082579 0.053887 -0.003372
0.146550 0.060004 -0.019317
0.248630 0.061442 -0.040997
0.368422 0.035934 -0.040997
0.486430 -0.040997 -0.040997
0.593053 -0.040997 -0.040997
0.679227 -0.040997 -0.040997
0.738052 -0.040997 -0.040997
0.793154 -0.040997 -0.040997
0.852290 -0.040997 -0.040997
0.916094 -0.040997 -0.040997
0.988083 -0.040997 -0.040997
1.066000 -0.040997 -0.040997
1.138869 -0.040997 -0.040997
1.223793 -0.040997 -0.040997
1.305231 -0.040997 -0.040997
1.387388 -0.040997 -0.040997
1.460446 -0.040997 -0.040997
1.481071 -0.040997 -0.040997
1.480952 -0.040997 -0.040997
1.480758 -0.040997 -0.040997
1.480568 -0.040997 -0.040997
-0.040997 0.087891 -0.004630
-0.040997 0.087773 -0.004614
-0.040997 0.087603 -0.004593
-0.040997 0.087361 -0.004562
-0.040997 0.087015 -0.004519
-0.040997 0.086519 -0.004458
-0.040997 0.085818 -0.004371
-0.040997 0.081251 -0.003051
-0.040997 0.078155 -0.002722
0.008435 0.079498 -0.005659
0.066448 0.084585 -0.012857
0.130827 0.092631 -0.040997
0.226780 0.098116 -0.040997
0.341593 0.096922 -0.040997
0.466308 0.071105 -0.040997
0.573174 -0.040997 -0.040997
0.655603 -0.040997 -0.040997
0.732359 -0.040997 -0.040997
0.792858 -0.040997 -0.040997
0.852171 -0.040997 -0.040997
0.916100 -0.040997 -0.040997
0.988200 -0.040997 -0.040997
1.066402 -0.040997 -0.040997
1.139402 -0.040997 -0.040997
1.224059 -0.040997 -0.040997
1.305454 -0.040997 -0.040997
1.387494 -0.040997 -0.040997
1.460447 -0.040997 -0.040997
1.481075 -0.040997 -0.040997
1.480958 -0.040997 -0.040997
1.480764 -0.040997 -0.040997
1.480574 -0.040997 -0.040997
-0.040997 0.137236 -0.040997
-0.040997 0.137130 -0.040997
-0.040997 0.136978 -0.040997
-0.040997 0.136761 -0.040997
-0.040997 0.136452 -0.040997
-0.040997 0.136007 -0.040997
-0.040997 0.135372 -0.040997
-0.040997 0.134361 -0.033131
-0.040997 0.123768 -0.017323
-0.040997 0.121080 -0.020799
0.036845 0.126872 -0.040997
0.107056 0.136607 -0.040997
0.200471 0.149505 -0.040997
0.320241 0.156515 -0.040997
0.448531 0.147383 -0.040997
0.569764 0.112373 -0.040997
0.664628 -0.040997 -0.040997
0.720444 -0.040997 -0.040997
0.783815 -0.040997 -0.040997
0.852044 -0.040997 -0.040997
0.916191 -0.040997 -0.040997
0.988436 -0.040997 -0.040997
1.067043 -0.040997 -0.040997
1.140178 -0.040997 -0.040997
1.224464 -0.040997 -0.040997
1.305781 -0.040997 -0.040997
1.387646 -0.040997 -0.040997
1.460453 -0.040997 -0.040997
1.481082 -0.040997 -0.040997
1.480965 -0.040997 -0.040997
1.480773 -0.040997 -0.040997
1.480583 -0.040997 -0.040997
-0.040997 0.187888 -0.040997
-0.040997 0.187826 -0.040997
-0.040997 0.187737 -0.040997
-0.040997 0.187611 -0.040997
-0.040997 0.187431 -0.040997
-0.040997 0.187173 -0.040997
-0.040997 0.186804 -0.040997
-0.040997 0.186273 -0.040997
-0.040997 0.184629 -0.040997
-0.040997 0.170386 -0.040997
-0.040997 0.174925 -0.040997
0.067891 0.187858 -0.040997
0.171500 0.204322 -0.040997
0.294405 0.220104 -0.040997
0.434179 0.228584 -0.040997
0.563867 0.215678 -0.040997
0.682675 0.172336 -0.040997
0.753168 0.079465 -0.040997
0.783280 -0.040997 -0.040997
0.837374 -0.040997 -0.040997
0.916279 -0.040997 -0.040997
0.988667 -0.040997 -0.040997
1.067611 -0.040997 -0.040997
1.140819 -0.040997 -0.040997
1.225107 -0.040997 -0.040997
1.306269 -0.040997 -0.040997
1.387872 -0.040997 -0.040997
1.460464 -0.040997 -0.040997
1.481091 -0.040997 -0.040997
1.480976 -0.040997 -0.040997
1.480786 -0.040997 -0.040997
1.480596 -0.040997 -0.040997
-0.040997 0.237664 -0.040997
-0.040997 0.237625 -0.040997
-0.040997 0.237568 -0.040997
-0.040997 0.237487 -0.040997
-0.040997 0.237371 -0.040997
-0.040997 0.237204 -0.040997
-0.040997 0.236967 -0.040997
-0.040997 0.236627 -0.040997
-0.040997 0.236140 -0.040997
-0.040997 0.233506 -0.040997
-0.040997 0.222970 -0.040997
-0.040997 0.238117 -0.040997
0.108112 0.263179 -0.040997
0.256504 0.289379 -0.040997
0.402276 0.308758 -0.040997
0.560295 0.315749 -0.040997
0.696653 0.295542 -0.040997
0.781153 0.250488 -0.040997
0.828074 0.167461 -0.040997
0.852134 -0.040997 -0.040997
0.892740 -0.040997 -0.040997
0.989141 -0.040997 -0.040997
1.068269 -0.040997 -0.040997
1.141895 -0.040997 -0.040997
1.226099 -0.040997 -0.040997
1.307005 -0.040997 -0.040997
1.388213 -0.040997 -0.040997
1.460483 -0.040997 -0.040997
1.481103 -0.040997 -0.040997
1.480989 -0.040997 -0.040997
1.480803 -0.040997 -0.040997
1.480613 -0.040997 -0.040997
-0.040997 0.280860 -0.040997
-0.040997 0.280837 -0.040997
-0.040997 0.280803 -0.040997
-0.040997 0.280755 -0.040997
-0.040997 0.280686 -0.040997
-0.040997 0.280588 -0.040997
-0.040997 0.280447 -0.040997
-0.040997 0.280245 -0.040997
-0.040997 0.279956 -0.040997
-0.040997 0.279542 -0.040997
-0.040997 0.276107 -0.040997
-0.040997 0.275362 -0.040997
-0.040997 0.304215 -0.040997
0.186733 0.341988 -0.040997
0.354555 0.382334 -0.040997
0.529610 0.402478 -0.040997
0.685136 0.405705 -0.040997
0.809009 0.385906 -0.040997
0.884773 0.334513 -0.040997
0.920653 0.249653 -0.040997
0.937070 -0.040997 -0.040997
0.950613 -0.040997 -0.040997
1.069314 -0.040997 -0.040997
1.143528 -0.040997 -0.040997
1.227800 -0.040997 -0.040997
1.308144 -0.040997 -0.040997
1.388721 -0.040997 -0.040997
1.460514 -0.040997 -0.040997
1.481121 -0.040997 -0.040997
1.481006 -0.040997 -0.040997
1.480829 -0.040997 -0.040997
1.480638 -0.040997 -0.040997
-0.040997 0.313955 -0.040997
-0.040997 0.313942 -0.040997
-0.040997 0.313925 -0.040997
-0.040997 0.313900 -0.040997
-0.040997 0.313864 -0.040997
-0.040997 0.313813 -0.040997
-0.040997 0.313740 -0.040997
-0.040997 0.313635 -0.040997
-0.040997 0.313485 -0.040997
-0.040997 0.313270 -0.040997
-0.040997 0.312962 -0.040997
-0.040997 0.309014 -0.040997
-0.040997 0.325785 -0.040997
0.033016 0.374119 -0.040997
0.269706 0.429004 -0.040997
0.467268 0.475068 -0.040997
0.649989 0.503707 -0.040997
0.811630 0.504086 -0.040997
0.908584 0.482287 -0.040997
0.966706 0.439695 -0.040997
1.016485 0.347804 -0.040997
1.034259 0.151539 -0.040997
1.020662 -0.040997 -0.040997
1.145202 -0.040997 -0.040997
1.230174 -0.040997 -0.040997
1.309927 -0.040997 -0.040997
1.389552 -0.040997 -0.040997
1.460565 -0.040997 -0.040997
1.481145 -0.040997 -0.040997
1.481031 -0.040997 -0.040997
1.480865 -0.040997 -0.040997
1.480671 -0.040997 -0.040997
-0.040997 0.337866 -0.040997
-0.040997 0.337859 -0.040997
-0.040997 0.337850 -0.040997
-0.040997 0.337850 -0.040997
-0.040997 0.337850 -0.040997
-0.040997 0.337850 -0.040997
-0.040997 0.337850 -0.040997
-0.040997 0.337850 -0.040997
-0.040997 0.337850 -0.040997
-0.040997 0.337850 -0.040997
-0.040997 0.337850 -0.040997
-0.040997 0.337850 -0.040997
-0.040997 0.337850 -0.040997
-0.040997 0.337850 -0.040997
-0.040997 0.337850 -0.040997
-0.040997 0.337850 -0.040997
-0.040997 0.337850 -0.040997
-0.040997 0.337850 -0.040997
-0.040997 0.337850 -0.040997
-0.040997 0.337850 -0.040997
1.058225 0.520236 -0.040997
1.112306 0.446044 -0.040997
1.141269 0.248724 -0.040997
1.096673 -0.040997 -0.040997
1.233285 -0.040997 -0.040997
1.313163 -0.040997 -0.040997
1.391492 -0.040997 -0.040997
1.460645 -0.040997 -0.040997
1.481172 -0.040997 -0.040997
1.481069 -0.040997 -0.040997
1.480913 -0.040997 -0.040997
1.480715 -0.040997 -0.040997
-0.040997 0.358756 -0.040997
-0.040997 0.358751 -0.040997
-0.040997 0.358743 -0.040997
-0.040997 0.358733 -0.040997
-0.040997 0.358719 -0.040997
-0.040997 0.358698 -0.040997
-0.040997 0.358668 -0.040997
-0.040997 0.358625 -0.040997
-0.040997 0.358565 -0.040997
-0.040997 0.358477 -0.040997
-0.040997 0.358352 -0.040997
-0.040997 0.358174 -0.040997
-0.040997 0.357917 -0.040997
-0.040997 0.351437 -0.040997
-0.040997 0.424552 -0.040997
0.216096 0.514865 -0.040997
0.504898 0.588922 -0.040997
0.713885 0.640013 -0.040997
0.877898 0.660324 -0.040997
0.987558 0.661400 -0.040997
1.061011 0.646905 -0.040997
1.123474 0.617163 -0.040997
1.193371 0.546070 -0.040997
1.235277 0.371313 -0.040997
1.175904 -0.040997 -0.040997
1.318245 -0.040997 -0.040997
1.395245 -0.040997 -0.040997
1.460866 -0.040997 -0.040997
1.481207 -0.040997 -0.040997
1.481124 -0.040997 -0.040997
1.480978 -0.040997 -0.040997
1.480776 -0.040997 -0.040997
-0.040997 0.382864 -0.040997
-0.040997 0.382860 -0.040997
-0.040997 0.382855 -0.040997
-0.040997 0.382848 -0.040997
-0.040997 0.382837 -0.040997
-0.040997 0.382822 -0.040997
-0.040997 0.382799 -0.040997
-0.040997 0.382768 -0.040997
-0.040997 0.382723 -0.040997
-0.040997 0.382658 -0.040997
-0.040997 0.382566 -0.040997
-0.040997 0.382434 -0.040997
-0.040997 0.382244 -0.040997
-0.040997 0.381972 -0.040997
-0.040997 0.371741 -0.040997
-0.040997 0.476245 -0.040997
0.353029 0.581962 -0.040997
0.612868 0.661459 -0.040997
0.818456 0.698070 -0.040997
0.963863 0.712831 -0.040997
1.044612 0.713691 -0.040997
1.127090 0.707539 -0.040997
1.202752 0.687205 -0.040997
1.269924 0.634289 -0.040997
1.329622 0.467513 -0.040997
1.270882 -0.040997 -0.040997
1.403750 -0.040997 -0.040997
1.461438 -0.040997 -0.040997
1.481247 -0.040997 -0.040997
1.481185 -0.040997 -0.040997
1.481047 -0.040997 -0.040997
1.480858 -0.040997 -0.040997
-0.040997 0.407540 -0.040997
-0.040997 0.407537 -0.040997
-0.040997 0.407534 -0.040997
-0.040997 0.407529 -0.040997
-0.040997 0.407521 -0.040997
-0.040997 0.407510 -0.040997
-0.040997 0.407495 -0.040997
-0.040997 0.407473 -0.040997
-0.040997 0.407440 -0.040997
-0.040997 0.407391 -0.040997
-0.040997 0.407322 -0.040997
-0.040997 0.407224 -0.040997
-0.040997 0.407083 -0.040997
-0.040997 0.406880 -0.040997
-0.040997 0.406590 -0.040997
-0.040997 0.400051 -0.040997
-0.040997 0.541205 -0.040997
0.459192 0.658816 -0.040997
0.737060 0.720747 -0.040997
0.918228 0.751572 -0.040997
1.017949 0.761695 -0.040997
1.112259 0.765921 -0.040997
1.186722 0.763679 -0.040997
1.249292 0.750011 -0.040997
1.288164 0.718207 -0.040997
1.338499 0.584601 -0.040997
1.363270 -0.040997 -0.040997
1.464018 -0.040997 -0.040997
1.481285 -0.040997 -0.040997
1.481245 -0.040997 -0.040997
1.481135 -0.040997 -0.040997
1.480964 -0.040997 -0.040997
-0.040997 0.432842 -0.040997
-0.040997 0.432841 -0.040997
-0.040997 0.432838 -0.040997
-0.040997 0.432834 -0.040997
-0.040997 0.432829 -0.040997
-0.040997 0.432821 -0.040997
-0.040997 0.432810 -0.040997
-0.040997 0.432794 -0.040997
-0.040997 0.432770 -0.040997
-0.040997 0.432738 -0.040997
-0.040997 0.432691 -0.040997
-0.040997 0.432624 -0.040997
-0.040997 0.432527 -0.040997
-0.040997 0.432390 -0.040997
-0.040997 0.432192 -0.040997
-0.040997 0.431909 -0.040997
-0.040997 0.435797 -0.040997
0.166194 0.614497 -0.040997
0.596839 0.726849 -0.040997
0.846401 0.781744 -0.040997
0.990070 0.805205 -0.040997
1.088905 0.814957 -0.040997
1.162004 0.817560 -0.040997
1.222122 0.816413 -0.040997
1.248077 0.817561 -0.040997
1.262786 0.807191 -0.040997
1.300891 0.734072 -0.040997
1.434674 -0.040997 -0.040997
1.481304 -0.040997 -0.040997
1.481291 -0.040997 -0.040997
1.481227 -0.040997 -0.040997
1.481098 -0.040997 -0.040997
-0.040997 0.459143 -0.040997
-0.040997 0.459141 -0.040997
-0.040997 0.459139 -0.040997
-0.040997 0.459137 -0.040997
-0.040997 0.459133 -0.040997
-0.040997 0.459127 -0.040997
-0.040997 0.459119 -0.040997
-0.040997 0.459119 -0.040997
-0.040997 0.459119 -0.040997
-0.040997 0.459119 -0.040997
-0.040997 0.459119 -0.040997
-0.040997 0.459119 -0.040997
-0.040997 0.459119 -0.040997
-0.040997 0.459119 -0.040997
-0.040997 0.459119 -0.040997
-0.040997 0.459119 -0.040997
-0.040997 0.459119 -0.040997
-0.040997 0.459119 -0.040997
-0.040997 0.459119 -0.040997
-0.040997 0.459119 -0.040997
-0.040997 0.459119 -0.040997
-0.040997 0.459119 -0.040997
-0.040997 0.459119 -0.040997
-0.040997 0.459119 -0.040997
1.217164 0.879708 -0.040997
1.217158 0.900039 -0.040997
1.203789 0.934592 -0.040997
1.251068 0.847125 -0.040997
1.474385 -0.040997 -0.040997
1.481304 -0.040997 -0.040997
1.481299 -0.040997 -0.040997
1.481233 -0.040997 -0.040997
-0.040997 0.485141 -0.040997
-0.040997 0.485140 -0.040997
-0.040997 0.485139 -0.040997
-0.040997 0.485137 -0.040997
-0.040997 0.485134 -0.040997
-0.040997 0.485130 -0.040997
-0.040997 0.485124 -0.040997
-0.040997 0.485116 -0.040997
-0.040997 0.485105 -0.040997
-0.040997 0.485088 -0.040997
-0.040997 0.485065 -0.040997
-0.040997 0.485031 -0.040997
-0.040997 0.484983 -0.040997
-0.040997 0.484915 -0.040997
-0.040997 0.484816 -0.040997
-0.040997 0.484675 -0.040997
-0.040997 0.484474 -0.040997
-0.040997 0.484184 -0.040997
-0.040997 0.525691 -0.040997
0.437638 0.779562 -0.040997
0.835169 0.869549 -0.040997
1.011511 0.900361 -0.040997
1.105804 0.914760 -0.040997
1.164467 0.926139 -0.040997
1.180255 0.944148 -0.040997
1.164187 0.993928 -0.040997
1.169909 0.988929 -0.040997
1.178887 0.975104 -0.040997
1.225109 0.897053 -0.040997
1.481304 -0.040997 -0.040997
1.481304 -0.040997 -0.040997
1.481304 -0.040997 -0.040997
-0.040997 0.515929 -0.040997
-0.040997 0.515928 -0.040997
-0.040997 0.515927 -0.040997
-0.040997 0.515926 -0.040997
-0.040997 0.515923 -0.040997
-0.040997 0.515920 -0.040997
-0.040997 0.515915 -0.040997
-0.040997 0.515908 -0.040997
-0.040997 0.515897 -0.040997
-0.040997 0.515883 -0.040997
-0.040997 0.515862 -0.040997
-0.040997 0.515832 -0.040997
-0.040997 0.515790 -0.040997
-0.040997 0.515729 -0.040997
-0.040997 0.515642 -0.040997
-0.040997 0.515518 -0.040997
-0.040997 0.515339 -0.040997
-0.040997 0.515084 -0.040997
-0.040997 0.514717 -0.040997
-0.040997 0.584420 -0.040997
0.555580 0.859877 -0.040997
0.923307 0.938931 -0.040997
1.068153 0.956266 -0.040997
1.133734 0.973237 -0.040997
1.146341 1.001125 -0.040997
1.154490 1.006291 -0.040997
1.158559 1.005865 -0.040997
1.159329 1.004734 -0.040997
1.163460 0.998624 -0.040997
1.203514 0.935057 -0.040997
1.481304 -0.040997 -0.040997
1.481304 -0.040997 -0.040997
-0.040997 0.549743 -0.040997
-0.040997 0.549742 -0.040997
-0.040997 0.549741 -0.040997
-0.040997 0.549740 -0.040997
-0.040997 0.549738 -0.040997
-0.040997 0.549735 -0.040997
-0.040997 0.549732 -0.040997
-0.040997 0.549727 -0.040997
-0.040997 0.549720 -0.040997
-0.040997 0.549709 -0.040997
-0.040997 0.549694 -0.040997
-0.040997 0.549673 -0.040997
-0.040997 0.549642 -0.040997
-0.040997 0.549598 -0.040997
-0.040997 0.549536 -0.040997
-0.040997 0.549446 -0.040997
-0.040997 0.549317 -0.040997
-0.040997 0.549134 -0.040997
-0.040997 0.548870 -0.040997
-0.040997 0.548492 -0.040997
-0.040997 0.548492 -0.040997
-0.040997 0.548492 -0.040997
-0.040997 0.548492 -0.040997
-0.040997 0.548492 -0.040997
-0.040997 0.548492 -0.040997
-0.040997 0.548492 -0.040997
-0.040997 0.548492 -0.040997
-0.040997 0.548492 -0.040997
-0.040997 0.548492 -0.040997
-0.040997 0.548492 -0.040997
-0.040997 0.548492 -0.040997
-0.040997 0.548492 -0.040997
-0.040997 0.548492 -0.040997
-0.040997 0.548492 -0.040997
