iif/luts/aceslg2_to_adx10.cube
TITLE "Generated by Foundry::LUT"
LUT_3D_SIZE 32
0.000978 0.000978 0.000978
0.003910 0.000000 0.000978
0.009775 0.000000 0.000978
0.021505 0.000000 0.000000
0.040078 0.000000 0.000000
0.070381 0.000000 0.000000
0.115347 0.000000 0.000000
0.166178 0.000000 0.000000
0.216031 0.000000 0.000000
0.264907 0.000000 0.000000
0.314761 0.000000 0.000000
0.363636 0.000000 0.000000
0.412512 0.000000 0.000000
0.461388 0.000000 0.000000
0.510264 0.000000 0.000000
0.558162 0.000000 0.000000
0.607038 0.000000 0.000000
0.655914 0.000000 0.000978
0.703812 0.000000 0.000978
0.752688 0.000000 0.000978
0.801564 0.000000 0.000978
0.849462 0.000000 0.000978
0.898338 0.000000 0.000978
0.947214 0.000000 0.000978
0.995112 0.000000 0.000978
1.043988 0.000000 0.000978
1.092864 0.000000 0.000978
1.140762 0.000000 0.000978
1.189638 0.000000 0.000978
1.237537 0.000000 0.000978
1.286412 0.000000 0.000978
1.335288 0.000000 0.000978
0.000000 0.002933 0.000978
0.001955 0.001955 0.000978
0.007820 0.000978 0.000000
0.018573 0.000000 0.000000
0.038123 0.000000 0.000000
0.067449 0.000000 0.000000
0.112414 0.000000 0.000000
0.164223 0.000000 0.000000
0.215054 0.000000 0.000000
0.264907 0.000000 0.000000
0.313783 0.000000 0.000000
0.363636 0.000000 0.000000
0.412512 0.000000 0.000000
0.461388 0.000000 0.000000
0.509286 0.000000 0.000000
0.558162 0.000000 0.000000
0.607038 0.000000 0.000000
0.655914 0.000000 0.000978
0.703812 0.000000 0.000978
0.752688 0.000000 0.000978
0.801564 0.000000 0.000978
0.849462 0.000000 0.000978
0.898338 0.000000 0.000978
0.947214 0.000000 0.000978
0.995112 0.000000 0.000978
1.043988 0.000000 0.000978
1.092864 0.000000 0.000978
1.140762 0.000000 0.000978
1.189638 0.000000 0.000978
1.237537 0.000000 0.000978
1.286412 0.000000 0.000978
1.335288 0.000000 0.000978
0.000000 0.006843 0.000000
0.000978 0.005865 0.000000
0.005865 0.004888 0.000000
0.015640 0.002933 0.000000
0.034213 0.000978 0.000000
0.064516 0.000000 0.000000
0.108504 0.000000 0.000000
0.161290 0.000000 0.000000
0.213099 0.000000 0.000000
0.262952 0.000000 0.000000
0.312805 0.000000 0.000000
0.362659 0.000000 0.000000
0.411535 0.000000 0.000000
0.460411 0.000000 0.000000
0.509286 0.000000 0.000000
0.558162 0.000000 0.000000
0.607038 0.000000 0.000000
0.655914 0.000000 0.000978
0.703812 0.000000 0.000978
0.752688 0.000000 0.000978
0.801564 0.000000 0.000978
0.849462 0.000000 0.000978
0.898338 0.000000 0.000978
0.947214 0.000000 0.000978
0.995112 0.000000 0.000978
1.043988 0.000000 0.000978
1.092864 0.000000 0.000978
1.140762 0.000000 0.000978
1.189638 0.000000 0.000978
1.237537 0.000000 0.000978
1.286412 0.000000 0.000978
1.335288 0.000000 0.000978
0.000000 0.014663 0.000000
0.000000 0.013685 0.000000
0.001955 0.012708 0.000000
0.011730 0.010753 0.000000
0.029326 0.007820 0.000000
0.058651 0.002933 0.000000
0.103617 0.000000 0.000000
0.158358 0.000000 0.000000
0.210166 0.000000 0.000000
0.261975 0.000000 0.000000
0.311828 0.000000 0.000000
0.361681 0.000000 0.000000
0.411535 0.000000 0.000000
0.460411 0.000000 0.000000
0.509286 0.000000 0.000000
0.558162 0.000000 0.000000
0.607038 0.000000 0.000000
0.655914 0.000000 0.000978
0.703812 0.000000 0.000978
0.752688 0.000000 0.000978
0.801564 0.000000 0.000978
0.849462 0.000000 0.000978
0.898338 0.000000 0.000978
0.947214 0.000000 0.000978
0.995112 0.000000 0.000978
1.043988 0.000000 0.000978
1.092864 0.000000 0.000978
1.140762 0.000000 0.000978
1.189638 0.000000 0.000978
1.237537 0.000000 0.000978
1.286412 0.000000 0.000978
1.335288 0.000000 0.000978
0.000000 0.027370 0.000000
0.000000 0.026393 0.000000
0.000000 0.025415 0.000000
0.005865 0.023460 0.000000
0.021505 0.019550 0.000000
0.050831 0.014663 0.000000
0.094819 0.007820 0.000000
0.152493 0.000000 0.000000
0.206256 0.000000 0.000000
0.259042 0.000000 0.000000
0.309873 0.000000 0.000000
0.360704 0.000000 0.000000
0.410557 0.000000 0.000000
0.459433 0.000000 0.000000
0.509286 0.000000 0.000000
0.558162 0.000000 0.000000
0.607038 0.000000 0.000000
0.654936 0.000000 0.000978
0.703812 0.000000 0.000978
0.752688 0.000000 0.000978
0.801564 0.000000 0.000978
0.849462 0.000000 0.000978
0.898338 0.000000 0.000978
0.947214 0.000000 0.000978
0.995112 0.000000 0.000978
1.043988 0.000000 0.000978
1.092864 0.000000 0.000978
1.140762 0.000000 0.000978
1.189638 0.000000 0.000978
1.237537 0.000000 0.000978
1.286412 0.000000 0.000978
1.335288 0.000000 0.000978
0.000000 0.048876 0.000000
0.000000 0.047898 0.000000
0.000000 0.045943 0.000000
0.000000 0.043988 0.000000
0.011730 0.041056 0.000000
0.011730 0.041056 0.000000
0.011730 0.041056 0.000000
0.011730 0.041056 0.000000
0.011730 0.041056 0.000000
0.011730 0.041056 0.000000
0.011730 0.041056 0.000000
0.011730 0.041056 0.000000
0.011730 0.041056 0.000000
0.011730 0.041056 0.000000
0.011730 0.041056 0.000000
0.011730 0.041056 0.000000
0.011730 0.041056 0.000000
0.011730 0.041056 0.000000
0.011730 0.041056 0.000000
0.011730 0.041056 0.000000
0.011730 0.041056 0.000000
0.011730 0.041056 0.000000
0.898338 0.000000 0.000978
0.898338 0.000000 0.000978
0.898338 0.000000 0.000978
0.898338 0.000000 0.000978
0.898338 0.000000 0.000978
0.898338 0.000000 0.000978
0.898338 0.000000 0.000978
0.898338 0.000000 0.000978
0.898338 0.000000 0.000978
0.898338 0.000000 0.000978
0.898338 0.000000 0.000978
0.898338 0.000000 0.000978
0.898338 0.000000 0.000978
0.898338 0.000000 0.000978
0.898338 0.000000 0.000978
0.898338 0.000000 0.000978
0.898338 0.000000 0.000978
0.898338 0.000000 0.000978
0.128055 0.047898 0.000000
0.128055 0.047898 0.000000
0.128055 0.047898 0.000000
0.128055 0.047898 0.000000
0.128055 0.047898 0.000000
0.128055 0.047898 0.000000
0.128055 0.047898 0.000000
0.128055 0.047898 0.000000
0.128055 0.047898 0.000000
0.128055 0.047898 0.000000
0.128055 0.047898 0.000000
0.128055 0.047898 0.000000
0.128055 0.047898 0.000000
0.128055 0.047898 0.000000
0.128055 0.047898 0.000000
0.128055 0.047898 0.000000
0.128055 0.047898 0.000000
0.128055 0.047898 0.000000
0.128055 0.047898 0.000000
0.128055 0.047898 0.000000
0.128055 0.047898 0.000000
0.128055 0.047898 0.000000
0.128055 0.047898 0.000000
0.128055 0.047898 0.000000
0.128055 0.047898 0.000000
0.128055 0.047898 0.000000
0.128055 0.047898 0.000000
0.128055 0.047898 0.000000
0.128055 0.047898 0.000000
0.128055 0.047898 0.000000
0.128055 0.047898 0.000000
0.128055 0.047898 0.000000
0.128055 0.047898 0.000000
0.128055 0.047898 0.000000
0.128055 0.047898 0.000000
0.128055 0.047898 0.000000
0.128055 0.047898 0.000000
0.128055 0.047898 0.000000
0.128055 0.047898 0.000000
0.128055 0.047898 0.000000
0.128055 0.047898 0.000000
0.128055 0.047898 0.000000
0.128055 0.047898 0.000000
0.128055 0.047898 0.000000
0.128055 0.047898 0.000000
0.128055 0.047898 0.000000
0.128055 0.047898 0.000000
0.128055 0.047898 0.000000
0.128055 0.047898 0.000000
0.128055 0.047898 0.000000
0.128055 0.047898 0.000000
0.128055 0.047898 0.000000
0.128055 0.047898 0.000000
0.128055 0.047898 0.000000
0.128055 0.047898 0.000000
0.128055 0.047898 0.000000
0.128055 0.047898 0.000000
0.128055 0.047898 0.000000
0.128055 0.047898 0.000000
0.128055 0.047898 0.000000
0.128055 0.047898 0.000000
0.128055 0.047898 0.000000
0.128055 0.047898 0.000000
0.128055 0.047898 0.000000
0.128055 0.047898 0.000000
0.128055 0.047898 0.000000
0.128055 0.047898 0.000000
0.128055 0.047898 0.000000
0.128055 0.047898 0.000000
0.128055 0.047898 0.000000
0.128055 0.047898 0.000000
0.128055 0.047898 0.000000
0.128055 0.047898 0.000000
0.653959 0.000000 0.000978
0.653959 0.000000 0.000978
0.653959 0.000000 0.000978
0.653959 0.000000 0.000978
0.653959 0.000000 0.000978
0.653959 0.000000 0.000978
0.653959 0.000000 0.000978
0.653959 0.000000 0.000978
0.653959 0.000000 0.000978
0.653959 0.000000 0.000978
0.653959 0.000000 0.000978
0.653959 0.000000 0.000978
0.653959 0.000000 0.000978
0.653959 0.000000 0.000978
0.653959 0.000000 0.000978
0.653959 0.000000 0.000978
0.653959 0.000000 0.000978
0.653959 0.000000 0.000978
0.653959 0.000000 0.000978
0.653959 0.000000 0.000978
0.653959 0.000000 0.000978
0.653959 0.000000 0.000978
0.653959 0.000000 0.000978
0.653959 0.000000 0.000978
0.653959 0.000000 0.000978
0.653959 0.000000 0.000978
0.653959 0.000000 0.000978
0.653959 0.000000 0.000978
0.653959 0.000000 0.000978
0.653959 0.000000 0.000978
0.653959 0.000000 0.000978
0.653959 0.000000 0.000978
0.653959 0.000000 0.000978
0.653959 0.000000 0.000978
0.653959 0.000000 0.000978
0.653959 0.000000 0.000978
0.653959 0.000000 0.000978
0.653959 0.000000 0.000978
0.653959 0.000000 0.000978
0.653959 0.000000 0.000978
0.653959 0.000000 0.000978
0.653959 0.000000 0.000978
0.653959 0.000000 0.000978
0.653959 0.000000 0.000978
0.653959 0.000000 0.000978
0.653959 0.000000 0.000978
0.653959 0.000000 0.000978
0.653959 0.000000 0.000978
0.653959 0.000000 0.000978
0.653959 0.000000 0.000978
0.653959 0.000000 0.000978
0.653959 0.000000 0.000978
0.653959 0.000000 0.000978
0.653959 0.000000 0.000978
0.653959 0.000000 0.000978
0.653959 0.000000 0.000978
0.653959 0.000000 0.000978
0.653959 0.000000 0.000978
0.653959 0.000000 0.000978
0.653959 0.000000 0.000978
0.653959 0.000000 0.000978
0.653959 0.000000 0.000978
0.653959 0.000000 0.000978
0.653959 0.000000 0.000978
0.653959 0.000000 0.000978
0.653959 0.000000 0.000978
0.653959 0.000000 0.000978
0.653959 0.000000 0.000978
0.653959 0.000000 0.000978
0.653959 0.000000 0.000978
0.653959 0.000000 0.000978
0.653959 0.000000 0.000978
0.653959 0.000000 0.000978
1.091887 0.000000 0.000978
1.091887 0.000000 0.000978
1.091887 0.000000 0.000978
1.091887 0.000000 0.000978
1.091887 0.000000 0.000978
1.091887 0.000000 0.000978
1.091887 0.000000 0.000978
1.091887 0.000000 0.000978
1.091887 0.000000 0.000978
1.091887 0.000000 0.000978
1.091887 0.000000 0.000978
1.091887 0.000000 0.000978
1.091887 0.000000 0.000978
1.091887 0.000000 0.000978
1.091887 0.000000 0.000978
1.091887 0.000000 0.000978
1.091887 0.000000 0.000978
1.091887 0.000000 0.000978
0.356794 0.252199 0.000000
0.356794 0.252199 0.000000
0.356794 0.252199 0.000000
0.356794 0.252199 0.000000
0.356794 0.252199 0.000000
0.356794 0.252199 0.000000
0.356794 0.252199 0.000000
0.356794 0.252199 0.000000
0.356794 0.252199 0.000000
0.356794 0.252199 0.000000
0.356794 0.252199 0.000000
0.356794 0.252199 0.000000
0.356794 0.252199 0.000000
0.356794 0.252199 0.000000
0.356794 0.252199 0.000000
0.356794 0.252199 0.000000
0.356794 0.252199 0.000000
0.356794 0.252199 0.000000
1.237537 0.000000 0.000978
1.237537 0.000000 0.000978
1.237537 0.000000 0.000978
1.237537 0.000000 0.000978
1.237537 0.000000 0.000978
1.237537 0.000000 0.000978
1.237537 0.000000 0.000978
1.237537 0.000000 0.000978
1.237537 0.000000 0.000978
1.237537 0.000000 0.000978
1.237537 0.000000 0.000978
1.237537 0.000000 0.000978
1.237537 0.000000 0.000978
1.237537 0.000000 0.000978
1.237537 0.000000 0.000978
1.237537 0.000000 0.000978
1.237537 0.000000 0.000978
1.237537 0.000000 0.000978
1.237537 0.000000 0.000978
1.237537 0.000000 0.000978
1.237537 0.000000 0.000978
1.237537 0.000000 0.000978
1.237537 0.000000 0.000978
1.237537 0.000000 0.000978
1.237537 0.000000 0.000978
1.237537 0.000000 0.000978
1.237537 0.000000 0.000978
1.237537 0.000000 0.000978
1.237537 0.000000 0.000978
1.237537 0.000000 0.000978
1.237537 0.000000 0.000978
1.237537 0.000000 0.000978
1.237537 0.000000 0.000978
1.237537 0.000000 0.000978
1.237537 0.000000 0.000978
1.237537 0.000000 0.000978
1.237537 0.000000 0.000978
1.237537 0.000000 0.000978
1.237537 0.000000 0.000978
1.237537 0.000000 0.000978
1.237537 0.000000 0.000978
1.237537 0.000000 0.000978
1.237537 0.000000 0.000978
1.237537 0.000000 0.000978
1.237537 0.000000 0.000978
1.237537 0.000000 0.000978
1.237537 0.000000 0.000978
1.237537 0.000000 0.000978
1.237537 0.000000 0.000978
1.237537 0.000000 0.000978
1.237537 0.000000 0.000978
1.237537 0.000000 0.000978
1.237537 0.000000 0.000978
1.237537 0.000000 0.000978
1.237537 0.000000 0.000978
1.237537 0.000000 0.000978
1.237537 0.000000 0.000978
1.237537 0.000000 0.000978
1.237537 0.000000 0.000978
1.237537 0.000000 0.000978
1.237537 0.000000 0.000978
1.237537 0.000000 0.000978
1.237537 0.000000 0.000978
1.237537 0.000000 0.000978
1.237537 0.000000 0.000978
1.237537 0.000000 0.000978
1.237537 0.000000 0.000978
1.237537 0.000000 0.000978
1.237537 0.000000 0.000978
1.237537 0.000000 0.000978
1.237537 0.000000 0.000978
1.237537 0.000000 0.000978
1.237537 0.000000 0.000978
0.000000 0.446725 0.000000
0.000000 0.446725 0.000000
0.000000 0.446725 0.000000
0.000000 0.446725 0.000000
0.000000 0.446725 0.000000
0.000000 0.446725 0.000000
0.000000 0.446725 0.000000
0.000000 0.446725 0.000000
0.000000 0.446725 0.000000
0.000000 0.446725 0.000000
0.000000 0.446725 0.000000
0.000000 0.446725 0.000000
0.000000 0.446725 0.000000
0.000000 0.446725 0.000000
0.000000 0.446725 0.000000
0.000000 0.446725 0.000000
0.000000 0.446725 0.000000
0.000000 0.446725 0.000000
0.000000 0.446725 0.000000
0.000000 0.446725 0.000000
0.000000 0.446725 0.000000
0.000000 0.446725 0.000000
0.000000 0.446725 0.000000
0.000000 0.446725 0.000000
0.000000 0.446725 0.000000
0.000000 0.446725 0.000000
0.000000 0.446725 0.000000
0.000000 0.446725 0.000000
0.000000 0.446725 0.000000
0.000000 0.446725 0.000000
0.000000 0.446725 0.000000
0.000000 0.446725 0.000000
0.000000 0.446725 0.000000
0.000000 0.446725 0.000000
0.000000 0.446725 0.000000
0.000000 0.446725 0.000000
0.000000 0.446725 0.000000
0.000000 0.446725 0.000000
0.000000 0.446725 0.000000
0.000000 0.446725 0.000000
0.000000 0.446725 0.000000
0.000000 0.446725 0.000000
0.000000 0.446725 0.000000
0.000000 0.446725 0.000000
0.000000 0.446725 0.000000
0.000000 0.446725 0.000000
0.000000 0.446725 0.000000
0.000000 0.446725 0.000000
0.000000 0.446725 0.000000
0.000000 0.446725 0.000000
0.000000 0.446725 0.000000
0.000000 0.446725 0.000000
0.000000 0.446725 0.000000
0.000000 0.446725 0.000000
0.000000 0.446725 0.000000
0.000000 0.446725 0.000000
0.000000 0.446725 0.000000
0.000000 0.446725 0.000000
0.000000 0.446725 0.000000
0.000000 0.446725 0.000000
0.000000 0.446725 0.000000
0.000000 0.446725 0.000000
0.000000 0.446725 0.000000
0.000000 0.446725 0.000000
0.000000 0.446725 0.000000
0.000000 0.446725 0.000000
0.000000 0.446725 0.000000
0.000000 0.446725 0.000000
0.000000 0.446725 0.000000
0.000000 0.446725 0.000000
0.000000 0.446725 0.000000
0.000000 0.446725 0.000000
0.000000 0.446725 0.000000
0.514174 0.485826 0.000000
0.514174 0.485826 0.000000
0.514174 0.485826 0.000000
0.514174 0.485826 0.000000
0.514174 0.485826 0.000000
0.514174 0.485826 0.000000
0.514174 0.485826 0.000000
0.514174 0.485826 0.000000
0.514174 0.485826 0.000000
0.514174 0.485826 0.000000
0.514174 0.485826 0.000000
0.514174 0.485826 0.000000
0.514174 0.485826 0.000000
0.514174 0.485826 0.000000
0.514174 0.485826 0.000000
0.514174 0.485826 0.000000
0.514174 0.485826 0.000000
0.514174 0.485826 0.000000
0.000000 0.585533 0.000000
0.000000 0.585533 0.000000
0.000000 0.585533 0.000000
0.000000 0.585533 0.000000
0.000000 0.585533 0.000000
0.000000 0.585533 0.000000
0.000000 0.585533 0.000000
0.000000 0.585533 0.000000
0.000000 0.585533 0.000000
0.000000 0.585533 0.000000
0.000000 0.585533 0.000000
0.000000 0.585533 0.000000
0.000000 0.585533 0.000000
0.000000 0.585533 0.000000
0.000000 0.585533 0.000000
0.000000 0.585533 0.000000
0.000000 0.585533 0.000000
0.000000 0.585533 0.000000
0.691105 0.487781 0.000000
0.691105 0.487781 0.000000
0.691105 0.487781 0.000000
0.691105 0.487781 0.000000
0.691105 0.487781 0.000000
0.691105 0.487781 0.000000
0.691105 0.487781 0.000000
0.691105 0.487781 0.000000
0.691105 0.487781 0.000000
0.691105 0.487781 0.000000
0.691105 0.487781 0.000000
0.691105 0.487781 0.000000
0.691105 0.487781 0.000000
0.691105 0.487781 0.000000
0.691105 0.487781 0.000000
0.691105 0.487781 0.000000
0.691105 0.487781 0.000000
0.691105 0.487781 0.000000
0.691105 0.487781 0.000000
0.691105 0.487781 0.000000
0.691105 0.487781 0.000000
0.691105 0.487781 0.000000
0.691105 0.487781 0.000000
0.691105 0.487781 0.000000
0.691105 0.487781 0.000000
0.691105 0.487781 0.000000
0.691105 0.487781 0.000000
0.691105 0.487781 0.000000
0.691105 0.487781 0.000000
0.691105 0.487781 0.000000
0.691105 0.487781 0.000000
0.691105 0.487781 0.000000
0.691105 0.487781 0.000000
0.691105 0.487781 0.000000
0.691105 0.487781 0.000000
0.691105 0.487781 0.000000
0.691105 0.487781 0.000000
0.691105 0.487781 0.000000
0.691105 0.487781 0.000000
0.691105 0.487781 0.000000
0.691105 0.487781 0.000000
0.691105 0.487781 0.000000
0.691105 0.487781 0.000000
0.691105 0.487781 0.000000
0.691105 0.487781 0.000000
0.691105 0.487781 0.000000
0.691105 0.487781 0.000000
0.691105 0.487781 0.000000
0.691105 0.487781 0.000000
0.691105 0.487781 0.000000
0.691105 0.487781 0.000000
0.691105 0.487781 0.000000
0.691105 0.487781 0.000000
0.691105 0.487781 0.000000
0.691105 0.487781 0.000000
0.691105 0.487781 0.000000
0.691105 0.487781 0.000000
0.691105 0.487781 0.000000
0.691105 0.487781 0.000000
0.691105 0.487781 0.000000
0.691105 0.487781 0.000000
0.691105 0.487781 0.000000
0.691105 0.487781 0.000000
0.691105 0.487781 0.000000
0.691105 0.487781 0.000000
0.691105 0.487781 0.000000
0.691105 0.487781 0.000000
0.691105 0.487781 0.000000
0.691105 0.487781 0.000000
0.691105 0.487781 0.000000
0.691105 0.487781 0.000000
0.691105 0.487781 0.000000
0.691105 0.487781 0.000000
1.236559 0.000000 0.000978
1.236559 0.000000 0.000978
1.236559 0.000000 0.000978
1.236559 0.000000 0.000978
1.236559 0.000000 0.000978
1.236559 0.000000 0.000978
1.236559 0.000000 0.000978
1.236559 0.000000 0.000978
1.236559 0.000000 0.000978
1.236559 0.000000 0.000978
1.236559 0.000000 0.000978
1.236559 0.000000 0.000978
1.236559 0.000000 0.000978
1.236559 0.000000 0.000978
1.236559 0.000000 0.000978
1.236559 0.000000 0.000978
1.236559 0.000000 0.000978
1.236559 0.000000 0.000978
1.236559 0.000000 0.000978
1.236559 0.000000 0.000978
1.236559 0.000000 0.000978
1.236559 0.000000 0.000978
1.236559 0.000000 0.000978
1.236559 0.000000 0.000978
1.236559 0.000000 0.000978
1.236559 0.000000 0.000978
1.236559 0.000000 0.000978
1.236559 0.000000 0.000978
1.236559 0.000000 0.000978
1.236559 0.000000 0.000978
1.236559 0.000000 0.000978
1.236559 0.000000 0.000978
1.236559 0.000000 0.000978
1.236559 0.000000 0.000978
1.236559 0.000000 0.000978
1.236559 0.000000 0.000978
1.236559 0.000000 0.000978
1.236559 0.000000 0.000978
1.236559 0.000000 0.000978
1.236559 0.000000 0.000978
1.236559 0.000000 0.000978
1.236559 0.000000 0.000978
1.236559 0.000000 0.000978
1.236559 0.000000 0.000978
1.236559 0.000000 0.000978
1.236559 0.000000 0.000978
1.236559 0.000000 0.000978
1.236559 0.000000 0.000978
1.236559 0.000000 0.000978
1.236559 0.000000 0.000978
1.236559 0.000000 0.000978
1.236559 0.000000 0.000978
1.236559 0.000000 0.000978
1.236559 0.000000 0.000978
1.236559 0.000000 0.000978
1.236559 0.000000 0.000978
1.236559 0.000000 0.000978
1.236559 0.000000 0.000978
1.236559 0.000000 0.000978
1.236559 0.000000 0.000978
1.236559 0.000000 0.000978
1.236559 0.000000 0.000978
1.236559 0.000000 0.000978
1.236559 0.000000 0.000978
1.236559 0.000000 0.000978
1.236559 0.000000 0.000978
1.236559 0.000000 0.000978
1.236559 0.000000 0.000978
1.236559 0.000000 0.000978
1.236559 0.000000 0.000978
1.236559 0.000000 0.000978
1.236559 0.000000 0.000978
1.236559 0.000000 0.000978
0.000000 0.813294 0.000000
0.000000 0.813294 0.000000
0.000000 0.813294 0.000000
0.000000 0.813294 0.000000
0.000000 0.813294 0.000000
0.000000 0.813294 0.000000
0.000000 0.813294 0.000000
0.000000 0.813294 0.000000
0.000000 0.813294 0.000000
0.000000 0.813294 0.000000
0.000000 0.813294 0.000000
0.000000 0.813294 0.000000
0.000000 0.813294 0.000000
0.000000 0.813294 0.000000
0.000000 0.813294 0.000000
0.000000 0.813294 0.000000
0.000000 0.813294 0.000000
0.000000 0.813294 0.000000
0.916911 0.703812 0.000000
0.916911 0.703812 0.000000
0.916911 0.703812 0.000000
0.916911 0.703812 0.000000
0.916911 0.703812 0.000000
0.916911 0.703812 0.000000
0.916911 0.703812 0.000000
0.916911 0.703812 0.000000
0.916911 0.703812 0.000000
0.916911 0.703812 0.000000
0.916911 0.703812 0.000000
0.916911 0.703812 0.000000
0.916911 0.703812 0.000000
0.916911 0.703812 0.000000
0.916911 0.703812 0.000000
0.916911 0.703812 0.000000
0.916911 0.703812 0.000000
0.916911 0.703812 0.000000
0.000000 0.859238 0.000000
0.000000 0.859238 0.000000
0.000000 0.859238 0.000000
0.000000 0.859238 0.000000
0.000000 0.859238 0.000000
0.000000 0.859238 0.000000
0.000000 0.859238 0.000000
0.000000 0.859238 0.000000
0.000000 0.859238 0.000000
0.000000 0.859238 0.000000
0.000000 0.859238 0.000000
0.000000 0.859238 0.000000
0.000000 0.859238 0.000000
0.000000 0.859238 0.000000
0.000000 0.859238 0.000000
0.000000 0.859238 0.000000
0.000000 0.859238 0.000000
0.000000 0.859238 0.000000
0.000000 0.859238 0.000000
0.000000 0.859238 0.000000
0.000000 0.859238 0.000000
0.000000 0.859238 0.000000
0.000000 0.859238 0.000000
0.000000 0.859238 0.000000
0.000000 0.859238 0.000000
0.000000 0.859238 0.000000
0.000000 0.859238 0.000000
0.000000 0.859238 0.000000
0.000000 0.859238 0.000000
0.000000 0.859238 0.000000
0.000000 0.859238 0.000000
0.000000 0.859238 0.000000
0.000000 0.859238 0.000000
0.000000 0.859238 0.000000
0.000000 0.859238 0.000000
0.000000 0.859238 0.000000
0.000000 0.859238 0.000000
0.000000 0.859238 0.000000
0.000000 0.859238 0.000000
0.000000 0.859238 0.000000
0.000000 0.859238 0.000000
0.000000 0.859238 0.000000
0.000000 0.859238 0.000000
0.000000 0.859238 0.000000
0.000000 0.859238 0.000000
0.000000 0.859238 0.000000
0.000000 0.859238 0.000000
0.000000 0.859238 0.000000
0.000000 0.859238 0.000000
0.000000 0.859238 0.000000
0.000000 0.859238 0.000000
0.000000 0.859238 0.000000
0.000000 0.859238 0.000000
0.000000 0.859238 0.000000
0.000000 0.859238 0.000000
0.000000 0.859238 0.000000
0.000000 0.859238 0.000000
0.000000 0.859238 0.000000
0.000000 0.859238 0.000000
0.000000 0.859238 0.000000
0.000000 0.859238 0.000000
0.000000 0.859238 0.000000
0.000000 0.859238 0.000000
0.000000 0.859238 0.000000
0.000000 0.859238 0.000000
0.000000 0.859238 0.000000
0.000000 0.859238 0.000000
0.000000 0.859238 0.000000
0.000000 0.859238 0.000000
0.000000 0.859238 0.000000
0.000000 0.859238 0.000000
0.000000 0.859238 0.000000
0.000000 0.859238 0.000000
0.000000 0.948192 0.000000
0.000000 0.948192 0.000000
0.000000 0.948192 0.000000
0.000000 0.948192 0.000000
0.000000 0.948192 0.000000
0.000000 0.948192 0.000000
0.000000 0.948192 0.000000
0.000000 0.948192 0.000000
0.000000 0.948192 0.000000
0.000000 0.948192 0.000000
0.000000 0.948192 0.000000
0.000000 0.948192 0.000000
0.000000 0.948192 0.000000
0.000000 0.948192 0.000000
0.000000 0.948192 0.000000
0.000000 0.948192 0.000000
0.000000 0.948192 0.000000
0.000000 0.948192 0.000000
0.000000 0.948192 0.000000
0.000000 0.948192 0.000000
0.000000 0.948192 0.000000
0.000000 0.948192 0.000000
0.000000 0.948192 0.000000
0.000000 0.948192 0.000000
0.000000 0.948192 0.000000
0.000000 0.948192 0.000000
0.000000 0.948192 0.000000
0.000000 0.948192 0.000000
0.000000 0.948192 0.000000
0.000000 0.948192 0.000000
0.000000 0.948192 0.000000
0.000000 0.948192 0.000000
0.000000 0.948192 0.000000
0.000000 0.948192 0.000000
0.000000 0.948192 0.000000
0.000000 0.948192 0.000000
0.000000 0.948192 0.000000
0.000000 0.948192 0.000000
0.000000 0.948192 0.000000
0.000000 0.948192 0.000000
0.000000 0.948192 0.000000
0.000000 0.948192 0.000000
0.000000 0.948192 0.000000
0.000000 0.948192 0.000000
0.000000 0.948192 0.000000
0.000000 0.948192 0.000000
0.000000 0.948192 0.000000
0.000000 0.948192 0.000000
0.000000 0.948192 0.000000
0.000000 0.948192 0.000000
0.000000 0.948192 0.000000
0.000000 0.948192 0.000000
0.000000 0.948192 0.000000
0.000000 0.948192 0.000000
0.000000 0.948192 0.000000
0.000000 0.948192 0.000000
0.000000 0.948192 0.000000
0.000000 0.948192 0.000000
0.000000 0.948192 0.000000
0.000000 0.948192 0.000000
0.000000 0.948192 0.000000
0.000000 0.948192 0.000000
0.000000 0.948192 0.000000
0.000000 0.948192 0.000000
0.000000 0.948192 0.000000
0.000000 0.948192 0.000000
0.000000 0.948192 0.000000
0.000000 0.948192 0.000000
