iif/luts/aceslg2_to_P3D60.cube
TITLE "Generated by Foundry::LUT"
LUT_3D_SIZE 5
DOMAIN_MIN 0.000000 0.000000 0.000000
DOMAIN_MAX 0.903226 0.903226 0.903226
0.033122 0.033064 0.033060
0.070133 0.044300 0.035695
0.556143 0.000000 0.055486
0.910276 0.000000 0.082758
1.291255 0.000000 0.177049
0.036266 0.048785 0.037294
0.057312 0.050550 0.037814
0.554009 0.000000 0.055397
0.910371 0.000000 0.082486
1.291258 0.000000 0.176831
0.000000 0.301273 0.070412
0.000000 0.300250 0.070510
0.446447 0.380399 0.000000
0.911387 0.000000 0.082269
1.291290 0.000000 0.174280
0.000000 0.487740 0.051091
0.000000 0.487695 0.051128
0.000000 0.487135 0.051582
1.037176 0.857466 0.000000
1.291454 0.000000 0.160367
1.107289 1.031040 0.000000
1.107289 1.031040 0.000000
0.000000 0.695633 0.000000
0.000000 0.695633 0.000000
0.000000 0.695633 0.000000
0.029195 0.034643 0.045780
0.057563 0.042768 0.047587
0.544786 0.000000 0.065550
0.902442 0.000000 0.093669
0.899021 0.000000 0.193870
0.032323 0.047404 0.048261
0.047905 0.047838 0.047844
0.542688 0.000000 0.064852
0.902529 0.000000 0.093174
1.291175 0.000000 0.183069
0.000000 0.297092 0.073939
0.000000 0.296070 0.074094
0.433173 0.368187 0.000000
0.904159 0.000000 0.086879
1.291216 0.000000 0.180009
0.000000 0.487713 0.051113
0.000000 0.487668 0.051150
0.000000 0.487108 0.051603
1.037039 0.857388 0.000000
1.291454 0.000000 0.160367
1.101886 1.030516 0.000000
1.101886 1.030516 0.000000
1.101886 1.030516 0.000000
1.101886 1.030516 0.000000
1.101886 1.030516 0.000000
0.064571 0.000000 0.249219
0.064564 0.000000 0.249256
0.473806 0.000000 0.290764
0.880906 0.000000 0.291899
1.076744 0.000000 0.339607
0.064857 0.000000 0.247734
0.064639 0.000000 0.248877
0.012957 0.024261 0.216213
0.880768 0.000000 0.291459
1.289272 0.000000 0.278574
0.000000 0.304992 0.318303
0.000000 0.303411 0.318001
0.298166 0.297462 0.297521
0.879048 0.000000 0.285165
1.289362 0.000000 0.275206
0.000000 0.520407 0.226208
0.000000 0.520383 0.226301
0.000000 0.520081 0.227435
0.993702 0.854149 0.000000
1.290387 0.000000 0.230480
1.107762 1.029994 0.000000
1.107762 1.029994 0.000000
1.107762 1.029994 0.000000
1.107762 1.029994 0.000000
1.107762 1.029994 0.000000
0.094288 0.000000 0.451776
0.094287 0.000000 0.451778
0.094275 0.000000 0.451798
0.849128 0.000000 0.615697
1.277165 0.000000 0.524868
0.094297 0.000000 0.451760
0.094297 0.000000 0.451762
0.094285 0.000000 0.451782
0.848964 0.000000 0.615676
0.848519 0.000000 0.601905
0.000000 0.000000 0.493246
0.000000 0.000000 0.491434
0.068615 0.000000 0.459250
0.846934 0.000000 0.615422
1.277185 0.000000 0.524601
0.000000 0.594547 0.744426
0.000000 0.594489 0.744416
0.000000 0.593780 0.744286
0.867187 0.863980 0.864001
1.277408 0.000000 0.521600
0.000000 0.828834 0.691391
0.000000 0.828827 0.691398
0.000000 0.828747 0.691486
0.000000 0.827751 0.692545
1.093429 1.026663 0.334173
0.000000 0.000000 0.640427
0.000000 0.000000 0.640427
0.000000 0.000000 0.640430
0.000000 0.000000 0.640455
1.246059 0.000000 0.802782
0.000000 0.000000 0.640425
0.000000 0.000000 0.640426
0.000000 0.000000 0.640428
0.000000 0.000000 0.640454
0.853423 0.000000 0.848933
0.000000 0.000000 0.640405
0.000000 0.000000 0.640405
0.000000 0.000000 0.640407
0.000000 0.000000 0.640433
0.000000 0.000000 0.588058
0.000000 0.414249 0.960431
0.000000 0.413579 0.960258
0.000000 0.404885 0.957639
0.000000 0.207087 0.892130
1.246110 0.000000 0.802450
0.000000 0.852525 0.990370
0.000000 0.852518 0.990370
0.000000 0.852433 0.990373
0.000000 0.851385 0.990404
0.990258 0.989134 0.989838
