iif/luts/aceslg2_to_adx10.cube
TITLE "Generated by Foundry::LUT"
LUT_3D_SIZE 8
DOMAIN_MIN 0.000000 0.000000 0.000000
DOMAIN_MAX 0.903226 0.903226 0.903226
0.000978 0.000978 0.000978
0.040078 0.000000 0.000000
0.216031 0.000000 0.000000
0.412512 0.000000 0.000000
0.607038 0.000000 0.000000
0.801564 0.000000 0.000978
0.995112 0.000000 0.000978
1.189638 0.000000 0.000978
0.000000 0.027370 0.000000
0.021505 0.019550 0.000000
0.206256 0.000000 0.000000
0.410557 0.000000 0.000000
0.607038 0.000000 0.000000
0.801564 0.000000 0.000978
0.995112 0.000000 0.000978
1.189638 0.000000 0.000978
0.128055 0.047898 0.000000
0.128055 0.047898 0.000000
0.128055 0.047898 0.000000
0.128055 0.047898 0.000000
0.128055 0.047898 0.000000
0.653959 0.000000 0.000978
0.653959 0.000000 0.000978
0.653959 0.000000 0.000978
1.237537 0.000000 0.000978
1.237537 0.000000 0.000978
1.237537 0.000000 0.000978
1.237537 0.000000 0.000978
1.237537 0.000000 0.000978
1.237537 0.000000 0.000978
1.237537 0.000000 0.000978
1.237537 0.000000 0.000978
0.000000 0.446725 0.000000
0.000000 0.446725 0.000000
0.000000 0.446725 0.000000
0.000000 0.446725 0.000000
0.514174 0.485826 0.000000
0.514174 0.485826 0.000000
0.514174 0.485826 0.000000
0.514174 0.485826 0.000000
1.236559 0.000000 0.000978
1.236559 0.000000 0.000978
1.236559 0.000000 0.000978
1.236559 0.000000 0.000978
1.236559 0.000000 0.000978
1.236559 0.000000 0.000978
1.236559 0.000000 0.000978
1.236559 0.000000 0.000978
0.000000 0.859238 0.000000
0.000000 0.859238 0.000000
0.000000 0.859238 0.000000
0.000000 0.859238 0.000000
0.000000 0.859238 0.000000
0.000000 0.859238 0.000000
0.000000 0.859238 0.000000
0.000000 0.859238 0.000000
1.081134 0.945259 0.000000
1.081134 0.945259 0.000000
1.081134 0.945259 0.000000
1.081134 0.945259 0.000000
0.000000 1.087977 0.000000
0.000000 1.087977 0.000000
0.000000 1.087977 0.000000
0.000000 1.087977 0.000000
0.000000 0.000000 0.022483
0.034213 0.000000 0.019550
0.212121 0.000000 0.011730
0.411535 0.000000 0.000000
0.607038 0.000000 0.000000
0.801564 0.000000 0.000978
0.995112 0.000000 0.000978
1.189638 0.000000 0.000978
0.000000 0.023460 0.018573
0.016618 0.016618 0.016618
0.203324 0.000000 0.008798
0.409580 0.000000 0.000000
0.606061 0.000000 0.000000
0.801564 0.000000 0.000978
0.995112 0.000000 0.000978
1.189638 0.000000 0.000978
0.000000 0.170088 0.004888
0.000000 0.165200 0.003910
0.146628 0.136852 0.000000
0.398827 0.002933 0.000000
0.604106 0.000000 0.000000
0.800587 0.000000 0.000978
0.995112 0.000000 0.000978
1.189638 0.000000 0.000978
0.286413 0.268817 0.000000
0.286413 0.268817 0.000000
0.286413 0.268817 0.000000
0.286413 0.268817 0.000000
0.286413 0.268817 0.000000
0.286413 0.268817 0.000000
0.286413 0.268817 0.000000
0.286413 0.268817 0.000000
0.945259 0.000000 0.000978
0.945259 0.000000 0.000978
0.945259 0.000000 0.000978
0.945259 0.000000 0.000978
0.945259 0.000000 0.000978
0.945259 0.000000 0.000978
0.945259 0.000000 0.000978
0.945259 0.000000 0.000978
1.187683 0.000000 0.000978
1.187683 0.000000 0.000978
1.187683 0.000000 0.000978
1.187683 0.000000 0.000978
0.000000 0.720430 0.000000
0.000000 0.720430 0.000000
0.000000 0.720430 0.000000
0.000000 0.720430 0.000000
0.855327 0.728250 0.000000
0.855327 0.728250 0.000000
0.855327 0.728250 0.000000
0.855327 0.728250 0.000000
0.855327 0.728250 0.000000
0.855327 0.728250 0.000000
0.855327 0.728250 0.000000
0.855327 0.728250 0.000000
0.000000 0.996090 0.000000
0.000000 0.996090 0.000000
0.000000 0.996090 0.000000
0.000000 0.996090 0.000000
0.000000 1.087977 0.000000
0.000000 1.087977 0.000000
0.000000 1.087977 0.000000
0.000000 1.087977 0.000000
0.000000 0.000000 0.146628
0.005865 0.000000 0.145650
0.191593 0.000000 0.137830
0.401760 0.000000 0.099707
0.557185 0.000000 0.000978
0.557185 0.000000 0.000978
0.557185 0.000000 0.000978
0.557185 0.000000 0.000978
0.000000 0.007820 0.144673
0.000000 0.001955 0.142717
0.181818 0.000000 0.134897
0.399805 0.000000 0.096774
0.606061 0.000000 0.000000
0.800587 0.000000 0.000978
0.995112 0.000000 0.000978
1.189638 0.000000 0.000978
0.000000 0.156403 0.131965
0.000000 0.151515 0.130010
0.122190 0.122190 0.122190
0.391007 0.000000 0.081134
0.604106 0.000000 0.000000
0.800587 0.000000 0.000978
0.995112 0.000000 0.000978
1.189638 0.000000 0.000978
0.000000 0.350929 0.071359
0.000000 0.349951 0.068426
0.000000 0.346041 0.057674
0.326491 0.308895 0.015640
0.584555 0.121212 0.000000
0.798631 0.000000 0.000978
0.995112 0.000000 0.000978
1.189638 0.000000 0.000978
0.000000 0.538612 0.000000
0.000000 0.538612 0.000000
0.000000 0.537634 0.000000
0.000000 0.532747 0.000000
0.303030 0.509286 0.000000
0.303030 0.509286 0.000000
0.303030 0.509286 0.000000
0.303030 0.509286 0.000000
1.137830 0.000000 0.000978
1.137830 0.000000 0.000978
1.137830 0.000000 0.000978
1.137830 0.000000 0.000978
1.137830 0.000000 0.000978
1.137830 0.000000 0.000978
1.137830 0.000000 0.000978
1.137830 0.000000 0.000978
0.000000 0.859238 0.000000
0.000000 0.859238 0.000000
0.000000 0.859238 0.000000
0.000000 0.859238 0.000000
0.000000 0.859238 0.000000
0.000000 0.859238 0.000000
0.000000 0.859238 0.000000
0.000000 0.859238 0.000000
0.928641 0.974585 0.000000
0.928641 0.974585 0.000000
0.928641 0.974585 0.000000
0.000000 1.087977 0.000000
0.000000 1.087977 0.000000
0.000000 1.087977 0.000000
0.000000 1.087977 0.000000
0.000000 1.087977 0.000000
0.000000 0.000000 0.317693
0.000000 0.000000 0.317693
0.122190 0.000000 0.315738
0.373412 0.000000 0.308895
0.581623 0.000000 0.270772
0.800587 0.000000 0.000978
0.995112 0.000000 0.000978
1.189638 0.000000 0.000978
0.191593 0.000000 0.314761
0.191593 0.000000 0.314761
0.191593 0.000000 0.314761
0.191593 0.000000 0.314761
0.191593 0.000000 0.314761
0.191593 0.000000 0.314761
0.191593 0.000000 0.314761
0.191593 0.000000 0.314761
0.000000 0.101662 0.312805
0.000000 0.094819 0.312805
0.025415 0.060606 0.311828
0.361681 0.000000 0.304985
0.474096 0.000000 0.294233
0.474096 0.000000 0.294233
0.474096 0.000000 0.294233
0.474096 0.000000 0.294233
0.000000 0.334311 0.299120
0.000000 0.333333 0.298143
0.000000 0.328446 0.296188
0.288368 0.288368 0.288368
0.565005 0.060606 0.248289
0.797654 0.000000 0.000978
0.994135 0.000000 0.000978
1.189638 0.000000 0.000978
0.000000 0.527859 0.237537
0.000000 0.527859 0.236559
0.000000 0.526882 0.233627
0.000000 0.522972 0.218964
0.498534 0.478006 0.128055
0.765396 0.294233 0.000000
0.992180 0.000000 0.000978
1.188661 0.000000 0.000978
1.088954 0.000000 0.000978
1.088954 0.000000 0.000978
1.088954 0.000000 0.000978
0.000000 0.720430 0.000000
0.000000 0.720430 0.000000
0.000000 0.720430 0.000000
0.000000 0.720430 0.000000
0.000000 0.720430 0.000000
0.700880 0.757576 0.000000
0.700880 0.757576 0.000000
0.700880 0.757576 0.000000
0.700880 0.757576 0.000000
0.700880 0.757576 0.000000
0.700880 0.757576 0.000000
0.700880 0.757576 0.000000
0.700880 0.757576 0.000000
0.000000 0.996090 0.000000
0.000000 0.996090 0.000000
0.000000 0.996090 0.000000
0.000000 1.087977 0.000000
0.000000 1.087977 0.000000
0.000000 1.087977 0.000000
0.000000 1.087977 0.000000
0.000000 1.087977 0.000000
0.000000 0.000000 0.487781
0.000000 0.000000 0.487781
0.000000 0.000000 0.486804
0.305963 0.000000 0.485826
0.378299 0.000000 0.484848
0.378299 0.000000 0.484848
0.378299 0.000000 0.484848
0.378299 0.000000 0.484848
0.938416 0.000000 0.094819
0.938416 0.000000 0.094819
0.938416 0.000000 0.094819
0.938416 0.000000 0.094819
0.938416 0.000000 0.094819
0.938416 0.000000 0.094819
0.938416 0.000000 0.094819
0.938416 0.000000 0.094819
0.000000 0.000000 0.486804
0.000000 0.000000 0.486804
0.000000 0.000000 0.486804
0.000000 0.000000 0.486804
0.551320 0.000000 0.478006
0.761486 0.000000 0.439883
0.994135 0.000000 0.000978
1.189638 0.000000 0.000978
0.000000 0.280547 0.479961
0.000000 0.278592 0.479961
0.000000 0.271750 0.479961
0.177908 0.223851 0.478983
0.541544 0.000000 0.475073
0.759531 0.000000 0.435973
0.994135 0.000000 0.000978
1.188661 0.000000 0.000978
0.000000 0.511241 0.466276
0.000000 0.511241 0.466276
0.000000 0.509286 0.465298
0.000000 0.505376 0.463343
0.455523 0.455523 0.455523
0.732160 0.227761 0.415445
0.992180 0.000000 0.000978
1.188661 0.000000 0.000978
0.000000 0.704790 0.404692
0.000000 0.704790 0.404692
0.000000 0.704790 0.403715
0.000000 0.703812 0.400782
0.000000 0.699902 0.386119
0.665689 0.645161 0.295210
0.946237 0.467253 0.000000
1.186706 0.000000 0.000978
0.000000 0.858260 0.000000
0.000000 0.858260 0.000000
0.000000 0.858260 0.000000
0.000000 0.858260 0.000000
0.000000 0.858260 0.000000
0.000000 0.858260 0.000000
0.000000 0.858260 0.000000
0.000000 0.858260 0.000000
0.000000 1.033236 0.000000
0.000000 1.033236 0.000000
0.000000 1.033236 0.000000
0.000000 1.087977 0.000000
0.000000 1.087977 0.000000
0.000000 1.087977 0.000000
0.000000 1.087977 0.000000
0.972630 1.017595 0.000000
0.000000 0.000000 0.657869
0.000000 0.000000 0.657869
0.000000 0.000000 0.656892
0.000000 0.000000 0.656892
0.486804 0.000000 0.655914
0.734115 0.000000 0.648094
0.941349 0.000000 0.610948
1.188661 0.000000 0.000978
0.000000 0.000000 0.656892
0.000000 0.000000 0.656892
0.000000 0.000000 0.656892
0.000000 0.000000 0.656892
0.000000 0.000000 0.656892
0.000000 0.000000 0.656892
0.000000 0.000000 0.656892
0.000000 0.000000 0.656892
1.046921 0.000000 0.524927
1.046921 0.000000 0.524927
1.046921 0.000000 0.524927
0.000000 0.000000 0.656892
0.000000 0.000000 0.656892
0.000000 0.000000 0.656892
0.000000 0.000000 0.656892
0.000000 0.000000 0.656892
0.000000 0.000000 0.656892
0.000000 0.000000 0.656892
0.000000 0.000000 0.656892
0.000000 0.000000 0.656892
0.000000 0.000000 0.656892
0.000000 0.000000 0.656892
0.000000 0.000000 0.656892
0.000000 0.000000 0.656892
0.000000 0.457478 0.647116
0.000000 0.457478 0.647116
0.000000 0.455523 0.647116
0.000000 0.448680 0.646139
0.345064 0.391007 0.646139
0.721408 0.000000 0.645161
0.939394 0.000000 0.606061
1.187683 0.000000 0.000978
0.000000 0.688172 0.632454
0.000000 0.688172 0.632454
0.000000 0.687195 0.632454
0.000000 0.686217 0.632454
0.000000 0.681329 0.630499
0.622678 0.622678 0.622678
0.898338 0.394917 0.582600
1.185728 0.000000 0.000978
0.000000 0.881720 0.571847
0.000000 0.881720 0.570870
0.000000 0.881720 0.570870
0.000000 0.881720 0.570870
0.000000 0.880743 0.566960
0.000000 0.876833 0.553275
0.832845 0.812317 0.462366
1.128055 0.640274 0.000000
0.000000 1.086999 0.000000
0.000000 1.086999 0.000000
0.000000 1.086999 0.000000
0.000000 1.086999 0.000000
0.000000 1.086999 0.000000
0.000000 1.086999 0.000000
0.000000 1.086999 0.000000
0.000000 1.086999 0.000000
0.000000 0.000000 0.826979
0.000000 0.000000 0.826979
0.000000 0.000000 0.826979
0.000000 0.000000 0.826979
0.000000 0.000000 0.826979
0.000000 0.000000 0.826979
0.000000 0.000000 0.826979
0.000000 0.000000 0.826979
0.739003 0.000000 0.824047
0.739003 0.000000 0.824047
0.739003 0.000000 0.824047
0.739003 0.000000 0.824047
0.739003 0.000000 0.824047
0.739003 0.000000 0.824047
0.739003 0.000000 0.824047
0.739003 0.000000 0.824047
0.000000 0.000000 0.826979
0.000000 0.000000 0.826979
0.000000 0.000000 0.826979
0.000000 0.000000 0.826979
0.000000 0.000000 0.826979
0.000000 0.000000 0.826979
0.000000 0.000000 0.826979
0.000000 0.000000 0.826979
0.859238 0.000000 0.821114
0.859238 0.000000 0.821114
0.859238 0.000000 0.821114
0.859238 0.000000 0.821114
0.859238 0.000000 0.821114
0.859238 0.000000 0.821114
0.859238 0.000000 0.821114
0.859238 0.000000 0.821114
0.000000 0.000000 0.826979
0.000000 0.000000 0.826979
0.000000 0.000000 0.826979
0.000000 0.000000 0.826002
0.000000 0.000000 0.826002
0.000000 0.000000 0.826002
0.000000 0.000000 0.826002
1.121212 0.000000 0.780059
0.000000 0.634409 0.814272
0.000000 0.634409 0.814272
0.000000 0.633431 0.814272
0.000000 0.632454 0.814272
0.000000 0.624633 0.813294
0.512219 0.558162 0.812317
0.901271 0.000000 0.814272
1.119257 0.000000 0.776149
0.000000 0.865103 0.799609
0.000000 0.865103 0.799609
0.000000 0.865103 0.799609
0.000000 0.864125 0.799609
0.000000 0.863148 0.799609
0.000000 0.858260 0.797654
0.789834 0.789834 0.789834
1.065494 0.561095 0.749756
0.000000 1.058651 0.738025
0.000000 1.058651 0.738025
0.000000 1.058651 0.738025
0.000000 1.058651 0.738025
0.000000 1.058651 0.738025
0.000000 1.058651 0.738025
0.000000 1.058651 0.738025
0.999022 0.979472 0.629521
0.000000 0.000000 0.997067
0.000000 0.000000 0.997067
0.000000 0.000000 0.997067
0.000000 0.000000 0.997067
0.000000 0.000000 0.997067
0.000000 0.000000 0.996090
0.846530 0.000000 0.995112
1.093842 0.000000 0.988270
0.000000 0.000000 0.997067
0.000000 0.000000 0.997067
0.000000 0.000000 0.997067
0.000000 0.000000 0.997067
0.000000 0.000000 0.997067
0.000000 0.000000 0.997067
0.000000 0.000000 0.997067
0.000000 0.000000 0.997067
0.846530 0.000000 0.995112
0.846530 0.000000 0.995112
0.846530 0.000000 0.995112
0.000000 0.000000 0.997067
0.000000 0.000000 0.997067
0.000000 0.000000 0.997067
0.000000 0.000000 0.997067
1.039101 0.000000 0.991202
0.000000 0.000000 0.997067
0.000000 0.000000 0.997067
0.000000 0.000000 0.997067
0.000000 0.000000 0.997067
0.000000 0.000000 0.997067
0.000000 0.000000 0.997067
0.000000 0.000000 0.997067
0.000000 0.000000 0.997067
0.000000 0.000000 0.996090
0.000000 0.000000 0.996090
0.000000 0.000000 0.996090
0.000000 0.000000 0.996090
0.000000 0.000000 0.996090
0.000000 0.000000 0.996090
0.000000 0.000000 0.996090
1.038123 0.000000 0.991202
0.494624 0.000000 0.996090
0.494624 0.000000 0.996090
0.000000 0.000000 0.996090
0.000000 0.000000 0.996090
0.000000 0.000000 0.996090
0.000000 0.000000 0.995112
0.826979 0.000000 0.994135
1.090909 0.000000 0.987292
0.000000 0.811339 0.980450
0.000000 0.811339 0.980450
0.000000 0.811339 0.980450
0.000000 0.810362 0.980450
0.000000 0.809384 0.980450
0.000000 0.801564 0.980450
0.679374 0.725318 0.979472
1.082111 0.000000 0.984360
0.000000 1.042033 0.966764
0.000000 1.042033 0.966764
0.000000 1.042033 0.966764
0.000000 1.041056 0.966764
0.000000 1.041056 0.966764
0.000000 1.040078 0.965787
0.000000 1.035191 0.963832
0.956989 0.956989 0.956989
