iif/luts/aceslg2_to_adx10.cube
TITLE "Generated by Foundry::LUT"
LUT_3D_SIZE 5
DOMAIN_MIN 0.000000 0.000000 0.000000
DOMAIN_MAX 0.903226 0.903226 0.903226
0.000978 0.000978 0.000978
0.166178 0.000000 0.000000
0.510264 0.000000 0.000000
0.849462 0.000000 0.000978
1.189638 0.000000 0.000978
0.128055 0.047898 0.000000
0.128055 0.047898 0.000000
0.128055 0.047898 0.000000
0.128055 0.047898 0.000000
0.128055 0.047898 0.000000
1.237537 0.000000 0.000978
0.000000 0.446725 0.000000
0.000000 0.446725 0.000000
0.000000 0.446725 0.000000
0.000000 0.446725 0.000000
1.236559 0.000000 0.000978
1.236559 0.000000 0.000978
1.236559 0.000000 0.000978
1.236559 0.000000 0.000978
1.236559 0.000000 0.000978
1.081134 0.945259 0.000000
1.081134 0.945259 0.000000
0.000000 1.087977 0.000000
0.000000 1.087977 0.000000
0.000000 1.087977 0.000000
0.000000 0.000000 0.103617
0.145650 0.000000 0.094819
0.509286 0.000000 0.000000
0.849462 0.000000 0.000978
0.849462 0.000000 0.000978
0.000000 0.111437 0.089932
0.081134 0.081134 0.081134
0.505376 0.000000 0.000000
0.849462 0.000000 0.000978
1.189638 0.000000 0.000978
0.000000 0.447703 0.000000
0.000000 0.445748 0.000000
0.000000 0.441838 0.000000
0.000000 0.441838 0.000000
1.188661 0.000000 0.000978
0.487781 0.683284 0.000000
0.000000 0.768328 0.000000
0.000000 0.768328 0.000000
0.000000 0.768328 0.000000
0.000000 0.768328 0.000000
0.882698 0.930596 0.000000
0.882698 0.930596 0.000000
0.882698 0.930596 0.000000
0.882698 0.930596 0.000000
0.882698 0.930596 0.000000
0.000000 0.000000 0.402737
0.000000 0.000000 0.401760
0.464321 0.000000 0.393939
0.845552 0.000000 0.036168
0.995112 0.000000 0.000978
0.000000 0.000000 0.401760
0.000000 0.000000 0.401760
0.000000 0.000000 0.401760
0.846530 0.000000 0.024438
1.189638 0.000000 0.000978
0.000000 0.422287 0.382209
0.000000 0.420332 0.381232
0.372434 0.372434 0.372434
0.844575 0.000000 0.000978
1.188661 0.000000 0.000978
0.000000 0.767351 0.000000
0.000000 0.767351 0.000000
0.000000 0.767351 0.000000
0.000000 0.767351 0.000000
0.000000 0.767351 0.000000
1.157380 0.834800 0.000000
1.157380 0.834800 0.000000
1.157380 0.834800 0.000000
1.157380 0.834800 0.000000
1.157380 0.834800 0.000000
0.000000 0.000000 0.699902
0.000000 0.000000 0.699902
0.000000 0.000000 0.698925
0.779081 0.000000 0.691105
1.163245 0.000000 0.309873
0.000000 0.000000 0.699902
0.000000 0.000000 0.699902
0.000000 0.000000 0.699902
0.779081 0.000000 0.691105
0.779081 0.000000 0.691105
0.000000 0.000000 0.698925
0.000000 0.000000 0.698925
0.000000 0.000000 0.697947
0.775171 0.000000 0.689150
1.165200 0.000000 0.276637
0.000000 0.732160 0.674487
0.000000 0.732160 0.674487
0.000000 0.730205 0.673509
0.664712 0.664712 0.664712
1.184751 0.000000 0.000978
0.000000 1.086999 0.000000
0.000000 1.086999 0.000000
0.000000 1.086999 0.000000
0.000000 1.086999 0.000000
0.000000 1.086999 0.000000
0.000000 0.000000 0.997067
0.000000 0.000000 0.997067
0.000000 0.000000 0.997067
0.000000 0.000000 0.996090
1.093842 0.000000 0.988270
0.000000 0.000000 0.997067
0.000000 0.000000 0.997067
0.000000 0.000000 0.997067
0.000000 0.000000 0.997067
0.846530 0.000000 0.995112
0.000000 0.000000 0.997067
0.000000 0.000000 0.997067
0.000000 0.000000 0.997067
0.000000 0.000000 0.996090
0.000000 0.000000 0.996090
0.000000 0.000000 0.996090
0.000000 0.000000 0.996090
0.000000 0.000000 0.996090
0.000000 0.000000 0.995112
1.089932 0.000000 0.987292
0.000000 1.042033 0.966764
0.000000 1.042033 0.966764
0.000000 1.041056 0.966764
0.000000 1.039101 0.965787
0.956989 0.956989 0.956989
