iif/luts/adx10_to_aces.cube
TITLE "Generated by Foundry::LUT"
LUT_3D_SIZE 5
DOMAIN_MIN 0.000000 0.000000 0.000000
DOMAIN_MAX 0.903226 0.903226 0.903226
0.004336 0.004336 0.004336
0.015871 0.006882 0.005522
0.076735 0.019078 0.011643
0.399897 0.082474 0.043998
2.117944 0.418020 0.215845
0.010662 0.021147 0.006772
0.024207 0.025534 0.008317
0.093418 0.040942 0.015446
0.458399 0.114227 0.052172
2.396041 0.494503 0.246184
0.046328 0.120022 0.020476
0.064797 0.133921 0.023446
0.146320 0.161078 0.032827
0.561621 0.254397 0.075699
2.750304 0.694815 0.296035
0.255007 0.703327 0.100665
0.294702 0.771854 0.111267
0.407240 0.860248 0.129772
0.898001 1.028608 0.186773
3.390180 1.594166 0.444653
1.484857 4.146493 0.573320
1.641027 4.535801 0.628096
1.889689 4.976546 0.695765
2.576094 5.539184 0.811191
5.531296 6.584315 1.157851
0.007535 0.006993 0.025023
0.020835 0.009904 0.026387
0.091055 0.023949 0.033447
0.463933 0.097069 0.070776
2.446338 0.484215 0.269062
0.014422 0.025090 0.028236
0.029998 0.029998 0.029998
0.109799 0.047609 0.038201
0.530877 0.131988 0.080553
2.766610 0.570581 0.304392
0.052773 0.131170 0.043548
0.073760 0.146303 0.046852
0.167474 0.176650 0.057540
0.646295 0.283248 0.106861
3.171349 0.790255 0.360939
0.276619 0.756617 0.130158
0.320514 0.830347 0.141659
0.448284 0.926503 0.162209
1.012283 1.114388 0.227106
3.885466 1.759996 0.523711
1.595279 4.448155 0.637554
1.764220 4.865834 0.696432
2.038838 5.339927 0.769783
2.817412 5.951461 0.897800
6.212648 7.116226 1.292150
0.026268 0.023018 0.163630
0.041605 0.026349 0.165200
0.122620 0.042525 0.173342
0.552864 0.126864 0.216411
2.840307 0.573546 0.445204
0.034213 0.042881 0.171104
0.052126 0.048380 0.173115
0.144143 0.068522 0.182555
0.629946 0.165688 0.231397
3.209633 0.671557 0.489651
0.075908 0.157087 0.191669
0.099779 0.173578 0.195348
0.207535 0.207535 0.207535
0.759622 0.329376 0.264286
3.672775 0.913135 0.557288
0.316496 0.828127 0.288796
0.365100 0.907474 0.301280
0.510297 1.012167 0.324134
1.158641 1.222120 0.398077
4.471272 1.959595 0.739297
1.730870 4.786377 0.837179
1.913734 5.234512 0.900475
2.217413 5.744598 0.980042
3.101369 6.409837 1.122214
7.003293 7.709682 1.571187
0.149021 0.128712 1.094667
0.166707 0.132526 1.096476
0.260176 0.151158 1.105866
0.756613 0.248439 1.155557
3.396028 0.763817 1.419551
0.161124 0.153075 1.129745
0.181731 0.159245 1.132040
0.287838 0.182293 1.142907
0.848320 0.294201 1.199235
3.824882 0.877681 1.497198
0.209522 0.278676 1.179653
0.236694 0.296665 1.183755
0.360625 0.334710 1.197661
0.997223 0.474057 1.262975
4.358159 1.146285 1.600877
0.471266 1.001358 1.312464
0.525157 1.086775 1.326027
0.690300 1.200866 1.351475
1.435790 1.435790 1.435790
5.255299 2.278726 1.828416
1.991557 5.248392 1.929916
2.189616 5.729234 1.997978
2.525878 6.278191 2.084351
3.530391 7.002484 2.242457
8.015830 8.455001 2.754020
0.970388 0.836840 7.351167
0.990785 0.841209 7.353249
1.098624 0.862673 7.364079
1.671438 0.974885 7.421412
4.716988 1.569527 7.726022
1.007260 0.883540 7.570632
1.030971 0.890469 7.573255
1.153332 0.916858 7.585766
1.799979 1.045760 7.650731
5.234481 1.718779 7.994509
1.083751 1.039382 7.811347
1.114706 1.059024 7.815927
1.257272 1.101705 7.831806
1.991353 1.261162 7.906988
5.868945 2.035375 8.296685
1.389702 1.835988 8.146455
1.449535 1.927966 8.161201
1.637520 2.052416 8.189579
2.494916 2.315625 8.285789
6.899096 3.279674 8.737651
3.045706 6.411735 9.006826
3.260365 6.927704 9.080029
3.633202 7.518649 9.173862
4.775708 8.307961 9.349924
9.933236 9.933233 9.933241
