iif/luts/adx10_to_aces.cube
TITLE "Generated by Foundry::LUT"
LUT_3D_SIZE 32
0.004336 0.004336 0.004336
0.005065 0.004519 0.004413
0.005986 0.004740 0.004510
0.007152 0.005009 0.004631
0.008628 0.005339 0.004783
0.010497 0.005746 0.004975
0.012867 0.006252 0.005217
0.015871 0.006882 0.005522
0.019681 0.007669 0.005908
0.024513 0.008657 0.006396
0.030645 0.009899 0.007014
0.038425 0.011463 0.007797
0.048299 0.013435 0.008789
0.060830 0.015927 0.010048
0.076735 0.019078 0.011643
0.096924 0.023065 0.013668
0.122553 0.028114 0.016236
0.155087 0.034511 0.019495
0.196388 0.042618 0.023630
0.248821 0.052898 0.028879
0.315387 0.065935 0.035541
0.399897 0.082474 0.043998
0.507188 0.103458 0.054733
0.643404 0.130085 0.068360
0.816344 0.163876 0.085660
1.035909 0.206765 0.107623
1.314672 0.261202 0.135505
1.668596 0.330303 0.170904
2.117944 0.418020 0.215845
2.688449 0.529373 0.272902
3.412777 0.670735 0.345341
4.332408 0.850198 0.437311
0.004735 0.005332 0.004491
0.005481 0.005530 0.004571
0.006423 0.005766 0.004671
0.007613 0.006052 0.004796
0.009118 0.006400 0.004952
0.011025 0.006827 0.005149
0.013440 0.007354 0.005397
0.016500 0.008008 0.005709
0.020381 0.008822 0.006103
0.025302 0.009840 0.006601
0.031544 0.011116 0.007232
0.039463 0.012721 0.008031
0.049512 0.014741 0.009042
0.062265 0.017290 0.010324
0.078450 0.020509 0.011949
0.098993 0.024579 0.014010
0.125070 0.029730 0.016625
0.158171 0.036251 0.019942
0.200191 0.044514 0.024151
0.253536 0.054986 0.029493
0.321257 0.068264 0.036272
0.407232 0.085103 0.044877
0.516383 0.106465 0.055800
0.654958 0.133568 0.069665
0.830892 0.167959 0.087266
1.054256 0.211605 0.109610
1.337843 0.266999 0.137976
1.697887 0.337310 0.173989
2.155006 0.426560 0.219709
2.735374 0.539854 0.277754
3.472225 0.683676 0.351447
4.407750 0.866257 0.445008
0.005237 0.006612 0.004685
0.006001 0.006829 0.004768
0.006964 0.007085 0.004872
0.008181 0.007392 0.005001
0.009718 0.007762 0.005163
0.011663 0.008212 0.005365
0.014126 0.008764 0.005619
0.017245 0.009445 0.005939
0.021198 0.010290 0.006342
0.026210 0.011343 0.006852
0.032566 0.012658 0.007496
0.040629 0.014308 0.008310
0.050858 0.016381 0.009342
0.063837 0.018991 0.010648
0.080308 0.022284 0.012304
0.101213 0.026443 0.014403
0.127747 0.031701 0.017065
0.161427 0.038354 0.020442
0.204180 0.046778 0.024727
0.258453 0.057450 0.030163
0.327351 0.070977 0.037063
0.414819 0.088127 0.045819
0.525863 0.109878 0.056933
0.666840 0.137469 0.071040
0.845821 0.172476 0.088948
1.073053 0.216896 0.111681
1.361546 0.273269 0.140541
1.727820 0.344816 0.177178
2.192845 0.435629 0.223691
2.783250 0.550903 0.282742
3.532840 0.697232 0.357712
4.484538 0.882989 0.452893
0.005871 0.008260 0.004929
0.006655 0.008500 0.005017
0.007642 0.008780 0.005125
0.008886 0.009112 0.005259
0.010458 0.009509 0.005426
0.012444 0.009988 0.005635
0.014956 0.010571 0.005896
0.018137 0.011285 0.006225
0.022166 0.012166 0.006638
0.027273 0.013258 0.007159
0.033747 0.014619 0.007817
0.041956 0.016319 0.008649
0.052370 0.018450 0.009701
0.065582 0.021129 0.011033
0.082346 0.024502 0.012721
0.103620 0.028756 0.014860
0.130621 0.034129 0.017571
0.164891 0.040921 0.021010
0.208392 0.049515 0.025372
0.263612 0.060396 0.030906
0.333710 0.074182 0.037928
0.422698 0.091654 0.046839
0.535670 0.113806 0.058148
0.679092 0.141900 0.072503
0.861175 0.177538 0.090724
1.092342 0.222752 0.113854
1.385830 0.280126 0.143215
1.758442 0.352937 0.180490
2.231513 0.445347 0.227810
2.832128 0.562640 0.287885
3.594680 0.711526 0.364154
4.562835 0.900523 0.460984
0.006674 0.010379 0.005238
0.007481 0.010649 0.005331
0.008494 0.010960 0.005445
0.009769 0.011324 0.005585
0.011377 0.011754 0.005759
0.013407 0.012268 0.005974
0.015972 0.012887 0.006244
0.019218 0.013641 0.006582
0.023327 0.014565 0.007006
0.028531 0.015705 0.007540
0.035127 0.017117 0.008213
0.043489 0.018876 0.009063
0.054093 0.021073 0.010138
0.067544 0.023827 0.011497
0.084608 0.027289 0.013218
0.106261 0.031646 0.015398
0.133739 0.037142 0.018160
0.168613 0.044083 0.021663
0.212877 0.052857 0.026104
0.269062 0.063959 0.031738
0.340382 0.078015 0.038886
0.430920 0.095821 0.047955
0.545855 0.118389 0.059465
0.691768 0.147002 0.074072
0.877008 0.183290 0.092613
1.112183 0.229320 0.116147
1.410754 0.287720 0.146021
1.789816 0.361824 0.183944
2.271074 0.455866 0.232087
2.882080 0.575222 0.293205
3.657822 0.726718 0.370797
4.642717 0.919017 0.469304
0.007695 0.013108 0.005631
0.008527 0.013415 0.005730
0.009570 0.013765 0.005851
0.010879 0.014168 0.005998
0.012527 0.014640 0.006179
0.014604 0.015197 0.006403
0.017227 0.015862 0.006682
0.020541 0.016664 0.007031
0.024733 0.017640 0.007467
0.030041 0.018835 0.008015
0.036764 0.020309 0.008705
0.045283 0.022135 0.009575
0.056084 0.024408 0.010673
0.069781 0.027248 0.012061
0.087154 0.030807 0.013817
0.109195 0.035279 0.016040
0.137162 0.040910 0.018856
0.172652 0.048011 0.022424
0.217695 0.056977 0.026948
0.274866 0.068311 0.032685
0.347434 0.082652 0.039962
0.439550 0.100808 0.049194
0.556487 0.123809 0.060908
0.704936 0.152959 0.075774
0.893394 0.189917 0.094641
1.132647 0.236787 0.118587
1.436393 0.296241 0.148984
1.822022 0.371671 0.187568
2.311611 0.467385 0.236549
2.933192 0.588850 0.298730
3.722353 0.743010 0.377669
4.724285 0.938680 0.477885
0.008997 0.016622 0.006132
0.009859 0.016976 0.006239
0.010935 0.017375 0.006367
0.012282 0.017828 0.006522
0.013974 0.018351 0.006713
0.016103 0.018963 0.006947
0.018787 0.019684 0.007237
0.022175 0.020546 0.007598
0.026456 0.021585 0.008048
0.031872 0.022847 0.008612
0.038728 0.024393 0.009320
0.047412 0.026298 0.010212
0.058416 0.028659 0.011336
0.072367 0.031597 0.012754
0.090058 0.035268 0.014547
0.112498 0.039868 0.016816
0.140966 0.045647 0.019687
0.177088 0.052921 0.023324
0.222928 0.062095 0.027933
0.281105 0.073678 0.033777
0.354946 0.088320 0.041187
0.448674 0.106844 0.050586
0.567651 0.130298 0.062510
0.718685 0.160008 0.077640
0.910419 0.197661 0.096841
1.153827 0.245398 0.121209
1.462842 0.305937 0.152138
1.855155 0.382728 0.191398
2.353225 0.480155 0.241233
2.985566 0.603779 0.304497
3.788387 0.760664 0.384808
4.807650 0.959776 0.486764
0.010662 0.021147 0.006772
0.011558 0.021562 0.006888
0.012672 0.022022 0.007026
0.014062 0.022539 0.007192
0.015803 0.023128 0.007393
0.017989 0.023806 0.007639
0.020740 0.024599 0.007942
0.024207 0.025534 0.008317
0.028584 0.026650 0.008783
0.034115 0.027994 0.009365
0.041111 0.029628 0.010094
0.049967 0.031627 0.011010
0.061184 0.034091 0.012161
0.075398 0.037144 0.013613
0.093418 0.040942 0.015446
0.116269 0.045686 0.017762
0.145252 0.051630 0.020692
0.182023 0.059097 0.024402
0.228678 0.068497 0.029100
0.287885 0.080348 0.035053
0.363027 0.095312 0.042601
0.458399 0.114227 0.052172
0.579457 0.138156 0.064312
0.733126 0.168451 0.079713
0.928199 0.206827 0.099255
1.175839 0.255463 0.124055
1.490220 0.317122 0.155529
1.889339 0.395317 0.195477
2.396041 0.494503 0.246184
3.039338 0.620341 0.310551
3.856057 0.780015 0.392261
4.892962 0.982647 0.495990
0.012792 0.026976 0.007591
0.013728 0.027467 0.007718
0.014887 0.028006 0.007868
0.016327 0.028604 0.008047
0.018124 0.029276 0.008262
0.020375 0.030040 0.008522
0.023199 0.030920 0.008840
0.026754 0.031947 0.009232
0.031233 0.033158 0.009717
0.036887 0.034603 0.010320
0.044032 0.036344 0.011072
0.053069 0.038457 0.012014
0.064509 0.041044 0.013197
0.078998 0.044231 0.014685
0.097359 0.048177 0.016561
0.120634 0.053087 0.018929
0.150149 0.059219 0.021921
0.187585 0.066900 0.025706
0.235078 0.076549 0.030497
0.295339 0.088693 0.036566
0.371811 0.104005 0.044256
0.468863 0.123336 0.054004
0.592046 0.147770 0.066367
0.748403 0.178682 0.082047
0.946880 0.217815 0.101940
1.198833 0.267385 0.127181
1.518681 0.330207 0.159212
1.924730 0.409849 0.199864
2.440225 0.510848 0.251461
3.094671 0.638960 0.316954
3.925540 0.801494 0.400089
4.980397 1.007730 0.505624
0.015523 0.034484 0.008640
0.016508 0.035074 0.008782
0.017719 0.035713 0.008947
0.019217 0.036414 0.009142
0.021079 0.037191 0.009373
0.023402 0.038063 0.009651
0.026310 0.039055 0.009988
0.029960 0.040196 0.010400
0.034552 0.041527 0.010907
0.040339 0.043097 0.011534
0.047644 0.044969 0.012313
0.056874 0.047221 0.013285
0.068548 0.049957 0.014502
0.083325 0.053303 0.016031
0.102041 0.057424 0.017954
0.125757 0.062526 0.020377
0.155820 0.068873 0.023436
0.193943 0.076798 0.027302
0.242296 0.086725 0.032191
0.303639 0.099192 0.038380
0.381473 0.114883 0.046218
0.480244 0.134665 0.056152
0.605597 0.159639 0.068744
0.764699 0.191204 0.084711
0.966648 0.231134 0.104964
1.222999 0.281683 0.130658
1.548417 0.345714 0.163260
1.961528 0.426858 0.204632
2.485973 0.529729 0.257137
3.151776 0.660184 0.323780
3.997046 0.825656 0.408369
5.070179 1.035588 0.515746
0.019027 0.044156 0.009987
0.020071 0.044873 0.010147
0.021345 0.045641 0.010331
0.022911 0.046473 0.010545
0.024848 0.047384 0.010797
0.027255 0.048393 0.011097
0.030258 0.049526 0.011457
0.034016 0.050813 0.011893
0.038732 0.052294 0.012426
0.044666 0.054019 0.013081
0.052143 0.056053 0.013892
0.061580 0.058477 0.014899
0.073503 0.061393 0.016156
0.088584 0.064933 0.017729
0.107672 0.069262 0.019704
0.131847 0.074591 0.022188
0.162480 0.081188 0.025319
0.201312 0.089392 0.029271
0.250553 0.099635 0.034265
0.313008 0.112464 0.040581
0.392240 0.128574 0.048575
0.492771 0.148847 0.058700
0.620344 0.174404 0.071531
0.782249 0.206668 0.087795
0.987744 0.247444 0.108420
1.248580 0.299024 0.134579
1.579678 0.364321 0.167766
1.999984 0.447029 0.209875
2.533551 0.551841 0.263310
3.210915 0.684715 0.331127
4.070852 0.853215 0.417201
5.162586 1.066944 0.526457
0.023529 0.056618 0.011716
0.024644 0.057496 0.011900
0.025994 0.058430 0.012108
0.027642 0.059429 0.012347
0.029668 0.060512 0.012624
0.032173 0.061696 0.012951
0.035284 0.063008 0.013339
0.039165 0.064478 0.013805
0.044022 0.066149 0.014369
0.050117 0.068070 0.015059
0.057783 0.070307 0.015906
0.067443 0.072942 0.016954
0.079635 0.076081 0.018256
0.095038 0.079856 0.019881
0.114519 0.084437 0.021914
0.139176 0.090037 0.024466
0.170403 0.096929 0.027676
0.209971 0.105458 0.031721
0.260129 0.116064 0.036827
0.323730 0.129303 0.043277
0.404399 0.145882 0.051436
0.506736 0.166699 0.061763
0.636583 0.192893 0.074842
0.801357 0.225912 0.091415
1.010474 0.267593 0.112423
1.275890 0.320268 0.139063
1.612782 0.386898 0.172851
2.040426 0.471244 0.215716
2.583286 0.578078 0.270103
3.272432 0.713462 0.339121
4.147303 0.885090 0.426712
5.257978 1.102731 0.537886
0.029315 0.072674 0.013939
0.030518 0.073761 0.014152
0.031961 0.074906 0.014391
0.033708 0.076121 0.014661
0.035841 0.077422 0.014971
0.038461 0.078830 0.015331
0.041700 0.080370 0.015754
0.045722 0.082074 0.016256
0.050738 0.083984 0.016860
0.057014 0.086152 0.017590
0.064890 0.088644 0.018482
0.074796 0.091544 0.019578
0.087277 0.094959 0.020933
0.103027 0.099024 0.022617
0.122926 0.103911 0.024716
0.148091 0.109839 0.027344
0.179941 0.117084 0.030641
0.220278 0.125997 0.034789
0.271388 0.137025 0.040015
0.336175 0.150735 0.046611
0.418325 0.167846 0.054944
0.522519 0.189272 0.065484
0.654700 0.216171 0.078823
0.822411 0.250015 0.095718
1.035234 0.292675 0.117124
1.305328 0.346522 0.144260
1.648138 0.414568 0.178669
2.083265 0.500640 0.222311
2.635604 0.609592 0.277676
3.336754 0.747590 0.347924
4.226841 0.922463 0.437067
5.356811 1.144147 0.550200
0.036755 0.093363 0.016798
0.038068 0.094717 0.017049
0.039626 0.096134 0.017326
0.041495 0.097625 0.017636
0.043756 0.099207 0.017987
0.046515 0.100901 0.018389
0.049904 0.102732 0.018855
0.054092 0.104734 0.019403
0.059291 0.106949 0.020054
0.065775 0.109430 0.020835
0.073887 0.112243 0.021781
0.084064 0.115476 0.022935
0.096863 0.119236 0.024352
0.112988 0.123661 0.026105
0.133336 0.128926 0.028281
0.159042 0.135253 0.030994
0.191550 0.142924 0.034390
0.232692 0.152296 0.038651
0.284795 0.163823 0.044011
0.350813 0.178083 0.050763
0.434496 0.195806 0.059284
0.540605 0.217922 0.070049
0.675186 0.245611 0.083664
0.845913 0.280369 0.100895
1.062532 0.324099 0.122717
1.337414 0.379213 0.150368
1.686268 0.448777 0.185418
2.129038 0.536682 0.229862
2.691045 0.647868 0.286232
3.404438 0.788605 0.357742
4.310035 0.966859 0.448475
5.459657 1.192737 0.563613
0.046328 0.120022 0.020476
0.047778 0.121720 0.020775
0.049479 0.123485 0.021102
0.051497 0.125331 0.021462
0.053917 0.127273 0.021865
0.056844 0.129333 0.022320
0.060414 0.131538 0.022841
0.064797 0.133921 0.023446
0.070211 0.136524 0.024157
0.076933 0.139402 0.025000
0.085314 0.142624 0.026011
0.095797 0.146276 0.027235
0.108948 0.150469 0.028728
0.125486 0.155344 0.030561
0.146320 0.161078 0.032827
0.172606 0.167897 0.035640
0.205814 0.176088 0.039148
0.247808 0.186015 0.043536
0.300954 0.198139 0.049043
0.368256 0.213048 0.055967
0.453530 0.231486 0.064691
0.561621 0.254397 0.075699
0.698676 0.282982 0.089606
0.872504 0.318765 0.107194
1.093019 0.363680 0.129452
1.372806 0.420181 0.157640
1.727845 0.491388 0.193356
2.178426 0.581257 0.238629
2.750304 0.694815 0.296035
3.476187 0.838443 0.368844
4.397596 1.020239 0.461208
5.567252 1.250490 0.578400
0.058649 0.154374 0.025210
0.060272 0.156514 0.025571
0.062151 0.158728 0.025961
0.064356 0.161029 0.026385
0.066970 0.163434 0.026854
0.070103 0.165965 0.027376
0.073891 0.168647 0.027967
0.078509 0.171517 0.028644
0.084179 0.174617 0.029428
0.091180 0.178002 0.030349
0.099870 0.181742 0.031441
0.110702 0.185926 0.032750
0.124251 0.190667 0.034334
0.141245 0.196107 0.036265
0.162613 0.202427 0.038637
0.189530 0.209858 0.041567
0.223491 0.218690 0.045203
0.266391 0.229294 0.049737
0.320637 0.242141 0.055409
0.389288 0.257826 0.062524
0.476224 0.277108 0.071471
0.586372 0.300948 0.082743
0.725988 0.330566 0.096964
0.903015 0.367514 0.114930
1.127537 0.413757 0.137649
1.412359 0.471795 0.166401
1.773735 0.544800 0.202813
2.232305 0.636797 0.248947
2.814274 0.752899 0.307424
3.552909 0.899597 0.381572
4.490454 1.085132 0.475614
5.680534 1.319966 0.594913
0.074511 0.198641 0.031305
0.076352 0.201351 0.031745
0.078456 0.204142 0.032216
0.080894 0.207029 0.032722
0.083751 0.210028 0.033275
0.087138 0.213162 0.033883
0.091194 0.216458 0.034562
0.096097 0.219951 0.035329
0.102072 0.223686 0.036207
0.109405 0.227719 0.037224
0.118458 0.232121 0.038417
0.129693 0.236982 0.039832
0.143694 0.242416 0.041527
0.161204 0.248570 0.043577
0.183165 0.255627 0.046076
0.210774 0.263822 0.049143
0.245551 0.273451 0.052931
0.289425 0.284891 0.057633
0.344845 0.298620 0.063493
0.414921 0.315245 0.070823
0.503601 0.335538 0.080018
0.615897 0.360476 0.091578
0.758173 0.391301 0.106141
0.938510 0.429590 0.124514
1.167167 0.477346 0.147723
1.457168 0.537109 0.177071
1.825049 0.612106 0.214212
2.291808 0.706433 0.261245
2.884099 0.825292 0.320835
3.635769 0.975285 0.396369
4.589786 1.164794 0.492141
5.800710 1.404466 0.613609
0.094937 0.255685 0.039153
0.097053 0.259127 0.039695
0.099442 0.262662 0.040269
0.102173 0.266302 0.040881
0.105334 0.270065 0.041541
0.109037 0.273975 0.042259
0.113424 0.278059 0.043050
0.118676 0.282353 0.043932
0.125022 0.286902 0.044928
0.132753 0.291764 0.046067
0.142237 0.297011 0.047386
0.153944 0.302734 0.048932
0.168469 0.309052 0.050765
0.186566 0.316111 0.052959
0.209196 0.324099 0.055612
0.237575 0.333255 0.058845
0.273249 0.343879 0.062813
0.318181 0.356357 0.067711
0.374863 0.371175 0.073789
0.446457 0.388950 0.081364
0.536981 0.410466 0.090838
0.651533 0.436719 0.102719
0.796588 0.468973 0.117656
0.980365 0.508831 0.136471
1.213300 0.558331 0.160208
1.508644 0.620057 0.190191
1.883219 0.697292 0.228102
2.358382 0.794204 0.276079
2.961254 0.916083 0.336832
3.726260 1.069646 0.413804
4.697118 1.263422 0.511368
5.929321 1.508238 0.635072
0.121242 0.329196 0.049261
0.123711 0.333581 0.049934
0.126461 0.338072 0.050641
0.129563 0.342681 0.051388
0.133106 0.347428 0.052185
0.137205 0.352336 0.053043
0.142004 0.357432 0.053977
0.147688 0.362754 0.055005
0.154488 0.368348 0.056151
0.162702 0.374272 0.057444
0.172704 0.380600 0.058921
0.184972 0.387427 0.060632
0.200110 0.394870 0.062636
0.218888 0.403080 0.065010
0.242281 0.412249 0.067852
0.271527 0.422619 0.071285
0.308200 0.434497 0.075468
0.354295 0.448274 0.080600
0.412348 0.464444 0.086934
0.485576 0.483638 0.094792
0.578066 0.506651 0.104583
0.695004 0.534497 0.116827
0.842977 0.568463 0.132180
1.030348 0.610179 0.151481
1.267730 0.661717 0.175790
1.568606 0.725709 0.206455
1.950086 0.805493 0.245189
2.433901 0.905310 0.294163
3.047633 1.030540 0.356137
3.826310 1.188019 0.434613
4.814397 1.386421 0.534037
6.068353 1.636761 0.660057
0.155125 0.423927 0.062282
0.158044 0.429527 0.063122
0.161253 0.435249 0.063999
0.164826 0.441107 0.064920
0.168853 0.447119 0.065893
0.173450 0.453309 0.066930
0.178766 0.459708 0.068047
0.184987 0.466351 0.069262
0.192349 0.473287 0.070598
0.201155 0.480574 0.072086
0.211786 0.488289 0.073765
0.224727 0.496527 0.075683
0.240595 0.505408 0.077901
0.260171 0.515087 0.080498
0.284448 0.525758 0.083573
0.314685 0.537668 0.087253
0.352484 0.551130 0.091697
0.399874 0.566541 0.097109
0.459434 0.584404 0.103746
0.534439 0.605361 0.111937
0.629045 0.630222 0.122097
0.748528 0.660019 0.134753
0.899590 0.696058 0.150576
1.090735 0.740002 0.170417
1.332765 0.793957 0.195355
1.639390 0.860600 0.226763
2.028022 0.943328 0.266380
2.520761 1.046454 0.316418
3.145672 1.175454 0.379683
3.938382 1.337279 0.459738
4.944130 1.540756 0.561106
6.220351 1.797090 0.689532
0.198774 0.546005 0.079055
0.202267 0.553170 0.080112
0.206063 0.560478 0.081208
0.210235 0.567942 0.082351
0.214876 0.575584 0.083550
0.220104 0.583425 0.084817
0.226070 0.591498 0.086168
0.232964 0.599841 0.087621
0.241027 0.608501 0.089201
0.250565 0.617539 0.090938
0.261967 0.627033 0.092871
0.275727 0.637080 0.095051
0.292472 0.647803 0.097539
0.312997 0.659359 0.100416
0.338311 0.671947 0.103782
0.369697 0.685816 0.107766
0.408783 0.701287 0.112530
0.457634 0.718762 0.118283
0.518875 0.738757 0.125285
0.595834 0.761921 0.133870
0.692742 0.789081 0.144462
0.814966 0.821285 0.157597
0.969321 0.859864 0.173956
1.164463 0.906508 0.194406
1.411377 0.963362 0.220045
1.724012 1.033148 0.252269
2.120078 1.119323 0.292848
2.622061 1.226273 0.344030
3.258507 1.359571 0.408672
4.065663 1.526287 0.490398
5.089549 1.735403 0.593809
6.388586 1.998315 0.724749
0.255007 0.703327 0.100665
0.259236 0.712507 0.102000
0.263782 0.721857 0.103378
0.268718 0.731391 0.104807
0.274141 0.741130 0.106296
0.280171 0.751098 0.107859
0.286960 0.761326 0.109509
0.294702 0.771854 0.111267
0.303642 0.782732 0.113158
0.314093 0.794021 0.115213
0.326449 0.805799 0.117471
0.341214 0.818168 0.119983
0.359025 0.831252 0.122812
0.380691 0.845212 0.126041
0.407240 0.860248 0.129772
0.439976 0.876617 0.134135
0.480554 0.894644 0.139296
0.531077 0.914740 0.145466
0.594214 0.937428 0.152911
0.673352 0.963371 0.161971
0.772794 0.993408 0.173076
0.898001 1.028608 0.186773
1.055906 1.070324 0.203754
1.255312 1.120277 0.224900
1.507398 1.180647 0.251330
1.826351 1.254205 0.284463
2.230188 1.344468 0.326099
2.741785 1.455899 0.378528
3.390180 1.594166 0.444653
4.212248 1.766464 0.528161
5.254799 1.981927 0.633735
6.577274 2.252153 0.767317
0.327459 0.906067 0.128508
0.332631 0.917844 0.130200
0.338136 0.929825 0.131941
0.344052 0.942024 0.133738
0.350473 0.954463 0.135601
0.357522 0.967169 0.137542
0.365356 0.980172 0.139578
0.374171 0.993513 0.141727
0.384217 1.007243 0.144016
0.395812 1.021426 0.146477
0.409358 1.036142 0.149149
0.425367 1.051493 0.152084
0.444486 1.067606 0.155347
0.467541 1.084647 0.159022
0.495575 1.102819 0.163211
0.529917 1.122384 0.168049
0.572249 1.143672 0.173705
0.624712 1.167103 0.180391
0.690020 1.193210 0.188380
0.771621 1.222665 0.198018
0.873889 1.256325 0.209740
1.002381 1.295277 0.224105
1.164151 1.340898 0.241817
1.368155 1.394938 0.263771
1.625762 1.459617 0.291106
1.951407 1.537754 0.325265
2.363419 1.632926 0.368081
2.885066 1.749676 0.421881
3.545892 1.893767 0.489619
4.383406 2.072523 0.575048
5.445232 2.295234 0.682930
6.791829 2.573698 0.819310
0.420810 1.167340 0.164383
0.427193 1.182462 0.166536
0.433930 1.197832 0.168744
0.441098 1.213464 0.171014
0.448796 1.229383 0.173357
0.457148 1.245614 0.175785
0.466312 1.262189 0.178315
0.476490 1.279151 0.180968
0.487936 1.296553 0.183767
0.500973 1.314460 0.186748
0.516011 1.332952 0.189949
0.533570 1.352136 0.193425
0.554310 1.372141 0.197240
0.579070 1.393136 0.201480
0.608912 1.415328 0.206251
0.645187 1.438985 0.211688
0.689608 1.464443 0.217963
0.744353 1.492129 0.225293
0.812181 1.522586 0.233955
0.896602 1.556500 0.244301
1.002066 1.594742 0.256775
1.134225 1.638418 0.271944
1.300255 1.688930 0.290525
1.509267 1.748059 0.313429
1.772827 1.818065 0.341814
2.105622 1.901815 0.377148
2.526293 2.002948 0.421296
3.058516 2.126087 0.476625
3.732341 2.277097 0.546142
4.585928 2.463426 0.633663
5.667720 2.694526 0.744031
7.039231 2.982403 0.883400
0.541096 1.504044 0.210610
0.549035 1.523477 0.213356
0.557353 1.543213 0.216164
0.566127 1.563269 0.219044
0.575459 1.583669 0.222004
0.585477 1.604440 0.225060
0.596340 1.625617 0.228226
0.608254 1.647242 0.231523
0.621478 1.669370 0.234979
0.636341 1.692068 0.238626
0.653260 1.715421 0.242506
0.672764 1.739534 0.246672
0.695525 1.764541 0.251193
0.722396 1.790614 0.256153
0.754459 1.817967 0.261662
0.793089 1.846870 0.267856
0.840027 1.877667 0.274912
0.897489 1.910794 0.283050
0.968284 1.946803 0.292551
1.055981 1.986393 0.303775
1.165107 2.030450 0.317172
1.301414 2.080102 0.333319
1.472201 2.136774 0.352946
1.686737 2.202281 0.376981
1.956788 2.278919 0.406601
2.297294 2.369609 0.443299
2.727222 2.478055 0.488973
3.270652 2.608956 0.546032
3.958158 2.768281 0.617534
4.828557 2.963609 0.707359
5.931135 3.204558 0.820439
7.328458 3.503337 0.963029
0.696092 1.937959 0.270178
0.706031 1.962945 0.273687
0.716379 1.988307 0.277269
0.727217 2.014062 0.280933
0.738646 2.040236 0.284688
0.750797 2.066856 0.288550
0.763833 2.093959 0.292534
0.777963 2.121589 0.296661
0.793453 2.149803 0.300959
0.810635 2.178670 0.305462
0.829934 2.208276 0.310211
0.851891 2.238731 0.315263
0.877188 2.270172 0.320685
0.906694 2.302773 0.326565
0.941509 2.336753 0.333014
0.983031 2.372391 0.340171
1.033036 2.410034 0.348215
1.093774 2.450128 0.357371
1.168104 2.493234 0.367926
1.259658 2.540068 0.380243
1.373043 2.591531 0.394783
1.514107 2.648770 0.412133
1.690278 2.713234 0.433034
1.910985 2.786774 0.458432
2.188198 2.871728 0.489522
2.537116 2.971064 0.527826
2.977031 3.088552 0.575274
3.532444 3.228977 0.634315
4.234455 3.398410 0.708061
5.122555 3.604562 0.800461
6.246874 3.857216 0.916529
7.671072 4.168798 1.062631
0.895819 2.497151 0.346937
0.908331 2.529292 0.351430
0.921290 2.561903 0.356008
0.934777 2.595001 0.360682
0.948898 2.628613 0.365461
0.963785 2.662768 0.370360
0.979605 2.697504 0.375396
0.996571 2.732871 0.380591
1.014953 2.768923 0.385972
1.035089 2.805732 0.391574
1.057415 2.843390 0.397440
1.082478 2.882007 0.403627
1.110973 2.921725 0.410204
1.143785 2.962720 0.417261
1.182034 3.005222 0.424909
1.227143 3.049509 0.433293
1.280916 3.095941 0.442592
1.345645 3.144966 0.453037
1.424241 3.197166 0.464920
1.520396 3.253262 0.478610
1.638796 3.314176 0.494577
1.785393 3.381073 0.513416
1.967744 3.455434 0.535884
2.195440 3.539139 0.562940
2.480660 3.634569 0.595804
2.838862 3.744743 0.636022
3.289680 3.873502 0.685557
3.858030 4.025712 0.746903
4.575556 4.207550 0.823224
5.482426 4.426861 0.918537
6.629647 4.693604 1.037945
8.081965 5.020416 1.187923
1.153192 3.217790 0.445852
1.169015 3.259154 0.451612
1.185332 3.301105 0.457474
1.202227 3.343665 0.463448
1.219806 3.386859 0.469545
1.238206 3.430724 0.475780
1.257596 3.475295 0.482170
1.278195 3.520625 0.488739
1.300276 3.566772 0.495512
1.324186 3.613812 0.502528
1.350367 3.661837 0.509829
1.379376 3.710961 0.517473
1.411922 3.761331 0.525532
1.448905 3.813131 0.534095
1.491466 3.866590 0.543279
1.541050 3.921995 0.553228
1.599498 3.979715 0.564127
1.669137 4.040210 0.576210
1.752932 4.104067 0.589774
1.854637 4.172026 0.605196
1.979023 4.245025 0.622952
2.132143 4.324254 0.643651
2.321686 4.411218 0.668060
