iif/luts/adx10_to_aces.cube
TITLE "Generated by Foundry::LUT"
LUT_3D_SIZE 8
DOMAIN_MIN 0.000000 0.000000 0.000000
DOMAIN_MAX 0.903226 0.903226 0.903226
0.004336 0.004336 0.004336
0.008628 0.005339 0.004783
0.019681 0.007669 0.005908
0.048299 0.013435 0.008789
0.122553 0.028114 0.016236
0.315387 0.065935 0.035541
0.816344 0.163876 0.085660
2.117944 0.418020 0.215845
0.006674 0.010379 0.005238
0.011377 0.011754 0.005759
0.023327 0.014565 0.007006
0.054093 0.021073 0.010138
0.133739 0.037142 0.018160
0.340382 0.078015 0.038886
0.877008 0.183290 0.092613
2.271074 0.455866 0.232087
0.012792 0.026976 0.007591
0.018124 0.029276 0.008262
0.031233 0.033158 0.009717
0.064509 0.041044 0.013197
0.150149 0.059219 0.021921
0.371811 0.104005 0.044256
0.946880 0.217815 0.101940
2.440225 0.510848 0.251461
0.029315 0.072674 0.013939
0.035841 0.077422 0.014971
0.050738 0.083984 0.016860
0.087277 0.094959 0.020933
0.179941 0.117084 0.030641
0.418325 0.167846 0.054944
1.035234 0.292675 0.117124
2.635604 0.609592 0.277676
0.074511 0.198641 0.031305
0.083751 0.210028 0.033275
0.102072 0.223686 0.036207
0.143694 0.242416 0.041527
0.245551 0.273451 0.052931
0.503601 0.335538 0.080018
1.167167 0.477346 0.147723
2.884099 0.825292 0.320835
0.198774 0.546005 0.079055
0.214876 0.575584 0.083550
0.241027 0.608501 0.089201
0.292472 0.647803 0.097539
0.408783 0.701287 0.112530
0.692742 0.789081 0.144462
1.411377 0.963362 0.220045
3.258507 1.359571 0.408672
0.541096 1.504044 0.210610
0.575459 1.583669 0.222004
0.621478 1.669370 0.234979
0.695525 1.764541 0.251193
0.840027 1.877667 0.274912
1.165107 2.030450 0.317172
1.956788 2.278919 0.406601
3.958158 2.768281 0.617534
1.484857 4.146493 0.573320
1.568880 4.364021 0.603671
1.667848 4.594954 0.636662
1.799423 4.843287 0.674118
2.009178 5.118486 0.720660
2.415187 5.444187 0.788160
3.323910 5.880815 0.907334
5.531296 6.584315 1.157851
0.005542 0.005322 0.011477
0.010197 0.006402 0.011961
0.022189 0.008923 0.013180
0.053242 0.015171 0.016306
0.133822 0.031092 0.024386
0.343087 0.072127 0.045336
0.886734 0.178405 0.099725
2.299261 0.454197 0.241003
0.007998 0.011625 0.012533
0.013095 0.013095 0.013095
0.026055 0.016123 0.014445
0.059434 0.023161 0.017841
0.145859 0.040574 0.026543
0.370104 0.084903 0.049031
0.952454 0.199122 0.107333
2.465320 0.494899 0.258690
0.014389 0.028910 0.015100
0.020155 0.031346 0.015820
0.034358 0.035496 0.017391
0.070446 0.043987 0.021158
0.163359 0.063640 0.030616
0.403886 0.112169 0.054844
1.027938 0.235600 0.117433
2.648525 0.553526 0.279686
0.031608 0.076479 0.021827
0.038631 0.081465 0.022924
0.054735 0.088411 0.024950
0.094322 0.100137 0.029345
0.194814 0.123952 0.039854
0.453441 0.178837 0.066200
1.122850 0.314089 0.133650
2.859530 0.657790 0.307853
0.078666 0.207575 0.040021
0.088529 0.219472 0.042096
0.108238 0.233811 0.045212
0.153226 0.253628 0.050915
0.263573 0.286772 0.063218
0.543413 0.353587 0.092536
1.263321 0.506888 0.165930
3.126357 0.883864 0.353710
0.208000 0.569055 0.089835
0.225021 0.599886 0.094539
0.252924 0.634274 0.100488
0.308252 0.675522 0.109344
0.433949 0.732086 0.125410
0.741553 0.825808 0.159850
1.520850 1.013307 0.241651
3.524789 1.441562 0.446117
0.564245 1.565999 0.226858
0.600288 1.648911 0.238742
0.648915 1.738235 0.252318
0.727889 1.837644 0.269382
0.883252 1.956336 0.294563
1.234506 2.117853 0.339836
2.092048 2.382987 0.436268
4.262291 2.909309 0.664526
1.546343 4.315722 0.604419
1.634082 4.542139 0.636033
1.737859 4.782600 0.670442
1.876833 5.041414 0.709624
2.100451 5.328827 0.758590
2.536840 5.670461 0.830220
3.518566 6.131857 0.957843
5.909403 6.882222 1.227914
0.008604 0.007899 0.032609
0.013652 0.009063 0.033133
0.026663 0.011790 0.034455
0.060360 0.018562 0.037846
0.147804 0.035829 0.046613
0.374900 0.080352 0.069347
0.964876 0.195676 0.128370
2.497782 0.494962 0.281687
0.011215 0.014499 0.034054
0.016737 0.016071 0.034660
0.030793 0.019333 0.036122
0.067009 0.026946 0.039804
0.160789 0.045817 0.049245
0.404136 0.093895 0.073645
1.036107 0.217819 0.136912
2.677896 0.538774 0.301164
0.017921 0.032527 0.037077
0.024155 0.035107 0.037849
0.039545 0.039545 0.039545
0.078684 0.048690 0.043624
0.179489 0.069945 0.053878
0.440488 0.122532 0.080160
1.117696 0.256402 0.148073
2.876367 0.601338 0.324142
0.035895 0.082069 0.044435
0.043455 0.087307 0.045602
0.060866 0.094662 0.047775
0.103759 0.107195 0.052519
0.212743 0.132839 0.063895
0.493336 0.192188 0.092458
1.219716 0.338744 0.165625
3.104322 0.711501 0.354643
0.084922 0.218529 0.063731
0.095455 0.230963 0.065917
0.116664 0.246020 0.069230
0.165297 0.266996 0.075347
0.284849 0.302407 0.088621
0.588330 0.374330 0.120357
1.369372 0.540079 0.199922
3.390955 0.948534 0.403616
0.219566 0.594727 0.115937
0.237567 0.626865 0.120861
0.267352 0.662796 0.127126
0.326874 0.706098 0.136537
0.462734 0.765945 0.153762
0.795977 0.866038 0.190914
1.641082 1.067815 0.279453
3.815169 1.530777 0.501100
0.590334 1.632182 0.258898
0.628149 1.718520 0.271297
0.679552 1.811627 0.285503
0.763818 1.915478 0.303468
0.930908 2.040045 0.330214
1.310505 2.210866 0.378733
2.239455 2.493902 0.482739
4.592894 3.060141 0.729773
1.612360 4.493566 0.652168
1.703991 4.729238 0.685099
1.812840 4.979628 0.720990
1.959690 5.249382 0.761986
2.198190 5.549595 0.813520
2.667376 5.908038 0.889566
3.728147 6.395810 1.026289
6.317881 7.196501 1.317507
0.017139 0.015186 0.095292
0.022614 0.016440 0.095860
0.036731 0.019391 0.097293
0.073296 0.026730 0.100972
0.168189 0.045460 0.110485
0.414636 0.093766 0.135154
1.054889 0.218908 0.199206
2.718434 0.543689 0.365588
0.020000 0.022172 0.097822
0.025984 0.023854 0.098477
0.041229 0.027369 0.100060
0.080522 0.035604 0.104052
0.182285 0.056056 0.114293
0.446361 0.108203 0.140770
1.132181 0.242658 0.209424
2.913880 0.590933 0.387670
0.027125 0.041052 0.102012
0.033868 0.043786 0.102841
0.050545 0.048533 0.104671
0.092993 0.058386 0.109088
0.202363 0.081375 0.120205
0.485576 0.138365 0.148716
1.220470 0.283559 0.222405
3.128993 0.657804 0.413468
0.045980 0.092727 0.110730
0.054120 0.098230 0.111971
0.072947 0.106023 0.114303
0.119424 0.119424 0.119424
0.237621 0.147042 0.131741
0.542049 0.211229 0.162708
1.330251 0.370042 0.242079
3.375387 0.774323 0.447172
0.097150 0.234850 0.131888
0.108403 0.247845 0.134192
0.131233 0.263662 0.137715
0.183813 0.285875 0.144277
0.313347 0.323724 0.158604
0.642475 0.401166 0.192961
1.489852 0.580400 0.279218
3.683485 1.022990 0.500180
0.237416 0.626445 0.187310
0.256460 0.659948 0.192465
0.288268 0.697496 0.199066
0.352320 0.742968 0.209070
0.499188 0.806316 0.227543
0.860230 0.913256 0.267631
1.776728 1.130459 0.363473
4.135436 1.631014 0.603754
0.623393 1.706139 0.337190
0.663079 1.796047 0.350125
0.717440 1.893103 0.364995
0.807390 2.001611 0.383916
0.987144 2.132383 0.412335
1.397435 2.313119 0.464353
2.403812 2.615392 0.576552
4.955989 3.224749 0.843934
1.687069 4.683801 0.747557
1.782778 4.929110 0.781860
1.896979 5.189845 0.819302
2.052213 5.471023 0.862205
2.306693 5.784647 0.916460
2.811293 6.160833 0.997229
3.957659 6.676702 1.143756
6.763043 7.531457 1.457848
0.041886 0.036443 0.281389
0.047825 0.037796 0.282005
0.063141 0.040988 0.283558
0.102820 0.048943 0.287550
0.205795 0.069258 0.297872
0.473242 0.121670 0.324643
1.168057 0.257467 0.394151
2.973375 0.609915 0.574712
0.045273 0.044059 0.287070
0.051759 0.045860 0.287777
0.068294 0.049649 0.289492
0.110926 0.058559 0.293819
0.221352 0.080725 0.304930
0.507922 0.137286 0.333659
1.252180 0.283168 0.408160
3.185714 0.661092 0.601593
0.053106 0.064058 0.294527
0.060398 0.066958 0.295418
0.078471 0.072038 0.297395
0.124510 0.082654 0.302177
0.243173 0.107524 0.314231
0.550493 0.169287 0.345161
1.347988 0.326768 0.425118
3.419133 0.732815 0.632451
0.073151 0.118189 0.306749
0.081917 0.123974 0.308070
0.102278 0.132233 0.310574
0.152642 0.146568 0.316103
0.280835 0.176322 0.329440
0.611125 0.245749 0.363014
1.466417 0.417854 0.449116
3.685760 0.856336 0.671654
0.126831 0.266447 0.331969
0.138858 0.280031 0.334398
0.163439 0.296650 0.338147
0.220296 0.320183 0.345190
0.360654 0.360654 0.360654
0.717605 0.444061 0.397852
1.636962 0.637902 0.491369
4.017298 1.117509 0.731066
0.273232 0.674307 0.392897
0.293389 0.709237 0.398295
0.327371 0.748480 0.405253
0.396317 0.796246 0.415892
0.555107 0.863329 0.435711
0.946294 0.977631 0.478975
1.940242 1.211502 0.582732
4.499281 1.752778 0.843225
0.675325 1.798204 0.552171
0.716986 1.891832 0.565668
0.774498 1.993012 0.581236
0.870556 2.106404 0.601171
1.063991 2.243729 0.631382
1.507524 2.435037 0.687170
2.597855 2.757989 0.808234
5.365634 3.413931 1.097670
1.782633 4.897115 0.982562
1.882617 5.152457 1.018296
2.002466 5.423973 1.057359
2.166633 5.717077 1.102266
2.438279 6.044768 1.159407
2.981127 6.439689 1.245232
4.220186 6.985503 1.402323
7.259394 7.898354 1.741159
0.114742 0.099177 0.834059
0.121183 0.100635 0.834725
0.137802 0.104090 0.836410
0.180858 0.112713 0.840740
0.292606 0.134748 0.851941
0.582842 0.191616 0.880992
1.336869 0.338973 0.956423
3.296038 0.721446 1.152369
0.119465 0.108128 0.849019
0.126494 0.110056 0.849782
0.144429 0.114141 0.851640
0.190684 0.123782 0.856333
0.310510 0.147807 0.868386
0.621492 0.209157 0.899559
1.429168 0.367438 0.980405
3.527475 0.777536 1.190318
0.128834 0.129981 0.865979
0.136723 0.133057 0.866936
0.156310 0.138495 0.869071
0.206245 0.149938 0.874250
0.334990 0.176845 0.887320
0.668472 0.243785 0.920874
1.533900 0.414596 1.007633
3.781524 0.855152 1.232623
0.150934 0.187370 0.888051
0.160377 0.193452 0.889458
0.182400 0.202209 0.892147
0.236979 0.217550 0.898117
0.376016 0.249612 0.912560
0.734369 0.324716 0.948962
1.662463 0.511237 1.042368
4.070856 0.986823 1.283835
0.208054 0.342724 0.923805
0.220913 0.356927 0.926367
0.247387 0.374395 0.930357
0.308876 0.399337 0.937919
0.460972 0.442629 0.954615
0.848108 0.532484 0.994893
1.845569 0.742149 1.096284
4.428506 1.261899 1.356309
0.361681 0.768236 0.996876
0.383025 0.804656 1.002530
0.419344 0.845679 1.009866
0.493578 0.895870 1.021186
0.665283 0.966937 1.042456
1.089158 1.089158 1.089158
2.167131 1.341043 1.201494
4.943544 1.926432 1.483911
0.781402 1.938870 1.172447
0.825148 2.036376 1.186531
0.886021 2.141863 1.202834
0.988645 2.260377 1.223844
1.196859 2.404628 1.255975
1.676397 2.607213 1.315827
2.857763 2.952399 1.446483
5.859439 3.658679 1.759823
1.934984 5.164701 1.630303
2.039450 5.430490 1.667531
2.165262 5.713243 1.708289
2.338948 6.018801 1.755304
2.629040 6.361240 1.815507
3.213201 6.775954 1.906743
4.552650 7.353694 2.075220
7.845394 8.328993 2.440827
0.330444 0.285086 2.475551
0.337431 0.286659 2.476273
0.355462 0.290398 2.478100
0.402184 0.299745 2.482798
0.523452 0.323647 2.494951
0.838419 0.385349 2.526476
1.656703 0.545252 2.608334
3.782840 0.960309 2.820979
0.338896 0.297442 2.517993
0.346515 0.299509 2.518819
0.365968 0.303914 2.520831
0.416155 0.314346 2.525919
0.546182 0.340388 2.538996
0.883656 0.406933 2.572821
1.760155 0.578670 2.660552
4.037278 1.023682 2.888350
0.352244 0.323276 2.562968
0.360778 0.326541 2.563996
0.382006 0.332365 2.566302
0.436168 0.344701 2.571911
0.575856 0.373815 2.586083
0.937726 0.446369 2.622484
1.876877 0.631643 2.716624
4.316021 1.109646 2.960776
0.378898 0.386140 2.613719
0.389074 0.392537 2.615217
0.412898 0.401827 2.618106
0.472047 0.418250 2.624554
0.622849 0.452807 2.640195
1.011655 0.534063 2.679666
2.018753 0.736218 2.780996
4.632303 1.252060 3.043005
0.442058 0.550998 2.679170
0.455812 0.565850 2.681874
0.484331 0.584217 2.686123
0.550839 0.610663 2.694243
0.715665 0.656991 2.712273
1.135549 0.753816 2.755889
2.217760 0.980627 2.865822
5.020559 1.543912 3.147903
0.605703 0.997033 2.783925
0.628314 1.035010 2.789849
0.667147 1.077901 2.797586
0.747096 1.130656 2.809636
0.932791 1.205978 2.832472
1.392114 1.336718 2.882893
2.561245 1.608075 3.004529
5.573531 2.241255 3.310727
1.046308 2.218490 2.995821
1.092259 2.320037 3.010519
1.156716 2.430023 3.027595
1.266399 2.553912 3.049748
1.490583 2.705485 3.083934
2.009123 2.920105 3.148170
3.289206 3.289206 3.289206
6.544635 4.049887 3.628456
2.250628 5.578621 3.501949
2.359793 5.855288 3.540733
2.491904 6.149750 3.583265
2.675739 6.468315 3.632499
2.985658 6.826225 3.695950
3.614452 7.261852 3.792982
5.062636 7.873652 3.973733
8.630303 8.916097 4.368308
0.970388 0.836840 7.351167
0.977967 0.838537 7.351948
0.997531 0.842584 7.353930
1.048231 0.852717 7.359026
1.179830 0.878644 7.372214
1.521636 0.945592 7.406424
2.409654 1.119111 7.495256
4.716988 1.569527 7.726022
0.989668 0.858731 7.475159
0.997926 0.860945 7.476050
1.019027 0.865696 7.478230
1.073479 0.876987 7.483748
1.214577 0.905216 7.497934
1.580800 0.977399 7.534637
2.531986 1.163736 7.629841
5.003166 1.646637 7.877048
1.014217 0.894797 7.603118
1.023452 0.898262 7.604224
1.046460 0.904502 7.606716
1.105207 0.917805 7.612792
1.256768 0.949311 7.628159
1.649445 1.027954 7.667649
2.668600 1.228920 7.769799
5.315586 1.747556 8.034744
1.052792 0.969549 7.738445
1.063760 0.976279 7.740043
1.089534 0.986138 7.743148
1.153641 1.003726 7.750113
1.317207 1.040982 7.767053
1.739057 1.128904 7.809852
2.831886 1.348015 7.919781
5.668075 1.907532 8.204080
1.129537 1.150591 7.890450
1.144255 1.166125 7.893304
1.174985 1.185444 7.897831
1.246931 1.213497 7.906555
1.425560 1.263094 7.926028
1.880974 1.367455 7.973262
3.055149 1.612844 8.092462
6.096536 2.223343 8.398476
1.311031 1.624384 8.084757
1.334993 1.663986 8.090964
1.376531 1.708839 8.099129
1.462657 1.764307 8.111960
1.663508 1.844172 8.136485
2.161273 1.984082 8.190933
3.429303 2.276489 8.322651
6.697533 2.961447 8.654644
1.780915 2.905233 8.391979
1.829195 3.010993 8.407320
1.897478 3.125679 8.425210
2.014752 3.255210 8.448576
2.256195 3.414527 8.484966
2.816984 3.641994 8.553929
4.204118 4.036825 8.706199
7.734842 4.856309 9.073534
3.045706 6.411735 9.006826
3.159800 6.699729 9.047235
3.298568 7.006396 9.091622
3.493227 7.338548 9.143190
3.824462 7.712687 9.210091
4.501485 8.170426 9.313332
6.067451 8.818567 9.507320
9.933236 9.933233 9.933241
