nuke-default/luts/cineon.spi1d
Version 1
From 0.000000 1.000000
Length 4096
Components 1
{
    -0.0056508183479309082
    -0.005640566349029541
    -0.0056303143501281738
    -0.0056200628168880939
    -0.0056098108179867268
    -0.0055995588190853596
    -0.0055893072858452797
    -0.0055790548212826252
    -0.0055688032880425453
    -0.0055585512891411781
    -0.0055482992902398109
    -0.0055380472913384438
    -0.0055277952924370766
    -0.0055175432935357094
    -0.0055072912946343422
    -0.005497039295732975
    -0.0054867877624928951
    -0.0054762344807386398
    -0.0054656621068716049
    -0.00545508973300457
    -0.0054445173591375351
    -0.0054339449852705002
    -0.0054233726114034653
    -0.0054128007031977177
    -0.0054022278636693954
    -0.0053916559554636478
    -0.0053810835815966129
    -0.0053705116733908653
    -0.0053599388338625431
    -0.0053493669256567955
    -0.0053387940861284733
    -0.0053282221779227257
    -0.0053176498040556908
    -0.0053067859262228012
    -0.0052958829328417778
    -0.0052849799394607544
    -0.005274076946079731
    -0.0052631739526987076
    -0.0052522714249789715
    -0.0052413684315979481
    -0.005230465903878212
    -0.0052195629104971886
    -0.0052086599171161652
    -0.0051977569237351418
    -0.0051868539303541183
    -0.0051759509369730949
    -0.0051650479435920715
    -0.0051541449502110481
    -0.005143242422491312
    -0.0051320586353540421
    -0.0051208147779107094
    -0.0051095709204673767
    -0.0050983261317014694
    -0.0050870822742581367
    -0.0050758384168148041
    -0.0050645945593714714
    -0.0050533502362668514
    -0.0050421063788235188
    -0.0050308625213801861
    -0.0050196181982755661
    -0.0050083743408322334
    -0.0049971304833889008
    -0.0049858861602842808
    -0.0049746418371796608
    -0.0049633984453976154
    -0.0049518854357302189
    -0.0049402895383536816
    -0.0049286936409771442
    -0.0049170982092618942
    -0.0049055027775466442
    -0.0048939068801701069
    -0.0048823114484548569
    -0.0048707155510783195
    -0.0048591196537017822
    -0.0048475242219865322
    -0.0048359287902712822
    -0.0048243328928947449
    -0.0048127369955182076
    -0.0048011415638029575
    -0.0047895456664264202
    -0.0047779497690498829
    -0.0047660986892879009
    -0.0047541405074298382
    -0.0047421827912330627
    -0.004730224609375
    -0.0047182664275169373
    -0.0047063087113201618
    -0.0046943509951233864
    -0.0046823928132653236
    -0.0046704346314072609
    -0.0046584764495491982
    -0.0046465182676911354
    -0.00463456055149436
    -0.0046226028352975845
    -0.0046106446534395218
    -0.004598686471581459
    -0.0045867287553846836
    -0.0045745284296572208
    -0.0045621967874467373
    -0.0045498642139136791
    -0.0045375325717031956
    -0.0045252004638314247
    -0.0045128688216209412
    -0.0045005367137491703
    -0.0044882046058773994
    -0.0044758729636669159
    -0.004463540855795145
    -0.0044512087479233742
    -0.0044388766400516033
    -0.0044265449978411198
    -0.0044142128899693489
    -0.0044018812477588654
    -0.0043895486742258072
    -0.0043769902549684048
    -0.0043642721138894558
    -0.0043515544384717941
    -0.0043388367630541325
    -0.0043261186219751835
    -0.0043134009465575218
    -0.0043006828054785728
    -0.0042879651300609112
    -0.0042752474546432495
    -0.0042625293135643005
    -0.0042498116381466389
    -0.0042370939627289772
    -0.0042243758216500282
    -0.0042116581462323666
    -0.0041989404708147049
    -0.0041862223297357559
    -0.0041732937097549438
    -0.0041601783595979214
    -0.0041470630094408989
    -0.0041339476592838764
    -0.0041208318434655666
    -0.0041077164933085442
    -0.0040946011431515217
    -0.0040814857929944992
    -0.0040683699771761894
    -0.0040552546270191669
    -0.0040421392768621445
    -0.0040290234610438347
    -0.0040159081108868122
    -0.0040027927607297897
    -0.0039896769449114799
    -0.0039765615947544575
    -0.0039632529951632023
    -0.0039497273974120617
    -0.0039362017996609211
    -0.0039226757362484932
    -0.0039091506041586399
    -0.0038956250064074993
    -0.0038820991758257151
    -0.0038685738109052181
    -0.0038550479803234339
    -0.0038415223825722933
    -0.0038279967848211527
    -0.0038144709542393684
    -0.0038009453564882278
    -0.0037874197587370872
    -0.0037738941609859467
    -0.0037603683304041624
    -0.0037466688081622124
    -0.0037327203899621964
    -0.003718772204592824
    -0.003704823786392808
    -0.0036908753681927919
    -0.0036769269499927759
    -0.0036629787646234035
    -0.0036490303464233875
    -0.0036350821610540152
    -0.0036211339756846428
    -0.0036071855574846268
    -0.0035932371392846107
    -0.0035792889539152384
    -0.0035653405357152224
    -0.0035513921175152063
    -0.0035374436993151903
    -0.0035233416128903627
    -0.003508957102894783
    -0.0034945723600685596
    -0.0034801880829036236
    -0.0034658033400774002
    -0.0034514190629124641
    -0.0034370343200862408
    -0.0034226500429213047
    -0.0034082653000950813
    -0.0033938810229301453
    -0.0033794965129345655
    -0.0033651117701083422
    -0.0033507272601127625
    -0.0033363427501171827
    -0.003321958240121603
    -0.0033075737301260233
    -0.0032930567394942045
    -0.0032782221678644419
    -0.0032633875962346792
    -0.0032485530246049166
    -0.0032337184529751539
    -0.0032188838813453913
    -0.003204049076884985
    -0.0031892149709165096
    -0.003174380399286747
    -0.0031595458276569843
    -0.0031447112560272217
    -0.003129876684397459
    -0.0031150418799370527
    -0.0031002073083072901
    -0.0030853727366775274
    -0.0030705381650477648
    -0.0030555943958461285
    -0.0030402960255742073
    -0.0030249974224716425
    -0.0030096990521997213
    -0.0029944006819278002
    -0.002979102311655879
    -0.0029638037085533142
    -0.0029485053382813931
    -0.0029332069680094719
    -0.0029179085977375507
    -0.0029026102274656296
    -0.0028873116243630648
    -0.0028720130212605
    -0.0028567146509885788
    -0.002841416047886014
    -0.0028261176776140928
    -0.0028107347898185253
    -0.0027949581854045391
    -0.0027791815809905529
    -0.0027634049765765667
    -0.0027476283721625805
    -0.0027318517677485943
    -0.0027160751633346081
    -0.0027002987917512655
    -0.0026845221873372793
    -0.0026687453500926495
    -0.0026529687456786633
    -0.002637192141264677
    -0.0026214155368506908
    -0.0026056391652673483
    -0.0025898623280227184
    -0.0025740857236087322
    -0.0025582511443644762
    -0.0025419811718165874
    -0.0025257111992686987
    -0.0025094414595514536
    -0.0024931714870035648
    -0.0024769017472863197
    -0.002460631774738431
    -0.0024443620350211859
    -0.0024280920624732971
    -0.002411822322756052
    -0.0023955523502081633
    -0.0023792823776602745
    -0.0023630124051123857
    -0.0023467426653951406
    -0.0023304726928472519
    -0.0023142024874687195
    -0.002297902712598443
    -0.0022811235394328833
    -0.0022643445990979671
    -0.002247565658763051
    -0.0022307864855974913
    -0.0022140075452625751
    -0.002197228604927659
    -0.0021804494317620993
    -0.0021636704914271832
    -0.0021468913182616234
    -0.0021301123779267073
    -0.0021133334375917912
    -0.0020965542644262314
    -0.0020797753240913153
    -0.0020629963837563992
    -0.0020462176762521267
    -0.0020294387359172106
    -0.0020121349953114986
    -0.0019948314875364304
    -0.0019775277469307184
    -0.0019602242391556501
    -0.00194292061496526
    -0.0019256169907748699
    -0.0019083133665844798
    -0.0018910097423940897
    -0.0018737060017883778
    -0.0018564024940133095
    -0.0018390989862382412
    -0.0018217952456325293
    -0.001804491737857461
    -0.001787187997251749
    -0.0017698843730613589
    -0.0017525808652862906
    -0.0017347681568935513
    -0.0017169236671179533
    -0.0016990792937576771
    -0.0016812346875667572
    -0.0016633901977911592
    -0.0016455458244308829
    -0.0016277013346552849
    -0.0016098568448796868
    -0.0015920123551040888
    -0.0015741679817438126
    -0.0015563234919682145
    -0.0015384790021926165
    -0.0015206346288323402
    -0.0015027900226414204
    -0.0014849461149424314
    -0.0014671017415821552
    -0.0014487644657492638
    -0.0014303616480901837
    -0.0014119589468464255
    -0.0013935561291873455
    -0.0013751531951129436
    -0.0013567503774538636
    -0.0013383475597947836
    -0.0013199446257203817
    -0.0013015419244766235
    -0.0012831389904022217
    -0.0012647361727431417
    -0.0012463333550840616
    -0.0012279305374249816
    -0.0012095277197659016
    -0.0011911249021068215
    -0.0011727219680324197
    -0.0011538455728441477
    -0.0011348676634952426
    -0.0011158897541463375
    -0.0010969118447974324
    -0.0010779339354485273
    -0.0010589559096843004
    -0.0010399781167507172
    -0.0010210002074018121
    -0.001002022298052907
    -0.00098304427228868008
    -0.00096406647935509682
    -0.00094508857000619173
    -0.00092611060244962573
    -0.00090713269310072064
    -0.00088815536582842469
    -0.00086917745647951961
    -0.00084974546916782856
    -0.00083017378346994519
    -0.00081060209777206182
    -0.00079103047028183937
    -0.00077145872637629509
    -0.00075188704067841172
    -0.00073231535498052835
    -0.00071274361107498407
    -0.00069317198358476162
    -0.00067360023967921734
    -0.00065402861218899488
    -0.0006344568682834506
    -0.00061488518258556724
    -0.00059531349688768387
    -0.0005757418111898005
    -0.00055617018369957805
    -0.00053616665536537766
    -0.00051598332356661558
    -0.0004957999917678535
    -0.0004756166017614305
    -0.00045543326996266842
    -0.00043524990906007588
    -0.00041506654815748334
    -0.00039488321635872126
    -0.00037469982635229826
    -0.00035451649455353618
    -0.00033433316275477409
    -0.00031414980185218155
    -0.00029396644094958901
    -0.00027378310915082693
    -0.00025360035942867398
    -0.00023341699852608144
    -0.00021282512170728296
    -0.0001920104114105925
    -0.00017119570111390203
    -0.00015038097626529634
    -0.00012956626596860588
    -0.00010875157022383064
    -8.7936859927140176e-05
    -6.7122142354492098e-05
    -4.630742478184402e-05
    -2.5492714485153556e-05
    -4.6780041884630919e-06
    1.6136713384184986e-05
    3.695142368087545e-05
    5.7766137615544721e-05
    7.8580844274256378e-05
    9.9395561846904457e-05
    0.00012059322034474462
    0.00014205893967300653
    0.00016352464444935322
    0.00018499036377761513
    0.00020645608310587704
    0.00022792178788222373
    0.00024938752176240087
    0.00027085322653874755
    0.00029231893131509423
    0.00031378463609144092
    0.00033525036997161806
    0.00035671607474796474
    0.00037818177952431142
    0.00039964748430065811
    0.00042111254879273474
    0.00044257828267291188
    0.00046439925790764391
    0.00048653609701432288
    0.00050867290701717138
    0.00053080974612385035
    0.00055294658523052931
    0.00057508342433720827
    0.00059722020523622632
    0.00061935704434290528
    0.00064149382524192333
    0.00066363066434860229
    0.00068576750345528126
    0.00070790428435429931
    0.00073004112346097827
    0.00075217790435999632
    0.00077431480167433619
    0.00079645164078101516
    0.00081891409354284406
    0.00084174296353012323
    0.00086457183351740241
    0.00088740070350468159
    0.00091022951528429985
    0.00093305844347923994
    0.0009558872552588582
    0.00097871618345379829
    0.0010015449952334166
    0.0010243738070130348
    0.0010472027352079749
    0.0010700315469875932
    0.0010928604751825333
    0.0011156894033774734
    0.0011385174002498388
    0.0011613463284447789
    0.0011844693217426538
    0.0012080124579370022
    0.0012315555941313505
    0.0012550987303256989
    0.0012786417501047254
    0.0013021848862990737
    0.001325728022493422
    0.0013492711586877704
    0.0013728141784667969
    0.001396357431076467
    0.0014199005672708154
    0.0014434437034651637
    0.001466986839659512
    0.0014905298594385386
    0.0015140729956328869
    0.0015376161318272352
    0.0015614189906045794
    0.0015856979880481958
    0.0016099771019071341
    0.0016342562157660723
    0.0016585353296250105
    0.0016828144434839487
    0.0017070934409275651
    0.0017313724383711815
    0.0017556515522301197
    0.0017799306660890579
    0.0018042097799479961
    0.0018284887773916125
    0.0018527678912505507
    0.0018770468886941671
    0.0019013253040611744
    0.0019256043015047908
    0.0019501066999509931
    0.0019751451909542084
    0.0020001837983727455
    0.0020252224057912827
    0.0020502607803791761
    0.0020752993877977133
    0.0021003377623856068
    0.0021253763698041439
    0.002150414977222681
    0.0021754535846412182
    0.0022004921920597553
    0.0022255307994782925
    0.002250569174066186
    0.0022756077814847231
    0.0023006463889032602
    0.0023256849963217974
    0.0023509075399488211
    0.0023767284583300352
    0.0024025491438806057
    0.0024283700622618198
    0.002454190980643034
    0.0024800118990242481
    0.0025058325845748186
    0.0025316535029560328
    0.0025574741885066032
    0.0025832951068878174
    0.0026091160252690315
    0.0026349369436502457
    0.0026607576292008162
    0.0026865785475820303
    0.0027123987674713135
    0.0027382196858525276
    0.0027641830965876579
    0.002790811937302351
    0.0028174407780170441
    0.0028440698515623808
    0.0028706986922770739
    0.0028973275329917669
    0.0029239566065371037
    0.0029505854472517967
    0.0029772142879664898
    0.0030038431286811829
    0.0030304719693958759
    0.0030571010429412127
    0.0030837298836559057
    0.0031103589572012424
    0.0031369884964078665
    0.0031636175699532032
    0.0031903444323688745
    0.0032178058754652739
    0.0032452673185616732
    0.0032727287616580725
    0.0033001902047544718
    0.0033276516478508711
    0.0033551130909472704
    0.0033825745340436697
    0.003410035977140069
    0.0034374974202364683
    0.0034649588633328676
    0.0034924203064292669
    0.0035198817495256662
    0.0035473431926220655
    0.0035748046357184649
    0.0036022660788148642
    0.0036297778133302927
    0.0036580981686711311
    0.0036864187568426132
    0.0037147391121834517
    0.0037430594675242901
    0.0037713798228651285
    0.0037997001782059669
    0.0038280205335468054
    0.0038563408888876438
    0.0038846614770591259
    0.0039129815995693207
    0.0039413021877408028
    0.0039696227759122849
    0.0039979428984224796
    0.0040262616239488125
    0.0040545817464590073
    0.0040829023346304893
    0.0041121076792478561
    0.0041413130238652229
    0.004170518834143877
    0.0041997241787612438
    0.0042289295233786106
    0.0042581348679959774
    0.0042873402126133442
    0.004316545557230711
    0.0043457513675093651
    0.0043749567121267319
    0.0044041620567440987
    0.0044333674013614655
    0.0044625727459788322
    0.004491778090596199
    0.0045209834352135658
    0.0045501887798309326
    0.0045802542008459568
    0.0046103731729090214
    0.0046404926106333733
    0.0046706115826964378
    0.0047007305547595024
    0.004730849526822567
    0.0047609684988856316
    0.0047910874709486961
    0.0048212064430117607
    0.0048513254150748253
    0.0048814448527991772
    0.0049115638248622417
    0.0049416827969253063
    0.0049718017689883709
    0.0050019212067127228
    0.0050320397131145
    0.0050629903562366962
    0.0050940513610839844
    0.0051251123659312725
    0.0051561733707785606
    0.0051872348412871361
    0.0052182958461344242
    0.0052493568509817123
    0.0052804178558290005
    0.0053114788606762886
    0.005342540331184864
    0.0053736008703708649
    0.0054046623408794403
    0.0054357233457267284
    0.0054667843505740166
    0.005497845821082592
    0.0055289063602685928
    0.0055607673712074757
    0.0055927992798388004
    0.0056248316541314125
    0.0056568635627627373
    0.0056888959370553493
    0.0057209283113479614
    0.0057529602199792862
    0.005784992128610611
    0.0058170240372419357
    0.0058490564115345478
    0.0058810887858271599
    0.0059131206944584846
    0.0059451526030898094
    0.005977182649075985
    0.006009215023368597
    0.0060412469319999218
    0.0060740453191101551
    0.0061070793308317661
    0.0061401133425533772
    0.0061731473542749882
    0.0062061813659965992
    0.0062392158433794975
    0.0062722498551011086
    0.0063052838668227196
    0.0063383178785443306
    0.0063713514246046543
    0.0064043854363262653
    0.0064374194480478764
    0.0064704539254307747
    0.0065034879371523857
    0.0065365219488739967
    0.0065695559605956078
    0.0066033182665705681
    0.0066373846493661404
    0.0066714510321617126
    0.0067055169492959976
    0.0067395837977528572
    0.0067736497148871422
    0.0068077156320214272
    0.0068417824804782867
    0.0068758483976125717
    0.006909914780408144
    0.006943980697542429
    0.0069780470803380013
    0.0070121134631335735
    0.0070461798459291458
    0.0070802457630634308
    0.0071143121458590031
    0.0071490681730210781
    0.0071842004545032978
    0.0072193327359855175
    0.0072544650174677372
    0.0072895977646112442
    0.0073247300460934639
    0.0073598618619143963
    0.0073949946090579033
    0.007430126890540123
    0.0074652591720223427
    0.0075003914535045624
    0.0075355237349867821
    0.0075706560164690018
    0.0076057882979512215
    0.0076409205794334412
    0.0076760528609156609
    0.0077118314802646637
    0.007748061791062355
    0.007784293033182621
    0.0078205233439803123
    0.0078567536547780037
    0.0078929848968982697
    0.007929215207695961
    0.0079654455184936523
    0.0080016758292913437
    0.0080379070714116096
    0.008074137382209301
    0.008110368624329567
    0.0081465989351272583
    0.0081828273832798004
    0.0082190576940774918
    0.0082552889361977577
    0.0082921190187335014
    0.0083294818177819252
    0.0083668455481529236
    0.0084042083472013474
    0.0084415720775723457
    0.0084789348766207695
    0.0085162986069917679
    0.0085536614060401917
    0.00859102513641119
    0.0086283879354596138
    0.0086657516658306122
    0.0087031144648790359
    0.0087404772639274597
    0.0087778409942984581
    0.0088152037933468819
    0.0088525675237178802
    0.0088904807344079018
    0.0089290132746100426
    0.0089675458148121834
    0.0090060774236917496
    0.0090446099638938904
    0.0090831425040960312
    0.0091216741129755974
    0.0091602066531777382
    0.0091987382620573044
    0.0092372708022594452
    0.009275803342461586
    0.0093143358826637268
    0.009352867491543293
    0.0093914000317454338
    0.009429931640625
    0.0094684651121497154
    0.0095074931159615517
    0.0095472289249300957
    0.0095869665965437889
    0.0096267033368349075
    0.0096664400771260262
    0.0097061768174171448
    0.0097459135577082634
    0.009785650297999382
    0.0098253870382905006
    0.0098651237785816193
    0.0099048605188727379
    0.0099445972591638565
    0.0099843339994549751
    0.010024071671068668
    0.010063807480037212
    0.010103545151650906
    0.010143720544874668
    0.010184699669480324
    0.010225679725408554
    0.010266659781336784
    0.010307639837265015
    0.01034861896187067
    0.010389599017798901
    0.010430579073727131
    0.010471559129655361
    0.010512538254261017
    0.010553518310189247
    0.010594498366117477
    0.010635478422045708
    0.010676455684006214
    0.010717435739934444
    0.010758415795862675
    0.01079977210611105
    0.010842032730579376
    0.010884293355047703
    0.010926553048193455
    0.010968813672661781
    0.011011074297130108
    0.011053334921598434
    0.011095595546066761
    0.011137856170535088
    0.01118011586368084
    0.011222377419471741
    0.011264638043940067
    0.011306898668408394
    0.011349158361554146
    0.011391418986022472
    0.011433679610490799
    0.011476252228021622
    0.011519833467900753
    0.011563415639102459
    0.01160699874162674
    0.011650580912828445
    0.011694163084030151
    0.011737745255231857
    0.011781327426433563
    0.011824910528957844
    0.011868493631482124
    0.01191207580268383
    0.011955657973885536
    0.011999240145087242
    0.012042822316288948
    0.012086405418813229
    0.012129987590014935
    0.012173810973763466
    0.012218755669891834
    0.012263701297342777
    0.012308645993471146
    0.012353591620922089
    0.012398537248373032
    0.0124434819445014
    0.012488426640629768
    0.012533372268080711
    0.012578317895531654
    0.012623262591660023
    0.012668208219110966
    0.012713152915239334
    0.012758098542690277
    0.01280304417014122
    0.012847988866269588
    0.012893100269138813
    0.012939451262354851
    0.012985802255570889
    0.013032153248786926
    0.013078504242002964
    0.013124855235219002
    0.013171207159757614
    0.013217557221651077
    0.01326390914618969
    0.013310259208083153
    0.013356611132621765
    0.013402962125837803
    0.013449313119053841
    0.013495661318302155
    0.013542012311518192
    0.01358836330473423
    0.013634799979627132
    0.013682600110769272
    0.013730400241911411
    0.013778200373053551
    0.01382600050419569
    0.01387380063533783
    0.013921599835157394
    0.013969399966299534
    0.014017200097441673
    0.014065001159906387
    0.014112800359725952
    0.014160601422190666
    0.014208400622010231
    0.01425620075315237
    0.01430400088429451
    0.014351801015436649
    0.014399601146578789
    0.014448896050453186
    0.014498190023005009
    0.014547483995556831
    0.014596778899431229
    0.014646073803305626
    0.014695367775857449
    0.014744661748409271
    0.014793956652283669
    0.014843249693512917
    0.014892544597387314
    0.014941839501261711
    0.014991134405136108
    0.015040427446365356
    0.015089723281562328
    0.015139017254114151
    0.015188312157988548
    0.015239058062434196
    0.015289893373847008
    0.015340730547904968
    0.015391567721962929
    0.015442404896020889
    0.015493240207433701
    0.015544077381491661
    0.015594914555549622
    0.015645749866962433
    0.015696587041020393
    0.015747424215078354
    0.015798261389136314
    0.015849098563194275
    0.015899933874607086
    0.015950771048665047
    0.016001608222723007
    0.016053847968578339
    0.016106273978948593
    0.016158698126673698
    0.016211124137043953
    0.016263550147414207
    0.016315976157784462
    0.016368402168154716
    0.016420828178524971
    0.016473254188895226
    0.016525678336620331
    0.016578104346990585
    0.01663053035736084
    0.016682954505085945
    0.0167353805154562
    0.016787806525826454
    0.016840230673551559
    0.016894007101655006
    0.016948074102401733
    0.017002139240503311
    0.017056204378604889
    0.017110269516706467
    0.017164334654808044
    0.017218399792909622
    0.0172724649310112
    0.017326530069112778
    0.017380597069859505
    0.017434662207961082
    0.01748872734606266
    0.017542792484164238
    0.017596857622265816
    0.017650922760367393
    0.017704987898468971
    0.017760345712304115
    0.017816102132201195
    0.017871856689453125
    0.017927613109350204
    0.017983369529247284
    0.018039124086499214
    0.018094878643751144
    0.018150635063648224
    0.018206391483545303
    0.018262146040797234
    0.018317902460694313
    0.018373657017946243
    0.018429413437843323
    0.018485169857740402
    0.018540924414992332
    0.018596678972244263
    0.018653666600584984
    0.018711166456341743
    0.018768666312098503
    0.018826168030500412
    0.018883666023612022
    0.018941165879368782
    0.018998667597770691
    0.019056167453527451
    0.01911366730928421
    0.01917116716504097
    0.019228667020797729
    0.019286166876554489
    0.019343666732311249
