nuke-default/luts/gamma2.2.spi1d
Version 1
From 0.000000 1.000000
Length 4096
Components 1
{
    0.0
    3.1615340390089841e-07
    6.3230680780179682e-07
    9.484601832809858e-07
    1.2646136156035936e-06
    1.5807669342393638e-06
    1.8969203665619716e-06
    2.2130736851977417e-06
    2.5292272312071873e-06
    2.8453805498429574e-06
    3.1615338684787275e-06
    3.4776871871144976e-06
    3.7938407331239432e-06
    4.1099938243860379e-06
    4.4261473703954834e-06
    4.742300916404929e-06
    5.0584544624143746e-06
    6.1467039813578594e-06
    7.2832112891774159e-06
    8.4197163232602179e-06
    9.5562236310797743e-06
    1.0692728210415225e-05
    1.1829235518234782e-05
    1.2965741007064935e-05
    1.4102247405389789e-05
    1.5238751984725241e-05
    1.6375259292544797e-05
    1.7511765690869652e-05
    1.8648272089194506e-05
    1.9784776668529958e-05
    2.0921283066854812e-05
    2.2057787646190263e-05
    2.3194299501483329e-05
    2.5173820176860318e-05
    2.7265732569503598e-05
    2.9357654057093896e-05
    3.1449577363673598e-05
    3.3541495213285089e-05
    3.5633409424917772e-05
    3.772533091250807e-05
    3.9817252400098369e-05
    4.1909173887688667e-05
    4.400108809932135e-05
    4.6093005948932841e-05
    4.8184931074501947e-05
    5.0276852562092245e-05
    5.2368763135746121e-05
    5.4460684623336419e-05
    5.6552606110926718e-05
    5.9499496273929253e-05
    6.2629580497741699e-05
    6.5759668359532952e-05
    6.8889770773239434e-05
    7.2019858635030687e-05
    7.514994649682194e-05
    7.8280034358613193e-05
    8.1410136772319674e-05
    8.4540224634110928e-05
    8.7670312495902181e-05
    9.0800400357693434e-05
    9.3930495495442301e-05
    9.7060597909148782e-05
    0.00010019067849498242
    0.00010332076635677367
    0.00010645087604643777
    0.00011042245023418218
    0.00011465293937362731
    0.00011888342851307243
    0.0001231138885486871
    0.00012734437768813223
    0.00013157486682757735
    0.00013580534141510725
    0.0001400358451064676
    0.0001442663196939975
    0.00014849682338535786
    0.00015272729797288775
    0.00015695777256041765
    0.00016118824714794755
    0.00016541873628739268
    0.0001696492254268378
    0.00017387971456628293
    0.000178922651684843
    0.00018430411000736058
    0.00018968556832987815
    0.00019506698299665004
    0.00020044844131916761
    0.00020582989964168519
    0.00021121135796420276
    0.00021659280173480511
    0.00022197427460923791
    0.00022735573293175548
    0.00023273719125427306
    0.00023811859136912972
    0.00024350004969164729
    0.00024888152256608009
    0.00025426296633668244
    0.00025964443921111524
    0.00026579841505736113
    0.00027237378526479006
    0.00027894915547221899
    0.00028552446747198701
    0.00029209983767941594
    0.00029867520788684487
    0.00030525054899044335
    0.00031182591919787228
    0.00031840128940530121
    0.00032497663050889969
    0.00033155200071632862
    0.00033812731271609664
    0.00034470268292352557
    0.0003512780531309545
    0.00035785342333838344
    0.00036442876444198191
    0.00037172847078181803
    0.00037953528226353228
    0.00038734206464141607
    0.00039514875970780849
    0.00040295551298186183
    0.00041076229535974562
    0.00041856907773762941
    0.00042637583101168275
    0.000434182642493397
    0.00044198939576745033
    0.00044979617814533412
    0.00045760287321172655
    0.00046540965558961034
    0.00047321640886366367
    0.00048102322034537792
    0.00048883003182709217
    0.00049730646423995495
    0.00050637801177799702
    0.0005154496175237
    0.00052452122326940298
    0.00053359282901510596
    0.00054266443476080894
    0.00055173604050651193
    0.00056080747162923217
    0.00056987907737493515
    0.00057895062491297722
    0.00058802228886634111
    0.00059709383640438318
    0.00060616544215008616
    0.00061523704789578915
    0.00062430865364149213
    0.0006333802011795342
    0.00064306124113500118
    0.0006534279091283679
    0.00066379451891407371
    0.00067416112869977951
    0.00068452779669314623
    0.00069489446468651295
    0.00070526101626455784
    0.00071562750963494182
    0.00072599411942064762
    0.00073636078741401434
    0.00074672739719972014
    0.00075709400698542595
    0.00076746067497879267
    0.00077782722655683756
    0.00078819389455020428
    0.00079856050433591008
    0.0008094717632047832
    0.00082116102566942573
    0.00083285034634172916
    0.00084453955059871078
    0.00085622887127101421
    0.00086791813373565674
    0.00087960739620029926
    0.00089129648404195905
    0.00090298580471426249
    0.0009146750089712441
    0.00092636432964354753
    0.00093805359210819006
    0.00094974285457283258
    0.00096143217524513602
    0.00097312137950211763
    0.00098481064196676016
    0.00099697581026703119
    0.0010100131621584296
    0.0010230506304651499
    0.0010360879823565483
    0.0010491254506632686
    0.0010621629189699888
    0.0010752002708613873
    0.0010882375063374639
    0.0011012749746441841
    0.0011143123265355825
    0.001127349678426981
    0.0011403871467337012
    0.0011534246150404215
    0.0011664619669318199
    0.0011794994352385402
    0.0011925367871299386
    0.0012059776345267892
    0.001220386940985918
    0.0012347962474450469
    0.0012492054374888539
    0.001263614627532661
    0.001278023817576468
    0.0012924331240355968
    0.0013068420812487602
    0.0013212512712925673
    0.0013356604613363743
    0.0013500697677955031
    0.001364479074254632
    0.0013788881478831172
    0.0013932974543422461
    0.0014077066443860531
    0.0014221158344298601
    0.0014368530828505754
    0.0014526562299579382
    0.0014684596098959446
    0.0014842627570033073
    0.0015000659041106701
    0.0015158691676333547
    0.0015316724311560392
    0.0015474753454327583
    0.0015632784925401211
    0.0015790818724781275
    0.0015948850195854902
    0.001610688166692853
    0.0016264914302155375
    0.0016422945773229003
    0.0016580978408455849
    0.0016739011043682694
    0.0016899538459256291
    0.0017071719048544765
    0.0017243899637833238
    0.0017416080227121711
    0.0017588259652256966
    0.0017760440241545439
    0.0017932620830833912
    0.001810479792766273
    0.0018276979681104422
    0.0018449157942086458
    0.0018621338531374931
    0.0018793519120663404
    0.0018965699709951878
    0.0019137880299240351
    0.0019310059724375606
    0.0019482240313664079
    0.0019656107760965824
    0.0019842633046209812
    0.00200291583314538
    0.0020215683616697788
    0.0020402208901941776
    0.0020588734187185764
    0.0020775257144123316
    0.0020961780101060867
    0.0021148305386304855
    0.0021334830671548843
    0.0021521353628486395
    0.0021707878913730383
    0.0021894404198974371
    0.0022080929484218359
    0.0022267454769462347
    0.0022453982383012772
    0.0022641362156718969
    0.0022842418402433395
    0.0023043474648147821
    0.0023244530893862247
    0.0023445587139576674
    0.00236466433852911
    0.0023847699631005526
    0.0024048755876719952
    0.0024249812122434378
    0.0024450868368148804
    0.002465192461386323
    0.0024852980859577656
    0.0025054037105292082
    0.0025255091022700071
    0.0025456149596720934
    0.002565719885751605
    0.0025858255103230476
    0.0026074021589010954
    0.0026289783418178558
    0.0026505549903959036
    0.0026721316389739513
    0.0026937080547213554
    0.0027152844704687595
    0.0027368608862161636
    0.0027584375347942114
    0.0027800139505416155
    0.0028015903662890196
    0.0028231670148670673
    0.0028447434306144714
    0.0028663198463618755
    0.0028878962621092796
    0.0029094729106873274
    0.0029310495592653751
    0.0029540262185037136
    0.0029770904220640659
    0.0030001546256244183
    0.0030232188291847706
    0.0030462830327451229
    0.0030693474691361189
    0.0030924116726964712
    0.0031154761090874672
    0.0031385403126478195
    0.0031616045162081718
    0.0031846689525991678
    0.0032077329233288765
    0.0032307971268892288
    0.0032538615632802248
    0.0032769250683486462
    0.0032999895047396421
    0.0033243806101381779
    0.0033489488996565342
    0.0033735171891748905
    0.0033980854786932468
    0.0034226537682116032
    0.0034472218248993158
    0.0034717901144176722
    0.0034963581711053848
    0.0035209264606237411
    0.0035454947501420975
    0.0035700630396604538
    0.0035946313291788101
    0.0036191993858665228
    0.0036437676753848791
    0.0036683357320725918
    0.0036929040215909481
    0.0037187235429883003
    0.0037448115181177855
    0.0037708990275859833
    0.0037969867698848248
    0.0038230745121836662
    0.0038491622544825077
    0.0038752499967813492
    0.0039013377390801907
    0.0039274254813790321
    0.0039535132236778736
    0.0039796009659767151
    0.0040056887082755566
    0.004031776450574398
    0.0040578641928732395
    0.0040839510038495064
    0.0041100387461483479
    0.0041372999548912048
    0.0041649220511317253
    0.0041925436817109585
    0.0042201662436127663
    0.0042477878741919994
    0.0042754104360938072
    0.0043030320666730404
    0.0043306546285748482
    0.0043582762591540813
    0.0043858988210558891
    0.0044135204516351223
    0.0044411430135369301
    0.0044687646441161633
    0.0044963867403566837
    0.0045240088365972042
    0.0045516309328377247
    0.0045803459361195564
    0.0046095172874629498
    0.0046386877074837685
    0.0046678585931658745
    0.0046970294788479805
    0.0047262003645300865
    0.0047553712502121925
    0.0047845421358942986
    0.0048137125559151173
    0.0048428834415972233
    0.0048720543272793293
    0.0049012252129614353
    0.0049303960986435413
    0.00495956651866436
    0.0049887364730238914
    0.0050179073587059975
    0.0050480896607041359
    0.0050788228400051594
    0.0051095564849674702
    0.0051402896642684937
    0.0051710233092308044
    0.0052017564885318279
    0.0052324896678328514
    0.0052632233127951622
    0.005293956957757473
    0.0053246906027197838
    0.0053554237820208073
    0.0053861569613218307
    0.0054168906062841415
    0.0054476242512464523
    0.0054783574305474758
    0.0055090910755097866
    0.0055407509207725525
    0.0055730603635311127
    0.0056053698062896729
    0.005637679249048233
    0.0056699882261455059
    0.0057022976689040661
    0.005734606646001339
    0.0057669160887598991
    0.0057992255315184593
    0.0058315349742770195
    0.0058638444170355797
    0.0058961529284715652
    0.0059284623712301254
    0.0059607718139886856
    0.0059930803254246712
    0.0060253897681832314
    0.0060585401952266693
    0.0060924380086362362
    0.0061263362877070904
    0.0061602341011166573
    0.0061941323801875114
    0.0062280306592583656
    0.0062619289383292198
    0.006295827217400074
    0.0063297245651483536
    0.0063636233098804951
    0.006397521123290062
    0.0064314194023609161
    0.0064653176814317703
    0.0064992154948413372
    0.0065331137739121914
    0.0065670115873217583
    0.0066016633063554764
    0.0066371629945933819
    0.0066726626828312874
    0.0067081619054079056
    0.0067436620593070984
    0.0067791612818837166
    0.0068146605044603348
    0.0068501601926982403
    0.0068856598809361458
    0.006921159103512764
    0.0069566587917506695
    0.006992158479988575
    0.0070276577025651932
    0.0070631573908030987
    0.0070986552163958549
    0.0071341549046337605
    0.0071703190915286541
    0.0072074322961270809
    0.0072445450350642204
    0.0072816577740013599
    0.0073187705129384995
    0.0073558837175369263
    0.0073929969221353531
    0.0074301101267337799
    0.0074672233313322067
    0.0075043365359306335
    0.0075414488092064857
    0.0075785620138049126
    0.0076156747527420521
    0.0076527879573404789
    0.0076899006962776184
    0.0077270139008760452
    0.0077647003345191479
    0.007803439162671566
    0.0078421765938401222
    0.0078809158876538277
    0.0079196533188223839
    0.0079583916813135147
    0.0079971300438046455
    0.0080358684062957764
    0.0080746067687869072
    0.008113345131278038
    0.0081520825624465942
    0.0081908218562602997
    0.0082295592874288559
    0.0082682976499199867
    0.0083070341497659683
    0.0083457734435796738
    0.0083849932998418808
    0.008425367996096611
    0.0084657426923513412
    0.0085061173886060715
    0.0085464930161833763
    0.0085868677124381065
    0.0086272424086928368
    0.0086676180362701416
    0.0087079927325248718
    0.0087483674287796021
    0.0087887421250343323
    0.0088291177526116371
    0.008869493380188942
    0.0089098680764436722
    0.0089502427726984024
    0.0089906184002757072
    0.0090313805267214775
    0.0090734027326107025
    0.0091154258698225021
    0.0091574490070343018
    0.0091994721442461014
    0.0092414943501353264
    0.009283517487347126
    0.009325539693236351
    0.0093675628304481506
    0.0094095859676599503
    0.0094516091048717499
    0.0094936313107609749
    0.0095356544479727745
    0.0095776766538619995
    0.0096196988597512245
    0.0096617219969630241
    0.009704037569463253
    0.0097477184608578682
    0.009791400283575058
    0.0098350811749696732
    0.0098787629976868629
    0.0099224448204040527
    0.0099661257117986679
    0.010009808465838432
    0.010053489357233047
    0.010097170248627663
    0.010140853002667427
    0.010184533894062042
    0.010228215716779232
    0.010271897539496422
    0.010315580293536186
    0.010359262116253376
    0.01040314044803381
    0.010448490269482136
    0.010493841022253036
    0.010539192706346512
    0.010584542527794838
    0.010629894211888313
    0.010675244033336639
    0.010720595717430115
    0.010765945538878441
    0.010811297222971916
    0.010856647044420242
    0.010901998728513718
    0.010947348549962044
    0.010992700234055519
    0.011038050055503845
    0.011083401739597321
    0.011128851212561131
    0.011175881139934063
    0.01122291199862957
    0.011269942857325077
    0.011316972784698009
    0.011364003643393517
    0.011411033570766449
    0.011458063498139381
    0.011505094356834888
    0.011552125215530396
    0.011599155142903328
    0.01164618507027626
    0.011693215928971767
    0.011740246787667274
    0.011787273921072483
    0.011834303848445415
    0.011881334707140923
    0.011930054984986782
    0.011978774331510067
    0.012027494609355927
    0.012076213955879211
    0.012124934233725071
    0.01217365451157093
    0.01222237478941679
    0.01227109506726265
    0.012319814413785934
    0.012368534691631794
    0.012417254969477654
    0.012465975247323513
    0.012514694593846798
    0.012563414871692657
    0.012612135149538517
    0.012660854496061802
    0.012711174786090851
    0.012761593796312809
    0.012812013737857342
    0.0128624327480793
    0.012912852689623833
    0.012963272631168365
    0.013013691641390324
    0.013064110651612282
    0.013114530593156815
    0.013164950534701347
    0.013215368613600731
    0.013265788555145264
    0.013316208496689796
    0.013366628438234329
    0.013417047448456287
    0.01346746739000082
    0.013519394211471081
    0.013571523129940033
    0.013623652048408985
    0.013675779104232788
    0.01372790802270174
    0.013780036941170692
    0.01383216492831707
    0.013884294778108597
    0.013936422765254974
    0.013988550752401352
    0.014040680602192879
    0.014092807658016682
    0.014144936576485634
    0.014197065494954586
    0.014249194413423538
    0.014301322400569916
    0.014354865998029709
    0.014408713206648827
    0.014462560415267944
    0.014516407623887062
    0.01457025483250618
    0.014624101109802723
    0.014677949249744415
    0.014731795527040958
    0.014785641804337502
    0.014839489012956619
    0.014893336221575737
    0.014947183430194855
    0.015001030638813972
    0.015054874122142792
    0.015108720399439335
    0.015162568539381027
    0.015217735432088375
    0.015273311175405979
    0.015328885056078434
    0.015384459868073463
    0.015440033748745918
    0.015495609492063522
    0.015551183372735977
    0.015606759116053581
    0.015662332996726036
    0.015717906877398491
    0.015773482620716095
    0.01582905650138855
    0.015884630382061005
    0.015940206125378609
    0.015995781868696213
    0.016051355749368668
    0.016108155250549316
    0.016165466979146004
    0.016222778707742691
    0.016280090436339378
    0.016337402164936066
    0.016394712030887604
    0.016452023759484291
    0.016509335488080978
    0.016566647216677666
    0.016623958945274353
    0.016681268811225891
    0.016738580539822578
    0.016795892268419266
    0.016853202134370804
    0.016910513862967491
    0.016967825591564178
    0.0170262660831213
    0.017085323110222816
    0.017144380137324333
    0.01720343716442585
    0.017262494191527367
    0.017321551218628883
    0.017380606383085251
    0.017439663410186768
    0.017498720437288284
    0.017557777464389801
    0.017616834491491318
    0.017675891518592834
    0.017734946683049202
    0.017794003710150719
    0.017853060737252235
    0.017912117764353752
    0.017972206696867943
    0.018033016473054886
    0.018093828111886978
    0.01815463975071907
    0.018215449526906013
    0.018276261165738106
    0.018337070941925049
    0.018397882580757141
    0.018458694219589233
    0.018519503995776176
    0.01858031377196312
    0.018641125410795212
    0.018701935186982155
    0.018762743100523949
    0.018823554739356041
    0.018884364515542984
    0.018946109339594841
    0.019008681178092957
    0.019071256741881371
    0.019133828580379486
    0.019196402281522751
    0.019258975982666016
    0.01932154968380928
    0.019384123384952545
    0.01944669708609581
    0.019509270787239075
    0.019571844488382339
    0.019634418189525604
    0.019696991890668869
    0.019759563729166985
    0.019822139292955399
    0.019884711131453514
    0.019948119297623634
    0.020012462511658669
    0.020076805725693703
    0.020141150802373886
    0.02020549587905407
    0.020269839093089104
    0.020334184169769287
    0.020398527383804321
    0.020462874323129654
    0.020527217537164688
    0.020591560751199722
    0.020655905827879906
    0.020720250904560089
    0.020784595981240273
    0.020848937332630157
    0.020913282409310341
    0.020978359505534172
    0.021044483408331871
    0.021110605448484421
    0.02117672935128212
    0.021242853254079819
    0.021308977156877518
    0.021375101059675217
    0.021441223099827766
    0.021507347002625465
    0.021573469042778015
    0.021639592945575714
    0.021705716848373413
    0.021771840751171112
    0.021837962791323662
    0.021904086694121361
    0.021970208734273911
    0.022036964073777199
    0.02210487425327301
    0.022172786295413971
    0.022240694612264633
    0.022308606654405594
    0.022376518696546555
    0.022444427013397217
    0.022512339055538177
    0.02258024737238884
    0.0226481594145298
    0.022716069594025612
    0.022783979773521423
    0.022851891815662384
    0.022919796407222748
    0.022987708449363708
    0.02305561862885952
    0.023124055936932564
    0.023193761706352234
    0.023263467475771904
    0.023333173245191574
    0.023402879014611244
    0.023472584784030914
    0.023542288690805435
    0.023611994460225105
    0.023681700229644775
    0.023751404136419296
    0.023821111768484116
    0.023890815675258636
    0.023960521444678307
    0.024030227214097977
    0.024099931120872498
    0.024169638752937317
    0.024239767342805862
    0.024311276152729988
    0.024382783100008965
    0.02445429190993309
    0.024525800719857216
    0.024597309529781342
    0.024668816477060318
    0.024740325286984444
    0.024811834096908569
    0.024883341044187546
    0.024954849854111671
    0.025026358664035797
    0.025097867473959923
    0.025169374421238899
    0.025240883231163025
    0.025312392041087151
    0.025384219363331795
    0.025457538664340973
    0.025530856102705002
    0.025604173541069031
    0.025677492842078209
    0.025750812143087387
    0.025824129581451416
    0.025897447019815445
    0.025970766320824623
    0.026044085621833801
    0.02611740306019783
    0.026190720498561859
    0.026264039799571037
    0.026337359100580215
    0.026410678401589394
    0.026483993977308273
    0.026557527482509613
    0.026632662862539291
    0.02670779824256897
    0.026782937347888947
    0.026858072727918625
    0.026933208107948303
    0.027008343487977982
    0.027083480730652809
    0.027158617973327637
    0.027233753353357315
    0.027308888733386993
    0.027384024113416672
    0.027459161356091499
    0.027534294873476028
    0.027609430253505707
    0.027684565633535385
    0.027759809046983719
    0.027836769819259644
    0.027913732454180717
    0.027990691363811493
    0.028067653998732567
    0.028144616633653641
    0.028221577405929565
    0.02829853817820549
    0.028375498950481415
    0.028452463448047638
    0.028529422357678413
    0.028606384992599487
    0.028683345764875412
    0.028760306537151337
    0.028837267309427261
    0.028914229944348335
    0.02899119071662426
    0.029069986194372177
    0.029148777946829796
    0.029227573424577713
    0.029306365177035332
    0.029385160654783249
    0.029463952407240868
    0.029542747884988785
    0.029621539637446404
    0.029700335115194321
    0.029779126867651939
    0.029857922345399857
    0.029936714097857475
    0.030015509575605392
    0.030094301328063011
    0.030173096805810928
    0.030251888558268547
    0.030332412570714951
    0.030413048341870308
    0.030493680387735367
    0.030574314296245575
    0.030654946342110634
    0.030735580250620842
    0.030816212296485901
    0.030896846204996109
    0.030977478250861168
    0.031058110296726227
    0.031138744205236435
    0.031219378113746643
    0.031300012022256851
    0.031380645930767059
    0.031461276113986969
    0.031541910022497177
    0.031624171882867813
    0.031706653535366058
    0.031789131462574005
    0.03187161311507225
    0.031954094767570496
    0.032036572694778442
    0.032119050621986389
    0.032201528549194336
    0.032284010201692581
    0.032366491854190826
    0.032448969781398773
    0.032531451433897018
    0.032613925635814667
    0.032696403563022614
    0.032778885215520859
    0.032861363142728806
    0.032945368438959122
    0.033029705286026001
    0.033114038407802582
    0.033198371529579163
    0.033282704651355743
    0.033367037773132324
    0.033451370894908905
    0.033535704016685486
    0.033620033413171768
    0.033704366534948349
    0.03378869965672493
    0.033873032778501511
    0.033957365900278091
    0.034041699022054672
    0.034126035869121552
    0.034210365265607834
    0.034296121448278427
    0.03438231348991394
    0.034468509256839752
    0.034554701298475266
    0.034640893340110779
    0.034727089107036591
    0.034813281148672104
    0.034899473190307617
    0.034985668957233429
    0.035071860998868942
    0.035158053040504456
    0.035244248807430267
    0.035330440849065781
    0.035416632890701294
    0.035502828657627106
    0.035589020699262619
    0.035676531493663788
    0.035764593631029129
    0.035852652043104172
    0.035940714180469513
    0.036028772592544556
    0.036116834729909897
    0.036204896867275238
    0.036292955279350281
    0.036381013691425323
    0.036469075828790665
    0.036557137966156006
    0.036645196378231049
    0.03673325851559639
    0.036821316927671432
    0.036909379065036774
    0.036997441202402115
    0.037086714059114456
    0.037176646292209625
    0.037266582250595093
    0.037356514483690262
    0.037446446716785431
    0.037536382675170898
    0.037626314908266068
    0.037716250866651535
    0.037806183099746704
    0.037896119058132172
    0.037986051291227341
    0.038075987249612808
    0.038165915757417679
    0.038255847990512848
    0.038345783948898315
    0.038435712456703186
    0.038526758551597595
    0.038618572056293488
