nuke-default/luts/gamma1.8.spi1d
Version 1
From 0.000000 1.000000
Length 4096
Components 1
{
    0.0
    2.900775598391192e-06
    5.8015511967823841e-06
    8.7023263404262252e-06
    1.1603102393564768e-05
    1.4503877537208609e-05
    1.740465268085245e-05
    2.0305427824496292e-05
    2.3206204787129536e-05
    2.6106979930773377e-05
    2.9007755074417219e-05
    3.190853021806106e-05
    3.4809305361704901e-05
    3.7710080505348742e-05
    4.0610855648992583e-05
    4.3511630792636424e-05
    4.6412409574259073e-05
    5.335980313248001e-05
    6.0560123529285192e-05
    6.7760425736196339e-05
    7.4960742495022714e-05
    8.2161044701933861e-05
    8.936136873671785e-05
    9.6561663667671382e-05
    0.00010376198770245537
    0.0001109622826334089
    0.00011816261394415051
    0.00012536291615106165
    0.00013256323290988803
    0.00013976353511679918
    0.00014696385187562555
    0.0001541641540825367
    0.0001613644853932783
    0.00017179048154503107
    0.00018264653044752777
    0.00019350260845385492
    0.00020435868646018207
    0.00021521476446650922
    0.00022607081336900592
    0.00023692689137533307
    0.00024778296938166022
    0.00025863904738798738
    0.00026949509629048407
    0.00028035117429681122
    0.00029120725230313838
    0.00030206333030946553
    0.00031291935010813177
    0.00032377542811445892
    0.00033463150612078607
    0.00034825532929971814
    0.00036247214302420616
    0.00037668904406018555
    0.00039090591599233449
    0.00040512281702831388
    0.0004193396307528019
    0.00043355650268495083
    0.00044777337461709976
    0.00046199030475690961
    0.00047620711848139763
    0.00049042399041354656
    0.0005046408623456955
    0.00051885773427784443
    0.00053307460620999336
    0.0005472914781421423
    0.00056150840828195214
    0.00057814916362985969
    0.00059553573373705149
    0.00061292230384424329
    0.00063030869932845235
    0.00064769526943564415
    0.00066508178133517504
    0.00068246840965002775
    0.00069985492154955864
    0.00071724149165675044
    0.00073462806176394224
    0.00075201457366347313
    0.0007694010273553431
    0.0007867875974625349
    0.00080417416756972671
    0.00082156073767691851
    0.00083894724957644939
    0.00085847260197624564
    0.00087888911366462708
    0.00089930562535300851
    0.00091972202062606812
    0.00094013847410678864
    0.00096055504400283098
    0.0009809714974835515
    0.001001387950964272
    0.0010218045208603144
    0.0010422209743410349
    0.0010626375442370772
    0.0010830538813024759
    0.0011034703347831964
    0.0011238869046792388
    0.0011443033581599593
    0.0011647199280560017
    0.0011870263842865825
    0.001210363581776619
    0.0012337006628513336
    0.0012570377439260483
    0.0012803749414160848
    0.0013037121389061213
    0.0013270494528114796
    0.0013503866503015161
    0.0013737238477915525
    0.001397061045281589
    0.0014203982427716255
    0.0014437353238463402
    0.0014670726377516985
    0.0014904097188264132
    0.0015137469163164496
    0.001537084230221808
    0.0015620870981365442
    0.0015882558654993773
    0.0016144247492775321
    0.0016405934002250433
    0.0016667622840031981
    0.001692931167781353
    0.001719099935144186
    0.001745268702507019
    0.0017714375862851739
    0.0017976063536480069
    0.0018237752374261618
    0.001849943888373673
    0.0018761127721518278
    0.0019022815395146608
    0.0019284504232928157
    0.0019546193070709705
    0.0019822476897388697
    0.0020111734047532082
    0.002040098886936903
    0.0020690243691205978
    0.0020979500841349363
    0.0021268755663186312
    0.0021558012813329697
    0.0021847262978553772
    0.002213651780039072
    0.0022425774950534105
    0.0022715029772371054
    0.0023004284594208002
    0.002329353941604495
    0.0023582796566188335
    0.0023872051388025284
    0.0024161308538168669
    0.0024463234003633261
    0.0024779413361102343
    0.0025095592718571424
    0.0025411772076040506
    0.0025727951433509588
    0.0026044133119285107
    0.0026360310148447752
    0.0026676484849303961
    0.0026992666535079479
    0.0027308845892548561
    0.0027625022921711206
    0.0027941202279180288
    0.0028257383964955807
    0.0028573563322424889
    0.0028889740351587534
    0.0029205922037363052
    0.0029532953631132841
    0.0029875496402382851
    0.0030218036845326424
    0.0030560577288269997
    0.003090311773121357
    0.0031245658174157143
    0.0031588198617100716
    0.0031930734403431416
    0.0032273274846374989
    0.0032615815289318562
    0.0032958355732262135
    0.0033300896175205708
    0.0033643436618149281
    0.0033985977061092854
    0.0034328517504036427
    0.0034671060275286436
    0.0035022727679461241
    0.0035391133278608322
    0.003575953422114253
    0.0036127937491983175
    0.0036496343091130257
    0.0036864746361970901
    0.0037233149632811546
    0.0037601548247039318
    0.0037969951517879963
    0.0038338352460414171
    0.0038706758059561253
    0.0039075161330401897
    0.0039443564601242542
    0.0039811967872083187
    0.0040180371142923832
    0.0040548774413764477
    0.0040924651548266411
    0.0041318470612168312
    0.0041712289676070213
    0.0042106108739972115
    0.0042499927803874016
    0.0042893746867775917
    0.0043287565931677818
    0.0043681375682353973
    0.0044075194746255875
    0.0044469013810157776
    0.0044862832874059677
    0.0045256651937961578
    0.004565047100186348
    0.0046044290065765381
    0.0046438109129667282
    0.0046831928193569183
    0.0047231633216142654
    0.0047650462947785854
    0.0048069292679429054
    0.0048488117754459381
    0.0048906952142715454
    0.0049325781874358654
    0.0049744611606001854
    0.0050163436681032181
    0.0050582261756062508
    0.0051001096144318581
    0.0051419925875961781
    0.005183875560760498
    0.0052257589995861053
    0.0052676419727504253
    0.0053095249459147453
    0.005351407453417778
    0.0053937258198857307
    0.0054380730725824833
    0.0054824203252792358
    0.0055267675779759884
    0.0055711148306727409
    0.0056154625490307808
    0.005659809336066246
    0.0057041561231017113
    0.0057485038414597511
    0.0057928510941565037
    0.0058371983468532562
    0.0058815460652112961
    0.0059258933179080486
    0.0059702405706048012
    0.0060145878233015537
    0.0060589350759983063
    0.0061035687103867531
    0.0061503462493419647
    0.0061971242539584637
    0.0062439017929136753
    0.0062906797975301743
    0.0063374573364853859
    0.0063842353411018848
    0.0064310124143958092
    0.0064777904190123081
    0.0065245684236288071
    0.0065713459625840187
    0.0066181239672005177
    0.0066649019718170166
    0.0067116799764335155
    0.0067584575153887272
    0.0068052359856665134
    0.0068521550856530666
    0.0069013321772217751
    0.0069505097344517708
    0.0069996863603591919
    0.0070488634519279003
    0.0070980405434966087
    0.0071472181007266045
    0.0071963951922953129
    0.0072455722838640213
    0.007294749841094017
    0.0073439264670014381
    0.0073931040242314339
    0.0074422811158001423
    0.0074914582073688507
    0.0075406348332762718
    0.0075898109935224056
    0.007638988085091114
    0.0076905353926122189
    0.007742083165794611
    0.0077936304733157158
    0.0078451782464981079
    0.0078967250883579254
    0.0079482737928628922
    0.0079998206347227097
    0.0080513684079051018
    0.0081029161810874939
    0.0081544630229473114
    0.0082060107961297035
    0.0082575585693120956
    0.0083091063424944878
    0.0083606541156768799
    0.0084122009575366974
    0.0084637487307190895
    0.0085175018757581711
    0.0085713928565382957
    0.0086252838373184204
    0.0086791748180985451
    0.0087330657988786697
    0.0087869567796587944
    0.0088408477604389191
    0.0088947378098964691
    0.0089486297219991684
    0.0090025197714567184
    0.0090564116835594177
    0.0091103017330169678
    0.0091641927137970924
    0.0092180836945772171
    0.0092719728127121925
    0.0093258637934923172
    0.0093817999586462975
    0.00943800900131464
    0.0094942189753055573
    0.0095504280179738998
    0.0096066370606422424
    0.009662846103310585
    0.0097190551459789276
    0.0097752641886472702
    0.0098314732313156128
    0.00988768320530653
    0.009943891316652298
    0.010000101290643215
    0.010056310333311558
    0.010112518444657326
    0.010168728418648243
    0.010224937461316586
    0.010283036157488823
    0.010341539978981018
    0.010400043800473213
    0.010458547621965408
    0.010517051443457603
    0.010575555264949799
    0.010634059086441994
    0.010692562907934189
    0.010751065798103809
    0.010809569619596004
    0.010868072509765625
    0.01092657633125782
    0.010985080152750015
    0.01104358397424221
    0.011102086864411831
    0.011160589754581451
    0.011220831423997879
    0.011281606741249561
    0.011342382989823818
    0.0114031583070755
    0.011463934555649757
    0.011524710804224014
    0.011585486121475697
    0.011646262370049953
    0.011707037687301636
    0.011767813935875893
    0.011828589253127575
    0.011889365501701832
    0.011950141750276089
    0.012010917067527771
    0.012071693316102028
    0.012132469564676285
    0.012194834649562836
    0.012257860973477364
    0.012320888228714466
    0.012383915483951569
    0.012446942739188671
    0.012509969063103199
    0.012572996318340302
    0.012636023573577404
    0.012699050828814507
    0.012762077152729034
    0.012825105339288712
    0.012888131663203239
    0.012951159849762917
    0.013014186173677444
    0.013077211566269398
    0.013140237890183926
    0.013204708695411682
    0.013269968330860138
    0.013335226103663445
    0.013400484807789326
    0.013465743511915207
    0.013531001284718513
    0.013596260920166969
    0.013661518692970276
    0.013726777397096157
    0.013792036101222038
    0.013857293874025345
    0.013922552578151226
    0.013987810350954533
    0.014053069986402988
    0.014118327759206295
    0.014183586463332176
    0.014250146225094795
    0.014317616820335388
    0.014385087415575981
    0.014452558010816574
    0.014520028606057167
    0.01458749920129776
    0.014654969796538353
    0.014722440391778946
    0.014789910987019539
    0.014857381582260132
    0.014924852177500725
    0.014992322772741318
    0.015059793367981911
    0.015127263963222504
    0.015194732695817947
    0.01526220329105854
    0.015330835245549679
    0.01540050096809864
    0.015470165759325027
    0.015539830550551414
    0.015609495341777802
    0.015679161995649338
    0.015748824924230576
    0.015818491578102112
    0.015888156369328499
    0.015957821160554886
    0.016027485951781273
    0.01609715074300766
    0.016166815534234047
    0.016236480325460434
    0.01630614697933197
    0.016375811770558357
    0.016446499153971672
    0.016518343240022659
    0.016590185463428497
    0.016662027686834335
    0.016733869910240173
    0.016805712133646011
    0.016877554357051849
    0.016949396580457687
    0.017021238803863525
    0.017093081027269363
    0.017164923250675201
    0.017236765474081039
    0.017308607697486877
    0.017380448058247566
    0.017452288419008255
    0.017524132505059242
    0.017596865072846413
    0.017670866101980209
    0.017744868993759155
    0.017818871885538101
    0.017892874777317047
    0.017966877669095993
    0.018040880560874939
    0.018114883452653885
    0.018188886344432831
    0.018262889236211777
    0.018336892127990723
    0.018410895019769669
    0.018484897911548615
    0.01855890266597271
    0.018632905557751656
    0.018706906586885452
    0.018781667575240135
    0.018857816234230995
    0.018933963030576706
    0.019010111689567566
    0.019086260348558426
    0.019162409007549286
    0.019238557666540146
    0.019314706325531006
    0.019390853121876717
    0.019467001780867577
    0.019543148577213287
    0.019619297236204147
    0.019695445895195007
    0.019771594554185867
    0.019847739487886429
    0.019923888146877289
    0.02000066265463829
    0.020078940317034721
    0.020157219842076302
    0.020235497504472733
    0.020313775166869164
    0.020392052829265594
    0.020470332354307175
    0.020548608154058456
    0.020626887679100037
    0.020705167204141617
    0.020783444866538048
    0.020861722528934479
    0.020940002053976059
    0.02101827971637249
    0.021096557378768921
    0.021174835041165352
    0.021253611892461777
    0.021334005519747734
    0.021414399147033691
    0.021494794636964798
    0.021575188264250755
    0.021655581891536713
    0.02173597551882267
    0.021816369146108627
    0.021896764636039734
    0.021977158263325691
    0.022057551890611649
    0.022137945517897606
    0.022218339145183563
    0.02229873463511467
    0.022379126399755478
    0.022459520027041435
    0.02254028432071209
    0.022622780874371529
    0.022705277428030968
    0.022787772119045258
    0.022870268672704697
    0.022952765226364136
    0.023035259917378426
    0.023117756471037865
    0.023200251162052155
    0.023282747715711594
    0.023365244269371033
    0.023447738960385323
    0.023530235514044762
    0.023612730205059052
    0.023695230484008789
    0.023777725175023079
    0.023860467597842216
    0.023945052176713943
    0.02402963675558567
    0.024114221334457397
    0.024198804050683975
    0.024283390492200851
    0.024367973208427429
    0.024452559649944305
    0.024537142366170883
    0.024621728807687759
    0.024706311523914337
    0.024790897965431213
    0.02487548254430294
    0.024960065260529518
    0.025044649839401245
    0.025129236280918121
    0.025213941931724548
    0.025300601497292519
    0.025387261062860489
    0.025473922491073608
    0.025560582056641579
    0.025647245347499847
    0.025733903050422668
    0.025820564478635788
    0.025907224044203758
    0.025993883609771729
    0.026080545037984848
    0.026167202740907669
    0.026253864169120789
    0.026340523734688759
    0.026427179574966431
    0.02651384100317955
    0.02660050056874752
    0.026689223945140839
    0.026777947321534157
    0.026866670697927475
    0.026955395936965942
    0.027044119313359261
    0.027132842689752579
    0.027221567928791046
    0.027310289442539215
    0.027399014681577682
    0.027487738057971001
    0.027576461434364319
    0.027665184810757637
    0.027753908187150955
    0.027842633426189423
    0.027931356802582741
    0.028020080178976059
    0.02811073511838913
    0.028201509267091751
    0.028292283415794373
    0.028383059427142143
    0.028473835438489914
    0.028564609587192535
    0.028655385598540306
    0.028746161609888077
    0.028836935758590698
    0.02892770990729332
    0.02901848591864109
    0.029109261929988861
    0.029200036078691483
    0.029290810227394104
    0.029381586238741875
    0.029472362250089645
    0.029564937576651573
    0.029657753184437752
    0.02975056879222393
    0.02984338253736496
    0.029936198145151138
    0.030029013752937317
    0.030121829360723495
    0.030214644968509674
    0.030307460576295853
    0.030400272458791733
    0.030493089929223061
    0.03058590367436409
    0.030678719282150269
    0.030771534889936447
    0.030864350497722626
    0.030957166105508804
    0.031051652505993843
    0.031146494671702385
    0.031241340562701225
    0.031336184591054916
    0.031431026756763458
    0.031525872647762299
    0.031620718538761139
    0.031715560704469681
    0.031810402870178223
    0.031905248761177063
    0.032000090926885605
    0.032094936817884445
    0.032189778983592987
    0.03228461742401123
    0.032379463315010071
    0.032474309206008911
    0.032570693641901016
    0.032667554914951324
    0.032764419913291931
    0.032861281186342239
    0.032958142459392548
    0.033055003732442856
    0.033151865005493164
    0.033248730003833771
    0.033345591276884079
    0.033442452549934387
    0.033539313822984695
    0.033636175096035004
    0.03373304009437561
    0.033829901367425919
    0.033926762640476227
    0.034023623913526535
    0.034121900796890259
    0.034220773726701736
    0.034319642931222916
    0.034418512135744095
    0.034517381340265274
    0.034616250544786453
    0.034715119749307632
    0.034813988953828812
    0.034912858158349991
    0.03501172736287117
    0.035110596567392349
    0.035209465771913528
    0.035308334976434708
    0.035407204180955887
    0.035506077110767365
    0.035604942589998245
    0.035705104470252991
    0.035805974155664444
    0.035906840115785599
    0.036007706075906754
    0.036108575761318207
    0.036209441721439362
    0.036310307681560516
    0.036411173641681671
    0.036512043327093124
    0.036612913012504578
    0.036713778972625732
    0.036814644932746887
    0.036915510892868042
    0.037016376852989197
    0.03711724653840065
    0.037218112498521805
    0.037320148199796677
    0.037423007190227509
    0.037525858730077744
    0.037628713995218277
    0.037731565535068512
    0.037834420800209045
    0.037937276065349579
    0.038040131330490112
    0.038142986595630646
    0.038245841860771179
    0.038348697125911713
    0.038451548665761948
    0.038554403930902481
    0.038657255470752716
    0.038760107010602951
    0.038862962275743484
    0.038966860622167587
    0.039071697741746902
    0.039176527410745621
    0.039281360805034637
    0.039386194199323654
    0.039491027593612671
    0.039595857262611389
    0.039700694382190704
    0.039805524051189423
    0.039910353720188141
    0.040015187114477158
    0.040120020508766174
    0.040224850177764893
    0.040329687297344208
    0.040434516966342926
    0.040539354085922241
    0.040645111352205276
    0.040751911699771881
    0.040858712047338486
    0.040965516120195389
    0.041072316467761993
    0.041179116815328598
    0.041285917162895203
    0.041392721235752106
    0.04149952158331871
    0.041606321930885315
    0.041713126003742218
    0.041819926351308823
    0.041926726698875427
    0.04203353077173233
    0.042140331119298935
    0.042247135192155838
    0.042354743927717209
    0.042463503777980804
    0.0425722636282444
    0.042681027203798294
    0.04278978705406189
    0.042898546904325485
    0.043007306754589081
    0.043116070330142975
    0.04322483018040657
    0.043333590030670166
    0.04344235360622406
    0.043551113456487656
    0.043659873306751251
    0.043768633157014847
    0.043877393007278442
    0.043986156582832336
    0.044095605611801147
    0.044206317514181137
    0.044317029416561127
    0.044427745044231415
    0.044538453221321106
    0.044649165123701096
    0.044759877026081085
    0.044870588928461075
    0.044981300830841064
    0.045092016458511353
    0.045202724635601044
    0.045313436537981033
    0.045424148440361023
    0.045534852892160416
    0.045645564794540405
    0.045756276696920395
    0.045867562294006348
    0.045980218797922134
    0.046092871576547623
    0.046205528080463409
    0.046318177133798599
    0.046430833637714386
    0.046543486416339874
    0.046656142920255661
    0.046768795698881149
    0.046881452202796936
    0.046994104981422424
    0.047106757760047913
    0.047219414263963699
    0.047332067042589188
    0.047444723546504974
    0.047557376325130463
    0.047670483589172363
    0.04778507724404335
    0.04789966344833374
    0.048014253377914429
    0.048128839582204819
    0.048243429511785507
    0.048358019441366196
    0.048472605645656586
    0.048587195575237274
    0.048701785504817963
    0.048816375434398651
    0.048930961638689041
    0.049045547842979431
    0.049160141497850418
    0.049274731427431107
    0.049389317631721497
    0.049504246562719345
    0.049620762467384338
    0.049737274646759033
    0.049853790551424026
    0.049970302730798721
    0.050086818635463715
    0.050203330814838409
    0.050319846719503403
    0.050436358898878098
    0.050552874803543091
    0.050669386982917786
    0.050785902887582779
    0.050902415066957474
    0.051018930971622467
    0.05113544687628746
    0.051251959055662155
    0.051368698477745056
    0.051487129181623459
    0.051605559885501862
    0.051723998039960861
    0.051842428743839264
    0.051960859447717667
    0.052079293876886368
    0.052197724580764771
    0.052316155284643173
    0.052434585988521576
    0.052553020417690277
    0.05267145112156868
    0.052789889276027679
    0.052908308804035187
    0.053026743233203888
    0.053145173937082291
    0.053263720124959946
    0.053384058177471161
    0.053504403680562973
    0.053624745458364487
    0.053745090961456299
    0.053865432739257812
    0.053985774517059326
    0.05410611629486084
    0.054226458072662354
    0.054346799850463867
    0.054467141628265381
    0.054587483406066895
    0.054707832634449005
    0.05482817068696022
    0.054948512464761734
    0.055068857967853546
    0.05518919974565506
    0.055311445146799088
    0.055433690547943115
    0.055555935949087143
    0.055678181350231171
    0.0558004230260849
    0.055922672152519226
    0.056044913828372955
    0.056167162954807281
    0.056289404630661011
    0.056411650031805038
    0.056533895432949066
    0.056656144559383392
    0.056778386235237122
    0.056900631636381149
    0.057022877037525177
    0.057145122438669205
    0.057269152253866196
    0.057393293827772141
    0.057517431676387787
    0.057641573250293732
    0.057765714824199677
    0.057889856398105621
    0.058013990521430969
    0.058138132095336914
    0.058262273669242859
    0.058386415243148804
    0.058510556817054749
    0.058634694665670395
    0.05875883623957634
    0.058882974088191986
    0.059007115662097931
    0.059131257236003876
    0.059257064014673233
    0.0593830905854702
    0.059509120881557465
    0.059635147452354431
    0.059761174023151398
    0.059887204319238663
    0.060013234615325928
    0.060139261186122894
    0.060265287756919861
    0.060391321778297424
    0.060517348349094391
    0.060643374919891357
    0.060769394040107727
    0.060895428061485291
    0.061021454632282257
    0.061147484928369522
    0.061275061219930649
    0.061402969062328339
    0.061530880630016327
    0.061658788472414017
    0.061786696314811707
    0.061914607882499695
    0.062042519450187683
    0.062170427292585373
    0.062298335134983063
    0.062426246702671051
    0.062554158270359039
    0.062682069838047028
    0.062809973955154419
    0.062937885522842407
    0.063065797090530396
    0.063193701207637787
    0.063323050737380981
    0.063452832400798798
    0.063582614064216614
    0.06371239572763443
    0.063842177391052246
    0.063971966505050659
    0.064101755619049072
    0.064231537282466888
    0.064361318945884705
    0.064491100609302521
    0.064620882272720337
    0.06475067138671875
    0.064880453050136566
    0.065010234713554382
    0.065140023827552795
    0.065269805490970612
    0.065400905907154083
    0.065532557666301727
    0.065664209425449371
    0.065795861184597015
    0.065927512943744659
    0.066059164702892303
    0.066190809011459351
    0.066322460770606995
    0.066454119980335236
    0.066585764288902283
    0.066717416048049927
    0.066849067807197571
    0.066980719566345215
    0.067112371325492859
    0.067244023084640503
    0.067375674843788147
    0.067508533596992493
    0.067642040550708771
    0.067775554955005646
    0.067909061908721924
    0.068042576313018799
    0.068176090717315674
    0.068309605121612549
    0.068443112075328827
    0.068576619029045105
    0.06871013343334198
    0.068843647837638855
    0.06897716224193573
    0.069110661745071411
    0.069244176149368286
    0.069377683103084564
    0.069511197507381439
    0.069645799696445465
    0.069781169295310974
    0.069916531443595886
    0.070051893591880798
    0.070187270641326904
    0.070322632789611816
    0.070458002388477325
    0.070593364536762238
    0.070728734135627747
    0.070864096283912659
    0.070999465882778168
    0.071134835481643677
    0.071270197629928589
