nuke-default/luts/panalog.spi1d
Version 1
From 0.000000 1.000000
Length 4096
Components 1
{
    -0.012005235999822617
    -0.011965307407081127
    -0.011925380676984787
    -0.011885452084243298
    -0.011845524422824383
    -0.011805594898760319
    -0.011765668168663979
    -0.011725738644599915
    -0.011685811914503574
    -0.011645883321762085
    -0.01160595566034317
    -0.011566027998924255
    -0.011526099406182766
    -0.011486171744763851
    -0.011446243152022362
    -0.011406316421926022
    -0.011366387829184532
    -0.011325670406222343
    -0.011284902691841125
    -0.011244136840105057
    -0.011203369125723839
    -0.011162601411342621
    -0.011121834628283978
    -0.011081067845225334
    -0.011040301062166691
    -0.010999534279108047
    -0.01095876656472683
    -0.010917999781668186
    -0.010877232998609543
    -0.010836465284228325
    -0.010795699432492256
    -0.010754931718111038
    -0.010714164935052395
    -0.010672640986740589
    -0.010631018318235874
    -0.01058939378708601
    -0.010547769255936146
    -0.010506145656108856
    -0.010464522056281567
    -0.010422897525131702
    -0.010381273925304413
    -0.010339649394154549
    -0.010298026725649834
    -0.010256402194499969
    -0.010214777663350105
    -0.010173154063522816
    -0.010131530463695526
    -0.010089906863868237
    -0.010048282332718372
    -0.01000593788921833
    -0.0099634388461709023
    -0.0099209398031234741
    -0.009878440760076046
    -0.0098359417170286179
    -0.0097934426739811897
    -0.0097509436309337616
    -0.0097084445878863335
    -0.0096659455448389053
    -0.0096234465017914772
    -0.0095809474587440491
    -0.0095384484156966209
    -0.0094959493726491928
    -0.0094534503296017647
    -0.0094109512865543365
    -0.0093684522435069084
    -0.0093252696096897125
    -0.0092818764969706535
    -0.0092384833842515945
    -0.0091950912028551102
    -0.0091516980901360512
    -0.0091083049774169922
    -0.0090649118646979332
    -0.0090215187519788742
    -0.0089781265705823898
    -0.0089347334578633308
    -0.0088913403451442719
    -0.0088479472324252129
    -0.0088045541197061539
    -0.0087611610069870949
    -0.0087177688255906105
    -0.0086743757128715515
    -0.0086303381249308586
    -0.0085860323160886765
    -0.0085417274385690689
    -0.0084974225610494614
    -0.0084531167522072792
    -0.008408810943365097
    -0.0083645060658454895
    -0.0083202002570033073
    -0.0082758944481611252
    -0.0082315895706415176
    -0.0081872837617993355
    -0.0081429788842797279
    -0.0080986730754375458
    -0.0080543681979179382
    -0.0080100623890757561
    -0.0079657565802335739
    -0.0079208491370081902
    -0.0078756138682365417
    -0.0078303785994648933
    -0.0077851433306932449
    -0.0077399075962603092
    -0.0076946718618273735
    -0.0076494365930557251
    -0.0076042008586227894
    -0.0075589651241898537
    -0.007513729389756918
    -0.0074684936553239822
    -0.0074232583865523338
    -0.0073780231177806854
    -0.007332787849009037
    -0.007287551648914814
    -0.0072423163801431656
    -0.0071965204551815987
    -0.0071503329090774059
    -0.0071041453629732132
    -0.0070579578168690205
    -0.0070117702707648277
    -0.0069655822589993477
    -0.006919394712895155
    -0.0068732071667909622
    -0.0068270191550254822
    -0.0067808316089212894
    -0.0067346435971558094
    -0.006688456516712904
    -0.0066422685049474239
    -0.0065960809588432312
    -0.0065498934127390385
    -0.0065037054009735584
    -0.0064570037648081779
    -0.0064098457805812359
    -0.0063626873306930065
    -0.0063155293464660645
    -0.0062683708965778351
    -0.0062212124466896057
    -0.0061740544624626637
    -0.0061268969438970089
    -0.0060797389596700668
    -0.0060325805097818375
    -0.0059854225255548954
    -0.005938264075666666
    -0.005891106091439724
    -0.0058439476415514946
    -0.0057967896573245525
    -0.0057496316730976105
    -0.0057020061649382114
    -0.0056538563221693039
    -0.005605706013739109
    -0.0055575557053089142
    -0.0055094053968787193
    -0.0054612550884485245
    -0.0054131052456796169
    -0.0053649554029107094
    -0.0053168050944805145
    -0.005268655251711607
    -0.0052205049432814121
    -0.0051723551005125046
    -0.0051242047920823097
    -0.0050760540179908276
    -0.0050279037095606327
    -0.0049797538667917252
    -0.0049311877228319645
    -0.0048820264637470245
    -0.0048328652046620846
    -0.0047837039455771446
    -0.004734543152153492
    -0.004685381893068552
    -0.0046362206339836121
    -0.0045870603062212467
    -0.0045378990471363068
    -0.0044887382537126541
    -0.0044395765289664268
    -0.0043904157355427742
    -0.0043412549421191216
    -0.0042920932173728943
    -0.0042429324239492416
    -0.0041937711648643017
    -0.0041442448273301125
    -0.0040940488688647747
    -0.004043852910399437
    -0.0039936574175953865
    -0.0039434609934687614
    -0.003893265500664711
    -0.0038430695421993732
    -0.0037928740493953228
    -0.0037426783237606287
    -0.0036924823652952909
    -0.0036422866396605968
    -0.0035920904483646154
    -0.0035418944898992777
    -0.0034916987642645836
    -0.0034415028057992458
    -0.0033913068473339081
    -0.0033408007584512234
    -0.0032895503100007772
    -0.0032382996287196875
    -0.0031870489474385977
    -0.0031357982661575079
    -0.0030845478177070618
    -0.003033297136425972
    -0.0029820473864674568
    -0.002930796705186367
    -0.0028795460239052773
    -0.0028282955754548311
    -0.002777045127004385
    -0.0027257944457232952
    -0.0026745437644422054
    -0.0026232930831611156
    -0.0025720426347106695
    -0.002520538168027997
    -0.0024682092480361462
    -0.0024158803280442953
    -0.0023635514080524445
    -0.0023112224880605936
    -0.0022588935680687428
    -0.0022065646480768919
    -0.002154236426576972
    -0.0021019075065851212
    -0.0020495785865932703
    -0.0019972496666014194
    -0.0019449207466095686
    -0.0018925918266177177
    -0.0018402629066258669
    -0.001787933986634016
    -0.0017356049502268434
    -0.0016830820823088288
    -0.0016296539688482881
    -0.0015762258553877473
    -0.0015227977419272065
    -0.0014693697448819876
    -0.001415941515006125
    -0.0013625134015455842
    -0.0013090861029922962
    -0.0012556581059470773
    -0.0012022298760712147
    -0.0011488017626106739
    -0.001095373765565455
    -0.0010419456521049142
    -0.00098851753864437342
    -0.00093508942518383265
    -0.00088166136993095279
    -0.00082810112508013844
    -0.00077354989480227232
    -0.00071899872273206711
    -0.00066444749245420098
    -0.00060989632038399577
    -0.00055534509010612965
    -0.00050079391803592443
    -0.00044624353176914155
    -0.00039169233059510589
    -0.00033714118762873113
    -0.00028258998645469546
    -0.00022803878528065979
    -0.0001734875695547089
    -0.00011893636838067323
    -6.438518175855279e-05
    -9.8331474873702973e-06
    4.4785585487261415e-05
    0.00010048454714706168
    0.00015618350880686194
    0.00021188246319070458
    0.00026758143212646246
    0.00032328037195838988
    0.00037897934089414775
    0.00043467830982990563
    0.00049037724966183305
    0.00054607621859759092
    0.0006017751875333488
    0.00065747415646910667
    0.00071317306719720364
    0.00076887209434062243
    0.0008245710632763803
    0.00088026828598231077
    0.00093596725491806865
    0.00099283643066883087
    0.001049705664627254
    0.0011065748985856771
    0.0011634441325441003
    0.0012203133665025234
    0.0012771824840456247
    0.0013340517180040479
    0.001390920951962471
    0.0014477901859208941
    0.0015046594198793173
    0.0015615285374224186
    0.0016183978877961636
    0.0016752670053392649
    0.001732136239297688
    0.0017890053568407893
    0.0018458747072145343
    0.0019038689788430929
    0.0019619336817413568
    0.0020199981518089771
    0.0020780628547072411
    0.002136127557605505
    0.0021941920276731253
    0.0022522567305713892
    0.0023103212006390095
    0.0023683859035372734
    0.0024264506064355373
    0.0024845153093338013
    0.0025425797794014215
    0.0026006444822996855
    0.0026587091851979494
    0.0027167720254510641
    0.002774836728349328
    0.0028339782729744911
    0.0028932637069374323
    0.0029525491409003735
    0.003011834342032671
    0.0030711200088262558
    0.003130405442789197
    0.0031896908767521381
    0.0032489763107150793
    0.0033082617446780205
    0.0033675471786409616
    0.0034268326126039028
    0.0034861178137362003
    0.0035454034805297852
    0.0036046889144927263
    0.0036639743484556675
    0.003723259549587965
    0.0037835722323507071
    0.0038441047072410583
    0.0039046371821314096
    0.0039651701226830482
    0.0040257023647427559
    0.0040862350724637508
    0.0041467677801847458
    0.0042073000222444534
    0.0042678327299654484
    0.0043283654376864433
    0.004388897679746151
    0.0044494303874671459
    0.0045099630951881409
    0.0045704958029091358
    0.0046310266479849815
    0.0046915588900446892
    0.00475306436419487
    0.0048148692585527897
    0.0048766741529107094
    0.0049384790472686291
    0.0050002839416265488
    0.0050620893016457558
    0.0051238937303423882
    0.0051856990903615952
    0.0052475035190582275
    0.0053093088790774345
    0.0053711133077740669
    0.0054329186677932739
    0.0054947230964899063
    0.005556527990847826
    0.0056183328852057457
    0.0056801377795636654
    0.0057428590953350067
    0.0058059617877006531
    0.0058690644800662994
    0.0059321676380932331
    0.0059952707961201668
    0.0060583734884858131
    0.0061214761808514595
    0.0061845788732171059
    0.0062476815655827522
    0.0063107842579483986
    0.0063738878816366196
    0.0064369901083409786
    0.006500092800706625
    0.0065631959587335587
    0.0066262967884540558
    0.0066893994808197021
    0.0067533617839217186
    0.0068177930079400539
    0.0068822242319583893
    0.0069466549903154373
    0.0070110857486724854
    0.007075517438352108
    0.007139948196709156
    0.0072043789550662041
    0.0072688097134232521
    0.0073332409374415874
    0.0073976721614599228
    0.0074621029198169708
    0.0075265341438353062
    0.0075909653678536415
    0.0076553961262106895
    0.0077198273502290249
    0.0077850543893873692
    0.0078508388251066208
    0.0079166237264871597
    0.0079824086278676987
    0.0080481935292482376
    0.0081139784306287766
    0.0081797633320093155
    0.0082455482333898544
    0.0083113331347703934
    0.0083771180361509323
    0.0084429029375314713
    0.0085086878389120102
    0.0085744718089699745
    0.0086402567103505135
    0.0087060397490859032
    0.0087718246504664421
    0.0088383415713906288
    0.0089055104181170464
    0.0089726792648434639
    0.0090398481115698814
    0.009107016958296299
    0.0091741848737001419
    0.0092413537204265594
    0.009308522567152977
    0.0093756914138793945
    0.0094428602606058121
    0.0095100291073322296
    0.0095771970227360725
    0.0096443658694624901
    0.009711533784866333
    0.0097787035629153252
    0.0098458724096417427
    0.0099137043580412865
    0.0099822832271456718
    0.010050862096250057
    0.010119440034031868
    0.010188018903136253
    0.010256597772240639
    0.010325176641345024
    0.010393755510449409
    0.010462334379553795
    0.010530912317335606
    0.010599491186439991
    0.010668070055544376
    0.010736648924648762
    0.010805227793753147
    0.010873803868889809
    0.010942382737994194
    0.011011556722223759
    0.011081579141318798
    0.011151601560413837
    0.011221623979508877
    0.011291646398603916
    0.011361668817698956
    0.011431691236793995
    0.011501713655889034
    0.011571737006306648
    0.011641759425401688
    0.011711781844496727
    0.011781804263591766
    0.011851826682686806
    0.01192185003310442
    0.011991872452199459
    0.012061894871294498
    0.012132436968386173
    0.012203930877149105
    0.012275425717234612
    0.012346919625997543
    0.012418413534760475
    0.012489908374845982
    0.012561403214931488
    0.01263289712369442
    0.012704391032457352
    0.012775886803865433
    0.012847380712628365
    0.012918874621391296
    0.012990369461476803
    0.013061864301562309
    0.013133355416357517
    0.013204850256443024
    0.013276786543428898
    0.013349783606827259
    0.013422779738903046
    0.013495775870978832
    0.013568773865699768
    0.013641769997775555
    0.013714766129851341
    0.013787763193249702
    0.013860760256648064
    0.013933757320046425
    0.014006752520799637
    0.014079750515520573
    0.014152746647596359
    0.01422574371099472
    0.014298739843070507
    0.014371736906468868
    0.014445094391703606
    0.014519626274704933
    0.014594156295061111
    0.014668688178062439
    0.014743219129741192
    0.014817750081419945
    0.014892281033098698
    0.014966811984777451
    0.015041343867778778
    0.015115873888134956
    0.015190405771136284
    0.015264936722815037
    0.015339468605816364
    0.015413998626172543
    0.015488527715206146
    0.015563058666884899
    0.015637867152690887
    0.015713963657617569
    0.0157900620251894
    0.01586616039276123
    0.015942258760333061
    0.016018357127904892
    0.016094453632831573
    0.016170552000403404
    0.016246650367975235
    0.016322748735547066
    0.016398847103118896
    0.016474943608045578
    0.016551041975617409
    0.01662714034318924
    0.016703240573406219
    0.01677933894097805
    0.016855623573064804
    0.016933323815464973
    0.017011024057865143
    0.017088722437620163
    0.017166420817375183
    0.017244121059775352
    0.017321819439530373
    0.017399517819285393
    0.017477218061685562
    0.017554916441440582
    0.017632616683840752
    0.017710315063595772
    0.017788013443350792
    0.017865713685750961
    0.017943412065505981
    0.018021110445261002
    0.018098905682563782
    0.018178237602114677
    0.018257567659020424
    0.01833689957857132
    0.018416231498122215
    0.018495563417673111
    0.018574895337224007
    0.018654227256774902
    0.018733557313680649
    0.018812887370586395
    0.018892219290137291
    0.018971551209688187
    0.019050883129239082
    0.019130213186144829
    0.019209541380405426
    0.019288871437311172
    0.019368203356862068
    0.019449202343821526
    0.019530201330780983
    0.01961120031774044
    0.019692199304699898
    0.019773198291659355
    0.019854197278618813
    0.019935198128223419
    0.020016195252537727
    0.020097194239497185
    0.020178195089101791
    0.020259194076061249
    0.020340191200375557
    0.020421192049980164
    0.020502191036939621
    0.020583190023899078
    0.020664187148213387
    0.020746789872646332
    0.020829493179917336
    0.020912192761898041
    0.020994896069169044
    0.021077597513794899
    0.021160300821065903
    0.021243002265691757
    0.021325703710317612
    0.021408405154943466
    0.021491106599569321
    0.021573808044195175
    0.021656511351466179
    0.021739212796092033
    0.021821914240717888
    0.021904617547988892
    0.021987318992614746
    0.022071555256843567
    0.022155996412038803
    0.022240437567234039
    0.022324878722429276
    0.022409319877624512
    0.022493761032819748
    0.022578204050660133
    0.02266264520585537
    0.022747086361050606
    0.022831527516245842
    0.022915968671441078
    0.023000409826636314
    0.023084850981831551
    0.023169293999671936
    0.023253733292222023
    0.023338176310062408
    0.02342408150434494
    0.023510297760367393
    0.023596515879034996
    0.023682732135057449
    0.023768950253725052
    0.023855166509747505
    0.023941382765769958
    0.024027600884437561
    0.024113819003105164
    0.024200035259127617
    0.02428625151515007
    0.024372469633817673
    0.024458687752485275
    0.02454490028321743
    0.024631116539239883
    0.024717334657907486
    0.024804934859275818
    0.024892963469028473
    0.024980992078781128
    0.025069020688533783
    0.025157049298286438
    0.025245077908039093
    0.025333104655146599
    0.025421133264899254
    0.02550916001200676
    0.025597188621759415
    0.02568521723151207
    0.025773245841264725
    0.02586127445101738
    0.025949303060770035
    0.026037327945232391
    0.026125356554985046
    0.026214692741632462
    0.026304570958018303
    0.026394449174404144
    0.026484329253435135
    0.026574207469820976
    0.026664085686206818
    0.026753965765237808
    0.0268438421189785
    0.026933722198009491
    0.027023600414395332
    0.027113478630781174
    0.027203356847167015
    0.027293235063552856
    0.027383115142583847
    0.027472993358969688
    0.02756287157535553
    0.027653975412249565
    0.027745742350816727
    0.027837511152029037
    0.027929279953241348
    0.02802104689180851
    0.028112815693020821
    0.028204584494233131
    0.028296353295445442
    0.028388122096657753
    0.028479889035224915
    0.028571657836437225
    0.028663426637649536
    0.028755195438861847
    0.028846964240074158
    0.028938733041286469
    0.02903049997985363
    0.029123404994606972
    0.029217103496193886
    0.029310803860425949
    0.029404502362012863
    0.029498200863599777
    0.029591899365186691
    0.029685601592063904
    0.029779300093650818
    0.029872998595237732
    0.029966697096824646
    0.030060399323701859
    0.030154097825288773
    0.030247796326875687
    0.030341489240527153
    0.030435189604759216
    0.03052888810634613
    0.030623627826571465
    0.030719297006726265
    0.030814964324235916
    0.030910631641745567
    0.031006298959255219
    0.03110196627676487
    0.031197633594274521
    0.031293302774429321
    0.031388968229293823
    0.031484633684158325
    0.031580302864313126
    0.031675972044467926
    0.031771637499332428
    0.03186730295419693
    0.03196297213435173
    0.032058641314506531
    0.032155252993106842
    0.032252933830022812
    0.032350607216358185
    0.032448288053274155
    0.032545968890190125
    0.032643646001815796
    0.032741323113441467
    0.032839000225067139
    0.032936681061983109
    0.03303435817360878
    0.033132035285234451
    0.033229716122150421
    0.033327393233776093
    0.033425070345401764
    0.033522751182317734
    0.033620428293943405
    0.033718951046466827
    0.03381868451833725
    0.033918417990207672
    0.034018151462078094
    0.034117888659238815
    0.034217622131109238
    0.03431735560297966
    0.034417085349559784
    0.034516818821430206
    0.034616552293300629
    0.034716285765171051
    0.034816019237041473
    0.034915756434202194
    0.035015489906072617
    0.035115223377943039
    0.035214956849813461
    0.035315431654453278
    0.035417258739471436
    0.035519085824489594
    0.03562091663479805
    0.035722747445106506
    0.035824574530124664
    0.035926401615142822
    0.036028232425451279
    0.036130059510469437
    0.036231890320777893
    0.036333717405796051
    0.036435544490814209
    0.036537375301122665
    0.036639198660850525
    0.036741025745868683
    0.036842856556177139
    0.036945313215255737
    0.037049282342195511
    0.037153255194425583
    0.037257224321365356
    0.03736119344830513
    0.037465162575244904
    0.037569131702184677
    0.037673100829124451
    0.037777073681354523
    0.037881042808294296
    0.03798501193523407
    0.038088981062173843
    0.038192950189113617
    0.038296923041343689
    0.038400888442993164
    0.038504861295223236
    0.038609344512224197
    0.038715500384569168
    0.03882165253162384
    0.038927808403968811
    0.039033964276313782
    0.039140120148658752
    0.039246276021003723
    0.039352431893348694
    0.039458587765693665
    0.039564743638038635
    0.039670895785093307
    0.039777051657438278
    0.039883207529783249
    0.039989359676837921
    0.04009551927447319
    0.040201671421527863
    0.04030822217464447
    0.04041660949587822
    0.040524996817111969
    0.040633387863636017
    0.040741775184869766
    0.040850162506103516
    0.040958553552627563
    0.041066940873861313
    0.041175328195095062
    0.04128371924161911
    0.041392106562852859
    0.041500493884086609
    0.041608884930610657
    0.041717268526554108
    0.041825659573078156
    0.041934050619602203
    0.042042706161737442
    0.042153369635343552
    0.04226403683423996
    0.042374704033136368
    0.042485367506742477
    0.042596034705638885
    0.042706698179244995
    0.042817369103431702
    0.042928032577037811
    0.043038696050643921
    0.043149363249540329
    0.043260030448436737
    0.043370693922042847
    0.043481353670358658
    0.043592020869255066
    0.043702684342861176
    0.043813489377498627
    0.043926481157541275
    0.044039472937583923
    0.044152464717626572
    0.04426545649766922
    0.044378448277711868
    0.044491440057754517
    0.044604435563087463
    0.044717423617839813
    0.04483041912317276
    0.04494340717792511
    0.045056402683258057
    0.045169390738010406
    0.045282386243343353
    0.045395378023386002
    0.04550836980342865
    0.045621361583471298
    0.045736730098724365
    0.045852094888687134
    0.045967467129230499
    0.046082831919193268
    0.046198200434446335
    0.046313565224409103
    0.04642893373966217
    0.046544302254915237
    0.046659670770168304
    0.046775035560131073
    0.04689040407538414
    0.047005772590637207
    0.047121141105890274
    0.047236509621143341
    0.04735187441110611
    0.047467242926359177
    0.047584895044565201
    0.047702684998512268
    0.047820482403039932
    0.047938276082277298
    0.048056073486804962
    0.048173867166042328
    0.048291660845279694
    0.048409454524517059
    0.048527248203754425
    0.048645041882991791
    0.048762839287519455
    0.048880636692047119
    0.048998426645994186
    0.049116220325231552
    0.049234017729759216
    0.049351811408996582
    0.049471788108348846
    0.049592059105634689
    0.049712330102920532
    0.049832601100206375
    0.049952872097492218
    0.050073139369487762
    0.050193414092063904
    0.050313681364059448
    0.050433952361345291
    0.050554223358631134
    0.050674498081207275
    0.05079476535320282
    0.050915028899908066
    0.051035299897193909
    0.051155567169189453
    0.051275838166475296
    0.051398187875747681
    0.051520988345146179
    0.051643788814544678
    0.051766585558652878
    0.051889382302761078
    0.052012182772159576
    0.052134979516267776
    0.052257779985666275
    0.052380576729774475
    0.052503377199172974
    0.052626173943281174
    0.052748970687389374
    0.052871771156787872
    0.052994567900896072
    0.053117364645004272
    0.053240165114402771
    0.053364936262369156
    0.05349031463265419
    0.053615693002939224
    0.053741071373224258
    0.053866453468799591
    0.053991831839084625
    0.054117210209369659
    0.054242588579654694
    0.054367966949939728
    0.054493345320224762
    0.054618727415800095
    0.054744105786085129
    0.054869480431079865
    0.054994862526655197
    0.055120240896940231
    0.055245622992515564
    0.055372860282659531
    0.055500872433185577
    0.055628892034292221
    0.055756907910108566
    0.055884920060634613
    0.056012935936450958
    0.056140951812267303
    0.056268967688083649
    0.056396983563899994
    0.056524999439716339
    0.056653011590242386
    0.056781027466058731
    0.056909047067165375
    0.057037059217691422
    0.057165075093507767
    0.057293087244033813
    0.057422846555709839
    0.057553552091121674
    0.057684265077114105
    0.05781497061252594
    0.057945676147937775
    0.058076389133930206
    0.058207094669342041
    0.058337803930044174
    0.058468513190746307
    0.058599218726158142
    0.058729931712150574
    0.058860637247562408
    0.058991339057683945
    0.059122048318386078
    0.059252753853797913
    0.059383463114500046
    0.059515785425901413
    0.059649240225553513
