nuke-default/luts/rec709.spi1d
Version 1
From 0.000000 1.000000
Length 4096
Components 1
{
    0.0
    5.4266725783236325e-05
    0.00010853345156647265
    0.00016280017734970897
    0.0002170669031329453
    0.0002713336143642664
    0.00032560035469941795
    0.00037986706593073905
    0.0004341338062658906
    0.00048840051749721169
    0.00054266722872853279
    0.00059693393995985389
    0.0006512007093988359
    0.00070546742063015699
    0.00075973413186147809
    0.00081400084309279919
    0.0008682676125317812
    0.00092253426555544138
    0.00097680103499442339
    0.0010310676880180836
    0.0010853344574570656
    0.0011396012268960476
    0.0011938679963350296
    0.001248134532943368
    0.00130240130238235
    0.001356668071821332
    0.0014109347248449922
    0.0014652014942839742
    0.0015194682637229562
    0.0015737349167466164
    0.0016280016861855984
    0.0016822683392092586
    0.0017365352250635624
    0.0017908019945025444
    0.0018450686475262046
    0.0018993353005498648
    0.0019536020699888468
    0.0020078688394278288
    0.0020621353760361671
    0.0021164021454751492
    0.0021706689149141312
    0.0022249356843531132
    0.0022792022209614515
    0.0023334689904004335
    0.0023877357598394156
    0.0024420025292783976
    0.0024962692987173796
    0.0025505360681563616
    0.0026048028375953436
    0.0026590693742036819
    0.002713336143642664
    0.002767602913081646
    0.002821869682520628
    0.00287613645195961
    0.0029304029885679483
    0.0029846697580069304
    0.0030389365274459124
    0.0030932032968848944
    0.0031474698334932327
    0.0032017366029322147
    0.0032560033723711967
    0.0033102701418101788
    0.0033645366784185171
    0.0034188034478574991
    0.0034730704501271248
    0.0035273372195661068
    0.0035816039890050888
    0.0036358707584440708
    0.0036901370622217655
    0.0037444038316607475
    0.0037986706010997295
    0.0038529376033693552
    0.0039072046056389809
    0.0039614709094166756
    0.0040157381445169449
    0.0040700044482946396
    0.0041242707520723343
    0.0041785375215113163
    0.0042328047566115856
    0.0042870715260505676
    0.0043413382954895496
    0.0043956050649285316
    0.0044498718343675137
    0.0045041386038064957
    0.0045584049075841904
    0.0046126716770231724
    0.0046669384464621544
    0.0047212047502398491
    0.0047754719853401184
    0.0048297382891178131
    0.0048840055242180824
    0.0049382718279957771
    0.0049925381317734718
    0.0050468049012124538
    0.0051010716706514359
    0.0051553384400904179
    0.0052096052095293999
    0.0052638724446296692
    0.0053181392140686512
    0.0053724059835076332
    0.0054266722872853279
    0.0054809390567243099
    0.0055352058261632919
    0.0055894721299409866
    0.005643739365041256
    0.0056980056688189507
    0.00575227290391922
    0.005806539673358202
    0.0058608055114746094
    0.0059150722809135914
    0.0059693390503525734
    0.0060236058197915554
    0.0060778725892305374
    0.0061321398243308067
    0.0061864065937697887
    0.0062406733632087708
    0.0062949396669864655
    0.0063492059707641602
    0.0064034732058644295
    0.0064577395096421242
    0.0065120067447423935
    0.0065662735141813755
    0.0066205402836203575
    0.0066748070530593395
    0.0067290733568370342
    0.0067833401262760162
    0.0068376068957149982
    0.0068918736651539803
    0.0069461409002542496
    0.0070004076696932316
    0.0070546744391322136
    0.0071089412085711956
    0.0071632079780101776
    0.0072174752131104469
    0.0072717415168881416
    0.0073260087519884109
    0.007380274124443531
    0.0074345413595438004
    0.0074888081289827824
    0.0075430748984217644
    0.0075973416678607464
    0.0076516084372997284
    0.0077058752067387104
    0.0077601419761776924
    0.0078144082799553871
    0.0078686755150556564
    0.0079229418188333511
    0.0079772090539336205
    0.0080314762890338898
    0.0080857425928115845
    0.0081400098279118538
    0.0081942761316895485
    0.0082485424354672432
    0.0083028087392449379
    0.0083570759743452072
    0.0084113422781229019
    0.0084656095132231712
    0.0085198758170008659
    0.0085741430521011353
    0.0086284102872014046
    0.0086826765909790993
    0.008736942894756794
    0.0087912101298570633
    0.008845476433634758
    0.0088997427374124527
    0.008954009972512722
    0.0090082772076129913
    0.009062543511390686
    0.0091168098151683807
    0.0091710761189460754
    0.0092253433540463448
    0.0092796096578240395
    0.0093338768929243088
    0.0093881431967020035
    0.0094424095004796982
    0.0094966758042573929
    0.0095509430393576622
    0.0096052102744579315
    0.0096594765782356262
    0.0097137438133358955
    0.0097680101171135902
    0.0098222773522138596
    0.0098765436559915543
    0.009930809959769249
    0.0099850762635469437
    0.010039343498647213
    0.010093610733747482
    0.010147877037525177
    0.010202143341302872
    0.010256411507725716
    0.01031067781150341
    0.010364944115281105
    0.010419211350381374
    0.010473477654159069
    0.010527743957936764
    0.010582011193037033
    0.010636277496814728
    0.010690544731914997
    0.010744811967015266
    0.010799078270792961
    0.010853344574570656
    0.010907610878348351
    0.01096187811344862
    0.011016144417226315
    0.011070411652326584
    0.011124678887426853
    0.011178945191204548
    0.011233212426304817
    0.011287478730082512
    0.011341745033860207
    0.011396012268960476
    0.011450278572738171
    0.01150454580783844
    0.011558812111616135
    0.011613078415393829
    0.011667345650494099
    0.011721611022949219
    0.011775878258049488
    0.011830145493149757
    0.011884411796927452
    0.011938679032027721
    0.011992945335805416
    0.012047212570905685
    0.01210147887468338
    0.012155746109783649
    0.012210012413561344
    0.012264278717339039
    0.012318545952439308
    0.012372812256217003
    0.012427078559994698
    0.012481345795094967
    0.012535613030195236
    0.012589879333972931
    0.012644145637750626
    0.01269841194152832
    0.01275267917662859
    0.012806946411728859
    0.012861212715506554
    0.012915479950606823
    0.012969746254384518
    0.013024013489484787
    0.013078280724585056
    0.013132547028362751
    0.01318681426346302
    0.013241080567240715
    0.013295347802340984
    0.013349613174796104
    0.013403881341218948
    0.013458146713674068
    0.013512413948774338
    0.013566680252552032
    0.013620947487652302
    0.013675214722752571
    0.013729481026530266
    0.013783747330307961
    0.01383801456540823
    0.013892281800508499
    0.013946549035608768
    0.014000815339386463
    0.014055082574486732
    0.014109348878264427
    0.014163616113364697
    0.014217883348464966
    0.014272149652242661
    0.014326415956020355
    0.01438068225979805
    0.014434950426220894
    0.014489216729998589
    0.014543483033776283
    0.014597749337553978
    0.014652017503976822
    0.014706283807754517
    0.014760548248887062
    0.014814815483987331
    0.014869081787765026
    0.014923349022865295
    0.01497761532664299
    0.015031883493065834
    0.015086149796843529
    0.015140416100621223
    0.015194682404398918
    0.015248950570821762
    0.015303216874599457
    0.015357483178377151
    0.015411750413477421
    0.01546601764857769
    0.015520283952355385
    0.01557455025613308
    0.015628816559910774
    0.015683084726333618
    0.015737351030111313
    0.015791617333889008
    0.015845883637666702
    0.015900151804089546
    0.015954418107867241
    0.016008684411644936
    0.01606295071542263
    0.016117218881845474
    0.016171485185623169
    0.016225751489400864
    0.016280017793178558
    0.016334284096956253
    0.016388550400733948
    0.016442818567156792
    0.016497083008289337
    0.016551349312067032
    0.016605617478489876
    0.01665988378226757
    0.016714150086045265
    0.016768418252468109
    0.016822684556245804
    0.016876950860023499
    0.016931217163801193
    0.016985483467578888
    0.017039751634001732
    0.017094019800424576
    0.017148286104202271
    0.017202552407979965
    0.01725681871175766
    0.017311085015535355
    0.017365353181958199
    0.017419619485735893
    0.017471089959144592
    0.017521962523460388
    0.017572835087776184
    0.017623705789446831
    0.017674576491117477
    0.017725449055433273
    0.017776321619749069
    0.017827194184064865
    0.017878064885735512
    0.017928937450051308
    0.017979808151721954
    0.01803068071603775
    0.018081553280353546
    0.018132425844669342
    0.018183294683694839
    0.018234165385365486
    0.018288441002368927
    0.018343761563301086
    0.018399083986878395
    0.018454402685165405
    0.018509725108742714
    0.018565047532320023
    0.018620368093252182
    0.018675688654184341
    0.018731009215116501
    0.01878632977604866
    0.01884165033698082
    0.018896972760558128
    0.018952293321490288
    0.019007615745067596
    0.019062936305999756
    0.019118256866931915
    0.019174600020051003
    0.019231371581554413
    0.019288143143057823
    0.019344914704561234
    0.019401684403419495
    0.019458455964922905
    0.019515227526426315
    0.019571997225284576
    0.019628768786787987
    0.019685540348291397
    0.019742310047149658
    0.019799081608653069
    0.019855853170156479
    0.01991262286901474
    0.019969392567873001
    0.020026164129376411
    0.020083878189325333
    0.020142104476690292
    0.020200330764055252
    0.02025856077671051
    0.02031678706407547
    0.020375015214085579
    0.020433243364095688
    0.020491469651460648
    0.020549699664115906
    0.020607925951480865
    0.020666152238845825
    0.020724382251501083
    0.020782608538866043
    0.020840836688876152
    0.020899062976241112
    0.02095729298889637
    0.021016379818320274
    0.021076072007417679
    0.021135760471224785
    0.021195452660322189
    0.021255142986774445
    0.0213148333132267
    0.021374523639678955
    0.02143421582877636
    0.021493906155228615
    0.021553598344326019
    0.021613288670778275
    0.02167297899723053
    0.021732669323682785
    0.02179236151278019
    0.021852049976587296
    0.021911740303039551
    0.021972209215164185
    0.022033369168639183
    0.022094530984759331
    0.022155690938234329
    0.022216852754354477
    0.022278014570474625
    0.022339174523949623
    0.022400334477424622
    0.022461496293544769
    0.022522656247019768
    0.022583816200494766
    0.022644978016614914
    0.022706139832735062
    0.02276729978621006
    0.022828461602330208
    0.022889621555805206
    0.022951476275920868
    0.023014113306999207
    0.023076750338077545
    0.023139387369155884
    0.023202024400234222
    0.023264661431312561
    0.0233272984623909
    0.023389935493469238
    0.023452572524547577
    0.023515209555625916
    0.023577846586704254
    0.023640483617782593
    0.023703120648860931
    0.02376575767993927
    0.02382839098572731
    0.023891028016805649
    0.023954277858138084
    0.024018395692110062
    0.024082515388727188
    0.024146635085344315
    0.024210754781961441
    0.024274874478578568
    0.024338994175195694
    0.02440311387181282
    0.024467233568429947
    0.024531353265047073
    0.0245954729616642
    0.024659592658281326
    0.024723712354898453
    0.024787832051515579
    0.024851951748132706
    0.024916071444749832
    0.024980716407299042
    0.025046324357390404
    0.025111934170126915
    0.025177542120218277
    0.025243150070309639
    0.025308758020401001
    0.025374367833137512
    0.025439975783228874
    0.025505585595965385
    0.025571193546056747
    0.025636803358793259
    0.025702409446239471
    0.025768019258975983
    0.025833629071712494
    0.025899235159158707
    0.025964843109250069
    0.026030892506241798
    0.026097994297742844
    0.026165097951889038
    0.026232203468680382
    0.026299305260181427
    0.026366408914327621
    0.026433512568473816
    0.02650061622262001
    0.026567719876766205
    0.026634823530912399
    0.026701927185058594
    0.026769030839204788
    0.026836134493350983
    0.026903238147497177
    0.026970341801643372
    0.027037445455789566
    0.027104903012514114
    0.027173507958650589
    0.027242111042141914
    0.027310715988278389
    0.027379322797060013
    0.027447924017906189
    0.027516530826687813
    0.027585135772824287
    0.027653740718960762
    0.027722343802452087
    0.027790950611233711
    0.027859555557370186
    0.027928158640861511
    0.027996763586997986
    0.02806536853313446
    0.028133973479270935
    0.0282028429210186
    0.028272954747080803
    0.028343066573143005
    0.028413178399205208
    0.02848329022526741
    0.028553402051329613
    0.028623513877391815
    0.028693625703454018
    0.02876373752951622
    0.028833849355578423
    0.028903961181640625
    0.028974074870347977
    0.02904418483376503
    0.029114296659827232
    0.029184410348534584
    0.029254524037241936
    0.029324812814593315
    0.029396438971161842
    0.02946806326508522
    0.029539689421653748
    0.029611311852931976
    0.029682938009500504
    0.029754564166069031
    0.029826190322637558
    0.029897812753915787
    0.029969438910484314
    0.030041063204407692
    0.03011268749833107
    0.030184313654899597
    0.030255937948822975
    0.030327564105391502
    0.03039919026196003
    0.030470903962850571
    0.030544046312570572
    0.030617192387580872
    0.030690334737300873
    0.030763477087020874
    0.030836623162031174
    0.030909765511751175
    0.030982909724116325
    0.031056053936481476
    0.031129198148846626
    0.031202342361211777
    0.031275488436222076
    0.031348630785942078
    0.031421773135662079
    0.031494911760091782
    0.031568057835102081
    0.031641200184822083
    0.031715869903564453
    0.031790535897016525
    0.031865205615758896
    0.031939875334501266
    0.032014541327953339
    0.032089211046695709
    0.03216388076543808
    0.03223855048418045
    0.032313220202922821
    0.032387886196374893
    0.032462555915117264
    0.032537221908569336
    0.032611891627311707
    0.032686561346054077
    0.032761231064796448
    0.032835900783538818
    0.032912008464336395
    0.032988205552101135
    0.033064402639865875
    0.033140603452920914
    0.033216804265975952
    0.033293001353740692
    0.033369202166795731
    0.033445399254560471
    0.033521600067615509
    0.033597797155380249
    0.033673997968435287
    0.033750195056200027
    0.033826395869255066
    0.033902592957019806
    0.033978793770074844
    0.034054994583129883
    0.034132543951272964
    0.034210279583930969
    0.034288015216588974
    0.034365750849246979
    0.034443482756614685
    0.03452121838927269
    0.034598954021930695
    0.034676685929298401
    0.034754421561956406
    0.03483215719461441
    0.034909892827272415
    0.03498762845993042
    0.035065360367298126
    0.035143095999956131
    0.035220831632614136
    0.035298567265272141
    0.035377569496631622
    0.03545684739947319
    0.03553612157702446
    0.035615399479866028
    0.035694677382707596
    0.035773951560258865
    0.035853229463100433
    0.035932503640651703
    0.036011777818202972
    0.036091059446334839
    0.036170333623886108
    0.036249611526727676
    0.036328885704278946
    0.036408159881830215
    0.036487434059381485
    0.036566711962223053
    0.036647170782089233
    0.036727990955114365
    0.036808814853429794
    0.036889638751745224
    0.036970462650060654
    0.037051286548376083
    0.037132106721401215
    0.037212930619716644
    0.037293754518032074
    0.037374578416347504
    0.037455402314662933
    0.037536226212978363
    0.037617050111293793
    0.037697870284318924
    0.037778697907924652
    0.037859518080949783
    0.037941437214612961
    0.038023814558982849
    0.038106188178062439
    0.038188565522432327
    0.038270942866802216
    0.038353316485881805
    0.038435690104961395
    0.038518067449331284
    0.038600444793701172
    0.038682818412780762
    0.03876519575715065
    0.038847573101520538
    0.038929946720600128
    0.039012324064970016
    0.039094697684049606
    0.039177078753709793
    0.039260458201169968
    0.039344392716884613
    0.039428327232599258
    0.039512258023023605
    0.039596192538738251
    0.039680123329162598
    0.039764057844877243
    0.039847992360591888
    0.039931923151016235
    0.040015853941440582
    0.040099792182445526
    0.040183722972869873
    0.040267657488584518
    0.040351588279008865
    0.040435522794723511
    0.040519457310438156
    0.040604308247566223
    0.040689803659915924
    0.040775302797555923
    0.040860798209905624
    0.040946293622255325
    0.041031792759895325
    0.041117288172245026
    0.041202783584594727
    0.041288278996944427
    0.041373774409294128
    0.041459273546934128
    0.041544768959283829
    0.041630268096923828
    0.041715756058692932
    0.041801255196332932
    0.041886750608682632
    0.04197307676076889
    0.042060140520334244
    0.042147204279899597
    0.042234271764755249
    0.042321331799030304
    0.042408399283885956
    0.042495463043451309
    0.042582526803016663
    0.042669594287872314
    0.042756658047437668
    0.042843721807003021
    0.042930785566568375
    0.043017849326133728
    0.04310491681098938
    0.043191980570554733
    0.043279044330120087
    0.043366853147745132
    0.043455485254526138
    0.043544124811887741
    0.043632764369249344
    0.043721400201320648
    0.043810039758682251
    0.043898675590753555
    0.04398731142282486
    0.044075950980186462
    0.044164590537548065
    0.04425322636961937
    0.044341862201690674
    0.044430501759052277
    0.044519141316413879
    0.044607773423194885
    0.044696412980556488
    0.044785700738430023
    0.044875916093587875
    0.044966131448745728
    0.045056350529193878
    0.04514656588435173
    0.045236781239509583
    0.045327000319957733
    0.045417211949825287
    0.045507431030273438
    0.04559764638543129
    0.045687861740589142
    0.045778080821037292
    0.045868296176195145
    0.045958511531352997
    0.046048726886510849
    0.046138942241668701
    0.046229720115661621
    0.04632151871919632
    0.046413317322731018
    0.046505115926265717
    0.046596918255090714
    0.046688716858625412
    0.046780519187450409
    0.046872317790985107
    0.046964116394519806
    0.047055914998054504
    0.047147717326879501
    0.0472395159304142
    0.047331314533948898
    0.047423109412193298
    0.047514908015727997
    0.047606714069843292
    0.047698978334665298
    0.04779236763715744
    0.047885753214359283
    0.047979138791561127
    0.048072528094053268
    0.04816591739654541
    0.048259302973747253
    0.048352692276239395
    0.048446081578731537
    0.04853946715593338
    0.048632856458425522
    0.048726245760917664
    0.048819631338119507
    0.048913020640611649
    0.04900640994310379
    0.049099795520305634
    0.04919356107711792
    0.049288541078567505
    0.049383524805307388
    0.049478504806756973
    0.049573488533496857
    0.049668468534946442
    0.049763448536396027
    0.04985843226313591
    0.049953415989875793
    0.050048395991325378
    0.050143375992774963
    0.050238363444805145
    0.05033334344625473
    0.050428323447704315
    0.050523307174444199
    0.050618290901184082
    0.05071355402469635
    0.050810132175683975
    0.0509067103266716
    0.051003292202949524
    0.051099870353937149
    0.051196448504924774
    0.051293030381202698
    0.051389608532190323
    0.051486186683177948
    0.051582768559455872
    0.051679342985153198
    0.051775924861431122
    0.051872506737709045
    0.051969084888696671
    0.052065666764974594
    0.052162241190671921
    0.052259013056755066
    0.05235719308257103
    0.052455376833677292
    0.052553560584783554
    0.052651748061180115
    0.052749928086996078
    0.052848108112812042
    0.052946295589208603
    0.053044475615024567
    0.053142659366130829
    0.053240843117237091
    0.053339026868343353
    0.053437210619449615
    0.053535386919975281
    0.053633570671081543
    0.053731754422187805
    0.053830035030841827
    0.053929824382066727
    0.054029610008001328
    0.054129403084516525
    0.054229192435741425
    0.054328981786966324
    0.054428774863481522
    0.054528564214706421
    0.054628357291221619
    0.054728142917156219
    0.054827935993671417
    0.054927729070186615
    0.055027514696121216
    0.055127304047346115
    0.055227093398571014
    0.055326886475086212
    0.055426675826311111
    0.055528078228235245
    0.055629484355449677
    0.05573088675737381
    0.055832289159297943
    0.055933699011802673
    0.056035101413726807
    0.05613650381565094
    0.056237906217575073
    0.056339312344789505
    0.056440714746713638
    0.056542117148637772
    0.056643519550561905
    0.056744925677776337
    0.05684632807970047
    0.056947734206914902
    0.057049140334129333
    0.057152062654495239
    0.057255081832408905
    0.057358104735612869
    0.057461120188236237
    0.057564143091440201
    0.057667165994644165
    0.057770181447267532
    0.057873204350471497
    0.057976223528385162
    0.058079242706298828
    0.058182261884212494
    0.05828528106212616
    0.058388303965330124
    0.058491319417953491
    0.058594342321157455
    0.058697361499071121
    0.058801814913749695
    0.05890645831823349
    0.059011101722717285
    0.059115741401910782
    0.059220388531684875
    0.059325028210878372
    0.059429675340652466
    0.059534315019845963
    0.059638958424329758
    0.059743605554103851
    0.059848245233297348
    0.059952884912490845
    0.060057524591684341
    0.060162164270877838
    0.060266811400651932
    0.060371451079845428
    0.06047743558883667
    0.060583703219890594
    0.060689970850944519
    0.060796238481998444
    0.060902506113052368
    0.061008777469396591
    0.061115041375160217
    0.061221316456794739
    0.061327584087848663
    0.061433851718902588
    0.061540119349956512
    0.061646386981010437
    0.061752654612064362
    0.061858922243118286
    0.061965193599462509
    0.062071461230516434
    0.062178976833820343
    0.062286879867315292
    0.062394775450229645
    0.062502674758434296
    0.062610581517219543
    0.062718480825424194
    0.062826380133628845
    0.062934279441833496
    0.063042178750038147
    0.063150078058242798
    0.063257977366447449
    0.0633658766746521
    0.06347377598285675
    0.063581682741641998
    0.063689574599266052
    0.0637974813580513
    0.063906535506248474
    0.064016066491603851
    0.064125604927539825
    0.064235135912895203
    0.064344674348831177
    0.064454212784767151
    0.064563743770122528
    0.064673274755477905
    0.064782813191413879
    0.064892351627349854
    0.065001882612705231
    0.065111413598060608
    0.065220952033996582
    0.065330490469932556
    0.065440021455287933
    0.065549559891223907
    0.065660148859024048
    0.065771326422691345
    0.065882503986358643
    0.06599368155002594
    0.066104859113693237
    0.066216036677360535
    0.066327206790447235
    0.066438384354114532
    0.06654956191778183
    0.066660739481449127
    0.066771909594535828
    0.066883087158203125
    0.066994257271289825
    0.067105434834957123
    0.06721661239862442
    0.067327789962291718
    0.067439921200275421
    0.067552745342254639
    0.067665569484233856
    0.067778386175632477
    0.067891202867031097
    0.068004027009010315
    0.068116843700408936
    0.068229660391807556
    0.068342477083206177
    0.068455301225185394
    0.068568117916584015
    0.068680942058563232
    0.068793758749961853
    0.068906582891941071
    0.069019392132759094
    0.069132216274738312
    0.069245904684066772
    0.06936037540435791
    0.069474846124649048
    0.069589316844940186
    0.069703787565231323
    0.069818258285522461
