nuke-default/luts/redlog.spi1d
Version 1
From 0.000000 1.000000
Length 4096
Components 1
{
    0.0
    1.1421928320487496e-05
    2.2843856640974991e-05
    3.4265784051967785e-05
    4.5687713281949982e-05
    5.7109638873953372e-05
    6.853156810393557e-05
    7.9953490057960153e-05
    9.1375426563899964e-05
    0.00010279734851792455
    0.00011421927774790674
    0.00012564120697788894
    0.00013706313620787114
    0.00014848505088593811
    0.00015990698011592031
    0.0001713289093459025
    0.00018275085312779993
    0.00019436875300016254
    0.0002059989346889779
    0.00021762910182587802
    0.00022925926896277815
    0.00024088943609967828
    0.00025251961778849363
    0.00026414977037347853
    0.00027577995206229389
    0.00028741010464727879
    0.00029904028633609414
    0.00031067040981724858
    0.00032230062060989439
    0.00033393077319487929
    0.00034556095488369465
    0.00035719110746867955
    0.00036882131826132536
    0.00038063860847614706
    0.00039248078246600926
    0.00040432301466353238
    0.00041616527596488595
    0.00042800750816240907
    0.00043984968215227127
    0.00045169191434979439
    0.0004635341465473175
    0.00047537637874484062
    0.00048721855273470283
    0.00049906078493222594
    0.00051090307533740997
    0.00052274524932727218
    0.00053458748152479529
    0.00054642971372231841
    0.00055827194591984153
    0.00057029211893677711
    0.00058235041797161102
    0.00059440871700644493
    0.00060646707424893975
    0.00061852537328377366
    0.00063058367231860757
    0.00064264197135344148
    0.0006547003285959363
    0.00066675862763077021
    0.00067881692666560411
    0.00069087522570043802
    0.00070293352473527193
    0.00071499188197776675
    0.00072705018101260066
    0.00073910848004743457
    0.00075116683728992939
    0.00076339353108778596
    0.0007756719714961946
    0.00078795041190460324
    0.00080022879410535097
    0.00081250723451375961
    0.00082478567492216825
    0.00083706417353823781
    0.00084934261394664645
    0.00086162111256271601
    0.00087389955297112465
    0.00088617799337953329
    0.00089845637558028102
    0.00091073481598868966
    0.0009230132563970983
    0.00093529175501316786
    0.0009475701954215765
    0.00096000678604468703
    0.00097250926773995161
    0.00098501169122755527
    0.00099751399829983711
    0.0010100165382027626
    0.0010225189616903663
    0.0010350213851779699
    0.0010475239250808954
    0.0010600263485684991
    0.0010725287720561028
    0.0010850311955437064
    0.0010975336190313101
    0.0011100360425189137
    0.0011225384660065174
    0.0011350410059094429
    0.0011475434293970466
    0.0011601931182667613
    0.0011729233665391803
    0.0011856533819809556
    0.0011983833974227309
    0.0012111135292798281
    0.0012238435447216034
    0.0012365736765787005
    0.0012493038084357977
    0.001262033823877573
    0.0012747639557346702
    0.0012874940875917673
    0.0013002241030335426
    0.0013129542348906398
    0.0013256842503324151
    0.0013384143821895123
    0.0013511443976312876
    0.0013640113174915314
    0.0013769741635769606
    0.0013899367768317461
    0.0014028993900865316
    0.001415862119756639
    0.0014288248494267464
    0.0014417874626815319
    0.0014547501923516393
    0.0014677129220217466
    0.001480675651691854
    0.0014936382649466395
    0.0015066008782014251
    0.0015195636078715324
    0.0015325263375416398
    0.0015454890672117472
    0.0015584519132971764
    0.0015715397894382477
    0.0015847389586269855
    0.0015979381278157234
    0.0016111372970044613
    0.0016243364661931992
    0.001637535635381937
    0.0016507348045706749
    0.0016639338573440909
    0.0016771330265328288
    0.0016903323121368885
    0.0017035313649103045
    0.0017167306505143642
    0.0017299298197031021
    0.00174312898889184
    0.0017563281580805779
    0.0017695273272693157
    0.0017828397685661912
    0.0017962794518098235
    0.0018097192514687777
    0.00182315893471241
    0.0018365988507866859
    0.0018500385340303183
    0.0018634782172739506
    0.0018769179005175829
    0.0018903575837612152
    0.0019037973834201694
    0.0019172371830791235
    0.0019306768663227558
    0.00194411666598171
    0.0019575564656406641
    0.0019709961488842964
    0.0019844360649585724
    0.0019979765638709068
    0.0020116614177823067
    0.0020253465045243502
    0.00203903135843575
    0.0020527164451777935
    0.0020664010662585497
    0.0020800861530005932
    0.0020937707740813494
    0.0021074556279927492
    0.0021211407147347927
    0.0021348255686461926
    0.0021485104225575924
    0.0021621952764689922
    0.0021758801303803921
    0.0021895649842917919
    0.0022032500710338354
    0.0022170229349285364
    0.0022309573832899332
    0.0022448920644819736
    0.0022588267456740141
    0.0022727611940354109
    0.0022866958752274513
    0.0023006303235888481
    0.0023145647719502449
    0.0023284992203116417
    0.0023424339015036821
    0.0023563685826957226
    0.0023703030310571194
    0.0023842377122491598
    0.0023981721606105566
    0.0024121066089719534
    0.0024260412901639938
    0.0024400507099926472
    0.0024542396422475576
    0.0024684285745024681
    0.0024826175067573786
    0.002496806439012289
    0.0025109951384365559
    0.00252518430352211
    0.0025393727701157331
    0.0025535617023706436
    0.0025677506346255541
    0.0025819395668804646
    0.002596128499135375
    0.0026103174313902855
    0.002624506363645196
    0.0026386952959001064
    0.0026528839953243732
    0.002667133929207921
    0.0026815815363079309
    0.0026960293762385845
    0.0027104772161692381
    0.0027249250560998917
    0.0027393726631999016
    0.0027538205031305552
    0.0027682678773999214
    0.002782715717330575
    0.0027971635572612286
    0.0028116113971918821
    0.0028260592371225357
    0.0028405068442225456
    0.0028549546841531992
    0.0028694022912532091
    0.0028838501311838627
    0.0028983443044126034
    0.0029130552429705858
    0.0029277661815285683
    0.0029424768872559071
    0.0029571878258138895
    0.0029718987643718719
    0.0029866097029298544
    0.0030013201758265495
    0.0030160313472151756
    0.0030307420529425144
    0.0030454529915004969
    0.0030601639300584793
    0.0030748748686164618
    0.0030895858071744442
    0.0031042967457324266
    0.0031190076842904091
    0.0031337502878159285
    0.0031487299129366875
    0.0031637095380574465
    0.0031786891631782055
    0.0031936690211296082
    0.0032086486462503672
    0.0032236282713711262
    0.0032386078964918852
    0.0032535875216126442
    0.0032685673795640469
    0.0032835472375154495
    0.0032985268626362085
    0.0033135064877569675
    0.0033284861128777266
    0.0033434659708291292
    0.0033584458287805319
    0.0033734417520463467
    0.0033886947203427553
    0.003403947688639164
    0.003419200424104929
    0.003434453159570694
    0.0034497061278671026
    0.0034649590961635113
    0.0034802120644599199
    0.0034954650327563286
    0.0035107180010527372
    0.0035259707365185022
    0.0035412237048149109
    0.0035564766731113195
    0.0035717296414077282
    0.0035869823768734932
    0.0036022348795086145
    0.0036174878478050232
    0.0036330188158899546
    0.0036485495511442423
    0.0036640805192291737
    0.0036796117201447487
    0.0036951424553990364
    0.0037106731906533241
    0.0037262043915688992
    0.0037417351268231869
    0.0037572660949081182
    0.0037727970629930496
    0.0037883277982473373
    0.0038038585335016251
    0.0038193897344172001
    0.0038349207025021315
    0.0038504514377564192
    0.0038659824058413506
    0.0038817799650132656
    0.0038975942879915237
    0.0039134086109697819
    0.00392922293394804
    0.0039450372569262981
    0.0039608515799045563
    0.0039766659028828144
    0.0039924802258610725
    0.0040082940831780434
    0.0040241088718175888
    0.0040399227291345596
    0.0040557370521128178
    0.0040715513750910759
    0.004087365698069334
    0.0041031795553863049
    0.004118993878364563
    0.0041350624524056911
    0.0041511650197207928
    0.0041672675870358944
    0.0041833706200122833
    0.0041994731873273849
    0.0042155757546424866
    0.0042316787876188755
    0.0042477808892726898
    0.0042638839222490788
    0.0042799864895641804
    0.0042960895225405693
    0.0043121920898556709
    0.0043282946571707726
    0.0043443972244858742
    0.0043605002574622631
    0.0043766028247773647
    0.0043929480016231537
    0.0044093444012105465
    0.0044257408007979393
    0.0044421376660466194
    0.0044585345312952995
    0.0044749309308826923
    0.0044913277961313725
    0.0045077241957187653
    0.0045241210609674454
    0.0045405179262161255
    0.0045569147914648056
    0.0045733111910521984
    0.0045897080563008785
    0.0046061044558882713
    0.0046225008554756641
    0.0046388972550630569
    0.0046555227600038052
    0.0046722190454602242
    0.0046889148652553558
    0.0047056106850504875
    0.0047223065048456192
    0.0047390023246407509
    0.0047556981444358826
    0.0047723939642310143
    0.0047890897840261459
    0.0048057856038212776
    0.0048224818892776966
    0.004839177243411541
    0.00485587352886796
    0.0048725693486630917
    0.0048892651684582233
    0.004905960988253355
    0.0049228714779019356
    0.0049398713745176792
    0.0049568712711334229
    0.0049738707020878792
    0.0049908705987036228
    0.0050078704953193665
    0.0050248699262738228
    0.0050418702885508537
    0.0050588697195053101
    0.005075870081782341
    0.0050928695127367973
    0.005109869409352541
    0.0051268693059682846
    0.0051438692025840282
    0.0051608686335384846
    0.0051778680644929409
    0.0051950686611235142
    0.0052123791538178921
    0.0052296901121735573
    0.0052470006048679352
    0.0052643110975623131
    0.005281621590256691
    0.0052989320829510689
    0.0053162425756454468
    0.0053335530683398247
    0.0053508635610342026
    0.0053681740537285805
    0.0053854845464229584
    0.0054027950391173363
    0.0054201055318117142
    0.0054374160245060921
    0.00545472651720047
    0.0054722228087484837
    0.0054898490197956562
    0.0055074752308428288
    0.0055251014418900013
    0.0055427276529371738
    0.0055603538639843464
    0.0055779800750315189
    0.0055956062860786915
    0.005613232497125864
    0.0056308582425117493
    0.0056484849192202091
    0.0056661106646060944
    0.0056837368756532669
    0.0057013630867004395
    0.0057189888320863247
    0.0057366150431334972
    0.0057544116862118244
    0.0057723592035472393
    0.0057903067208826542
    0.0058082547038793564
    0.0058262022212147713
    0.0058441497385501862
    0.005862097255885601
    0.0058800447732210159
    0.0058979922905564308
    0.0059159398078918457
    0.0059338873252272606
    0.0059518348425626755
    0.005969783291220665
    0.0059877303428947926
    0.0060056778602302074
    0.0060236253775656223
    0.0060417274944484234
    0.0060600019060075283
    0.0060782767832279205
    0.0060965516604483128
    0.006114826537668705
    0.0061331009492278099
    0.0061513762921094894
    0.0061696507036685944
    0.0061879260465502739
    0.0062062004581093788
    0.0062244758009910583
    0.0062427502125501633
    0.0062610250897705555
    0.0062792999669909477
    0.0062975739128887653
    0.0063158487901091576
    0.0063342610374093056
    0.0063528697937726974
    0.0063714785501360893
    0.0063900868408381939
    0.0064086955972015858
    0.0064273038879036903
    0.0064459126442670822
    0.0064645214006304741
    0.0064831296913325787
    0.0065017384476959705
    0.0065203467383980751
    0.006538955494761467
    0.0065575642511248589
    0.0065761725418269634
    0.0065947812981903553
    0.0066133900545537472
    0.0066321184858679771
    0.0066510657779872417
    0.0066700135357677937
    0.0066889608278870583
    0.0067079090513288975
    0.0067268563434481621
    0.006745804101228714
    0.0067647518590092659
    0.0067836996167898178
    0.0068026469089090824
    0.006821594201028347
    0.0068405424244701862
    0.0068594897165894508
    0.0068784374743700027
    0.0068973847664892673
    0.006916332058608532
    0.0069353817962110043
    0.0069546755403280258
    0.0069739688187837601
    0.0069932630285620689
    0.0070125563070178032
    0.0070318505167961121
    0.0070511437952518463
    0.0070704375393688679
    0.0070897312834858894
    0.0071090254932641983
    0.0071283187717199326
    0.0071476125158369541
    0.0071669062599539757
    0.0071862000040709972
    0.0072054937481880188
    0.0072247874923050404
    0.0072441636584699154
    0.0072638089768588543
    0.0072834538295865059
    0.0073030986823141575
    0.0073227435350418091
    0.0073423883877694607
    0.0073620337061583996
    0.0073816785588860512
    0.0074013234116137028
    0.0074209682643413544
    0.007440613117069006
    0.0074602579697966576
    0.0074799032881855965
    0.0074995481409132481
    0.0075191925279796124
    0.0075388378463685513
    0.0075585455633699894
    0.0075785494409501553
    0.0075985537841916084
    0.0076185576617717743
    0.0076385610736906528
    0.007658565416932106
    0.0076785692945122719
    0.0076985731720924377
    0.0077185770496726036
    0.0077385809272527695
    0.0077585848048329353
    0.0077785886824131012
    0.0077985925599932671
    0.0078185964375734329
    0.0078386012464761734
    0.0078586051240563393
    0.0078786509111523628
    0.0078990207985043526
    0.0079193888232111931
    0.0079397587105631828
    0.007960127666592598
    0.0079804956912994385
    0.0080008655786514282
    0.0080212336033582687
    0.0080416025593876839
    0.008061971515417099
    0.0080823404714465141
    0.0081027094274759293
    0.0081230783835053444
    0.0081434473395347595
    0.0081638162955641747
    0.0081841843202710152
    0.0082045756280422211
    0.0082253152504563332
    0.0082460558041930199
    0.008266795426607132
    0.0082875359803438187
    0.0083082765340805054
    0.0083290161564946175
    0.0083497557789087296
    0.0083704963326454163
    0.008391236886382103
    0.0084119774401187897
    0.0084327170625329018
    0.0084534566849470139
    0.0084741972386837006
    0.008494935929775238
    0.0085156764835119247
    0.0085364161059260368
    0.0085575347766280174
    0.0085786525160074234
    0.008599771186709404
    0.0086208898574113846
    0.0086420085281133652
    0.0086631271988153458
    0.0086842449381947517
    0.0087053636088967323
    0.0087264813482761383
    0.0087476000189781189
    0.0087687186896800995
    0.0087898373603820801
    0.0088109550997614861
    0.0088320737704634666
    0.0088531924411654472
    0.0088743111118674278
    0.0088957920670509338
    0.0089172953739762306
    0.008938799612224102
    0.0089603038504719734
    0.0089818071573972702
    0.0090033113956451416
    0.009024815633893013
    0.0090463198721408844
    0.0090678231790661812
    0.0090893274173140526
    0.009110831655561924
    0.0091323358938097954
    0.0091538392007350922
    0.0091753434389829636
    0.0091968467459082603
    0.0092183509841561317
    0.0092402007430791855
    0.00926209706813097
    0.0092839933931827545
    0.0093058887869119644
    0.0093277851119637489
    0.0093496814370155334
    0.0093715768307447433
    0.0093934731557965279
    0.0094153694808483124
    0.0094372648745775223
    0.0094591611996293068
    0.0094810575246810913
    0.0095029529184103012
    0.0095248483121395111
    0.0095467455685138702
    0.0095686409622430801
    0.0095908669754862785
    0.0096131619065999985
    0.009635457769036293
    0.009657752700150013
    0.0096800485625863075
    0.0097023444250226021
    0.009724639356136322
    0.0097469352185726166
    0.0097692310810089111
    0.0097915269434452057
    0.0098138218745589256
    0.0098361177369952202
    0.0098584126681089401
    0.0098807066679000854
    0.00990300253033638
    0.0099252983927726746
    0.0099479053169488907
    0.0099706072360277176
    0.0099933091551065445
    0.010016011074185371
    0.010038712993264198
    0.010061414912343025
    0.010084116831421852
    0.010106818750500679
    0.010129520669579506
    0.010152222588658333
    0.01017492450773716
    0.010197626426815987
    0.010220328345894814
    0.01024303026497364
    0.010265733115375042
    0.010288435034453869
    0.010311429388821125
    0.010334545746445656
    0.010357662104070187
    0.010380778461694717
    0.010403893887996674
    0.010427010245621204
    0.010450126603245735
    0.010473243892192841
    0.010496359318494797
    0.010519475676119328
    0.010542592033743858
    0.010565708391368389
    0.01058882474899292
    0.010611941106617451
    0.010635056532919407
    0.010658172890543938
    0.010681562125682831
    0.010705100372433662
    0.010728638619184494
    0.010752176865935326
    0.010775715112686157
    0.010799253359436989
    0.01082279160618782
    0.010846329852938652
    0.010869868099689484
    0.010893405415117741
    0.010916943661868572
    0.010940481908619404
    0.010964020155370235
    0.010987558402121067
    0.011011096648871899
    0.011034633964300156
    0.011058424599468708
    0.011082392185926437
    0.011106358841061592
    0.011130326427519321
    0.011154293082654476
    0.011178260669112206
    0.01120222732424736
    0.01122619491070509
    0.011250162497162819
    0.011274129152297974
    0.011298096738755703
    0.011322063393890858
    0.011346030980348587
    0.011369997635483742
    0.011393964290618896
    0.011417931877076626
    0.01144213043153286
    0.011466534808278084
    0.011490938253700733
    0.011515343561768532
    0.011539747007191181
    0.01156415231525898
    0.011588556692004204
    0.011612961068749428
    0.011637365445494652
    0.011661769822239876
    0.0116861741989851
    0.011710578575730324
    0.011734982952475548
    0.011759387329220772
    0.011783791705965996
    0.01180819608271122
    0.011832810007035732
    0.011857659555971622
    0.011882509104907513
    0.011907359585165977
    0.011932209134101868
    0.011957058683037758
    0.011981908231973648
    0.012006759643554688
    0.012031609192490578
    0.012056458741426468
    0.012081308290362358
    0.012106158770620823
    0.012131009250879288
    0.012155857868492603
    0.012180708348751068
    0.012205557897686958
    0.012230594642460346
    0.0122558968141675
    0.012281199917197227
    0.01230650395154953
    0.012331806123256683
    0.012357110157608986
    0.012382412329316139
    0.012407715432345867
    0.012433018535375595
    0.012458320707082748
    0.012483624741435051
    0.012508927844464779
    0.012534230016171932
    0.01255953311920166
    0.012584837153553963
    0.012610139325261116
    0.012635605409741402
    0.012661370448768139
    0.012687134556472301
    0.012712899595499039
    0.012738664634525776
    0.012764429673552513
    0.012790193781256676
    0.012815957888960838
    0.01284172385931015
    0.012867487967014313
    0.012893252074718475
    0.012919018045067787
    0.01294478215277195
    0.012970545329153538
    0.012996310368180275
    0.013022075407207012
    0.013047978281974792
    0.013074211776256561
    0.013100447133183479
    0.013126680627465248
    0.013152915984392166
    0.01317915040999651
    0.013205384835600853
    0.013231618329882622
    0.01325785368680954
    0.013284087181091309
    0.013310322538018227
    0.013336556032299995
    0.013362791389226913
    0.013389024883508682
    0.013415259309113026
    0.013441493734717369
    0.013467840850353241
    0.013494553975760937
    0.013521266169846058
    0.013547979295253754
    0.013574692420661449
    0.013601405546069145
    0.013628118671476841
    0.013654831796884537
    0.013681543990969658
    0.013708256185054779
    0.013734969310462475
    0.013761683367192745
    0.013788396492600441
    0.013815108686685562
    0.013841821812093258
    0.013868534006178379
    0.013895333744585514
    0.013922534883022308
    0.013949734158813953
    0.013976935297250748
    0.014004136435687542
    0.014031337574124336
    0.014058537781238556
    0.014085737988352776
    0.01411293912678957
    0.014140140265226364
    0.014167340472340584
    0.014194541610777378
    0.014221742749214172
    0.014248942956328392
    0.014276144094765186
    0.014303345233201981
    0.014330603182315826
    0.014358300715684891
    0.014385996386408806
    0.014413692057132721
    0.014441389590501785
    0.0144690852612257
    0.014496780931949615
    0.014524477533996105
    0.014552174136042595
    0.014579870738089085
    0.014607567340135574
    0.014635263010859489
    0.014662959612905979
    0.01469065435230732
    0.014718350023031235
    0.014746046625077724
    0.014773773029446602
    0.014801974408328533
    0.014830176718533039
    0.01485837809741497
    0.014886579476296902
    0.014914781786501408
    0.014942983165383339
    0.014971185475587845
    0.014999386854469776
    0.015027588233351707
    0.015055790543556213
    0.015083991922438145
    0.015112194232642651
    0.015140395611524582
    0.015168596990406513
    0.015196798369288445
    0.01522500067949295
    0.015253717079758644
    0.015282433480024338
    0.015311150811612606
    0.0153398672118783
    0.015368583612143993
    0.015397300012409687
    0.015426016412675381
    0.015454733744263649
    0.015483450144529343
    0.015512166544795036
    0.01554088294506073
    0.015569599345326424
    0.015598315745592117
    0.015627032145857811
    0.015655748546123505
    0.015684466809034348
    0.015713674947619438
    0.015742914751172066
    0.015772154554724693
    0.015801394358277321
    0.015830634161829948
    0.015859873965382576
    0.015889113768935204
    0.015918353572487831
    0.015947593376040459
    0.015976833179593086
    0.016006072983145714
    0.016035312786698341
    0.01606455072760582
    0.016093790531158447
    0.016123030334711075
    0.016152270138263702
    0.016181983053684235
    0.016211755573749542
    0.016241529956459999
    0.016271304339170456
    0.016301076859235764
    0.01633085124194622
    0.016360625624656677
    0.016390398144721985
    0.016420172527432442
    0.016449946910142899
    0.016479721292853355
    0.016509493812918663
    0.016539266332983971
    0.016569038853049278
    0.016598813235759735
    0.016628587618470192
    0.016658807173371315
    0.016689123585820198
    0.01671944186091423
    0.016749758273363113
    0.016780072823166847
    0.01681039109826088
    0.016840707510709763
    0.016871022060513496
    0.016901340335607529
    0.016931654885411263
    0.016961971297860146
    0.016992289572954178
    0.017022604122757912
    0.017052920535206795
    0.017083236947655678
    0.017113553360104561
    0.017144292593002319
    0.017175162211060524
    0.017206031829118729
    0.017236901447176933
    0.017267771065235138
    0.017298638820648193
    0.017329510301351547
    0.017360378056764603
    0.017391247674822807
    0.017422119155526161
    0.017452988773584366
    0.017483856528997421
    0.017514726147055626
    0.017545595765113831
    0.017576463520526886
    0.01760733500123024
    0.017638601362705231
    0.017670033499598503
    0.017701467499136925
    0.017732901498675346
    0.017764333635568619
    0.01779576763510704
    0.017827199772000313
    0.017858631908893585
    0.017890065908432007
    0.017921499907970428
    0.017952932044863701
    0.017984364181756973
    0.018015798181295395
    0.018047230318188667
    0.018078664317727089
    0.018110098317265511
    0.01814190112054348
    0.018173906952142715
    0.018205912783741951
    0.018237918615341187
    0.018269924446940422
    0.018301930278539658
    0.018333936110138893
    0.018365941941738129
    0.018397947773337364
    0.0184299536049366
    0.018461959436535835
    0.018493965268135071
    0.018525969237089157
    0.018557975068688393
    0.018589982762932777
    0.018621986731886864
    0.018654335290193558
    0.018686925992369652
