nuke-default/luts/redspace.spi1d
Version 1
From 0.000000 1.000000
Length 4096
Components 1
{
    0.0
    8.0708181485533714e-05
    0.00016141636297106743
    0.00024212452990468591
    0.00032283272594213486
    0.00040354087832383811
    0.00048424905980937183
    0.00056495721219107509
    0.00064566545188426971
    0.00072637357516214252
    0.00080708175664767623
    0.00088778993813320994
    0.00096849811961874366
    0.0010492062428966165
    0.0011299144243821502
    0.0012106226058676839
    0.0012913309037685394
    0.0013676662929356098
    0.0014437288045883179
    0.0015197908505797386
    0.0015958532458171248
    0.0016719154082238674
    0.0017479778034612536
    0.001824040082283318
    0.0019001023611053824
    0.001976164523512125
    0.0020522270351648331
    0.0021282890811562538
    0.0022043513599783182
    0.0022804136388003826
    0.0023564761504530907
    0.0024325381964445114
    0.0025086007080972195
    0.0025834531988948584
    0.0026581438723951578
    0.0027328347787261009
    0.002807525685057044
    0.0028822165913879871
    0.0029569072648882866
    0.0030315984040498734
    0.0031062893103808165
    0.0031809802167117596
    0.003255670890212059
    0.0033303620293736458
    0.0034050529357045889
    0.003479743842035532
    0.0035544342827051878
    0.0036291254218667746
    0.0037038163281977177
    0.0037744145374745131
    0.003844135208055377
    0.0039138561114668846
    0.0039835772477090359
    0.0040532983839511871
    0.0041230190545320511
    0.004192739725112915
    0.0042624613270163536
    0.0043321819975972176
    0.0044019031338393688
    0.0044716242700815201
    0.004541344940662384
    0.0046110660769045353
    0.0046807867474853992
    0.0047505078837275505
    0.0048202290199697018
    0.0048955637030303478
    0.0049726264551281929
    0.0050496882759034634
    0.0051267500966787338
    0.0052038123831152916
    0.0052808746695518494
    0.0053579364903271198
    0.0054349987767636776
    0.0055120605975389481
    0.0055891228839755058
    0.0056661851704120636
    0.0057432465255260468
    0.0058203092776238918
    0.0058973710983991623
    0.0059744333848357201
    0.0060514956712722778
    0.0061176363378763199
    0.006179227028042078
    0.0062408172525465488
    0.0063024070113897324
    0.0063639972358942032
    0.0064255883917212486
    0.0064871786162257195
    0.0065487688407301903
    0.0066103590652346611
    0.0066719497554004192
    0.0067335395142436028
    0.0067951297387480736
    0.0068567204289138317
    0.0069183106534183025
    0.0069799013435840607
    0.0070414911024272442
    0.0071086259558796883
    0.0071787838824093342
    0.0072489418089389801
    0.0073190992698073387
    0.0073892576619982719
    0.0074594155885279179
    0.0075295735150575638
    0.0075997314415872097
    0.0076698893681168556
    0.0077400477603077888
    0.0078102061524987221
    0.0078803626820445061
    0.0079505210742354393
    0.0080206794664263725
    0.0080908378586173058
    0.0081609953194856644
    0.0082309646531939507
    0.0083008008077740669
    0.0083706378936767578
    0.0084404740482568741
    0.0085103102028369904
    0.0085801472887396812
    0.0086499843746423721
    0.0087198205292224884
    0.0087896566838026047
    0.0088594928383827209
    0.0089293308556079865
    0.0089991660788655281
    0.009069003164768219
    0.0091388393193483353
    0.0092086754739284515
    0.009278513491153717
    0.0093409912660717964
    0.0093969283625483513
    0.0094528663903474808
    0.0095088034868240356
    0.0095647405833005905
    0.0096206776797771454
    0.0096766147762537003
    0.0097325518727302551
    0.00978848896920681
    0.0098444260656833649
    0.0099003631621599197
    0.0099563002586364746
    0.010012237355113029
    0.010068175382912159
    0.010124111548066139
    0.010180049575865269
    0.010234863497316837
    0.010288413614034653
    0.010341964662075043
    0.010395515710115433
    0.010449065826833248
    0.010502615943551064
    0.010556166991591454
    0.010609716176986694
    0.010663267225027084
    0.010716818273067474
    0.010770367458462715
    0.010823918506503105
    0.010877469554543495
    0.010931019671261311
    0.010984570719301701
    0.011038120836019516
    0.011095649562776089
    0.01115886028856039
    0.011222071945667267
    0.011285281740128994
    0.011348492465913296
    0.011411704123020172
    0.011474914848804474
    0.011538124643266201
    0.011601335369050503
    0.011664547026157379
    0.011727756820619106
    0.011790968477725983
    0.011854179203510284
    0.011917389929294586
    0.011980600655078888
    0.01204381138086319
    0.012104985304176807
    0.012162424623966217
    0.012219863943755627
    0.012277302332222462
    0.012334741652011871
    0.012392180971801281
    0.012449620291590691
    0.012507058680057526
    0.012564497068524361
    0.01262193638831377
    0.01267937570810318
    0.01273681502789259
    0.012794254347681999
    0.012851692736148834
    0.012909132987260818
    0.012966571375727654
    0.013022818602621555
    0.013076205737888813
    0.013129591941833496
    0.013182979077100754
    0.013236365281045437
    0.01328975148499012
    0.013343138620257378
    0.013396524824202061
    0.013449911028146744
    0.013503298163414001
    0.013556685298681259
    0.013610072433948517
    0.0136634586378932
    0.013716844841837883
    0.013770231977105141
    0.013823619112372398
    0.013876383192837238
    0.013927126303315163
    0.013977868482470512
    0.014028611592948437
    0.014079353772103786
    0.014130096882581711
    0.014180839993059635
    0.01423158124089241
    0.014282324351370335
    0.014333067461848259
    0.014383809641003609
    0.014434553682804108
    0.014485295861959457
    0.014536038041114807
    0.014586781151592731
    0.014637524262070656
    0.014689743518829346
    0.014748855493962765
    0.014807968400418758
    0.014867080375552177
    0.014926193282008171
    0.01498530525714159
    0.015044418163597584
    0.015103528276085854
    0.015162641182541847
    0.015221754088997841
    0.01528086606413126
    0.015339978039264679
    0.015399090945720673
    0.015458202920854092
    0.015517315827310085
    0.015576427802443504
    0.01563522033393383
    0.015691617503762245
    0.015748016536235809
    0.015804413706064224
    0.015860810875892639
    0.015917208045721054
    0.015973607078194618
    0.016030004248023033
    0.016086401417851448
    0.016142798587679863
    0.016199197620153427
    0.016255594789981842
    0.016311991959810257
    0.016368389129638672
    0.016424788162112236
    0.016481185331940651
    0.016536695882678032
    0.016578009352087975
    0.016619320958852768
    0.016660634428262711
    0.016701947897672653
    0.016743261367082596
    0.016784574836492538
    0.016825886443257332
    0.016867198050022125
    0.016908511519432068
    0.01694982498884201
    0.016991138458251953
    0.017032451927661896
    0.017073765397071838
    0.017115077003836632
    0.017156388610601425
    0.017197702080011368
    0.017251092940568924
    0.017304485663771629
    0.017357876524329185
    0.017411267384886742
    0.017464658245444298
    0.017518050968647003
    0.017571441829204559
    0.017624832689762115
    0.017678223550319672
    0.017731616273522377
    0.017785007134079933
    0.017838397994637489
    0.017891790717840195
    0.017945181578397751
    0.017998572438955307
    0.018051963299512863
    0.018108673393726349
    0.01816558837890625
    0.018222503364086151
    0.018279418349266052
    0.018336335197091103
    0.018393250182271004
    0.018450167030096054
    0.018507082015275955
    0.018563997000455856
    0.018620913848280907
    0.018677828833460808
    0.018734745681285858
    0.018791660666465759
    0.01884857565164566
    0.018905490636825562
    0.018962405622005463
    0.019011281430721283
    0.019059086218476295
    0.019106889143586159
    0.019154693931341171
    0.019202496856451035
    0.019250299781560898
    0.01929810456931591
    0.019345909357070923
    0.019393712282180786
    0.019441515207290649
    0.019489319995045662
    0.019537122920155525
    0.019584927707910538
    0.01963273249566555
    0.019680535420775414
    0.019728340208530426
    0.019781999289989471
    0.019836913794279099
    0.019891828298568726
    0.019946746528148651
    0.020001661032438278
    0.020056575536727905
    0.020111490041017532
    0.020166406407952309
    0.020221322774887085
    0.020276237279176712
    0.020331151783466339
    0.020386068150401115
    0.020440984517335892
    0.020495899021625519
    0.020550813525915146
    0.020605728030204773
    0.020651783794164658
    0.020695116370916367
    0.020738448947668076
    0.020781779661774635
    0.020825110375881195
    0.020868442952632904
    0.020911775529384613
    0.020955108106136322
    0.020998436957597733
    0.021041769534349442
    0.021085102111101151
    0.02112843282520771
    0.02117176353931427
    0.021215096116065979
    0.021258426830172539
    0.021301759406924248
    0.021342763677239418
    0.02138279564678669
    0.021422829478979111
    0.021462861448526382
    0.021502895280718803
    0.021542929112911224
    0.021582961082458496
    0.021622994914650917
    0.021663028746843338
    0.02170306071639061
    0.021743094548583031
    0.021783128380775452
    0.021823160350322723
    0.021863194182515144
    0.021903224289417267
    0.021943259984254837
    0.021994268521666527
    0.022051265463232994
    0.022108262404799461
    0.022165259346365929
    0.022222256287932396
    0.022279255092144012
    0.02233625203371048
    0.022393248975276947
    0.022450245916843414
    0.022507242858409882
    0.022564239799976349
    0.022621236741542816
    0.022678233683109283
    0.022735230624675751
    0.022792227566242218
    0.022849224507808685
    0.022908885031938553
    0.022970410063862801
    0.023031933233141899
    0.023093456402420998
    0.023154981434345245
    0.023216506466269493
    0.023278031498193741
    0.023339554667472839
    0.023401077836751938
    0.023462604731321335
    0.023524127900600433
    0.023585651069879532
    0.023647177964448929
    0.023708701133728027
    0.023770224303007126
    0.023831747472286224
    0.023882189765572548
    0.023922782391309738
    0.023963373154401779
    0.024003965780138969
    0.02404455840587616
    0.02408515103161335
    0.02412574365735054
    0.024166334420442581
    0.024206927046179771
    0.024247519671916962
    0.024288110435009003
    0.024328703060746193
    0.024369295686483383
    0.024409888312220573
    0.024450479075312614
    0.024491071701049805
    0.024538207799196243
    0.024592705070972443
    0.024647204205393791
    0.024701701477169991
    0.024756202474236488
    0.024810701608657837
    0.024865198880434036
    0.024919696152210236
    0.024974193423986435
    0.025028692558407784
    0.025083191692829132
    0.025137690827250481
    0.02519218809902668
    0.025246687233448029
    0.025301182642579079
    0.025355681777000427
    0.025403451174497604
    0.025441605597734451
    0.025479760020971298
    0.025517914444208145
    0.025556070730090141
    0.025594223290681839
    0.025632379576563835
    0.025670533999800682
    0.025708690285682678
    0.025746844708919525
    0.025784999132156372
    0.025823153555393219
    0.025861307978630066
    0.025899464264512062
    0.02593761682510376
    0.025975773110985756
    0.026021718978881836
    0.026081949472427368
    0.026142183691263199
    0.026202414184808731
    0.026262644678354263
    0.026322875171899796
    0.026383109390735626
    0.026443339884281158
    0.026503570377826691
    0.026563804596662521
    0.026624035090208054
    0.026684267446398735
    0.026744497939944267
    0.026804730296134949
    0.026864958927035332
    0.026925191283226013
    0.026985691860318184
    0.027046842500567436
    0.027107995003461838
    0.027169143781065941
    0.027230294421315193
    0.027291446924209595
    0.027352595701813698
    0.02741374634206295
    0.027474896982312202
    0.027536049485206604
    0.027597198262810707
    0.02765834704041481
    0.027719501405954361
    0.027780650183558464
    0.027841800823807716
    0.027902949601411819
    0.027961647137999535
    0.028012368828058243
    0.0280630923807621
    0.028113812208175659
    0.028164533898234367
    0.028215255588293076
    0.028265979140996933
    0.028316698968410492
    0.028367418795824051
    0.028418142348527908
    0.028468862175941467
    0.028519583866000175
    0.028570307418704033
    0.028621029108762741
    0.028671747073531151
    0.028722470626235008
    0.028773114085197449
    0.028823409229516983
    0.028873704373836517
    0.028923999518156052
    0.028974290937185287
    0.029024586081504822
    0.029074881225824356
    0.02912517637014389
    0.029175467789173126
    0.029225762933492661
    0.029276058077812195
    0.02932635135948658
    0.029376646503806114
    0.029426939785480499
    0.029477236792445183
    0.029527530074119568
    0.029578244313597679
    0.029632102698087692
    0.029685962945222855
    0.029739821329712868
    0.029793679714202881
    0.029847538098692894
    0.029901398345828056
    0.029955256730318069
    0.030009116977453232
    0.030062973499298096
    0.030116833746433258
    0.030170692130923271
    0.030224550515413284
    0.030278410762548447
    0.03033226914703846
    0.030386129394173622
    0.03044087253510952
    0.030509762465953827
    0.030578650534152985
    0.030647540464997292
    0.030716430395841599
    0.030785318464040756
    0.030854206532239914
    0.030923096463084221
    0.030991986393928528
    0.031060874462127686
    0.031129764392971992
    0.031198654323816299
    0.031267542392015457
    0.031336430460214615
    0.031405318528413773
    0.03147420659661293
    0.031543094664812088
    0.031591139733791351
    0.031639188528060913
    0.031687237322330475
    0.031735286116600037
    0.0317833311855793
    0.031831376254558563
    0.031879425048828125
    0.031927473843097687
    0.03197551891207695
    0.032023567706346512
    0.032071616500616074
    0.032119661569595337
    0.032167710363864899
    0.032215755432844162
    0.032263804227113724
    0.032311849296092987
    0.032359946519136429
    0.032408047467470169
    0.032456148415803909
    0.032504245638847351
    0.032552346587181091
    0.032600443810224533
    0.032648544758558273
    0.032696641981601715
    0.032744742929935455
    0.032792843878269196
    0.032840941101312637
    0.032889042049646378
    0.032937139272689819
    0.03298524022102356
    0.0330333411693573
    0.033081438392400742
    0.033148117363452911
    0.03321726992726326
    0.033286422491073608
    0.033355578780174255
    0.033424731343984604
    0.033493883907794952
    0.033563040196895599
    0.033632192760705948
    0.033701345324516296
    0.033770497888326645
    0.033839650452136993
    0.03390880674123764
    0.033977959305047989
    0.034047111868858337
    0.034116264432668686
    0.034185420721769333
    0.034237690269947052
    0.034286342561244965
    0.034334991127252579
    0.03438364714384079
    0.034432295709848404
    0.034480948001146317
    0.034529600292444229
    0.034578248858451843
    0.034626904875040054
    0.034675557166337967
    0.034724205732345581
    0.034772858023643494
    0.034821510314941406
    0.03487015888094902
    0.034918811172246933
    0.034967467188835144
    0.035013627260923386
    0.035059019923210144
    0.035104416310787201
    0.035149812698364258
    0.035195209085941315
    0.035240605473518372
    0.035286001861095428
    0.035331398248672485
    0.035376794636249542
    0.035422191023826599
    0.035467587411403656
    0.035512980073690414
    0.03555838018655777
    0.035603776574134827
    0.035649169236421585
    0.035694565623998642
    0.035748515278100967
    0.035806022584438324
    0.035863533616065979
    0.035921044647693634
    0.035978555679321289
    0.036036066710948944
    0.036093577742576599
    0.036151088774204254
    0.036208599805831909
    0.036266107112169266
    0.036323618143796921
    0.036381129175424576
    0.036438640207052231
    0.036496147513389587
    0.036553662270307541
    0.036611169576644897
    0.036678280681371689
    0.036750629544258118
    0.036822978407144547
    0.036895323544740677
    0.036967668682336807
    0.037040017545223236
    0.037112362682819366
    0.037184711545705795
    0.037257056683301926
    0.037329405546188354
    0.037401750683784485
    0.037474095821380615
    0.037546444684267044
    0.037618793547153473
    0.037691134959459305
    0.037763483822345734
    0.037824284285306931
    0.037877000868320465
    0.037929717451334
    0.037982437759637833
    0.038035154342651367
    0.038087870925664902
    0.038140587508678436
    0.038193307816982269
    0.038246020674705505
    0.038298740983009338
    0.038351457566022873
    0.038404174149036407
    0.03845689445734024
    0.038509607315063477
    0.03856232762336731
    0.038615044206380844
    0.038662508130073547
    0.038705307990312576
    0.038748107850551605
    0.038790907710790634
    0.038833707571029663
    0.038876503705978394
    0.038919307291507721
    0.038962103426456451
    0.039004907011985779
    0.039047703146934509
    0.039090503007173538
    0.039133302867412567
    0.039176102727651596
    0.039218902587890625
    0.039261702448129654
    0.039304502308368683
    0.039350379258394241
    0.039399720728397369
    0.039449062198400497
    0.039498403668403625
    0.039547745138406754
    0.039597086608409882
    0.03964642807841301
    0.039695769548416138
    0.039745111018419266
    0.039794452488422394
    0.039843793958425522
    0.03989313542842865
    0.039942476898431778
    0.039991818368434906
    0.040041159838438034
    0.040090501308441162
    0.040154442191123962
    0.040239229798316956
    0.040324021130800247
    0.040408812463283539
    0.04049360379576683
    0.040578395128250122
    0.040663190186023712
    0.040747977793216705
    0.040832769125699997
    0.040917560458183289
    0.04100235179066658
    0.041087143123149872
    0.041171934455633163
    0.041256725788116455
    0.041341517120599747
    0.041426308453083038
    0.04149748757481575
    0.041543710976839066
    0.041589930653572083
    0.041636154055595398
    0.041682381182909012
    0.041728604584932327
    0.041774827986955643
    0.041821051388978958
    0.041867274791002274
    0.041913498193025589
    0.041959721595048904
    0.04200594499707222
    0.042052168399095535
    0.042098388075828552
    0.042144611477851868
    0.042190834879875183
    0.042241819202899933
    0.042304221540689468
    0.042366623878479004
    0.042429026216268539
    0.042491428554058075
    0.042553834617137909
    0.042616236954927444
    0.04267863929271698
    0.042741045355796814
    0.042803443968296051
    0.042865850031375885
    0.042928252369165421
    0.042990654706954956
    0.04305306077003479
    0.043115463107824326
    0.043177865445613861
    0.04323878139257431
    0.043294865638017654
    0.043350942432880402
    0.043407022953033447
    0.043463103473186493
    0.043519183993339539
    0.043575264513492584
    0.04363134503364563
    0.043687425553798676
    0.043743506073951721
    0.043799586594104767
    0.043855667114257812
    0.043911747634410858
    0.043967828154563904
    0.044023908674716949
    0.044079989194869995
    0.044138576835393906
    0.044208873063325882
    0.044279169291257858
    0.044349465519189835
    0.044419761747121811
    0.044490057975053787
    0.044560350477695465
    0.044630646705627441
    0.044700942933559418
    0.044771239161491394
    0.04484153538942337
    0.044911831617355347
    0.044982127845287323
    0.045052424073219299
    0.045122720301151276
    0.045193012803792953
    0.045259993523359299
    0.045302096754312515
    0.045344192534685135
    0.045386295765638351
    0.04542839527130127
    0.045470498502254486
    0.045512601733207703
    0.045554701238870621
    0.045596800744533539
    0.045638903975486755
    0.045680999755859375
    0.045723102986812592
    0.045765206217765808
    0.045807305723428726
    0.045849405229091644
    0.045891508460044861
    0.045934818685054779
    0.045997492969036102
    0.046060174703598022
    0.046122852712869644
    0.046185530722141266
    0.046248208731412888
    0.046310890465974808
    0.046373568475246429
    0.04643625020980835
    0.046498924493789673
    0.046561606228351593
    0.046624280512332916
    0.046686962246894836
    0.046749643981456757
    0.046812321990728378
    0.046875
    0.046937678009271622
    0.047000702470541
    0.047063730657100677
    0.047126758843660355
    0.047189783304929733
    0.04725281149148941
    0.047315835952758789
    0.047378864139318466
    0.047441892325878143
    0.047504916787147522
    0.047567944973707199
    0.047630969434976578
    0.047693997621536255
    0.047757025808095932
    0.047820050269365311
    0.047883074730634689
    0.047946102917194366
    0.048009000718593597
    0.04807189479470253
    0.048134788870811462
    0.048197679221630096
    0.048260573297739029
    0.048323467373847961
    0.048386357724666595
    0.048449255526065826
    0.04851214587688446
    0.048575036227703094
    0.048637934029102325
    0.048700820654630661
    0.048763714730739594
    0.048826608806848526
    0.04888949915766716
    0.048952393233776093
    0.049012456089258194
    0.049072142690420151
    0.049131825566291809
    0.049191512167453766
    0.049251198768615723
    0.049310885369777679
    0.049370571970939636
    0.049430258572101593
    0.049489941447973251
    0.049549628049135208
    0.049609314650297165
    0.049668997526168823
    0.049728680402040482
    0.049788367003202438
    0.049848049879074097
    0.049907736480236053
    0.049949441105127335
    0.049987293779850006
    0.050025142729282379
    0.050062999129295349
    0.050100848078727722
    0.050138697028160095
    0.050176553428173065
    0.050214402377605438
    0.05025225505232811
    0.050290104001760483
    0.050327956676483154
    0.050365805625915527
    0.050403662025928497
    0.05044151097536087
    0.050479359924793243
    0.050517212599515915
    0.050593499094247818
    0.050681609660387039
    0.050769723951816559
    0.050857830792665482
    0.050945945084095001
    0.051034055650234222
    0.051122166216373444
    0.051210276782512665
    0.051298387348651886
    0.051386497914791107
    0.051474612206220627
    0.051562722772359848
    0.051650837063789368
    0.05173894390463829
    0.05182705819606781
    0.051915168762207031
    0.051983814686536789
    0.052044343203306198
    0.052104875445365906
    0.052165407687425613
    0.05222594365477562
    0.052286472171545029
    0.052347004413604736
    0.052407536655664444
    0.052468068897724152
    0.052528601139783859
    0.052589133381843567
    0.052649665623903275
    0.052710197865962982
    0.05277073010802269
    0.052831266075372696
    0.052891794592142105
    0.052951104938983917
    0.053009744733572006
    0.053068384528160095
    0.053127024322748184
    0.053185664117336273
    0.053244303911924362
    0.053302943706512451
    0.053361579775810242
    0.053420223295688629
    0.05347885936498642
    0.053537499159574509
    0.053596138954162598
    0.053654775023460388
    0.053713418543338776
    0.053772054612636566
    0.053830694407224655
    0.053882688283920288
    0.053930036723613739
    0.053977377712726593
    0.054024726152420044
    0.054072067141532898
    0.054119415581226349
    0.054166756570339203
    0.054214105010032654
    0.054261445999145508
    0.054308794438838959
    0.054356135427951813
    0.054403480142354965
    0.054450824856758118
    0.05449816957116127
    0.054545514285564423
    0.054592858999967575
    0.054654337465763092
    0.054728381335735321
    0.054802417755126953
    0.054876461625099182
    0.054950505495071411
    0.055024541914463043
    0.055098585784435272
    0.055172625929117203
