nuke-default/luts/slog2.spi1d
Version 1
From -0.125 1.125
Length 4101
Components 1
{
        -0.0394203109988
        -0.0393427736267
        -0.0392652362546
        -0.0391876988824
        -0.0391101615103
        -0.0390326241381
        -0.038955086766
        -0.0388775493938
        -0.0388000120217
        -0.0387224746495
        -0.0386449372774
        -0.0385673999052
        -0.0384898625331
        -0.0384123251609
        -0.0383347877888
        -0.0382572504166
        -0.0381797130445
        -0.0381021756723
        -0.0380246383002
        -0.037947100928
        -0.0378695635559
        -0.0377920261837
        -0.0377144888116
        -0.0376369514394
        -0.0375594140673
        -0.0374818766952
        -0.037404339323
        -0.0373268019509
        -0.0372492645787
        -0.0371717272066
        -0.0370941898344
        -0.0370166524623
        -0.0369391150901
        -0.036861577718
        -0.0367840403458
        -0.0367065029737
        -0.0366289656015
        -0.0365514282294
        -0.0364738908572
        -0.0363963534851
        -0.0363188161129
        -0.0362412787408
        -0.0361637413686
        -0.0360862039965
        -0.0360086666243
        -0.0359311292522
        -0.03585359188
        -0.0357760545079
        -0.0356985171357
        -0.0356209797636
        -0.0355434423915
        -0.0354659050193
        -0.0353883676472
        -0.035310830275
        -0.0352332929029
        -0.0351557555307
        -0.0350782181586
        -0.0350006807864
        -0.0349231434143
        -0.0348456060421
        -0.03476806867
        -0.0346905312978
        -0.0346129939257
        -0.0345354565535
        -0.0344579191814
        -0.0343803818092
        -0.0343028444371
        -0.0342253070649
        -0.0341477696928
        -0.0340702323206
        -0.0339926949485
        -0.0339151575763
        -0.0338376202042
        -0.0337600828321
        -0.0336825454599
        -0.0336050080878
        -0.0335274707156
        -0.0334499333435
        -0.0333723959713
        -0.0332948585992
        -0.033217321227
        -0.0331397838549
        -0.0330622464827
        -0.0329847091106
        -0.0329071717384
        -0.0328296343663
        -0.0327520969941
        -0.032674559622
        -0.0325970222498
        -0.0325194848777
        -0.0324419475055
        -0.0323644101334
        -0.0322868727612
        -0.0322093353891
        -0.0321317980169
        -0.0320542606448
        -0.0319767232726
        -0.0318991859005
        -0.0318216485284
        -0.0317441111562
        -0.0316665737841
        -0.0315890364119
        -0.0315114990398
        -0.0314339616676
        -0.0313564242955
        -0.0312788869233
        -0.0312013495512
        -0.031123812179
        -0.0310462748069
        -0.0309687374347
        -0.0308912000626
        -0.0308136626904
        -0.0307361253183
        -0.0306585879461
        -0.030581050574
        -0.0305035132018
        -0.0304259758297
        -0.0303484384575
        -0.0302709010854
        -0.0301933637132
        -0.0301158263411
        -0.030038288969
        -0.0299607515968
        -0.0298832142247
        -0.0298056768525
        -0.0297281394804
        -0.0296506021082
        -0.0295730647361
        -0.0294955273639
        -0.0294179899918
        -0.0293404526196
        -0.0292629152475
        -0.0291853778753
        -0.0291078405032
        -0.029030303131
        -0.0289527657589
        -0.0288752283867
        -0.0287976910146
        -0.0287201536424
        -0.0286426162703
        -0.0285650788981
        -0.028487541526
        -0.0284100041538
        -0.0283324667817
        -0.0282549294095
        -0.0281773920374
        -0.0280998546653
        -0.0280223172931
        -0.027944779921
        -0.0278672425488
        -0.0277897051767
        -0.0277121678045
        -0.0276346304324
        -0.0275570930602
        -0.0274795556881
        -0.0274020183159
        -0.0273244809438
        -0.0272469435716
        -0.0271694061995
        -0.0270918688273
        -0.0270143314552
        -0.026936794083
        -0.0268592567109
        -0.0267817193387
        -0.0267041819666
        -0.0266266445944
        -0.0265491072223
        -0.0264715698501
        -0.026394032478
        -0.0263164951059
        -0.0262389577337
        -0.0261614203616
        -0.0260838829894
        -0.0260063456173
        -0.0259288082451
        -0.025851270873
        -0.0257737335008
        -0.0256961961287
        -0.0256186587565
        -0.0255411213844
        -0.0254635840122
        -0.0253860466401
        -0.0253085092679
        -0.0252309718958
        -0.0251534345236
        -0.0250758971515
        -0.0249983597793
        -0.0249208224072
        -0.024843285035
        -0.0247657476629
        -0.0246882102907
        -0.0246106729186
        -0.0245331355464
        -0.0244555981743
        -0.0243780608022
        -0.02430052343
        -0.0242229860579
        -0.0241454486857
        -0.0240679113136
        -0.0239903739414
        -0.0239128365693
        -0.0238352991971
        -0.023757761825
        -0.0236802244528
        -0.0236026870807
        -0.0235251497085
        -0.0234476123364
        -0.0233700749642
        -0.0232925375921
        -0.0232150002199
        -0.0231374628478
        -0.0230599254756
        -0.0229823881035
        -0.0229048507313
        -0.0228273133592
        -0.022749775987
        -0.0226722386149
        -0.0225947012428
        -0.0225171638706
        -0.0224396264985
        -0.0223620891263
        -0.0222845517542
        -0.022207014382
        -0.0221294770099
        -0.0220519396377
        -0.0219744022656
        -0.0218968648934
        -0.0218193275213
        -0.0217417901491
        -0.021664252777
        -0.0215867154048
        -0.0215091780327
        -0.0214316406605
        -0.0213541032884
        -0.0212765659162
        -0.0211990285441
        -0.0211214911719
        -0.0210439537998
        -0.0209664164276
        -0.0208888790555
        -0.0208113416833
        -0.0207338043112
        -0.0206562669391
        -0.0205787295669
        -0.0205011921948
        -0.0204236548226
        -0.0203461174505
        -0.0202685800783
        -0.0201910427062
        -0.020113505334
        -0.0200359679619
        -0.0199584305897
        -0.0198808932176
        -0.0198033558454
        -0.0197258184733
        -0.0196482811011
        -0.019570743729
        -0.0194932063568
        -0.0194156689847
        -0.0193381316125
        -0.0192605942404
        -0.0191830568682
        -0.0191055194961
        -0.0190279821239
        -0.0189504447518
        -0.0188729073797
        -0.0187953700075
        -0.0187178326354
        -0.0186402952632
        -0.0185627578911
        -0.0184852205189
        -0.0184076831468
        -0.0183301457746
        -0.0182526084025
        -0.0181750710303
        -0.0180975336582
        -0.018019996286
        -0.0179424589139
        -0.0178649215417
        -0.0177873841696
        -0.0177098467974
        -0.0176323094253
        -0.0175547720531
        -0.017477234681
        -0.0173996973088
        -0.0173221599367
        -0.0172446225645
        -0.0171670851924
        -0.0170895478202
        -0.0170120104481
        -0.016934473076
        -0.0168569357038
        -0.0167793983317
        -0.0167018609595
        -0.0166243235874
        -0.0165467862152
        -0.0164692488431
        -0.0163917114709
        -0.0163141740988
        -0.0162366367266
        -0.0161590993545
        -0.0160815619823
        -0.0160040246102
        -0.015926487238
        -0.0158489498659
        -0.0157714124937
        -0.0156938751216
        -0.0156163377494
        -0.0155388003773
        -0.0154612630051
        -0.015383725633
        -0.0153061882608
        -0.0152286508887
        -0.0151511135166
        -0.0150735761444
        -0.0149960387723
        -0.0149185014001
        -0.014840964028
        -0.0147634266558
        -0.0146858892837
        -0.0146083519115
        -0.0145308145394
        -0.0144532771672
        -0.0143757397951
        -0.0142982024229
        -0.0142206650508
        -0.0141431276786
        -0.0140655903065
        -0.0139880529343
        -0.0139105155622
        -0.01383297819
        -0.0137554408179
        -0.0136779034457
        -0.0136003660736
        -0.0135228287014
        -0.0134452913293
        -0.0133677539571
        -0.013290216585
        -0.0132126792129
        -0.0131351418407
        -0.0130576044686
        -0.0129800670964
        -0.0129025297243
        -0.0128249923521
        -0.01274745498
        -0.0126699176078
        -0.0125923802357
        -0.0125148428635
        -0.0124373054914
        -0.0123597681192
        -0.0122822307471
        -0.0122046933749
        -0.0121271560028
        -0.0120496186306
        -0.0119720812585
        -0.0118945438863
        -0.0118170065142
        -0.011739469142
        -0.0116619317699
        -0.0115843943977
        -0.0115068570256
        -0.0114293196535
        -0.0113517822813
        -0.0112742449092
        -0.011196707537
        -0.0111191701649
        -0.0110416327927
        -0.0109640954206
        -0.0108865580484
        -0.0108090206763
        -0.0107314833041
        -0.010653945932
        -0.0105764085598
        -0.0104988711877
        -0.0104213338155
        -0.0103437964434
        -0.0102662590712
        -0.0101887216991
        -0.0101111843269
        -0.0100336469548
        -0.00995610958264
        -0.00987857221049
        -0.00980103483834
        -0.0097234974662
        -0.00964596009405
        -0.0095684227219
        -0.00949088534975
        -0.00941334797761
        -0.00933581060546
        -0.00925827323331
        -0.00918073586116
        -0.00910319848901
        -0.00902566111687
        -0.00894812374472
        -0.00887058637257
        -0.00879304900042
        -0.00871551162827
        -0.00863797425613
        -0.00856043688398
        -0.00848289951183
        -0.00840536213968
        -0.00832782476753
        -0.00825028739539
        -0.00817275002324
        -0.00809521265109
        -0.00801767527894
        -0.00794013790679
        -0.00786260053465
        -0.0077850631625
        -0.00770752579035
        -0.0076299884182
        -0.00755245104606
        -0.00747491367391
        -0.00739737630176
        -0.00731983892961
        -0.00724230155746
        -0.00716476418532
        -0.00708722681317
        -0.00700968944102
        -0.00693215206887
        -0.00685461469672
        -0.00677707732458
        -0.00669953995243
        -0.00662200258028
        -0.00654446520813
        -0.00646692783598
        -0.00638939046384
        -0.00631185309169
        -0.00623431571954
        -0.00615677834739
        -0.00607924097524
        -0.0060017036031
        -0.00592416623095
        -0.0058466288588
        -0.00576909148665
        -0.00569155411451
        -0.00561401674236
        -0.00553647937021
        -0.00545894199806
        -0.00538140462591
        -0.00530386725377
        -0.00522632988162
        -0.00514879250947
        -0.00507125513732
        -0.00499371776517
        -0.00491618039303
        -0.00483864302088
        -0.00476110564873
        -0.00468356827658
        -0.00460603090443
        -0.00452849353229
        -0.00445095616014
        -0.00437341878799
        -0.00429588141584
        -0.00421834404369
        -0.00414080667155
        -0.0040632692994
        -0.00398573192725
        -0.0039081945551
        -0.00383065718296
        -0.00375311981081
        -0.00367558243866
        -0.00359804506651
        -0.00352050769436
        -0.00344297032222
        -0.00336543295007
        -0.00328789557792
        -0.00321035820577
        -0.00313282083362
        -0.00305528346148
        -0.00297774608933
        -0.00290020871718
        -0.00282267134503
        -0.00274513397288
        -0.00266759660074
        -0.00259005922859
        -0.00251252185644
        -0.00243498448429
        -0.00235744711214
        -0.00227990974
        -0.00220237236785
        -0.0021248349957
        -0.00204729762355
        -0.00196976025141
        -0.00189222287926
        -0.00181468550711
        -0.00173714813496
        -0.00165961076281
        -0.00158207339067
        -0.00150453601852
        -0.00142699864637
        -0.00134946127422
        -0.00127192390207
        -0.00119438652993
        -0.00111684915778
        -0.00103931178563
        -0.000961774413482
        -0.000884237041334
        -0.000806699669187
        -0.000729162297039
        -0.000651624924891
        -0.000574087552743
        -0.000496550180595
        -0.000419012808447
        -0.000341475436299
        -0.000263938064151
        -0.000186400692003
        -0.000108863319855
        -3.13259477074e-05
        -0.00243292000828
        -0.00235926955863
        -0.00228549952205
        -0.00221160970438
        -0.00213759991111
        -0.00206346994745
        -0.00198921961827
        -0.00191484872813
        -0.00184035708128
        -0.00176574448165
        -0.00169101073284
        -0.00161615563814
        -0.00154117900052
        -0.00146608062263
        -0.0013908603068
        -0.00131551785504
        -0.00124005306903
        -0.00116446575015
        -0.00108875569942
        -0.00101292271757
        -0.000936966605005
        -0.000860887161783
        -0.000784684187656
        -0.000708357482044
        -0.000631906844045
        -0.000555332072429
        -0.000478632965637
        -0.000401809321786
        -0.000324860938665
        -0.000247787613732
        -0.000170589144118
        -9.32653266252e-05
        -1.58159577249e-05
        6.17591664421e-05
        0.000139460250066
        0.000217287497668
        0.000295241114101
        0.000373321304553
        0.000451528274542
        0.000529862229922
        0.00060832337688
        0.000686911921939
        0.000765628071954
        0.000844472034121
        0.000923444015969
        0.00100254422536
        0.00108177287051
        0.00116113015995
        0.00124061630257
        0.00132023150758
        0.00139997598455
        0.00147984994337
        0.00155985359429
        0.00163998714788
        0.00172025081508
        0.00180064480715
        0.0018811693357
        0.00196182461267
        0.00204261085038
        0.00212352826146
        0.0022045770589
        0.00228575745604
        0.00236706966654
        0.00244851390444
        0.00253009038412
        0.00261179932029
        0.00269364092803
        0.00277561542275
        0.00285772302023
        0.00293996393659
        0.00302233838829
        0.00310484659216
        0.00318748876538
        0.00327026512546
        0.00335317589031
        0.00343622127813
        0.00351940150753
        0.00360271679745
        0.00368616736719
        0.0037697534364
        0.0038534752251
        0.00393733295365
        0.00402132684278
        0.00410545711357
        0.00418972398748
        0.0042741276863
        0.00435866843219
        0.00444334644769
        0.00452816195567
        0.00461311517939
        0.00469820634246
        0.00478343566885
        0.00486880338289
        0.00495430970929
        0.00503995487312
        0.0051257390998
        0.00521166261513
        0.00529772564528
        0.00538392841679
        0.00547027115654
        0.0055567540918
        0.00564337745022
        0.0057301414598
        0.00581704634891
        0.00590409234631
        0.00599127968111
        0.00607860858281
        0.00616607928126
        0.0062536920067
        0.00634144698975
        0.00642934446139
        0.00651738465297
        0.00660556779624
        0.00669389412331
        0.00678236386666
        0.00687097725917
        0.00695973453407
        0.00704863592499
        0.00713768166593
        0.00722687199128
        0.0073162071358
        0.00740568733463
        0.00749531282329
        0.0075850838377
        0.00767500061415
        0.00776506338932
        0.00785527240025
        0.00794562788441
        0.00803613007961
        0.00812677922407
        0.0082175755564
        0.00830851931559
        0.00839961074101
        0.00849085007243
        0.00858223755001
        0.0086737734143
        0.00876545790622
        0.00885729126712
        0.0089492737387
        0.00904140556309
        0.00913368698278
        0.00922611824068
        0.00931869958009
        0.00941143124468
        0.00950431347854
        0.00959734652616
        0.00969053063241
        0.00978386604256
        0.0098773530023
        0.00997099175769
        0.0100647825552
        0.0101587256417
        0.0102528212645
        0.0103470696712
        0.01044147111
        0.0105360258292
        0.0106307340779
        0.0107255961052
        0.0108206121609
        0.010915782495
        0.0110111073581
        0.0111065870011
        0.0112022216752
        0.0112980116323
        0.0113939571244
        0.0114900584042
        0.0115863157244
        0.0116827293386
        0.0117792995005
        0.0118760264643
        0.0119729104845
        0.0120699518162
        0.0121671507149
        0.0122645074363
        0.0123620222367
        0.0124596953729
        0.0125575271018
        0.012655517681
        0.0127536673684
        0.0128519764224
        0.0129504451018
        0.0130490736656
        0.0131478623736
        0.0132468114857
        0.0133459212625
        0.0134451919647
        0.0135446238536
        0.0136442171911
        0.0137439722392
        0.0138438892605
        0.013943968518
        0.0140442102752
        0.0141446147958
        0.0142451823442
        0.014345913185
        0.0144468075835
        0.0145478658052
        0.014649088116
        0.0147504747824
        0.0148520260714
        0.0149537422501
        0.0150556235863
        0.0151576703482
        0.0152598828044
        0.0153622612239
        0.0154648058762
        0.0155675170312
        0.0156703949593
        0.0157734399313
        0.0158766522183
        0.0159800320921
        0.0160835798248
        0.0161872956889
        0.0162911799574
        0.0163952329037
        0.0164994548019
        0.016603845926
        0.0167084065511
        0.0168131369522
        0.016918037405
        0.0170231081857
        0.0171283495708
        0.0172337618373
        0.0173393452627
        0.017445100125
        0.0175510267023
        0.0176571252737
        0.0177633961183
        0.0178698395158
        0.0179764557465
        0.018083245091
        0.0181902078303
        0.0182973442461
        0.0184046546202
        0.0185121392352
        0.018619798374
        0.0187276323199
        0.0188356413568
        0.0189438257691
        0.0190521858413
        0.0191607218588
        0.0192694341073
        0.0193783228729
        0.0194873884421
        0.0195966311022
        0.0197060511406
        0.0198156488453
        0.0199254245049
        0.0200353784082
        0.0201455108447
        0.0202558221043
        0.0203663124773
        0.0204769822546
        0.0205878317274
        0.0206988611875
        0.0208100709273
        0.0209214612393
        0.0210330324168
        0.0211447847535
        0.0212567185435
        0.0213688340814
        0.0214811316624
        0.021593611582
        0.0217062741364
        0.0218191196219
        0.0219321483358
        0.0220453605754
        0.0221587566388
        0.0222723368245
        0.0223861014314
        0.0225000507589
        0.022614185107
        0.0227285047761
        0.0228430100672
        0.0229577012816
        0.0230725787211
        0.0231876426883
        0.0233028934858
        0.0234183314172
        0.0235339567863
        0.0236497698973
        0.0237657710552
        0.0238819605652
        0.0239983387333
        0.0241149058656
        0.0242316622691
        0.0243486082511
        0.0244657441193
        0.0245830701822
        0.0247005867485
        0.0248182941275
        0.0249361926292
        0.0250542825637
        0.0251725642419
        0.0252910379753
        0.0254097040755
        0.025528562855
        0.0256476146266
        0.0257668597037
        0.0258862984002
        0.0260059310303
        0.0261257579091
        0.026245779352
        0.0263659956747
        0.0264864071939
        0.0266070142263
        0.0267278170895
        0.0268488161015
        0.0269700115807
        0.0270914038461
        0.0272129932173
        0.0273347800143
        0.0274567645577
        0.0275789471685
        0.0277013281683
        0.0278239078794
        0.0279466866242
        0.0280696647261
        0.0281928425086
        0.0283162202961
        0.0284397984133
        0.0285635771853
        0.0286875569382
        0.0288117379981
        0.028936120692
        0.0290607053472
        0.0291854922918
        0.029310481854
        0.029435674363
        0.0295610701482
        0.0296866695397
        0.0298124728681
        0.0299384804646
        0.0300646926608
        0.0301911097889
        0.0303177321817
        0.0304445601725
        0.0305715940951
        0.0306988342838
        0.0308262810736
        0.0309539348
        0.0310817957989
        0.0312098644069
        0.0313381409612
        0.0314666257992
        0.0315953192593
        0.0317242216802
        0.0318533334012
        0.0319826547621
        0.0321121861032
        0.0322419277657
        0.0323718800908
        0.0325020434208
        0.0326324180982
        0.0327630044662
        0.0328938028686
        0.0330248136495
        0.0331560371538
        0.033287473727
        0.0334191237149
        0.0335509874642
        0.0336830653219
        0.0338153576356
        0.0339478647537
        0.0340805870247
        0.0342135247982
        0.034346678424
        0.0344800482525
        0.0346136346349
        0.0347474379228
        0.0348814584683
        0.0350156966243
        0.035150152744
        0.0352848271813
        0.0354197202908
        0.0355548324275
        0.0356901639471
        0.0358257152057
        0.0359614865602
        0.0360974783678
        0.0362336909867
        0.0363701247752
        0.0365067800926
        0.0366436572985
        0.0367807567532
        0.0369180788176
        0.0370556238531
        0.0371933922218
        0.0373313842862
        0.0374696004097
        0.037608040956
        0.0377467062895
        0.0378855967752
        0.0380247127787
        0.0381640546661
        0.0383036228043
        0.0384434175605
        0.0385834393029
        0.0387236883998
        0.0388641652205
        0.0390048701348
        0.0391458035129
        0.0392869657259
        0.0394283571453
        0.0395699781432
        0.0397118290925
        0.0398539103666
        0.0399962223393
        0.0401387653853
        0.0402815398798
        0.0404245461986
        0.040567784718
        0.0407112558152
        0.0408549598678
        0.040998897254
        0.0411430683526
        0.0412874735433
        0.041432113206
        0.0415769877214
        0.041722097471
        0.0418674428367
        0.0420130242009
        0.0421588419471
        0.0423048964588
        0.0424511881206
        0.0425977173176
        0.0427444844354
        0.0428914898603
        0.0430387339794
        0.0431862171801
        0.0433339398506
        0.0434819023798
        0.0436301051572
        0.0437785485728
        0.0439272330174
        0.0440761588823
        0.0442253265596
        0.0443747364418
        0.0445243889222
        0.0446742843947
        0.044824423254
        0.0449748058951
        0.0451254327139
        0.0452763041069
        0.0454274204712
        0.0455787822045
        0.0457303897053
        0.0458822433727
        0.0460343436062
        0.0461866908064
        0.0463392853741
        0.046492127711
        0.0466452182195
        0.0467985573025
        0.0469521453636
        0.047105982807
        0.0472600700378
