nuke-default/luts/srgb.spi1d
Version 1
From 0.000000 1.000000
Length 4096
Components 1
{
    0.0
    1.8900949726230465e-05
    3.780189945246093e-05
    5.6702847359701991e-05
    7.560379890492186e-05
    9.4504743174184114e-05
    0.00011340569471940398
    0.00013230663898866624
    0.00015120759780984372
    0.00017010854207910597
    0.00018900948634836823
    0.00020791043061763048
    0.00022681138943880796
    0.00024571231915615499
    0.00026461327797733247
    0.00028351423679850996
    0.00030241519561968744
    0.00032131612533703446
    0.00034021708415821195
    0.00035911801387555897
    0.00037801900180056691
    0.00039691990241408348
    0.00041582086123526096
    0.00043472182005643845
    0.00045362277887761593
    0.0004725236794911325
    0.00049142463831230998
    0.00051032559713348746
    0.00052922655595466495
    0.00054812751477584243
    0.000567028415389359
    0.00058592937421053648
    0.00060483039123937488
    0.00062373135006055236
    0.00064263225067406893
    0.00066153320949524641
    0.00068043416831642389
    0.00069933512713760138
    0.00071823602775111794
    0.00073713698657229543
    0.00075603794539347291
    0.00077493896242231131
    0.00079383980482816696
    0.00081274076364934444
    0.00083164172247052193
    0.00085054268129169941
    0.00086944358190521598
    0.00088834454072639346
    0.00090724555775523186
    0.00092614651657640934
    0.00094504741718992591
    0.00096394831780344248
    0.00098284939303994179
    0.0010017503518611193
    0.0010206511942669749
    0.0010395521530881524
    0.0010584531119093299
    0.0010773540707305074
    0.0010962550295516849
    0.0011151558719575405
    0.001134056830778718
    0.0011529579060152173
    0.001171858748421073
    0.0011907597072422504
    0.0012096607824787498
    0.0012285617412999272
    0.0012474627001211047
    0.0012663636589422822
    0.0012852645013481379
    0.0013041654601693153
    0.0013230664189904928
    0.0013419673778116703
    0.0013608683366328478
    0.0013797692954540253
    0.0013986702542752028
    0.0014175712130963802
    0.0014364720555022359
    0.0014553730143234134
    0.0014742739731445909
    0.0014931749319657683
    0.0015120758907869458
    0.0015309768496081233
    0.0015498779248446226
    0.0015687787672504783
    0.0015876796096563339
    0.0016065805684775114
    0.0016254815272986889
    0.0016443824861198664
    0.0016632834449410439
    0.0016821844037622213
    0.0017010854789987206
    0.0017199863214045763
    0.0017388872802257538
    0.0017577881226316094
    0.0017766890814527869
    0.0017955901566892862
    0.0018144909990951419
    0.0018333920743316412
    0.0018522930331528187
    0.0018711939919739962
    0.0018900948343798518
    0.0019089957932010293
    0.001927896635606885
    0.0019467977108433843
    0.0019656985532492399
    0.0019845997449010611
    0.0020035007037222385
    0.002022401662543416
    0.0020413026213645935
    0.0020602033473551273
    0.0020791043061763048
    0.0020980052649974823
    0.0021169062238186598
    0.0021358074154704809
    0.0021547083742916584
    0.0021736091002821922
    0.0021925100591033697
    0.0022114110179245472
    0.0022303119767457247
    0.0022492129355669022
    0.0022681138943880796
    0.0022870148532092571
    0.0023059158120304346
    0.0023248167708516121
    0.0023437174968421459
    0.0023626184556633234
    0.0023815194144845009
    0.0024004203733056784
    0.0024193215649574995
    0.002438222523778677
    0.0024571232497692108
    0.002476024441421032
    0.0024949254002422094
    0.0025138263590633869
    0.0025327273178845644
    0.0025516282767057419
    0.0025705290026962757
    0.0025894297286868095
    0.0026083309203386307
    0.0026272316463291645
    0.002646132605150342
    0.0026650335639715195
    0.0026839347556233406
    0.0027028357144445181
    0.0027217364404350519
    0.0027406376320868731
    0.0027595383580774069
    0.0027784393168985844
    0.0027973405085504055
    0.002816241467371583
    0.0028351424261927605
    0.002854043385013938
    0.0028729441110044718
    0.0028918450698256493
    0.0029107460286468267
    0.0029296469874680042
    0.0029485477134585381
    0.0029674489051103592
    0.0029863498639315367
    0.0030052508227527142
    0.0030241517815738916
    0.0030432511121034622
    0.0030626340303570032
    0.0030820169486105442
    0.0031013994012027979
    0.0031207823194563389
    0.0031401650048792362
    0.0031595479231327772
    0.0031789303757250309
    0.0031983130611479282
    0.0032176962122321129
    0.0032370788976550102
    0.0032564615830779076
    0.0032758442685008049
    0.0032952271867543459
    0.0033146098721772432
    0.0033339927904307842
    0.0033537866547703743
    0.0033743344247341156
    0.0033948821946978569
    0.0034154299646615982
    0.0034359775017946959
    0.0034565255045890808
    0.0034770730417221785
    0.0034976205788552761
    0.0035181678831577301
    0.0035387156531214714
    0.0035592634230852127
    0.003579811193048954
    0.0036003589630126953
    0.0036209067329764366
    0.0036414545029401779
    0.0036620020400732756
    0.0036828836891800165
    0.0037045672070235014
    0.0037262507248669863
    0.0037479340098798275
    0.0037696175277233124
    0.0037913005799055099
    0.0038129840977489948
    0.0038346671499311924
    0.0038563506677746773
    0.0038780341856181622
    0.0038997174706310034
    0.0039214007556438446
    0.0039430838078260422
    0.0039647673256695271
    0.0039864508435130119
    0.0040081343613564968
    0.0040300888940691948
    0.0040529253892600536
    0.0040757618844509125
    0.004098597913980484
    0.0041214344091713428
    0.0041442709043622017
    0.0041671069338917732
    0.0041899429634213448
    0.0042127799242734909
    0.0042356159538030624
    0.0042584524489939213
    0.0042812889441847801
    0.0043041249737143517
    0.0043269614689052105
    0.0043497979640960693
    0.0043726339936256409
    0.0043956772424280643
    0.0044196834787726402
    0.0044436897151172161
    0.004467695951461792
    0.0044917021878063679
    0.0045157084241509438
    0.0045397141948342323
    0.0045637204311788082
    0.0045877266675233841
    0.00461173290386796
    0.0046357391402125359
    0.0046597453765571117
    0.0046837516129016876
    0.0047077578492462635
    0.0047317640855908394
    0.0047557703219354153
    0.0047799157910048962
    0.0048051089979708195
    0.0048303012736141682
    0.0048554940149188042
    0.0048806862905621529
    0.0049058790318667889
    0.0049310717731714249
    0.0049562640488147736
    0.0049814563244581223
    0.0050066490657627583
    0.0050318418070673943
    0.005057034082710743
    0.0050822263583540916
    0.005107419565320015
    0.0051326118409633636
    0.005157805047929287
    0.0051830685697495937
    0.005209463182836771
    0.0052358587272465229
    0.0052622538059949875
    0.0052886488847434521
    0.0053150439634919167
    0.0053414390422403812
    0.0053678341209888458
    0.0053942291997373104
    0.0054206247441470623
    0.0054470198228955269
    0.0054734149016439915
    0.0054998099803924561
    0.0055262050591409206
    0.0055526001378893852
    0.0055789942853152752
    0.0056053898297250271
    0.0056330030784010887
    0.005660617258399725
    0.0056882305070757866
    0.0057158442214131355
    0.0057434579357504845
    0.0057710716500878334
    0.0057986853644251823
    0.0058262990787625313
    0.0058539127930998802
    0.0058815255761146545
    0.0059091392904520035
    0.0059367534704506397
    0.0059643667191267014
    0.0059919804334640503
    0.0060195941478013992
    0.0060472078621387482
    0.0060759829357266426
    0.0061048301868140697
    0.0061336779035627842
    0.0061625256203114986
    0.0061913728713989258
    0.0062202205881476402
    0.0062490683048963547
    0.0062779160216450691
    0.0063067637383937836
    0.006335611455142498
    0.0063644591718912125
    0.0063933064229786396
    0.006422154139727354
    0.0064510013908147812
    0.0064798486419022083
    0.0065086963586509228
    0.0065386462956666946
    0.0065687429159879684
    0.0065988395363092422
    0.0066289366222918034
    0.0066590327769517899
    0.0066891293972730637
    0.0067192264832556248
    0.0067493235692381859
    0.0067794201895594597
    0.0068095168098807335
    0.0068396134302020073
    0.0068697100505232811
    0.0068998076021671295
    0.006929903756827116
    0.0069600008428096771
    0.0069900974631309509
    0.0070212357677519321
    0.0070525966584682465
    0.0070839580148458481
    0.0071153189055621624
    0.0071466807276010513
    0.0071780411526560783
    0.00720940250903368
    0.0072407638654112816
    0.0072721252217888832
    0.0073034865781664848
    0.0073348479345440865
    0.0073662088252604008
    0.0073975697159767151
    0.0074289310723543167
    0.0074602910317480564
    0.007491652388125658
    0.0075239916332066059
    0.0075566316954791546
    0.0075892717577517033
    0.0076219118200242519
    0.0076545518822968006
    0.0076871919445693493
    0.007719832006841898
    0.0077524720691144466
    0.0077851121313869953
    0.0078177526593208313
    0.0078503917902708054
    0.007883031852543354
    0.0079156719148159027
    0.0079483119770884514
    0.0079809520393610001
    0.0080135930329561234
    0.0080471457913517952
    0.0080810794606804848
    0.0081150121986865997
    0.0081489458680152893
    0.0081828795373439789
    0.0082168132066726685
    0.008250746876001358
    0.0082846805453300476
    0.0083186142146587372
    0.0083525478839874268
    0.0083864815533161163
    0.0084204152226448059
    0.0084543479606509209
    0.0084882816299796104
    0.0085222152993083
    0.008556148037314415
    0.00859092827886343
    0.0086261685937643051
    0.0086614107713103294
    0.0086966510862112045
    0.0087318923324346542
    0.0087671335786581039
    0.0088023748248815536
    0.0088376160711050034
    0.0088728573173284531
    0.0089080985635519028
    0.0089433398097753525
    0.0089785810559988022
    0.0090138223022222519
    0.0090490635484457016
    0.0090843047946691513
    0.009119546040892601
    0.0091555649414658546
    0.0091921277344226837
    0.0092286914587020874
    0.0092652542516589165
    0.0093018170446157455
    0.0093383798375725746
    0.0093749435618519783
    0.0094115063548088074
    0.0094480691477656364
    0.0094846319407224655
    0.0095211956650018692
    0.0095577584579586983
    0.0095943212509155273
    0.009630884975194931
    0.0096674468368291855
    0.0097040086984634399
    0.0097412792965769768
    0.0097791776061058044
    0.0098170768469572067
    0.0098549751564860344
    0.0098928734660148621
    0.0099307717755436897
    0.0099686700850725174
    0.01000656932592392
    0.010044466704130173
    0.010082365944981575
    0.010120264254510403
    0.01015816256403923
    0.010196060873568058
    0.010233959183096886
    0.010271858423948288
    0.010309756733477116
    0.010348289273679256
    0.010387537069618702
    0.010426785796880722
    0.010466033592820168
    0.010505280457437038
    0.010544528253376484
    0.010583776049315929
    0.010623023845255375
    0.010662270709872246
    0.010701518505811691
    0.010740766301751137
    0.010780014097690582
    0.010819261893630028
    0.010858509689569473
    0.010897756554186344
    0.010937003418803215
    0.010976812802255154
    0.011017423123121262
    0.011058032512664795
    0.011098643764853477
    0.011139254085719585
    0.011179864406585693
    0.011220473796129227
    0.011261085048317909
    0.011301695369184017
    0.011342305690050125
    0.011382916010916233
    0.011423526331782341
    0.011464137583971024
    0.011504746973514557
    0.011545357294380665
    0.011585967615246773
    0.011627063155174255
    0.011669049970805645
    0.011711034923791885
    0.0117530208081007
    0.011795006692409515
    0.01183699257671833
    0.011878978461027145
    0.01192096434533596
    0.011962950229644775
    0.01200493611395359
    0.012046921998262405
    0.012088906951248646
    0.012130893766880035
    0.01217287965118885
    0.012214863672852516
    0.012256849557161331
    0.012299244292080402
    0.012342618778347969
    0.012385992333292961
    0.012429367750883102
    0.012472742237150669
    0.012516116723418236
    0.012559491209685802
    0.012602865695953369
    0.012646240182220936
    0.012689614668488503
    0.012732989154756069
    0.012776363641023636
    0.012819739058613777
    0.012863112613558769
    0.012906487099826336
    0.012949862517416477
    0.012993565760552883
    0.013038342818617821
    0.013083118945360184
    0.013127894140779972
    0.013172670267522335
    0.013217447325587273
    0.013262222521007061
    0.013306998647749424
    0.013351774774491787
    0.01339655090123415
    0.013441327027976513
    0.013486102223396301
    0.013530879281461239
    0.013575655408203602
    0.013620429672300816
    0.013665205799043179
    0.013710231520235538
    0.013756421394646168
    0.013802611269056797
    0.013848802074790001
    0.01389499194920063
    0.013941181823611259
    0.013987373560667038
    0.014033563435077667
    0.014079753309488297
    0.014125943183898926
    0.014172133058309555
    0.014218322932720184
    0.014264513738453388
    0.014310703612864017
    0.014356896281242371
    0.014403086155653
    0.014449444599449635
    0.014497061260044575
    0.01454467885196209
    0.01459229551255703
    0.01463991217315197
    0.01468752883374691
    0.01473514549434185
    0.014782763086259365
    0.014830378815531731
    0.01487799733877182
    0.01492561399936676
    0.0149732306599617
    0.015020847320556641
    0.015068463981151581
    0.015116080641746521
    0.015163697302341461
    0.015211398713290691
    0.015260455198585987
    0.015309511683881283
    0.015358567237854004
    0.015407622791826725
    0.015456678345799446
    0.015505734831094742
    0.015554790385067463
    0.015603846870362759
    0.01565290242433548
    0.015701958909630775
    0.015751013532280922
    0.015800070017576218
    0.015849126502871513
    0.015898179262876511
    0.015947233885526657
    0.015996290370821953
    0.016046797856688499
    0.016097305342555046
    0.016147810965776443
    0.01619831845164299
    0.016248825937509537
    0.016299333423376083
    0.01634984090924263
    0.016400348395109177
    0.016450855880975723
    0.016501361504197121
    0.016551868990063667
    0.016602376475930214
    0.016652883961796761
    0.016703391447663307
    0.016753898933529854
    0.016804404556751251
    0.01685628853738308
    0.016908260062336922
    0.016960229724645615
    0.017012199386954308
    0.017064169049263
    0.017116140574216843
    0.017168108373880386
    0.017220079898834229
    0.017272049561142921
    0.017324019223451614
    0.017375990748405457
    0.017427958548069
    0.017479930073022842
    0.017531899735331535
    0.017583869397640228
    0.017635839059948921
    0.017689110711216927
    0.01774255745112896
    0.017796002328395844
    0.017849447205662727
    0.017902892082929611
    0.017956336960196495
    0.018009781837463379
    0.018063226714730263
    0.018116671591997147
    0.01817011833190918
    0.018223563209176064
    0.018277008086442947
    0.01833045482635498
    0.018383897840976715
    0.018437342718243599
    0.018490787595510483
    0.01854545995593071
    0.01860039122402668
    0.01865532249212265
    0.01871025376021862
    0.01876518502831459
    0.01882011815905571
    0.01887504942715168
    0.01892998069524765
    0.01898491382598877
    0.01903984509408474
    0.01909477636218071
    0.019149709492921829
    0.019204640761017799
    0.019259568303823471
    0.01931450143456459
    0.019369432702660561
    0.019425509497523308
    0.019481940194964409
    0.01953837089240551
    0.019594799727201462
    0.019651230424642563
    0.019707661122083664
    0.019764091819524765
    0.019820522516965866
    0.019876951351761818
    0.019933382049202919
    0.019989810883998871
    0.020046241581439972
    0.020102672278881073
    0.020159102976322174
    0.020215531811118126
    0.020271962508559227
    0.020329458639025688
    0.020387398079037666
    0.020445337519049644
    0.020503278821706772
    0.02056121826171875
    0.020619157701730728
    0.020677097141742706
    0.020735036581754684
    0.020792977884411812
    0.02085091732442379
    0.020908858627080917
    0.020966798067092896
    0.021024737507104874
    0.021082676947116852
    0.021140618249773979
    0.021198557689785957
    0.021257482469081879
    0.021316941827535629
    0.021376404911279678
    0.021435866132378578
    0.021495327353477478
    0.021554788574576378
    0.021614249795675278
    0.021673709154129028
    0.021733172237873077
    0.021792631596326828
    0.021852092817425728
    0.021911554038524628
    0.021971015259623528
    0.022030476480722427
    0.022089937701821327
    0.022149397060275078
    0.022209761664271355
    0.022270753979682922
    0.022331748157739639
    0.022392742335796356
    0.022453736513853073
    0.022514728829264641
    0.022575723007321358
    0.022636715322732925
    0.022697709500789642
    0.022758703678846359
    0.022819697856903076
    0.022880690172314644
    0.022941684350371361
    0.02300267294049263
    0.023063667118549347
    0.023124661296606064
    0.023186471313238144
    0.023249007761478424
    0.023311546072363853
    0.023374082520604134
    0.023436618968844414
    0.023499157279729843
    0.023561693727970123
    0.023624230176210403
    0.023686766624450684
    0.023749303072690964
    0.023811839520931244
    0.023874375969171524
    0.023936912417411804
    0.023999448865652084
    0.024061985313892365
    0.024124523624777794
    0.024187790229916573
    0.024251881986856461
    0.024315973743796349
    0.024380063638091087
    0.024444155395030975
    0.024508247151970863
    0.024572338908910751
    0.02463642880320549
    0.024700520560145378
    0.024764610454440117
    0.024828702211380005
    0.024892792105674744
    0.024956885725259781
    0.02502097561955452
    0.025085065513849258
    0.025149157270789146
    0.025213893502950668
    0.025279548019170761
    0.025345206260681152
    0.025410862639546394
    0.025476519018411636
    0.025542175397276878
    0.02560783177614212
    0.025673486292362213
    0.025739144533872604
    0.025804799050092697
    0.025870455428957939
    0.025936111807823181
    0.026001770049333572
    0.026067424565553665
    0.026133080944418907
    0.026198737323284149
    0.026264950633049011
    0.026332182809710503
    0.026399414986371994
    0.026466647163033485
    0.026533879339694977
    0.026601109653711319
    0.02666834369301796
    0.026735575869679451
    0.026802808046340942
    0.026870038360357285
    0.026937272399663925
    0.027004504576325417
    0.027071736752986908
    0.027138963341712952
    0.027206197381019592
    0.027273429557681084
    0.027341127395629883
    0.027409946545958519
    0.027478765696287155
    0.027547584846615791
    0.027616402134299278
    0.027685221284627914
    0.027754040434956551
    0.027822859585285187
    0.027891676872968674
    0.027960497885942459
    0.028029315173625946
    0.028098132461309433
    0.028166953474283218
    0.028235770761966705
    0.028304589912295341
    0.028373409062623978
    0.028442602604627609
    0.028513018041849136
    0.028583433479070663
    0.02865385077893734
    0.028724266216158867
    0.028794681653380394
    0.02886509895324707
    0.028935512527823448
    0.029005929827690125
    0.029076345264911652
    0.029146760702133179
    0.029217176139354706
    0.029287591576576233
    0.02935800701379776
    0.029428424313664436
    0.029498839750885963
    0.029569538310170174
    0.029641563072800636
    0.02971358597278595
    0.029785608872771263
    0.029857633635401726
    0.029929656535387039
    0.030001679435372353
    0.030073704198002815
    0.030145727097988129
    0.030217751860618591
    0.030289774760603905
    0.030361797660589218
    0.030433822423219681
    0.030505845323204994
    0.030577868223190308
    0.03064989298582077
    0.030722107738256454
    0.0307957474142313
    0.030869388952851295
    0.030943030491471291
    0.031016670167446136
    0.031090311706066132
    0.031163953244686127
    0.031237594783306122
    0.031311236321926117
    0.031384877860546112
    0.031458519399166107
    0.031532160937786102
    0.031605802476406097
    0.031679436564445496
    0.031753078103065491
    0.031826715916395187
    0.031900454312562943
    0.031975723803043365
    0.032050993293523788
    0.032126262784004211
    0.032201532274484634
    0.032276801764965057
    0.032352067530155182
    0.032427340745925903
    0.032502606511116028
    0.032577879726886749
    0.032653145492076874
    0.032728414982557297
    0.03280368447303772
    0.032878953963518143
    0.032954223453998566
    0.033029492944478989
    0.033104762434959412
    0.033181667327880859
    0.033258575946092606
    0.033335484564304352
    0.033412393182516098
    0.033489298075437546
    0.033566206693649292
    0.03364311158657074
    0.033720020204782486
    0.033796925097703934
    0.03387383371591568
    0.033950742334127426
    0.034027650952339172
    0.03410455584526062
    0.034181464463472366
    0.034258369356393814
    0.03433527797460556
    0.034413736313581467
    0.034492291510105133
    0.034570846706628799
    0.034649401903152466
    0.034727960824966431
    0.034806516021490097
    0.034885071218013763
    0.034963622689247131
    0.035042181611061096
    0.035120736807584763
    0.035199292004108429
    0.035277850925922394
    0.035356402397155762
    0.035434961318969727
    0.035513512790203094
    0.035592071712017059
    0.035672087222337723
    0.035752303898334503
    0.035832516849040985
    0.035912729799747467
    0.035992942750453949
    0.036073155701160431
    0.036153372377157211
    0.036233585327863693
    0.036313798278570175
    0.036394011229276657
    0.036474224179983139
    0.036554440855979919
    0.036634646356105804
    0.036714859306812286
    0.036795072257518768
    0.036875288933515549
    0.036956872791051865
    0.037038758397102356
    0.03712063655257225
    0.037202522158622742
    0.037284400314092636
    0.037366282194852829
    0.03744816780090332
    0.037530045956373215
    0.037611927837133408
    0.0376938097178936
    0.037775687873363495
    0.037857573479413986
    0.037939455360174179
    0.038021333515644073
    0.038103219121694565
    0.038185097277164459
    0.038268260657787323
    0.038351822644472122
    0.038435380905866623
    0.038518939167261124
    0.038602501153945923
    0.038686059415340424
    0.038769617676734924
    0.038853175938129425
    0.038936734199523926
    0.039020296186208725
    0.039103854447603226
    0.039187412708997726
    0.039270970970392227
    0.039354529231786728
    0.039438091218471527
    0.039521649479866028
    0.039606399834156036
    0.03969164565205574
    0.039776895195245743
    0.039862141013145447
    0.039947386831045151
    0.040032632648944855
    0.040117882192134857
    0.040203128010034561
    0.040288373827934265
    0.040373623371124268
    0.040458869189023972
    0.040544115006923676
    0.04062936082482338
    0.040714606642723083
    0.040799852460622787
    0.040885105729103088
    0.04097144678235054
    0.041058391332626343
    0.041145332157611847
    0.041232280433177948
    0.041319221258163452
    0.041406165808439255
    0.041493110358715057
    0.041580051183700562
    0.041666999459266663
    0.041753940284252167
    0.041840884834527969
    0.041927829384803772
    0.042014766484498978
    0.04210171103477478
    0.042188655585050583
    0.042275600135326385
    0.042363543063402176
    0.042452193796634674
    0.042540848255157471
    0.04262949526309967
    0.042718145996332169
    0.042806796729564667
    0.042895443737506866
    0.042984098196029663
    0.043072745203971863
    0.043161399662494659
    0.043250046670436859
    0.043338693678379059
