nuke-default/luts/viperlog.spi1d
Version 1
From 0.000000 1.000000
Length 4096
Components 1
{
    0.0089949760586023331
    0.0090054208412766457
    0.0090158646926283836
    0.0090263094753026962
    0.0090367533266544342
    0.0090471971780061722
    0.0090576428920030594
    0.0090680867433547974
    0.00907853152602911
    0.0090889763087034225
    0.0090994201600551605
    0.0091098640114068985
    0.0091203087940812111
    0.0091307535767555237
    0.0091411974281072617
    0.0091516422107815742
    0.0091620869934558868
    0.0091727143153548241
    0.0091833537444472313
    0.0091939931735396385
    0.0092046335339546204
    0.0092152729630470276
    0.0092259123921394348
    0.009236551821231842
    0.0092471912503242493
    0.0092578306794166565
    0.0092684701085090637
    0.0092791095376014709
    0.0092897489666938782
    0.0093003883957862854
    0.0093110278248786926
    0.0093216672539710999
    0.0093323066830635071
    0.0093431202694773674
    0.0093539580702781677
    0.0093647949397563934
    0.0093756318092346191
    0.0093864696100354195
    0.0093973064795136452
    0.0094081442803144455
    0.0094189811497926712
    0.0094298180192708969
    0.0094406558200716972
    0.0094514926895499229
    0.0094623295590281487
    0.009473167359828949
    0.0094840042293071747
    0.0094948410987854004
    0.0095056779682636261
    0.0095166824758052826
    0.0095277214422821999
    0.0095387613400816917
    0.0095498012378811836
    0.0095608411356806755
    0.0095718801021575928
    0.0095829199999570847
    0.0095939598977565765
    0.0096049997955560684
    0.0096160387620329857
    0.0096270786598324776
    0.0096381185576319695
    0.0096491584554314613
    0.0096601974219083786
    0.0096712373197078705
    0.0096822772175073624
    0.0096934745088219643
    0.0097047202289104462
    0.0097159659489989281
    0.00972721166908741
    0.0097384573891758919
    0.0097497031092643738
    0.0097609497606754303
    0.0097721954807639122
    0.0097834412008523941
    0.009794686920940876
    0.0098059326410293579
    0.0098171783611178398
    0.0098284240812063217
    0.0098396707326173782
    0.0098509164527058601
    0.009862162172794342
    0.0098735559731721878
    0.0098850112408399582
    0.009896465577185154
    0.0099079208448529243
    0.0099193761125206947
    0.0099308313801884651
    0.0099422857165336609
    0.0099537419155240059
    0.0099651962518692017
    0.009976651519536972
    0.009988107718527317
    0.0099995620548725128
    0.010011017322540283
    0.010022472590208054
    0.010033927857875824
    0.010045383125543594
    0.010056976228952408
    0.010068644769489765
    0.010080313310027122
    0.01009198185056448
    0.010103650391101837
    0.010115318931639194
    0.010126987472176552
    0.010138656012713909
    0.010150324553251266
    0.010161993093788624
    0.010173661634325981
    0.010185330174863338
    0.010196998715400696
    0.010208667255938053
    0.01022033579647541
    0.010232004337012768
    0.010243801400065422
    0.010255687870085239
    0.010267574340105057
    0.010279459878802299
    0.010291347280144691
    0.010303233750164509
    0.010315120220184326
    0.010327006690204144
    0.010338893160223961
    0.010350780561566353
    0.01036266703158617
    0.010374553501605988
    0.01038643904030323
    0.010398326441645622
    0.01041021291166544
    0.010422099381685257
    0.010434103198349476
    0.010446211323142052
    0.010458319447934628
    0.010470427572727203
    0.010482534766197205
    0.01049464289098978
    0.010506751015782356
    0.010518859140574932
    0.010530967265367508
    0.010543074458837509
    0.01055518351495266
    0.010567291639745235
    0.010579399764537811
    0.010591506958007812
    0.010603616014122963
    0.010615724138915539
    0.010627938434481621
    0.010640271939337254
    0.010652605444192886
    0.010664939880371094
    0.010677273385226727
    0.010689606890082359
    0.010701941326260567
    0.010714274831116199
    0.010726609267294407
    0.01073894277215004
    0.010751277208328247
    0.01076361071318388
    0.010775945149362087
    0.01078827865421772
    0.010800612159073353
    0.01081294659525156
    0.010825375095009804
    0.010837938636541367
    0.010850502178072929
    0.010863065719604492
    0.010875629261136055
    0.010888192802667618
    0.010900756344199181
    0.010913319885730743
    0.010925883427262306
    0.010938446968793869
    0.010951010510325432
    0.010963574051856995
    0.010976137593388557
    0.01098870113492012
    0.011001264676451683
    0.011013828217983246
    0.011026475578546524
    0.011039272882044315
    0.011052071116864681
    0.011064870283007622
    0.011077667586505413
    0.011090465821325779
    0.011103264987468719
    0.011116062290966511
    0.011128860525786877
    0.011141657829284668
    0.011154456995427608
    0.0111672542989254
    0.01118005346506834
    0.011192851699888706
    0.011205649934709072
    0.011218447238206863
    0.0112313162535429
    0.011244352906942368
    0.011257389560341835
    0.011270426213741302
    0.01128346286714077
    0.011296499520540237
    0.011309536173939705
    0.011322572827339172
    0.01133560948073864
    0.011348646134138107
    0.011361682787537575
    0.011374719440937042
    0.01138775609433651
    0.011400792747735977
    0.011413829401135445
    0.011426865123212337
    0.011439959518611431
    0.011453239247202873
    0.01146651990711689
    0.011479798704385757
    0.011493079364299774
    0.011506360024213791
    0.011519638821482658
    0.011532919481396675
    0.011546199209988117
    0.011559478938579559
    0.011572759598493576
    0.011586039327085018
    0.01159931905567646
    0.011612598784267902
    0.011625879444181919
    0.011639159172773361
    0.01165248267352581
    0.0116660101339221
    0.01167953759431839
    0.011693064123392105
    0.011706591583788395
    0.01172011811286211
    0.0117336455732584
    0.011747172102332115
    0.01176070049405098
    0.011774227023124695
    0.011787754483520985
    0.011801281943917274
    0.01181480847299099
    0.01182833593338728
    0.011841862462460995
    0.011855390854179859
    0.011868946254253387
    0.011882727034389973
    0.011896506883203983
    0.011910286732017994
    0.01192406564950943
    0.011937845498323441
    0.011951626278460026
    0.011965405195951462
    0.011979185044765472
    0.011992964893579483
    0.012006744742393494
    0.012020525522530079
    0.012034304440021515
    0.012048084288835526
    0.012061864137649536
    0.012075644917786121
    0.012089439667761326
    0.01210347656160593
    0.01211751252412796
    0.012131549417972565
    0.012145585380494595
    0.012159622274339199
    0.012173658236861229
    0.012187695130705833
    0.012201732024550438
    0.012215768918395042
    0.012229803949594498
    0.012243840843439102
    0.012257877737283707
    0.012271914631128311
    0.012285951524972916
    0.012299986556172371
    0.012314023450016975
    0.012328322045505047
    0.012342619709670544
    0.01235691923648119
    0.012371217831969261
    0.012385515496134758
    0.012399815022945404
    0.012414112687110901
    0.012428411282598972
    0.012442709878087044
    0.012457007542252541
    0.012471307069063187
    0.012485605664551258
    0.012499903328716755
    0.012514201924204826
    0.012528501451015472
    0.012542799115180969
    0.012557348236441612
    0.012571913190186024
    0.012586477212607861
    0.012601042166352272
    0.012615607120096684
    0.012630172073841095
    0.012644736096262932
    0.012659301981329918
    0.012673866003751755
    0.012688431888818741
    0.012702995911240578
    0.012717559933662415
    0.012732124887406826
    0.012746689841151237
    0.012761254794895649
    0.012775818817317486
    0.012790623120963573
    0.012805460020899773
    0.012820296920835972
    0.012835133820772171
    0.012849969789385796
    0.012864807620644569
    0.012879643589258194
    0.012894480489194393
    0.012909317389130592
    0.012924153357744217
    0.012938991189002991
    0.012953827157616615
    0.01296866312623024
    0.012983500026166439
    0.012998337857425213
    0.013013173826038837
    0.013028237968683243
    0.013043351471424103
    0.013058464042842388
    0.013073577545583248
    0.013088690117001534
    0.013103803619742393
    0.013118917122483253
    0.013134030625224113
    0.013149143196642399
    0.013164256699383259
    0.013179369270801544
    0.01319448184221983
    0.01320959534496069
    0.01322470884770155
    0.013239821419119835
    0.013254934921860695
    0.013270262628793716
    0.01328565925359726
    0.013301054015755653
    0.013316448777914047
    0.013331844471395016
    0.01334723923355341
    0.013362634927034378
    0.013378029689192772
    0.013393424451351166
    0.013408820144832134
    0.013424215838313103
    0.013439610600471497
    0.01345500536262989
    0.013470401987433434
    0.013485796749591827
    0.013501191511750221
    0.013516789302229881
    0.013532470911741257
    0.013548153452575207
    0.013563834130764008
    0.013579515740275383
    0.013595198281109333
    0.013610879890620708
    0.013626562431454659
    0.013642244040966034
    0.013657924719154835
    0.013673607259988785
    0.01368928886950016
    0.013704970479011536
    0.013720652088522911
    0.013736333698034286
    0.013752015307545662
    0.013767885975539684
    0.013783860951662064
    0.013799834996461868
    0.013815810903906822
    0.013831784948706627
    0.013847759924829006
    0.013863733969628811
    0.01387970894575119
    0.013895683921873569
    0.013911658897995949
    0.013927632942795753
    0.013943607918918133
    0.013959581963717937
    0.013975556939840317
    0.013991530984640121
    0.014007506892085075
    0.014023656025528908
    0.014039928093552589
    0.014056200161576271
    0.014072473160922527
    0.014088746160268784
    0.014105018228292465
    0.014121289364993572
    0.014137562364339828
    0.01415383443236351
    0.014170107431709766
    0.014186379499733448
    0.01420265156775713
    0.014218924567103386
    0.014235195703804493
    0.014251467771828175
    0.014267740771174431
    0.014284173958003521
    0.014300748705863953
    0.014317325316369534
    0.01433390099555254
    0.014350477606058121
    0.014367053285241127
    0.014383628964424133
    0.01440020464360714
    0.01441678125411272
    0.014433356933295727
    0.014449933543801308
    0.014466508291661739
    0.01448308490216732
    0.014499660581350327
    0.014516237191855907
    0.014532811939716339
    0.01454953383654356
    0.014566417783498764
    0.014583302661776543
    0.014600187540054321
    0.014617071487009525
    0.014633957296609879
    0.014650841243565083
    0.014667725190520287
    0.014684610068798065
    0.014701494947075844
    0.014718378894031048
    0.014735264703631401
    0.014752148650586605
    0.014769033528864384
    0.014785917475819588
    0.014802801422774792
    0.014819816686213017
    0.014837015420198441
    0.014854216016829014
    0.014871416613459587
    0.014888615347445011
    0.014905815944075584
    0.014923015609383583
    0.014940215274691582
    0.01495741493999958
    0.014974614605307579
    0.014991815201938152
    0.015009013935923576
    0.01502621453255415
    0.015043415129184723
    0.015060614794492722
    0.01507781445980072
    0.015095126815140247
    0.015112647786736488
    0.015130167827010155
    0.015147688798606396
    0.015165208838880062
    0.015182728879153728
    0.015200249850749969
    0.015217769891023636
    0.015235289931297302
    0.015252810902893543
    0.015270331874489784
    0.015287851914763451
    0.015305371955037117
    0.015322891995310783
    0.01534041203558445
    0.015357932075858116
    0.015375548973679543
    0.015393396839499474
    0.01541124377399683
    0.015429091639816761
    0.015446938574314117
    0.015464786440134048
    0.015482633374631405
    0.015500480309128761
    0.015518328174948692
    0.015536175109446049
    0.01555402297526598
    0.015571869909763336
    0.015589716844260693
    0.015607564710080624
    0.01562541164457798
    0.015643259510397911
    0.01566118560731411
    0.015679365023970604
    0.015697542577981949
    0.015715723857283592
    0.015733901411294937
    0.015752082690596581
    0.015770262107253075
    0.015788441523909569
    0.015806620940566063
    0.015824800357222557
    0.015842979773879051
    0.015861159190535545
    0.015879338607192039
    0.015897518023848534
    0.015915697440505028
    0.015933876857161522
    0.015952117741107941
    0.015970636159181595
    0.015989154577255249
    0.016007672995328903
    0.016026193276047707
    0.016044711694121361
    0.016063231974840164
    0.016081750392913818
    0.016100268810987473
    0.016118789091706276
    0.01613730750977993
    0.016155827790498734
    0.016174346208572388
    0.016192864626646042
    0.016211384907364845
    0.016229905188083649
    0.016248464584350586
    0.016267327591776848
    0.016286192461848259
    0.01630505733191967
    0.016323920339345932
    0.016342785209417343
    0.016361650079488754
    0.016380513086915016
    0.016399376094341278
    0.016418240964412689
    0.0164371058344841
    0.016455968841910362
    0.016474833711981773
    0.016493696719408035
    0.016512561589479446
    0.016531424596905708
    0.016550309956073761
    0.016569526866078377
    0.016588743776082993
    0.016607958823442459
    0.016627175733447075
    0.016646392643451691
    0.016665607690811157
    0.016684824600815773
    0.016704041510820389
    0.016723256558179855
    0.016742471605539322
    0.016761688515543938
    0.016780905425548553
    0.016800122335553169
    0.016819335520267487
    0.016838554292917252
    0.016857769340276718
    0.016877343878149986
    0.016896916553378105
    0.016916491091251373
    0.016936063766479492
    0.01695563830435276
    0.016975212842226028
    0.016994785517454147
    0.017014360055327415
    0.017033934593200684
    0.017053507268428802
    0.017073081806302071
    0.01709265448153019
    0.017112229019403458
    0.017131801694631577
    0.017151376232504845
    0.017170950770378113
    0.017190869897603989
    0.017210807651281357
    0.017230747267603874
    0.017250686883926392
    0.017270626500248909
    0.017290566116571426
    0.017310505732893944
    0.017330445349216461
    0.017350384965538979
    0.017370324581861496
    0.017390264198184013
    0.017410203814506531
    0.017430143430829048
    0.017450083047151566
    0.017470020800828934
    0.017489960417151451
    0.017510229721665382
    0.017530540004372597
    0.017550850287079811
    0.017571162432432175
    0.017591472715139389
    0.017611782997846603
    0.017632095143198967
    0.017652405425906181
    0.017672717571258545
    0.017693027853965759
    0.017713338136672974
    0.017733650282025337
    0.017753960564732552
    0.017774270847439766
    0.01779458299279213
    0.017814893275499344
    0.017835516482591629
    0.017856206744909286
    0.017876897007226944
    0.017897587269544601
    0.017918277531862259
    0.017938965931534767
    0.017959658056497574
    0.017980346456170082
    0.01800103671848774
    0.018021726980805397
    0.018042417243123055
    0.018063105642795563
    0.01808379590511322
    0.018104484304785728
    0.018125174567103386
    0.018145866692066193
    0.018166849389672279
    0.018187925219535828
    0.018209002912044525
    0.018230076879262924
    0.018251152709126472
    0.018272228538990021
    0.018293304368853569
    0.018314378336071968
    0.018335454165935516
    0.018356529995799065
    0.018377605825662613
    0.018398681655526161
    0.018419757485389709
    0.018440831452608109
    0.018461907282471657
    0.018482983112335205
    0.018504336476325989
    0.018525805324316025
    0.018547274172306061
    0.018568741157650948
    0.018590210005640984
    0.01861167885363102
    0.018633147701621056
    0.018654614686965942
    0.018676083534955978
    0.018697552382946014
    0.01871902123093605
    0.018740490078926086
    0.018761958926916122
    0.018783425912261009
    0.018804894760251045
    0.018826363608241081
    0.01884809136390686
    0.018869960680603981
    0.018891829997301102
    0.018913697451353073
    0.018935566768050194
    0.018957436084747314
    0.018979303538799286
    0.019001174718141556
    0.019023042172193527
    0.019044909626245499
    0.019066780805587769
    0.01908864825963974
    0.019110517576336861
    0.019132386893033981
    0.019154256209731102
    0.019176123663783073
    0.019198231399059296
    0.019220510497689247
    0.0192427858710289
    0.019265063107013702
    0.019287340342998505
    0.019309617578983307
    0.019331894814968109
    0.019354172050952911
    0.019376449286937714
    0.019398724660277367
    0.019421001896262169
    0.019443279132246971
    0.019465556368231773
    0.019487831741571426
    0.019510108977556229
    0.019532386213541031
    0.019554881379008293
    0.019577573984861374
    0.019600264728069305
    0.019622957333922386
    0.019645648077130318
    0.019668340682983398
    0.01969103142619133
    0.019713722169399261
    0.019736416637897491
    0.019759107381105423
    0.019781798124313354
    0.019804488867521286
    0.019827181473374367
    0.019849874079227448
    0.019872564822435379
    0.01989525742828846
    0.019918147474527359
    0.019941262900829315
    0.019964378327131271
    0.019987493753433228
    0.020010609179735184
    0.02003372460603714
    0.020056840032339096
    0.020079955458641052
    0.020103070884943008
    0.020126186311244965
    0.020149301737546921
    0.020172417163848877
    0.020195532590150833
    0.020218648016452789
    0.020241763442754745
    0.020264878869056702
    0.020288171246647835
    0.020311716943979263
    0.020335264503955841
    0.02035881020128727
    0.020382355898618698
    0.020405903458595276
    0.020429447293281555
    0.020452994853258133
    0.020476540550589561
    0.02050008624792099
    0.020523633807897568
    0.020547179505228996
    0.020570725202560425
    0.020594270899891853
    0.020617816597223282
    0.02064136415719986
    0.020665064454078674
    0.020689049735665321
    0.020713036879897118
    0.020737022161483765
    0.020761007443070412
    0.020784992724657059
    0.020808979868888855
    0.020832963287830353
    0.020856950432062149
    0.020880935713648796
    0.020904920995235443
    0.02092890627682209
    0.020952891558408737
    0.020976874977350235
    0.021000862121582031
    0.021024847403168678
    0.021048964932560921
    0.021073395386338234
    0.021097829565405846
    0.021122261881828308
    0.021146694198250771
    0.021171126514673233
    0.021195558831095695
    0.021219991147518158
    0.02124442346394062
    0.021268855780363083
    0.021293288096785545
    0.021317720413208008
    0.02134215272963047
    0.021366586908698082
    0.021391017362475395
    0.021415449678897858
    0.021439990028738976
    0.021464878693223
    0.021489765495061874
    0.021514654159545898
    0.021539542824029922
    0.021564429625868797
    0.021589316427707672
    0.021614205092191696
    0.02163909375667572
    0.021663982421159744
    0.021688869222998619
    0.021713757887482643
    0.021738646551966667
    0.021763533353805542
    0.021788422018289566
    0.02181331068277359
    0.021838279440999031
    0.021863631904125214
    0.021888984367251396
    0.021914336830377579
    0.021939687430858612
    0.021965041756629944
    0.021990392357110977
    0.022015746682882309
    0.022041097283363342
    0.022066449746489525
    0.022091802209615707
    0.022117152810096741
    0.022142505273222923
    0.022167857736349106
    0.022193210199475288
    0.022218562662601471
    0.02224397100508213
    0.022269796580076218
    0.022295620292425156
    0.022321445867419243
    0.02234727144241333
    0.022373097017407417
    0.022398922592401505
    0.022424746304750443
    0.02245057187974453
    0.022476397454738617
    0.022502221167087555
    0.022528046742081642
    0.022553872317075729
    0.022579696029424667
    0.022605521604418755
    0.022631345316767693
    0.022657198831439018
    0.022683506831526756
    0.022709812968969345
    0.022736117243766785
    0.022762425243854523
    0.022788729518651962
    0.022815035656094551
    0.02284134179353714
    0.022867646068334579
    0.022893954068422318
    0.022920260205864906
    0.022946564480662346
    0.022972870618104935
    0.022999176755547523
    0.023025482892990112
    0.023051789030432701
    0.02307809516787529
    0.023104891180992126
    0.023131690919399261
    0.023158486932516098
    0.023185284808278084
    0.02321208082139492
    0.023238878697156906
    0.023265674710273743
    0.023292474448680878
    0.023319270461797714
    0.023346066474914551
    0.023372864350676537
    0.023399662226438522
    0.023426460102200508
    0.023453257977962494
    0.02348005399107933
    0.023506851866841316
    0.023534119129180908
    0.023561414331197739
    0.023588713258504868
    0.023616008460521698
    0.023643303662538528
    0.023670600727200508
    0.023697897791862488
    0.023725192993879318
    0.023752491921186447
    0.023779787123203278
    0.023807084187865257
    0.023834381252527237
    0.023861676454544067
    0.023888973519206047
    0.023916270583868027
    0.023943565785884857
    0.023971313610672951
    0.02399911917746067
    0.02402692474424839
    0.02405473031103611
    0.02408253587782383
    0.024110343307256699
    0.024138148874044418
    0.024165954440832138
    0.024193760007619858
    0.024221565574407578
    0.024249371141195297
    0.024277176707983017
    0.024304982274770737
    0.024332787841558456
    0.024360593408346176
    0.024388398975133896
    0.024416631087660789
    0.024444956332445145
    0.024473279714584351
    0.024501603096723557
    0.024529928341507912
    0.024558253586292267
    0.024586576968431473
    0.024614900350570679
    0.024643223732709885
    0.02467154897749424
    0.024699874222278595
    0.024728195741772652
    0.024756520986557007
    0.024784844368696213
    0.024813169613480568
    0.024841492995619774
    0.024870220571756363
    0.02489907294511795
    0.024927923455834389
    0.024956775829195976
    0.024985626339912415
    0.025014478713274002
    0.02504333108663559
    0.025072183459997177
    0.025101033970713615
    0.025129884481430054
    0.025158736854791641
    0.025187589228153229
    0.025216441601514816
    0.025245292112231255
    0.025274144485592842
    0.02530299499630928
    0.025332227349281311
    0.025361619889736176
    0.025391008704900742
    0.025420399382710457
    0.025449790060520172
    0.025479178875684738
    0.025508571416139603
    0.025537962093949318
    0.025567352771759033
    0.025596743449568748
    0.025626134127378464
    0.02565552294254303
    0.025684915482997894
    0.02571430429816246
    0.025743694975972176
    0.025773085653781891
    0.025802832096815109
    0.025832770392298698
    0.025862708687782288
    0.025892646983265877
    0.025922585278749466
    0.025952523574233055
    0.025982461869716644
    0.026012398302555084
    0.026042338460683823
    0.026072274893522263
    0.026102215051651001
    0.026132151484489441
    0.026162087917327881
    0.02619202621281147
    0.026221964508295059
    0.026251902803778648
    0.026282170787453651
    0.02631266787648201
    0.026343163102865219
    0.026373660191893578
    0.026404157280921936
    0.026434652507305145
    0.026465147733688354
    0.026495644822716713
    0.026526141911745071
    0.026556637138128281
    0.026587136089801788
    0.026617629453539848
    0.026648126542568207
    0.026678623631596565
    0.026709118857979774
    0.026739615947008133
    0.026770412921905518
    0.026801478117704391
    0.026832543313503265
    0.026863608509302139
    0.026894673705101013
    0.026925738900899887
    0.026956804096698761
    0.026987869292497635
    0.027018934488296509
    0.027049999684095383
