aces_1.2/luts/ADX_CID_to_RLE.spi1d
Version 1
From -0.19 3
Length 4096
Components 1
{
 -6.0000000000e+00
 -5.9872311141e+00
 -5.9744622283e+00
 -5.9616933424e+00
 -5.9489244565e+00
 -5.9361555707e+00
 -5.9233866848e+00
 -5.9106177990e+00
 -5.8978489131e+00
 -5.8850800272e+00
 -5.8723111414e+00
 -5.8595422555e+00
 -5.8467733696e+00
 -5.8340044838e+00
 -5.8212355979e+00
 -5.8084667120e+00
 -5.7956978262e+00
 -5.7829289403e+00
 -5.7701600545e+00
 -5.7573911686e+00
 -5.7446222827e+00
 -5.7318533969e+00
 -5.7190845110e+00
 -5.7063156251e+00
 -5.6935467393e+00
 -5.6807778534e+00
 -5.6680089675e+00
 -5.6552400817e+00
 -5.6424711958e+00
 -5.6297023099e+00
 -5.6169334241e+00
 -5.6041645382e+00
 -5.5913956524e+00
 -5.5786267665e+00
 -5.5658578806e+00
 -5.5530889948e+00
 -5.5403201089e+00
 -5.5275512230e+00
 -5.5147823372e+00
 -5.5020134513e+00
 -5.4892445654e+00
 -5.4764756796e+00
 -5.4637067937e+00
 -5.4509379079e+00
 -5.4381690220e+00
 -5.4254001361e+00
 -5.4126312503e+00
 -5.3998623644e+00
 -5.3870934785e+00
 -5.3743245927e+00
 -5.3615557068e+00
 -5.3487868209e+00
 -5.3360179351e+00
 -5.3232490492e+00
 -5.3104801634e+00
 -5.2977112775e+00
 -5.2849423916e+00
 -5.2721735058e+00
 -5.2594046199e+00
 -5.2466357340e+00
 -5.2338668482e+00
 -5.2210979623e+00
 -5.2083290764e+00
 -5.1955601906e+00
 -5.1827913047e+00
 -5.1700224189e+00
 -5.1572535330e+00
 -5.1444846471e+00
 -5.1317157613e+00
 -5.1189468754e+00
 -5.1061779895e+00
 -5.0934091037e+00
 -5.0806402178e+00
 -5.0678713319e+00
 -5.0551024461e+00
 -5.0423335602e+00
 -5.0295646744e+00
 -5.0167957885e+00
 -5.0040269026e+00
 -4.9912580168e+00
 -4.9784891309e+00
 -4.9657202450e+00
 -4.9529513592e+00
 -4.9401824733e+00
 -4.9274135874e+00
 -4.9146447016e+00
 -4.9018758157e+00
 -4.8891069298e+00
 -4.8763380440e+00
 -4.8635691581e+00
 -4.8508002723e+00
 -4.8380313864e+00
 -4.8252625005e+00
 -4.8124936147e+00
 -4.7997247288e+00
 -4.7869558429e+00
 -4.7741869571e+00
 -4.7614180712e+00
 -4.7486491853e+00
 -4.7358802995e+00
 -4.7231114136e+00
 -4.7103425278e+00
 -4.6975736419e+00
 -4.6848047560e+00
 -4.6720358702e+00
 -4.6592669843e+00
 -4.6464980984e+00
 -4.6337292126e+00
 -4.6209603267e+00
 -4.6081914408e+00
 -4.5954225550e+00
 -4.5826536691e+00
 -4.5698847833e+00
 -4.5571158974e+00
 -4.5443470115e+00
 -4.5315781257e+00
 -4.5188092398e+00
 -4.5060403539e+00
 -4.4932714681e+00
 -4.4805025822e+00
 -4.4677336963e+00
 -4.4549648105e+00
 -4.4421959246e+00
 -4.4294270388e+00
 -4.4166581529e+00
 -4.4038892670e+00
 -4.3911203812e+00
 -4.3783514953e+00
 -4.3655826094e+00
 -4.3528137236e+00
 -4.3400448377e+00
 -4.3272759518e+00
 -4.3145070660e+00
 -4.3017381801e+00
 -4.2889692943e+00
 -4.2762004084e+00
 -4.2634315225e+00
 -4.2506626367e+00
 -4.2378937508e+00
 -4.2251248649e+00
 -4.2123559791e+00
 -4.1995870932e+00
 -4.1868182073e+00
 -4.1740493215e+00
 -4.1612804356e+00
 -4.1485115497e+00
 -4.1357426639e+00
 -4.1229737780e+00
 -4.1102048922e+00
 -4.0974360063e+00
 -4.0846671204e+00
 -4.0718982346e+00
 -4.0591293487e+00
 -4.0463604628e+00
 -4.0335915770e+00
 -4.0208226911e+00
 -4.0080538052e+00
 -3.9952849194e+00
 -3.9825160335e+00
 -3.9697471477e+00
 -3.9569782618e+00
 -3.9442093759e+00
 -3.9314404901e+00
 -3.9186716042e+00
 -3.9059027183e+00
 -3.8931338325e+00
 -3.8803649466e+00
 -3.8675960607e+00
 -3.8548271749e+00
 -3.8420582890e+00
 -3.8292894032e+00
 -3.8165205173e+00
 -3.8037516314e+00
 -3.7909827456e+00
 -3.7782138597e+00
 -3.7654449738e+00
 -3.7526760880e+00
 -3.7399072021e+00
 -3.7271383162e+00
 -3.7143694304e+00
 -3.7016005445e+00
 -3.6888316587e+00
 -3.6760627728e+00
 -3.6632938869e+00
 -3.6505250011e+00
 -3.6377561152e+00
 -3.6249872293e+00
 -3.6122183435e+00
 -3.5994494576e+00
 -3.5866805717e+00
 -3.5739116859e+00
 -3.5611428000e+00
 -3.5483739142e+00
 -3.5356050283e+00
 -3.5228361424e+00
 -3.5100672566e+00
 -3.4972983707e+00
 -3.4845294848e+00
 -3.4717605990e+00
 -3.4589917131e+00
 -3.4462228272e+00
 -3.4334539414e+00
 -3.4206850555e+00
 -3.4079161696e+00
 -3.3951472838e+00
 -3.3823783979e+00
 -3.3696095121e+00
 -3.3568406262e+00
 -3.3440717403e+00
 -3.3313028545e+00
 -3.3185339686e+00
 -3.3057650827e+00
 -3.2929961969e+00
 -3.2802273110e+00
 -3.2674584251e+00
 -3.2546895393e+00
 -3.2419206534e+00
 -3.2291517676e+00
 -3.2163828817e+00
 -3.2036139958e+00
 -3.1908451100e+00
 -3.1780762241e+00
 -3.1653073382e+00
 -3.1525384524e+00
 -3.1397695665e+00
 -3.1270006806e+00
 -3.1142317948e+00
 -3.1014629089e+00
 -3.0886940231e+00
 -3.0759251372e+00
 -3.0631562513e+00
 -3.0503873655e+00
 -3.0376184796e+00
 -3.0248495937e+00
 -3.0120807079e+00
 -2.9993118220e+00
 -2.9865429361e+00
 -2.9737740503e+00
 -2.9610051644e+00
 -2.9482362786e+00
 -2.9354673927e+00
 -2.9226985068e+00
 -2.9099296210e+00
 -2.8971607351e+00
 -2.8843918492e+00
 -2.8716229634e+00
 -2.8588540775e+00
 -2.8460851916e+00
 -2.8333163058e+00
 -2.8205474199e+00
 -2.8077785341e+00
 -2.7950096482e+00
 -2.7822407623e+00
 -2.7694718765e+00
 -2.7567029906e+00
 -2.7439341047e+00
 -2.7311652189e+00
 -2.7194665761e+00
 -2.7108110341e+00
 -2.7021554921e+00
 -2.6934999501e+00
 -2.6848444081e+00
 -2.6761888661e+00
 -2.6675333241e+00
 -2.6588777822e+00
 -2.6502222402e+00
 -2.6415666982e+00
 -2.6329111562e+00
 -2.6242556142e+00
 -2.6156000722e+00
 -2.6069445302e+00
 -2.5982889882e+00
 -2.5896334462e+00
 -2.5809779043e+00
 -2.5723223623e+00
 -2.5636668203e+00
 -2.5550112783e+00
 -2.5463557363e+00
 -2.5377001943e+00
 -2.5290446523e+00
 -2.5207981979e+00
 -2.5148058996e+00
 -2.5088136013e+00
 -2.5028213030e+00
 -2.4968290047e+00
 -2.4908367064e+00
 -2.4848444081e+00
 -2.4788521098e+00
 -2.4728598115e+00
 -2.4668675132e+00
 -2.4608752149e+00
 -2.4548829166e+00
 -2.4488906183e+00
 -2.4428983200e+00
 -2.4369060217e+00
 -2.4309137234e+00
 -2.4249214251e+00
 -2.4189291268e+00
 -2.4129368285e+00
 -2.4069445302e+00
 -2.4009522319e+00
 -2.3949599336e+00
 -2.3889676353e+00
 -2.3829753370e+00
 -2.3769830387e+00
 -2.3709907404e+00
 -2.3649984421e+00
 -2.3590061438e+00
 -2.3530138455e+00
 -2.3470215472e+00
 -2.3410292489e+00
 -2.3350369506e+00
 -2.3290446523e+00
 -2.3230523540e+00
 -2.3187644177e+00
 -2.3149644236e+00
 -2.3111644296e+00
 -2.3073644355e+00
 -2.3035644415e+00
 -2.2997644474e+00
 -2.2959644534e+00
 -2.2921644593e+00
 -2.2883644653e+00
 -2.2845644713e+00
 -2.2807644772e+00
 -2.2769644832e+00
 -2.2731644891e+00
 -2.2693644951e+00
 -2.2655645010e+00
 -2.2617645070e+00
 -2.2579645130e+00
 -2.2541645189e+00
 -2.2503645249e+00
 -2.2465645308e+00
 -2.2427645368e+00
 -2.2389645427e+00
 -2.2351645487e+00
 -2.2313645546e+00
 -2.2275645606e+00
 -2.2237645666e+00
 -2.2199645725e+00
 -2.2161645785e+00
 -2.2123645844e+00
 -2.2085645904e+00
 -2.2047645963e+00
 -2.2009646023e+00
 -2.1971646083e+00
 -2.1933646142e+00
 -2.1895646202e+00
 -2.1857646261e+00
 -2.1819646321e+00
 -2.1781646380e+00
 -2.1743646440e+00
 -2.1705646499e+00
 -2.1667646559e+00
 -2.1629646619e+00
 -2.1591646678e+00
 -2.1553646738e+00
 -2.1515646797e+00
 -2.1477646857e+00
 -2.1439646916e+00
 -2.1401646976e+00
 -2.1363647035e+00
 -2.1325647095e+00
 -2.1287647155e+00
 -2.1249647214e+00
 -2.1212644325e+00
 -2.1181484374e+00
 -2.1150324423e+00
 -2.1119164472e+00
 -2.1088004521e+00
 -2.1056844570e+00
 -2.1025684618e+00
 -2.0994524667e+00
 -2.0963364716e+00
 -2.0932204765e+00
 -2.0901044814e+00
 -2.0869884863e+00
 -2.0838724912e+00
 -2.0807564960e+00
 -2.0776405009e+00
 -2.0745245058e+00
 -2.0714085107e+00
 -2.0682925156e+00
 -2.0651765205e+00
 -2.0620605253e+00
 -2.0589445302e+00
 -2.0558285351e+00
 -2.0527125400e+00
 -2.0495965449e+00
 -2.0464805498e+00
 -2.0433645546e+00
 -2.0402485595e+00
 -2.0371325644e+00
 -2.0340165693e+00
 -2.0309005742e+00
 -2.0277845791e+00
 -2.0246685839e+00
 -2.0215525888e+00
 -2.0184365937e+00
 -2.0153205986e+00
 -2.0122046035e+00
 -2.0090886084e+00
 -2.0059726133e+00
 -2.0028566181e+00
 -1.9997406230e+00
 -1.9966246279e+00
 -1.9935086328e+00
 -1.9903926377e+00
 -1.9872766426e+00
 -1.9841606474e+00
 -1.9810446523e+00
 -1.9779286572e+00
 -1.9748126621e+00
 -1.9716966670e+00
 -1.9685806719e+00
 -1.9654646767e+00
 -1.9623486816e+00
 -1.9592326865e+00
 -1.9561166914e+00
 -1.9530006963e+00
 -1.9498847012e+00
 -1.9467687061e+00
 -1.9436527109e+00
 -1.9405367158e+00
 -1.9374207207e+00
 -1.9343047256e+00
 -1.9311887305e+00
 -1.9280727354e+00
 -1.9249567402e+00
 -1.9218407451e+00
 -1.9197227150e+00
 -1.9176453849e+00
 -1.9155680548e+00
 -1.9134907248e+00
 -1.9114133947e+00
 -1.9093360646e+00
 -1.9072587345e+00
 -1.9051814045e+00
 -1.9031040744e+00
 -1.9010267443e+00
 -1.8989494142e+00
 -1.8968720842e+00
 -1.8947947541e+00
 -1.8927174240e+00
 -1.8906400939e+00
 -1.8885627638e+00
 -1.8864854338e+00
 -1.8844081037e+00
 -1.8823307736e+00
 -1.8802534435e+00
 -1.8781761135e+00
 -1.8760987834e+00
 -1.8740214533e+00
 -1.8719441232e+00
 -1.8698667931e+00
 -1.8677894631e+00
 -1.8657121330e+00
 -1.8636348029e+00
 -1.8615574728e+00
 -1.8594801428e+00
 -1.8574028127e+00
 -1.8553254826e+00
 -1.8532481525e+00
 -1.8511708225e+00
 -1.8490934924e+00
 -1.8470161623e+00
 -1.8449388322e+00
 -1.8428615021e+00
 -1.8407841721e+00
 -1.8387068420e+00
 -1.8366295119e+00
 -1.8345521818e+00
 -1.8324748518e+00
 -1.8303975217e+00
 -1.8283201916e+00
 -1.8262428615e+00
 -1.8241655314e+00
 -1.8220882014e+00
 -1.8200108713e+00
 -1.8179335412e+00
 -1.8158562111e+00
 -1.8137788811e+00
 -1.8117015510e+00
 -1.8096242209e+00
 -1.8075468908e+00
 -1.8054695608e+00
 -1.8033922307e+00
 -1.8013149006e+00
 -1.7992375705e+00
 -1.7971602404e+00
 -1.7950829104e+00
 -1.7930055803e+00
 -1.7909282502e+00
 -1.7888509201e+00
 -1.7867735901e+00
 -1.7846962600e+00
 -1.7826189299e+00
 -1.7805415998e+00
 -1.7784642697e+00
 -1.7763869397e+00
 -1.7743096096e+00
 -1.7722322795e+00
 -1.7701549494e+00
 -1.7680776194e+00
 -1.7660002893e+00
 -1.7639229592e+00
 -1.7618456291e+00
 -1.7597682990e+00
 -1.7576909690e+00
 -1.7556136389e+00
 -1.7535363088e+00
 -1.7514589787e+00
 -1.7493816487e+00
 -1.7473043186e+00
 -1.7452269885e+00
 -1.7431496584e+00
 -1.7410723284e+00
 -1.7389949983e+00
 -1.7369176682e+00
 -1.7348403381e+00
 -1.7327630080e+00
 -1.7306856780e+00
 -1.7286083479e+00
 -1.7265310178e+00
 -1.7244536877e+00
 -1.7223763577e+00
 -1.7203877537e+00
 -1.7184402567e+00
 -1.7164927598e+00
 -1.7145452628e+00
 -1.7125977659e+00
 -1.7106502689e+00
 -1.7087027720e+00
 -1.7067552750e+00
 -1.7048077781e+00
 -1.7028602811e+00
 -1.7009127842e+00
 -1.6989652872e+00
 -1.6970177903e+00
 -1.6950702934e+00
 -1.6931227964e+00
 -1.6911752995e+00
 -1.6892278025e+00
 -1.6872803056e+00
 -1.6853328086e+00
 -1.6833853117e+00
 -1.6814378147e+00
 -1.6794903178e+00
 -1.6775428208e+00
 -1.6755953239e+00
 -1.6736478269e+00
 -1.6717003300e+00
 -1.6697528330e+00
 -1.6678053361e+00
 -1.6658578391e+00
 -1.6639103422e+00
 -1.6619628452e+00
 -1.6600153483e+00
 -1.6580678513e+00
 -1.6561203544e+00
 -1.6541728575e+00
 -1.6522253605e+00
 -1.6502778636e+00
 -1.6483303666e+00
 -1.6463828697e+00
 -1.6444353727e+00
 -1.6424878758e+00
 -1.6405403788e+00
 -1.6385928819e+00
 -1.6366453849e+00
 -1.6346978880e+00
 -1.6327503910e+00
 -1.6308028941e+00
 -1.6288553971e+00
 -1.6269079002e+00
 -1.6249604032e+00
 -1.6230129063e+00
 -1.6210654093e+00
 -1.6191179124e+00
 -1.6171704155e+00
 -1.6152229185e+00
 -1.6132754216e+00
 -1.6113279246e+00
 -1.6093804277e+00
 -1.6074329307e+00
 -1.6054854338e+00
 -1.6035379368e+00
 -1.6015904399e+00
 -1.5996429429e+00
 -1.5976954460e+00
 -1.5957479490e+00
 -1.5938004521e+00
 -1.5918529551e+00
 -1.5899054582e+00
 -1.5879579612e+00
 -1.5860104643e+00
 -1.5840629673e+00
 -1.5821154704e+00
 -1.5801679734e+00
 -1.5782204765e+00
 -1.5762729796e+00
 -1.5743254826e+00
 -1.5723779857e+00
 -1.5704304887e+00
 -1.5684829918e+00
 -1.5665354948e+00
 -1.5645879979e+00
 -1.5626405009e+00
 -1.5606930040e+00
 -1.5587455070e+00
 -1.5567980101e+00
 -1.5548505131e+00
 -1.5529030162e+00
 -1.5509555192e+00
 -1.5490080223e+00
 -1.5470605253e+00
 -1.5451130284e+00
 -1.5431655314e+00
 -1.5412180345e+00
 -1.5392705376e+00
 -1.5373230406e+00
 -1.5353755437e+00
 -1.5334280467e+00
 -1.5314805498e+00
 -1.5295330528e+00
 -1.5275855559e+00
 -1.5256380589e+00
 -1.5236905620e+00
 -1.5217430650e+00
 -1.5201801835e+00
 -1.5186221859e+00
 -1.5170641883e+00
 -1.5155061908e+00
 -1.5139481932e+00
 -1.5123901957e+00
 -1.5108321981e+00
 -1.5092742006e+00
 -1.5077162030e+00
 -1.5061582054e+00
 -1.5046002079e+00
 -1.5030422103e+00
 -1.5014842128e+00
 -1.4999262152e+00
 -1.4983682176e+00
 -1.4968102201e+00
 -1.4952522225e+00
 -1.4936942250e+00
 -1.4921362274e+00
 -1.4905782299e+00
 -1.4890202323e+00
 -1.4874622347e+00
 -1.4859042372e+00
 -1.4843462396e+00
 -1.4827882421e+00
 -1.4812302445e+00
 -1.4796722470e+00
 -1.4781142494e+00
 -1.4765562518e+00
 -1.4749982543e+00
 -1.4734402567e+00
 -1.4718822592e+00
 -1.4703242616e+00
 -1.4687662640e+00
 -1.4672082665e+00
 -1.4656502689e+00
 -1.4640922714e+00
 -1.4625342738e+00
 -1.4609762763e+00
 -1.4594182787e+00
 -1.4578602811e+00
 -1.4563022836e+00
 -1.4547442860e+00
 -1.4531862885e+00
 -1.4516282909e+00
 -1.4500702934e+00
 -1.4485122958e+00
 -1.4469542982e+00
 -1.4453963007e+00
 -1.4438383031e+00
 -1.4422803056e+00
 -1.4407223080e+00
 -1.4391643104e+00
 -1.4376063129e+00
 -1.4360483153e+00
 -1.4344903178e+00
 -1.4329323202e+00
 -1.4313743227e+00
 -1.4298163251e+00
 -1.4282583275e+00
 -1.4267003300e+00
 -1.4251423324e+00
 -1.4235843349e+00
 -1.4220263373e+00
 -1.4204683397e+00
 -1.4189103422e+00
 -1.4173523446e+00
 -1.4157943471e+00
 -1.4142363495e+00
 -1.4126783520e+00
 -1.4111203544e+00
 -1.4095623568e+00
 -1.4080043593e+00
 -1.4064463617e+00
 -1.4048883642e+00
 -1.4033303666e+00
 -1.4017723691e+00
 -1.4002143715e+00
 -1.3986563739e+00
 -1.3970983764e+00
 -1.3955403788e+00
 -1.3939823813e+00
 -1.3924243837e+00
 -1.3908663861e+00
 -1.3893083886e+00
 -1.3877503910e+00
 -1.3861923935e+00
 -1.3846343959e+00
 -1.3830763984e+00
 -1.3815184008e+00
 -1.3799604032e+00
 -1.3784024057e+00
 -1.3768444081e+00
 -1.3752864106e+00
 -1.3737284130e+00
 -1.3721704155e+00
 -1.3706124179e+00
 -1.3690544203e+00
 -1.3674964228e+00
 -1.3659384252e+00
 -1.3643804277e+00
 -1.3628224301e+00
 -1.3612644325e+00
 -1.3597064350e+00
 -1.3581484374e+00
 -1.3565904399e+00
 -1.3550324423e+00
 -1.3534744448e+00
 -1.3519164472e+00
 -1.3503584496e+00
 -1.3488004521e+00
 -1.3472424545e+00
 -1.3456844570e+00
 -1.3441264594e+00
 -1.3425684618e+00
 -1.3410104643e+00
 -1.3394524667e+00
 -1.3378944692e+00
 -1.3363364716e+00
 -1.3347784741e+00
 -1.3332204765e+00
 -1.3316624789e+00
 -1.3301044814e+00
 -1.3285464838e+00
 -1.3269884863e+00
 -1.3254304887e+00
 -1.3238724912e+00
 -1.3223144936e+00
 -1.3207564960e+00
 -1.3191984985e+00
 -1.3176405009e+00
 -1.3160825034e+00
 -1.3145245058e+00
 -1.3129665082e+00
 -1.3114085107e+00
 -1.3098505131e+00
 -1.3082925156e+00
 -1.3067345180e+00
 -1.3051765205e+00
 -1.3036185229e+00
 -1.3020605253e+00
 -1.3005025278e+00
 -1.2989445302e+00
 -1.2973865327e+00
 -1.2958285351e+00
 -1.2942705376e+00
 -1.2927125400e+00
 -1.2911545424e+00
 -1.2895965449e+00
 -1.2880385473e+00
 -1.2864805498e+00
 -1.2849225522e+00
 -1.2833645546e+00
 -1.2818065571e+00
 -1.2802485595e+00
 -1.2786905620e+00
 -1.2771325644e+00
 -1.2755745669e+00
 -1.2740165693e+00
 -1.2724585717e+00
 -1.2709005742e+00
 -1.2693425766e+00
 -1.2677845791e+00
 -1.2662265815e+00
 -1.2646685839e+00
 -1.2631105864e+00
 -1.2615525888e+00
 -1.2599945913e+00
 -1.2584365937e+00
 -1.2568785962e+00
 -1.2553205986e+00
 -1.2537626010e+00
 -1.2522046035e+00
 -1.2506466059e+00
 -1.2490886084e+00
 -1.2475306108e+00
 -1.2459726133e+00
 -1.2444146157e+00
 -1.2428566181e+00
 -1.2412986206e+00
 -1.2397406230e+00
 -1.2381826255e+00
 -1.2366246279e+00
 -1.2350666303e+00
 -1.2335086328e+00
 -1.2319506352e+00
 -1.2303926377e+00
 -1.2288346401e+00
 -1.2272766426e+00
 -1.2257186450e+00
 -1.2241606474e+00
 -1.2226026499e+00
 -1.2210446523e+00
 -1.2194866548e+00
 -1.2179286572e+00
 -1.2163706597e+00
 -1.2148126621e+00
 -1.2132546645e+00
 -1.2116966670e+00
 -1.2101386694e+00
 -1.2085806719e+00
 -1.2070226743e+00
 -1.2054646767e+00
 -1.2039066792e+00
 -1.2023486816e+00
 -1.2007906841e+00
 -1.1992326865e+00
 -1.1976746890e+00
 -1.1961166914e+00
 -1.1945586938e+00
 -1.1930006963e+00
 -1.1914426987e+00
 -1.1898847012e+00
 -1.1883267036e+00
 -1.1867687061e+00
 -1.1852107085e+00
 -1.1836527109e+00
 -1.1820947134e+00
 -1.1805367158e+00
 -1.1789787183e+00
 -1.1774207207e+00
 -1.1758627231e+00
 -1.1743047256e+00
 -1.1727467280e+00
 -1.1711887305e+00
 -1.1696307329e+00
 -1.1680727354e+00
 -1.1665147378e+00
 -1.1649567402e+00
 -1.1633987427e+00
 -1.1618407451e+00
 -1.1602827476e+00
 -1.1587247500e+00
 -1.1571667524e+00
 -1.1556087549e+00
 -1.1540507573e+00
 -1.1524927598e+00
 -1.1509347622e+00
 -1.1493767647e+00
 -1.1478187671e+00
 -1.1462607695e+00
 -1.1447027720e+00
 -1.1431447744e+00
 -1.1415867769e+00
 -1.1400287793e+00
 -1.1384707818e+00
 -1.1369127842e+00
 -1.1353547866e+00
 -1.1337967891e+00
 -1.1322387915e+00
 -1.1306807940e+00
 -1.1291227964e+00
 -1.1275647988e+00
 -1.1260068013e+00
 -1.1244488037e+00
 -1.1228908062e+00
 -1.1213421208e+00
 -1.1198217258e+00
 -1.1183013308e+00
 -1.1167809357e+00
 -1.1152605407e+00
 -1.1137401456e+00
 -1.1122197506e+00
 -1.1106993556e+00
 -1.1091789605e+00
 -1.1076585655e+00
 -1.1061381704e+00
 -1.1046177754e+00
 -1.1030973804e+00
 -1.1015769853e+00
 -1.1000565903e+00
 -1.0985361952e+00
 -1.0970158002e+00
 -1.0954954052e+00
 -1.0939750101e+00
 -1.0924546151e+00
 -1.0909342200e+00
 -1.0894138250e+00
 -1.0878934300e+00
 -1.0863730349e+00
 -1.0848526399e+00
 -1.0833322448e+00
 -1.0818118498e+00
 -1.0802914548e+00
 -1.0787710597e+00
 -1.0772506647e+00
 -1.0757302696e+00
 -1.0742098746e+00
 -1.0726894796e+00
 -1.0711690845e+00
 -1.0696486895e+00
 -1.0681282944e+00
 -1.0666078994e+00
 -1.0650875044e+00
 -1.0635671093e+00
 -1.0620467143e+00
 -1.0605263192e+00
 -1.0590059242e+00
 -1.0574855292e+00
 -1.0559651341e+00
 -1.0544447391e+00
 -1.0529243440e+00
 -1.0514039490e+00
 -1.0498835540e+00
 -1.0483631589e+00
 -1.0468427639e+00
 -1.0453223688e+00
 -1.0438019738e+00
 -1.0422815788e+00
 -1.0407611837e+00
 -1.0392407887e+00
 -1.0377203936e+00
 -1.0361999986e+00
 -1.0346796036e+00
 -1.0331592085e+00
 -1.0316388135e+00
 -1.0301184184e+00
 -1.0285980234e+00
 -1.0270776284e+00
 -1.0255572333e+00
 -1.0240368383e+00
 -1.0225164432e+00
 -1.0209960482e+00
 -1.0194756532e+00
 -1.0179552581e+00
 -1.0164348631e+00
 -1.0149144680e+00
 -1.0133940730e+00
 -1.0118736780e+00
 -1.0103532829e+00
 -1.0088328879e+00
 -1.0073124928e+00
 -1.0057920978e+00
 -1.0042717028e+00
 -1.0027513077e+00
 -1.0012309127e+00
 -9.9971051765e-01
 -9.9819012261e-01
 -9.9666972757e-01
 -9.9514933253e-01
 -9.9362893749e-01
 -9.9210854245e-01
 -9.9058814741e-01
 -9.8906775237e-01
 -9.8754735733e-01
 -9.8602696229e-01
 -9.8450656725e-01
 -9.8298617221e-01
 -9.8146577717e-01
 -9.7994538213e-01
 -9.7842498709e-01
 -9.7690459205e-01
 -9.7538419701e-01
 -9.7386380197e-01
 -9.7234340693e-01
 -9.7082301189e-01
 -9.6930261685e-01
 -9.6778222181e-01
 -9.6626182677e-01
 -9.6474143173e-01
 -9.6322103669e-01
 -9.6170064165e-01
 -9.6018024661e-01
 -9.5865985157e-01
 -9.5713945653e-01
 -9.5561906149e-01
 -9.5409866645e-01
 -9.5257827141e-01
 -9.5105787637e-01
 -9.4953748133e-01
 -9.4801708629e-01
 -9.4649669125e-01
 -9.4497629621e-01
 -9.4345590117e-01
 -9.4193550613e-01
 -9.4041511109e-01
 -9.3889471605e-01
 -9.3737432101e-01
 -9.3585392597e-01
 -9.3433353093e-01
 -9.3281313589e-01
 -9.3129274085e-01
 -9.2977234581e-01
 -9.2825195077e-01
 -9.2673155573e-01
 -9.2530247547e-01
 -9.2388611406e-01
 -9.2246975264e-01
 -9.2105339122e-01
 -9.1963702981e-01
 -9.1822066839e-01
 -9.1680430697e-01
 -9.1538794556e-01
 -9.1397158414e-01
 -9.1255522272e-01
 -9.1113886131e-01
 -9.0972249989e-01
 -9.0830613848e-01
 -9.0688977706e-01
 -9.0547341564e-01
 -9.0405705423e-01
 -9.0264069281e-01
 -9.0122433139e-01
 -8.9980796998e-01
 -8.9839160856e-01
 -8.9697524714e-01
 -8.9555888573e-01
 -8.9414252431e-01
 -8.9272616290e-01
 -8.9130980148e-01
 -8.8989344006e-01
 -8.8847707865e-01
 -8.8706071723e-01
 -8.8564435581e-01
 -8.8422799440e-01
 -8.8281163298e-01
 -8.8139527156e-01
 -8.7997891015e-01
 -8.7856254873e-01
 -8.7714618732e-01
 -8.7572982590e-01
 -8.7431346448e-01
 -8.7289710307e-01
 -8.7148074165e-01
 -8.7006438023e-01
 -8.6864801882e-01
 -8.6723165740e-01
 -8.6581529598e-01
 -8.6439893457e-01
 -8.6298257315e-01
 -8.6156621174e-01
 -8.6014985032e-01
 -8.5873348890e-01
 -8.5731712749e-01
 -8.5590076607e-01
 -8.5448440465e-01
 -8.5306804324e-01
 -8.5165168182e-01
 -8.5023532040e-01
 -8.4881895899e-01
 -8.4740259757e-01
 -8.4598623616e-01
 -8.4456987474e-01
 -8.4315351332e-01
 -8.4173715191e-01
 -8.4032079049e-01
 -8.3890442907e-01
 -8.3748806766e-01
 -8.3607170624e-01
 -8.3465534482e-01
 -8.3323898341e-01
 -8.3182262199e-01
 -8.3040626058e-01
 -8.2898989916e-01
 -8.2757353774e-01
 -8.2615717633e-01
 -8.2474081491e-01
 -8.2332445349e-01
 -8.2190809208e-01
 -8.2049173066e-01
 -8.1907536924e-01
 -8.1765900783e-01
 -8.1624264641e-01
 -8.1482628500e-01
 -8.1340992358e-01
 -8.1199356216e-01
 -8.1057720075e-01
 -8.0916083933e-01
 -8.0774447791e-01
 -8.0632811650e-01
 -8.0491175508e-01
 -8.0349539366e-01
 -8.0207903225e-01
 -8.0066267083e-01
 -7.9924630942e-01
 -7.9782994800e-01
 -7.9641358658e-01
 -7.9499722517e-01
 -7.9358086375e-01
 -7.9216450233e-01
 -7.9074814092e-01
 -7.8933177950e-01
 -7.8791541808e-01
 -7.8649905667e-01
 -7.8508269525e-01
 -7.8366633384e-01
 -7.8224997242e-01
 -7.8083361100e-01
 -7.7941724959e-01
 -7.7800088817e-01
 -7.7658452675e-01
 -7.7516816534e-01
 -7.7375180392e-01
 -7.7233544250e-01
 -7.7091908109e-01
 -7.6950271967e-01
 -7.6808635826e-01
 -7.6666999684e-01
 -7.6525363542e-01
 -7.6383727401e-01
 -7.6242091259e-01
 -7.6100455117e-01
 -7.5958818976e-01
 -7.5817182834e-01
 -7.5675546692e-01
 -7.5533910551e-01
 -7.5392274409e-01
 -7.5250638268e-01
 -7.5109002126e-01
 -7.4967365984e-01
 -7.4825729843e-01
 -7.4684093701e-01
 -7.4542457559e-01
 -7.4400821418e-01
 -7.4259185276e-01
 -7.4117549134e-01
 -7.3975912993e-01
 -7.3834276851e-01
 -7.3692640710e-01
 -7.3551004568e-01
 -7.3409368426e-01
 -7.3267732285e-01
 -7.3126096143e-01
 -7.2984460001e-01
 -7.2842823860e-01
 -7.2701187718e-01
 -7.2559551576e-01
 -7.2417915435e-01
 -7.2276279293e-01
 -7.2134643152e-01
 -7.1993007010e-01
 -7.1851370868e-01
 -7.1709734727e-01
 -7.1568098585e-01
 -7.1426462443e-01
 -7.1284826302e-01
 -7.1143190160e-01
 -7.1001554018e-01
 -7.0859917877e-01
 -7.0718281735e-01
 -7.0576645594e-01
 -7.0435009452e-01
 -7.0293373310e-01
 -7.0151737169e-01
 -7.0010101027e-01
 -6.9868464885e-01
 -6.9726828744e-01
 -6.9585192602e-01
 -6.9443556460e-01
 -6.9301920319e-01
 -6.9160284177e-01
 -6.9018648036e-01
 -6.8877011894e-01
 -6.8735375752e-01
 -6.8593739611e-01
 -6.8452103469e-01
 -6.8310467327e-01
 -6.8168831186e-01
 -6.8027195044e-01
 -6.7885558902e-01
 -6.7743922761e-01
 -6.7602286619e-01
 -6.7460650478e-01
 -6.7319014336e-01
 -6.7177378194e-01
 -6.7035742053e-01
 -6.6894105911e-01
 -6.6752469769e-01
 -6.6610833628e-01
 -6.6469197486e-01
 -6.6327561344e-01
 -6.6185925203e-01
 -6.6044289061e-01
 -6.5902652920e-01
 -6.5761016778e-01
 -6.5619380636e-01
 -6.5477744495e-01
 -6.5336108353e-01
 -6.5194472211e-01
 -6.5052836070e-01
 -6.4911199928e-01
 -6.4769563786e-01
 -6.4627927645e-01
 -6.4486291503e-01
 -6.4344655362e-01
 -6.4203019220e-01
 -6.4061383078e-01
 -6.3919746937e-01
 -6.3778110795e-01
 -6.3636474653e-01
 -6.3494838512e-01
 -6.3353202370e-01
 -6.3211566228e-01
 -6.3069930087e-01
 -6.2928293945e-01
 -6.2786657804e-01
 -6.2645021662e-01
 -6.2503385520e-01
 -6.2361749379e-01
 -6.2220113237e-01
 -6.2078477095e-01
 -6.1936840954e-01
 -6.1795204812e-01
 -6.1653568670e-01
 -6.1511932529e-01
 -6.1370296387e-01
 -6.1228660246e-01
 -6.1087024104e-01
 -6.0945387962e-01
 -6.0803751821e-01
 -6.0662115679e-01
 -6.0520479537e-01
 -6.0378843396e-01
 -6.0237207254e-01
 -6.0095571112e-01
 -5.9953934971e-01
 -5.9812298829e-01
 -5.9670662688e-01
 -5.9529026546e-01
 -5.9387390404e-01
 -5.9245754263e-01
 -5.9104118121e-01
 -5.8962481979e-01
 -5.8820845838e-01
 -5.8679209696e-01
 -5.8537573554e-01
 -5.8395937413e-01
 -5.8254301271e-01
 -5.8112665130e-01
 -5.7971028988e-01
