aces_1.2/luts/Canon-Log3_to_linear.spi1d
Version 1
From 0 1
Length 4096
Components 1
{
 -7.3813341558e-02
 -7.3608525097e-02
 -7.3404021561e-02
 -7.3199838400e-02
 -7.2995960712e-02
 -7.2792395949e-02
 -7.2589136660e-02
 -7.2386197746e-02
 -7.2183564305e-02
 -7.1981243789e-02
 -7.1779228747e-02
 -7.1577526629e-02
 -7.1376129985e-02
 -7.1175046265e-02
 -7.0974268019e-02
 -7.0773795247e-02
 -7.0573627949e-02
 -7.0373766124e-02
 -7.0174217224e-02
 -6.9974966347e-02
 -6.9776020944e-02
 -6.9577381015e-02
 -6.9379046559e-02
 -6.9181017578e-02
 -6.8983286619e-02
 -6.8785861135e-02
 -6.8588733673e-02
 -6.8391911685e-02
 -6.8195395172e-02
 -6.7999169230e-02
 -6.7803248763e-02
 -6.7607633770e-02
 -6.7412309349e-02
 -6.7217282951e-02
 -6.7022562027e-02
 -6.6828131676e-02
 -6.6634006798e-02
 -6.6440172493e-02
 -6.6246636212e-02
 -6.6053397954e-02
 -6.5860450268e-02
 -6.5667808056e-02
 -6.5475448966e-02
 -6.5283387899e-02
 -6.5091624856e-02
 -6.4900152385e-02
 -6.4708970487e-02
 -6.4518086612e-02
 -6.4327493310e-02
 -6.4137183130e-02
 -6.3947170973e-02
 -6.3757449389e-02
 -6.3568018377e-02
 -6.3378877938e-02
 -6.3190028071e-02
 -6.3001461327e-02
 -6.2813185155e-02
 -6.2625199556e-02
 -6.2437500805e-02
 -6.2250088900e-02
 -6.2062963843e-02
 -6.1876121908e-02
 -6.1689570546e-02
 -6.1503302306e-02
 -6.1317317188e-02
 -6.1131618917e-02
 -6.0946207494e-02
 -6.0761075467e-02
 -6.0576226562e-02
 -6.0391660780e-02
 -6.0207381845e-02
 -6.0023378581e-02
 -5.9839662164e-02
 -5.9656221420e-02
 -5.9473063797e-02
 -5.9290189296e-02
 -5.9107590467e-02
 -5.8925271034e-02
 -5.8743234724e-02
 -5.8561474085e-02
 -5.8379989117e-02
 -5.8198783547e-02
 -5.8017857373e-02
 -5.7837206870e-02
 -5.7656832039e-02
 -5.7476732880e-02
 -5.7296909392e-02
 -5.7117361575e-02
 -5.6938089430e-02
 -5.6759089231e-02
 -5.6580364704e-02
 -5.6401912123e-02
 -5.6223735213e-02
 -5.6045826524e-02
 -5.5868193507e-02
 -5.5690832436e-02
 -5.5513739586e-02
 -5.5336918682e-02
 -5.5160369724e-02
 -5.4984092712e-02
 -5.4808080196e-02
 -5.4632339627e-02
 -5.4456871003e-02
 -5.4281666875e-02
 -5.4106730968e-02
 -5.3932063282e-02
 -5.3757663816e-02
 -5.3583528847e-02
 -5.3409662098e-02
 -5.3236059844e-02
 -5.3062725812e-02
 -5.2889656276e-02
 -5.2716851234e-02
 -5.2544306964e-02
 -5.2372030914e-02
 -5.2200015634e-02
 -5.2028268576e-02
 -5.1856778562e-02
 -5.1685553044e-02
 -5.1514588296e-02
 -5.1343888044e-02
 -5.1173448563e-02
 -5.1003266126e-02
 -5.0833348185e-02
 -5.0663687289e-02
 -5.0494287163e-02
 -5.0325147808e-02
 -5.0156265497e-02
 -4.9987640232e-02
 -4.9819275737e-02
 -4.9651164562e-02
 -4.9483314157e-02
 -4.9315720797e-02
 -4.9148380756e-02
 -4.8981301486e-02
 -4.8814471811e-02
 -4.8647902906e-02
 -4.8481587321e-02
 -4.8315525055e-02
 -4.8149716109e-02
 -4.7984160483e-02
 -4.7818861902e-02
 -4.7653812915e-02
 -4.7489017248e-02
 -4.7324474901e-02
 -4.7160182148e-02
 -4.6996142715e-02
 -4.6832352877e-02
 -4.6668812633e-02
 -4.6505521983e-02
 -4.6342484653e-02
 -4.6179696918e-02
 -4.6017155051e-02
 -4.5854862779e-02
 -4.5692820102e-02
 -4.5531023294e-02
 -4.5369476080e-02
 -4.5208174735e-02
 -4.5047119260e-02
 -4.4886313379e-02
 -4.4725749642e-02
 -4.4565435499e-02
 -4.4405363500e-02
 -4.4245537370e-02
 -4.4085957110e-02
 -4.3926618993e-02
 -4.3767526746e-02
 -4.3608676642e-02
 -4.3450068682e-02
 -4.3291702867e-02
 -4.3133582920e-02
 -4.2975701392e-02
 -4.2818062007e-02
 -4.2660664767e-02
 -4.2503505945e-02
 -4.2346589267e-02
 -4.2189914733e-02
 -4.2033478618e-02
 -4.1877280921e-02
 -4.1721321642e-02
 -4.1565600783e-02
 -4.1410122067e-02
 -4.1254878044e-02
 -4.1099868715e-02
 -4.0945101529e-02
 -4.0790569037e-02
 -4.0636271238e-02
 -4.0482211858e-02
 -4.0328387171e-02
 -4.0174800903e-02
 -4.0021445602e-02
 -3.9868324995e-02
 -3.9715442806e-02
 -3.9562791586e-02
 -3.9410371333e-02
 -3.9258189499e-02
 -3.9106234908e-02
 -3.8954518735e-02
 -3.8803029805e-02
 -3.8651775569e-02
 -3.8500752300e-02
 -3.8349956274e-02
 -3.8199394941e-02
 -3.8049064577e-02
 -3.7898961455e-02
 -3.7749089301e-02
 -3.7599448115e-02
 -3.7450034171e-02
 -3.7300847471e-02
 -3.7151891738e-02
 -3.7003159523e-02
 -3.6854658276e-02
 -3.6706384271e-02
 -3.6558337510e-02
 -3.6410514265e-02
 -3.6262918264e-02
 -3.6115549505e-02
 -3.5968407989e-02
 -3.5821486264e-02
 -3.5674791783e-02
 -3.5528324544e-02
 -3.5382077098e-02
 -3.5236056894e-02
 -3.5090256482e-02
 -3.4944683313e-02
 -3.4799329937e-02
 -3.4654200077e-02
 -3.4509290010e-02
 -3.4364603460e-02
 -3.4220140427e-02
 -3.4075893462e-02
 -3.3931870013e-02
 -3.3788070083e-02
 -3.3644486219e-02
 -3.3501122147e-02
 -3.3357977867e-02
 -3.3215053380e-02
 -3.3072344959e-02
 -3.2929856330e-02
 -3.2787587494e-02
 -3.2645534724e-02
 -3.2503698021e-02
 -3.2362081110e-02
 -3.2220676541e-02
 -3.2079491764e-02
 -3.1938523054e-02
 -3.1797770411e-02
 -3.1657230109e-02
 -3.1516909599e-02
 -3.1376797706e-02
 -3.1236905605e-02
 -3.1097223982e-02
 -3.0957758427e-02
 -3.0818503350e-02
 -3.0679464340e-02
 -3.0540635809e-02
 -3.0402021483e-02
 -3.0263617635e-02
 -3.0125426129e-02
 -2.9987446964e-02
 -2.9849678278e-02
 -2.9712120071e-02
 -2.9574772343e-02
 -2.9437635094e-02
 -2.9300706461e-02
 -2.9163988307e-02
 -2.9027478769e-02
 -2.8891177848e-02
 -2.8755087405e-02
 -2.8619203717e-02
 -2.8483526781e-02
 -2.8348058462e-02
 -2.8212798759e-02
 -2.8077743948e-02
 -2.7942897752e-02
 -2.7808256447e-02
 -2.7673820034e-02
 -2.7539590374e-02
 -2.7405567467e-02
 -2.7271747589e-02
 -2.7138134465e-02
 -2.7004724368e-02
 -2.6871517301e-02
 -2.6738515124e-02
 -2.6605717838e-02
 -2.6473121718e-02
 -2.6340728626e-02
 -2.6208538562e-02
 -2.6076551527e-02
 -2.5944765657e-02
 -2.5813180953e-02
 -2.5681799278e-02
 -2.5550616905e-02
 -2.5419635698e-02
 -2.5288853794e-02
 -2.5158273056e-02
 -2.5027891621e-02
 -2.4897711352e-02
 -2.4767728522e-02
 -2.4637944996e-02
 -2.4508358911e-02
 -2.4378972128e-02
 -2.4249784648e-02
 -2.4120792747e-02
 -2.3991998285e-02
 -2.3863401264e-02
 -2.3735001683e-02
 -2.3606797680e-02
 -2.3478791118e-02
 -2.3350978270e-02
 -2.3223362863e-02
 -2.3095941171e-02
 -2.2968715057e-02
 -2.2841684520e-02
 -2.2714847699e-02
 -2.2588204592e-02
 -2.2461755201e-02
 -2.2335499525e-02
 -2.2209435701e-02
 -2.2083567455e-02
 -2.1957889199e-02
 -2.1832404658e-02
 -2.1707111970e-02
 -2.1582009271e-02
 -2.1457100287e-02
 -2.1332381293e-02
 -2.1207852289e-02
 -2.1083515137e-02
 -2.0959367976e-02
 -2.0835410804e-02
 -2.0711643621e-02
 -2.0588064566e-02
 -2.0464675501e-02
 -2.0341474563e-02
 -2.0218461752e-02
 -2.0095638931e-02
 -1.9973002374e-02
 -1.9850553945e-02
 -1.9728293642e-02
 -1.9606219605e-02
 -1.9484331831e-02
 -1.9362630323e-02
 -1.9241116941e-02
 -1.9119787961e-02
 -1.8998643383e-02
 -1.8877686933e-02
 -1.8756913021e-02
 -1.8636325374e-02
 -1.8515922129e-02
 -1.8395703286e-02
 -1.8275666982e-02
 -1.8155815080e-02
 -1.8036147580e-02
 -1.7916660756e-02
 -1.7797358334e-02
 -1.7678238451e-02
 -1.7559301108e-02
 -1.7440544441e-02
 -1.7321970314e-02
 -1.7203578725e-02
 -1.7085365951e-02
 -1.6967335716e-02
 -1.6849486157e-02
 -1.6731815413e-02
 -1.6614325345e-02
 -1.6497015953e-02
 -1.6379885375e-02
 -1.6262933612e-02
 -1.6146160662e-02
 -1.6029566526e-02
 -1.5913151205e-02
 -1.5796912834e-02
 -1.5680853277e-02
 -1.5564971603e-02
 -1.5449266881e-02
 -1.5333739109e-02
 -1.5218388289e-02
 -1.5103213489e-02
 -1.4988214709e-02
 -1.4873391949e-02
 -1.4758745208e-02
 -1.4644273557e-02
 -1.4529977925e-02
 -1.4415856451e-02
 -1.4301909134e-02
 -1.4188136905e-02
 -1.4074537903e-02
 -1.3961113058e-02
 -1.3847862370e-02
 -1.3734783977e-02
 -1.3621878810e-02
 -1.3509146869e-02
 -1.3396587223e-02
 -1.3284199871e-02
 -1.3171983883e-02
 -1.3059940189e-02
 -1.2948067859e-02
 -1.2836365961e-02
 -1.2724835426e-02
 -1.2613475323e-02
 -1.2502220459e-02
 -1.2390966527e-02
 -1.2279711664e-02
 -1.2168457732e-02
 -1.2057203799e-02
 -1.1945949867e-02
 -1.1834695935e-02
 -1.1723441072e-02
 -1.1612187140e-02
 -1.1500933208e-02
 -1.1389679275e-02
 -1.1278425343e-02
 -1.1167171411e-02
 -1.1055916548e-02
 -1.0944662616e-02
 -1.0833408684e-02
 -1.0722154751e-02
 -1.0610900819e-02
 -1.0499646887e-02
 -1.0388392024e-02
 -1.0277138092e-02
 -1.0165884160e-02
 -1.0054630227e-02
 -9.9433762953e-03
 -9.8321214318e-03
 -9.7208674997e-03
 -9.6096135676e-03
 -9.4983596355e-03
 -9.3871057034e-03
 -9.2758517712e-03
 -9.1645969078e-03
 -9.0533429757e-03
 -8.9420890436e-03
 -8.8308351114e-03
 -8.7195811793e-03
 -8.6083263159e-03
 -8.4970723838e-03
 -8.3858184516e-03
 -8.2745645195e-03
 -8.1633105874e-03
 -8.0520566553e-03
 -7.9408017918e-03
 -7.8295478597e-03
 -7.7182939276e-03
 -7.6070399955e-03
 -7.4957855977e-03
 -7.3845316656e-03
 -7.2732777335e-03
 -7.1620233357e-03
 -7.0507694036e-03
 -6.9395154715e-03
 -6.8282610737e-03
 -6.7170071416e-03
 -6.6057532094e-03
 -6.4944988117e-03
 -6.3832448795e-03
 -6.2719904818e-03
 -6.1607365496e-03
 -6.0494826175e-03
 -5.9382282197e-03
 -5.8269742876e-03
 -5.7157203555e-03
 -5.6044659577e-03
 -5.4932120256e-03
 -5.3819580935e-03
 -5.2707036957e-03
 -5.1594497636e-03
 -5.0481958315e-03
 -4.9369414337e-03
 -4.8256875016e-03
 -4.7144331038e-03
 -4.6031791717e-03
 -4.4919252396e-03
 -4.3806708418e-03
 -4.2694169097e-03
 -4.1581629775e-03
 -4.0469085798e-03
 -3.9356546476e-03
 -3.8244004827e-03
 -3.7131463178e-03
 -3.6018923856e-03
 -3.4906382207e-03
 -3.3793840557e-03
 -3.2681301236e-03
 -3.1568759587e-03
 -3.0456217937e-03
 -2.9343676288e-03
 -2.8231136966e-03
 -2.7118595317e-03
 -2.6006053668e-03
 -2.4893514346e-03
 -2.3780972697e-03
 -2.2668431047e-03
 -2.1555889398e-03
 -2.0443350077e-03
 -1.9330808427e-03
 -1.8218267942e-03
 -1.7105726292e-03
 -1.5993185807e-03
 -1.4880644158e-03
 -1.3768103672e-03
 -1.2655562023e-03
 -1.1543021537e-03
 -1.0430481052e-03
 -9.3179394025e-04
 -8.2053989172e-04
 -7.0928578498e-04
 -5.9803167824e-04
 -4.8677757150e-04
 -3.7552346475e-04
 -2.6426935801e-04
 -1.5301526582e-04
 -4.1761173634e-05
 6.9492925832e-05
 1.8074702530e-04
 2.9200111749e-04
 4.0325522423e-04
 5.1450933097e-04
 6.2576343771e-04
 7.3701748624e-04
 8.4827159299e-04
 9.5952569973e-04
 1.0707798647e-03
 1.1820339132e-03
 1.2932879617e-03
 1.4045421267e-03
 1.5157961752e-03
 1.6270503402e-03
 1.7383043887e-03
 1.8495585537e-03
 1.9608126022e-03
 2.0720667671e-03
 2.1833206993e-03
 2.2945748642e-03
 2.4058290292e-03
 2.5170831941e-03
 2.6283371262e-03
 2.7395912912e-03
 2.8508454561e-03
 2.9620993882e-03
 3.0733535532e-03
 3.1846077181e-03
 3.2958618831e-03
 3.4071158152e-03
 3.5183699802e-03
 3.6296241451e-03
 3.7408780772e-03
 3.8521322422e-03
 3.9633861743e-03
 4.0746405721e-03
 4.1858945042e-03
 4.2971484363e-03
 4.4084028341e-03
 4.5196567662e-03
 4.6309111640e-03
 4.7421650961e-03
 4.8534190282e-03
 4.9646734260e-03
 5.0759273581e-03
 5.1871812902e-03
 5.2984356880e-03
 5.4096896201e-03
 5.5209435523e-03
 5.6321979500e-03
 5.7434518822e-03
 5.8547058143e-03
 5.9659602121e-03
 6.0772141442e-03
 6.1884685419e-03
 6.2997224741e-03
 6.4109764062e-03
 6.5222308040e-03
 6.6334847361e-03
 6.7447386682e-03
 6.8559930660e-03
 6.9672469981e-03
 7.0785009302e-03
 7.1897553280e-03
 7.3010092601e-03
 7.4122636579e-03
 7.5235175900e-03
 7.6347715221e-03
 7.7460259199e-03
 7.8572798520e-03
 7.9685337842e-03
 8.0797877163e-03
 8.1910425797e-03
 8.3022965118e-03
 8.4135504439e-03
 8.5248043761e-03
 8.6360583082e-03
 8.7473122403e-03
 8.8585671037e-03
 8.9698210359e-03
 9.0810749680e-03
 9.1923289001e-03
 9.3035828322e-03
 9.4148367643e-03
 9.5260916278e-03
 9.6373455599e-03
 9.7485994920e-03
 9.8598534241e-03
 9.9711073563e-03
 1.0082362220e-02
 1.0193616152e-02
 1.0304870084e-02
 1.0416124016e-02
 1.0527377948e-02
 1.0638631880e-02
 1.0749886744e-02
 1.0861140676e-02
 1.0972394608e-02
 1.1083648540e-02
 1.1194902472e-02
 1.1306157336e-02
 1.1417411268e-02
 1.1528665200e-02
 1.1639919132e-02
 1.1751173064e-02
 1.1862426996e-02
 1.1973681860e-02
 1.2084935792e-02
 1.2196189724e-02
 1.2307443656e-02
 1.2418697588e-02
 1.2529951520e-02
 1.2641217560e-02
 1.2752620503e-02
 1.2864192948e-02
 1.2975937687e-02
 1.3087852858e-02
 1.3199939393e-02
 1.3312198222e-02
 1.3424628414e-02
 1.3537230901e-02
 1.3650006615e-02
 1.3762954623e-02
 1.3876075856e-02
 1.3989370316e-02
 1.4102838002e-02
 1.4216479845e-02
 1.4330295846e-02
 1.4444286004e-02
 1.4558451250e-02
 1.4672791585e-02
 1.4787306078e-02
 1.4901996590e-02
 1.5016863123e-02
 1.5131905675e-02
 1.5247124247e-02
 1.5362519771e-02
 1.5478091314e-02
 1.5593840741e-02
 1.5709767118e-02
 1.5825871378e-02
 1.5942152590e-02
 1.6058612615e-02
 1.6175251454e-02
 1.6292069107e-02
 1.6409063712e-02
 1.6526240855e-02
 1.6643594950e-02
 1.6761129722e-02
 1.6878845170e-02
 1.6996739432e-02
 1.7114816234e-02
 1.7233071849e-02
 1.7351510003e-02
 1.7470130697e-02
 1.7588932067e-02
 1.7707914114e-02
 1.7827080563e-02
 1.7946427688e-02
 1.8065959215e-02
 1.8185673282e-02
 1.8305569887e-02
 1.8425652757e-02
 1.8545916304e-02
 1.8666366115e-02
 1.8787000328e-02
 1.8907818943e-02
 1.9028823823e-02
 1.9150013104e-02
 1.9271388650e-02
 1.9392948598e-02
 1.9514696673e-02
 1.9636631012e-02
 1.9758751616e-02
 1.9881058484e-02
 2.0003553480e-02
 2.0126236603e-02
 2.0249107853e-02
 2.0372167230e-02
 2.0495414734e-02
 2.0618850365e-02
 2.0742475986e-02
 2.0866291597e-02
 2.0990295336e-02
 2.1114490926e-02
 2.1238876507e-02
 2.1363452077e-02
 2.1488217637e-02
 2.1613175049e-02
 2.1738324314e-02
 2.1863665432e-02
 2.1989198402e-02
 2.2114923224e-02
 2.2240841761e-02
 2.2366952151e-02
 2.2493256256e-02
 2.2619754076e-02
 2.2746445611e-02
 2.2873330861e-02
 2.3000409827e-02
 2.3127684370e-02
 2.3255154490e-02
 2.3382820189e-02
 2.3510679603e-02
 2.3638736457e-02
 2.3766988888e-02
 2.3895438761e-02
 2.4024084210e-02
 2.4152927101e-02
 2.4281967431e-02
 2.4411205202e-02
 2.4540642276e-02
 2.4670276791e-02
 2.4800110608e-02
 2.4930141866e-02
 2.5060372427e-02
 2.5190804154e-02
 2.5321435183e-02
 2.5452265516e-02
 2.5583297014e-02
 2.5714529678e-02
 2.5845961645e-02
 2.5977596641e-02
 2.6109432802e-02
 2.6241470128e-02
 2.6373710483e-02
 2.6506153867e-02
 2.6638800278e-02
 2.6771649718e-02
 2.6904702187e-02
 2.7037959546e-02
 2.7171419933e-02
 2.7305085212e-02
 2.7438955382e-02
 2.7573030442e-02
 2.7707312256e-02
 2.7841797099e-02
 2.7976490557e-02
 2.8111388907e-02
 2.8246494010e-02
 2.8381807730e-02
 2.8517326340e-02
 2.8653055429e-02
 2.8788989410e-02
 2.8925133869e-02
 2.9061486945e-02
 2.9198046774e-02
 2.9334818944e-02
 2.9471797869e-02
 2.9608987272e-02
 2.9746389017e-02
 2.9883999377e-02
 3.0021820217e-02
 3.0159853399e-02
 3.0298097059e-02
 3.0436553061e-02
 3.0575221404e-02
 3.0714102089e-02
 3.0853195116e-02
 3.0992502347e-02
 3.1132021919e-02
 3.1271755695e-02
 3.1411703676e-02
 3.1551863998e-02
 3.1692244112e-02
 3.1832832843e-02
 3.1973641366e-02
 3.2114665955e-02
 3.2255902886e-02
 3.2397359610e-02
 3.2539032400e-02
 3.2680921257e-02
 3.2823029906e-02
 3.2965354621e-02
 3.3107895404e-02
 3.3250655979e-02
 3.3393636346e-02
 3.3536836505e-02
 3.3680256456e-02
 3.3823892474e-02
 3.3967752010e-02
 3.4111827612e-02
 3.4256130457e-02
 3.4400649369e-02
 3.4545391798e-02
 3.4690354019e-02
 3.4835539758e-02
 3.4980949014e-02
 3.5126578063e-02
 3.5272434354e-02
 3.5418510437e-02
 3.5564813763e-02
 3.5711336881e-02
 3.5858087242e-02
 3.6005064845e-02
 3.6152262241e-02
 3.6299690604e-02
 3.6447338760e-02
 3.6595217884e-02
 3.6743324250e-02
 3.6891654134e-02
 3.7040211260e-02
 3.7188999355e-02
 3.7338010967e-02
 3.7487253547e-02
 3.7636727095e-02
 3.7786427885e-02
 3.7936355919e-02
 3.8086514920e-02
 3.8236904889e-02
 3.8387522101e-02
 3.8538374007e-02
 3.8689456880e-02
 3.8840770721e-02
 3.8992315531e-02
 3.9144091308e-02
 3.9296101779e-02
 3.9448343217e-02
 3.9600819349e-02
 3.9753530174e-02
 3.9906471968e-02
 4.0059648454e-02
 4.0213063359e-02
 4.0366709232e-02
 4.0520593524e-02
 4.0674712509e-02
 4.0829066187e-02
 4.0983658284e-02
 4.1138485074e-02
 4.1293550283e-02
 4.1448853910e-02
 4.1604395956e-02
 4.1760172695e-02
 4.1916191578e-02
 4.2072448879e-02
 4.2228944600e-02
 4.2385682464e-02
 4.2542658746e-02
 4.2699877173e-02
 4.2857334018e-02
 4.3015033007e-02
 4.3172974139e-02
 4.3331157416e-02
 4.3489579111e-02
 4.3648246676e-02
 4.3807160109e-02
 4.3966311961e-02
 4.4125713408e-02
 4.4285353273e-02
 4.4445242733e-02
 4.4605374336e-02
 4.4765751809e-02
 4.4926375151e-02
 4.5087244362e-02
 4.5248359442e-02
 4.5409720391e-02
 4.5571330935e-02
 4.5733187348e-02
 4.5895293355e-02
 4.6057648957e-02
 4.6220250428e-02
 4.6383101493e-02
 4.6546202153e-02
 4.6709552407e-02
 4.6873155981e-02
 4.7037005424e-02
 4.7201108187e-02
 4.7365464270e-02
 4.7530069947e-02
 4.7694928944e-02
 4.7860041261e-02
 4.8025403172e-02
 4.8191022128e-02
 4.8356894404e-02
 4.8523019999e-02
 4.8689398915e-02
 4.8856034875e-02
 4.9022924155e-02
 4.9190070480e-02
 4.9357470125e-02
 4.9525130540e-02
 4.9693044275e-02
 4.9861218780e-02
 5.0029646605e-02
 5.0198335201e-02
 5.0367284566e-02
 5.0536487252e-02
 5.0705954432e-02
 5.0875678658e-02
 5.1045663655e-02
 5.1215909421e-02
 5.1386412233e-02
 5.1557179540e-02
 5.1728211343e-02
 5.1899500191e-02
 5.2071053535e-02
 5.2242871374e-02
 5.2414949983e-02
 5.2587293088e-02
 5.2759900689e-02
 5.2932772785e-02
 5.3105905652e-02
 5.3279310465e-02
 5.3452976048e-02
 5.3626909852e-02
 5.3801111877e-02
 5.3975578398e-02
 5.4150309414e-02
 5.4325312376e-02
 5.4500583559e-02
 5.4676122963e-02
 5.4851930588e-02
 5.5028006434e-02
 5.5204354227e-02
 5.5380970240e-02
 5.5557858199e-02
 5.5735014379e-02
 5.5912446231e-02
 5.6090146303e-02
 5.6268122047e-02
 5.6446369737e-02
 5.6624889374e-02
 5.6803680956e-02
 5.6982748210e-02
 5.7162091136e-02
 5.7341709733e-02
 5.7521600276e-02
 5.7701766491e-02
 5.7882212102e-02
 5.8062929660e-02
 5.8243926615e-02
 5.8425202966e-02
 5.8606754988e-02
 5.8788582683e-02
 5.8970693499e-02
 5.9153079987e-02
 5.9335745871e-02
 5.9518694878e-02
 5.9701919556e-02
 5.9885427356e-02
 6.0069218278e-02
 6.0253288597e-02
 6.0437642038e-02
 6.0622278601e-02
 6.0807194561e-02
 6.0992397368e-02
 6.1177883297e-02
 6.1363652349e-02
 6.1549704522e-02
 6.1736043543e-02
 6.1922669411e-02
 6.2109578401e-02
 6.2296777964e-02
 6.2484260648e-02
 6.2672033906e-02
 6.2860094011e-02
 6.3048437238e-02
 6.3237071037e-02
 6.3425995409e-02
 6.3615210354e-02
 6.3804715872e-02
 6.3994511962e-02
 6.4184591174e-02
 6.4374968410e-02
 6.4565636218e-02
 6.4756602049e-02
 6.4947851002e-02
 6.5139397979e-02
 6.5331235528e-02
 6.5523371100e-02
 6.5715797246e-02
 6.5908521414e-02
 6.6101536155e-02
 6.6294848919e-02
 6.6488459706e-02
 6.6682368517e-02
 6.6876567900e-02
 6.7071072757e-02
 6.7265868187e-02
 6.7460969090e-02
 6.7656360567e-02
 6.7852057517e-02
 6.8048052490e-02
 6.8244352937e-02
 6.8440943956e-02
 6.8637847900e-02
 6.8835042417e-02
 6.9032549858e-02
 6.9230347872e-02
 6.9428458810e-02
 6.9626867771e-02
 6.9825582206e-02
 7.0024602115e-02
 7.0223927498e-02
 7.0423558354e-02
 7.0623494685e-02
 7.0823736489e-02
 7.1024283767e-02
 7.1225136518e-02
 7.1426302195e-02
 7.1627773345e-02
 7.1829557419e-02
 7.2031646967e-02
 7.2234041989e-02
 7.2436757386e-02
 7.2639770806e-02
 7.2843104601e-02
 7.3046751320e-02
 7.3250703514e-02
 7.3454968631e-02
 7.3659546673e-02
 7.3864445090e-02
 7.4069648981e-02
 7.4275173247e-02
 7.4481010437e-02
 7.4687160552e-02
 7.4893631041e-02
 7.5100414455e-02
 7.5307518244e-02
 7.5514934957e-02
 7.5722672045e-02
 7.5930729508e-02
 7.6139099896e-02
 7.6347790658e-02
 7.6556801796e-02
 7.6766140759e-02
 7.6975792646e-02
 7.7185764909e-02
 7.7396064997e-02
 7.7606678009e-02
 7.7817626297e-02
 7.8028887510e-02
 7.8240476549e-02
 7.8452385962e-02
 7.8664623201e-02
 7.8877188265e-02
 7.9090073705e-02
 7.9303286970e-02
 7.9516828060e-02
 7.9730696976e-02
 7.9944893718e-02
 8.0159418285e-02
 8.0374270678e-02
 8.0589450896e-02
 8.0804966390e-02
 8.1020809710e-02
 8.1236980855e-02
 8.1453479826e-02
 8.1670321524e-02
 8.1887483597e-02
 8.2104988396e-02
 8.2322821021e-02
 8.2540988922e-02
 8.2759492099e-02
 8.2978323102e-02
 8.3197496831e-02
 8.3417005837e-02
 8.3636850119e-02
 8.3857029676e-02
 8.4077544510e-02
 8.4298402071e-02
 8.4519594908e-02
 8.4741130471e-02
 8.4963001311e-02
 8.5185214877e-02
 8.5407771170e-02
 8.5630662739e-02
 8.5853897035e-02
 8.6077474058e-02
 8.6301393807e-02
 8.6525663733e-02
 8.6750268936e-02
 8.6975216866e-02
 8.7200514972e-02
 8.7426155806e-02
 8.7652139366e-02
 8.7878473103e-02
 8.8105157018e-02
 8.8332183659e-02
 8.8559553027e-02
 8.8787280023e-02
 8.9015349746e-02
 8.9243769646e-02
 8.9472547174e-02
 8.9701667428e-02
 8.9931137860e-02
 9.0160965919e-02
 9.0391144156e-02
 9.0621672571e-02
 9.0852551162e-02
 9.1083787382e-02
 9.1315381229e-02
 9.1547325253e-02
 9.1779626906e-02
 9.2012286186e-02
 9.2245295644e-02
 9.2478670180e-02
 9.2712394893e-02
 9.2946484685e-02
 9.3180924654e-02
 9.3415729702e-02
 9.3650892377e-02
 9.3886420131e-02
 9.4122305512e-02
 9.4358548522e-02
 9.4595156610e-02
 9.4832129776e-02
 9.5069460571e-02
 9.5307163894e-02
 9.5545224845e-02
 9.5783650875e-02
 9.6022441983e-02
 9.6261598170e-02
 9.6501119435e-02
 9.6741013229e-02
 9.6981272101e-02
 9.7221896052e-02
 9.7462892532e-02
 9.7704261541e-02
 9.7945995629e-02
 9.8188102245e-02
 9.8430573940e-02
 9.8673425615e-02
 9.8916642368e-02
 9.9160231650e-02
 9.9404200912e-02
 9.9648535252e-02
 9.9893249571e-02
 1.0013834387e-01
 1.0038380325e-01
 1.0062964261e-01
 1.0087586194e-01
 1.0112245381e-01
 1.0136942565e-01
 1.0161677748e-01
 1.0186450928e-01
 1.0211261362e-01
 1.0236110538e-01
 1.0260997713e-01
 1.0285922885e-01
 1.0310886055e-01
 1.0335887223e-01
 1.0360927135e-01
 1.0386005789e-01
 1.0411121696e-01
 1.0436277092e-01
 1.0461470485e-01
 1.0486703366e-01
 1.0511974245e-01
 1.0537283868e-01
 1.0562632233e-01
 1.0588019341e-01
 1.0613445193e-01
 1.0638910532e-01
 1.0664414614e-01
 1.0689958185e-01
 1.0715540498e-01
 1.0741161555e-01
 1.0766822845e-01
 1.0792522877e-01
 1.0818262398e-01
 1.0844041407e-01
 1.0869859904e-01
 1.0895717889e-01
 1.0921615362e-01
 1.0947552323e-01
 1.0973529518e-01
 1.0999546200e-01
 1.1025603116e-01
 1.1051699519e-01
 1.1077836156e-01
 1.1104013026e-01
 1.1130229384e-01
 1.1156486720e-01
 1.1182783544e-01
 1.1209121346e-01
 1.1235499382e-01
 1.1261916906e-01
 1.1288376153e-01
 1.1314874887e-01
 1.1341415346e-01
 1.1367995292e-01
 1.1394616961e-01
 1.1421278864e-01
 1.1447981745e-01
 1.1474725604e-01
 1.1501510441e-01
 1.1528336257e-01
 1.1555203050e-01
 1.1582110822e-01
 1.1609060317e-01
 1.1636050791e-01
 1.1663082987e-01
 1.1690156162e-01
 1.1717271060e-01
 1.1744426936e-01
 1.1771625280e-01
 1.1798864603e-01
 1.1826146394e-01
 1.1853469163e-01
 1.1880834401e-01
 1.1908241361e-01
 1.1935690790e-01
 1.1963181943e-01
 1.1990714818e-01
 1.2018290162e-01
 1.2045907974e-01
 1.2073567510e-01
 1.2101270258e-01
 1.2129014730e-01
 1.2156801671e-01
 1.2184631824e-01
 1.2212504447e-01
 1.2240419537e-01
 1.2268377095e-01
 1.2296377867e-01
 1.2324421853e-01
 1.2352508307e-01
 1.2380637974e-01
 1.2408810854e-01
 1.2437026948e-01
 1.2465286255e-01
 1.2493588775e-01
 1.2521934509e-01
 1.2550324202e-01
 1.2578755617e-01
 1.2607233226e-01
 1.2635752559e-01
 1.2664316595e-01
 1.2692923844e-01
 1.2721574306e-01
 1.2750269473e-01
 1.2779009342e-01
 1.2807792425e-01
 1.2836620212e-01
 1.2865491211e-01
 1.2894406915e-01
 1.2923367321e-01
 1.2952370942e-01
 1.2981419265e-01
 1.3010513783e-01
 1.3039651513e-01
 1.3068833947e-01
 1.3098061085e-01
 1.3127332926e-01
 1.3156649470e-01
 1.3186010718e-01
 1.3215418160e-01
 1.3244870305e-01
 1.3274367154e-01
 1.3303908706e-01
 1.3333496451e-01
 1.3363128901e-01
 1.3392807543e-01
 1.3422530890e-01
 1.3452300429e-01
 1.3482114673e-01
 1.3511975110e-01
 1.3541881740e-01
 1.3571833074e-01
 1.3601830602e-01
 1.3631875813e-01
 1.3661965728e-01
 1.3692100346e-01
 1.3722282648e-01
 1.3752511144e-01
 1.3782785833e-01
 1.3813108206e-01
 1.3843475282e-01
 1.3873888552e-01
 1.3904349506e-01
 1.3934856653e-01
 1.3965411484e-01
 1.3996012509e-01
 1.4026659727e-01
 1.4057354629e-01
 1.4088097215e-01
 1.4118885994e-01
 1.4149722457e-01
 1.4180605114e-01
 1.4211535454e-01
 1.4242513478e-01
 1.4273539186e-01
 1.4304612577e-01
 1.4335733652e-01
 1.4366900921e-01
 1.4398117363e-01
 1.4429381490e-01
