aces_1.2/luts/Dolby_PQ_108_nits_Shaper_to_linear.spi1d
Version 1
From 0.0 1.0
Length 4096
Components 3
{
 4.3945314246e-05 4.3945314246e-05 4.3945314246e-05
 4.3962292693e-05 4.3962292693e-05 4.3962292693e-05
 4.4002306822e-05 4.4002306822e-05 4.4002306822e-05
 4.4059393986e-05 4.4059393986e-05 4.4059393986e-05
 4.4131353206e-05 4.4131353206e-05 4.4131353206e-05
 4.4216943934e-05 4.4216943934e-05 4.4216943934e-05
 4.4315380364e-05 4.4315380364e-05 4.4315380364e-05
 4.4426116801e-05 4.4426116801e-05 4.4426116801e-05
 4.4548731239e-05 4.4548731239e-05 4.4548731239e-05
 4.4682921725e-05 4.4682921725e-05 4.4682921725e-05
 4.4828448154e-05 4.4828448154e-05 4.4828448154e-05
 4.4985121349e-05 4.4985121349e-05 4.4985121349e-05
 4.5152784878e-05 4.5152784878e-05 4.5152784878e-05
 4.5331315050e-05 4.5331315050e-05 4.5331315050e-05
 4.5520606363e-05 4.5520606363e-05 4.5520606363e-05
 4.5720586058e-05 4.5720586058e-05 4.5720586058e-05
 4.5931188652e-05 4.5931188652e-05 4.5931188652e-05
 4.6152374125e-05 4.6152374125e-05 4.6152374125e-05
 4.6384084271e-05 4.6384084271e-05 4.6384084271e-05
 4.6626289986e-05 4.6626289986e-05 4.6626289986e-05
 4.6878973080e-05 4.6878973080e-05 4.6878973080e-05
 4.7142126277e-05 4.7142126277e-05 4.7142126277e-05
 4.7415735025e-05 4.7415735025e-05 4.7415735025e-05
 4.7699781135e-05 4.7699781135e-05 4.7699781135e-05
 4.7994242777e-05 4.7994242777e-05 4.7994242777e-05
 4.8299192713e-05 4.8299192713e-05 4.8299192713e-05
 4.8614601837e-05 4.8614601837e-05 4.8614601837e-05
 4.8940444685e-05 4.8940444685e-05 4.8940444685e-05
 4.9276830396e-05 4.9276830396e-05 4.9276830396e-05
 4.9623664381e-05 4.9623664381e-05 4.9623664381e-05
 4.9981095799e-05 4.9981095799e-05 4.9981095799e-05
 5.0349015510e-05 5.0349015510e-05 5.0349015510e-05
 5.0727499911e-05 5.0727499911e-05 5.0727499911e-05
 5.1116556278e-05 5.1116556278e-05 5.1116556278e-05
 5.1516246458e-05 5.1516246458e-05 5.1516246458e-05
 5.1926668675e-05 5.1926668675e-05 5.1926668675e-05
 5.2347706514e-05 5.2347706514e-05 5.2347706514e-05
 5.2779501857e-05 5.2779501857e-05 5.2779501857e-05
 5.3221952840e-05 5.3221952840e-05 5.3221952840e-05
 5.3675335948e-05 5.3675335948e-05 5.3675335948e-05
 5.4139418353e-05 5.4139418353e-05 5.4139418353e-05
 5.4614436522e-05 5.4614436522e-05 5.4614436522e-05
 5.5100328609e-05 5.5100328609e-05 5.5100328609e-05
 5.5597214669e-05 5.5597214669e-05 5.5597214669e-05
 5.6105047406e-05 5.6105047406e-05 5.6105047406e-05
 5.6623743149e-05 5.6623743149e-05 5.6623743149e-05
 5.7153691159e-05 5.7153691159e-05 5.7153691159e-05
 5.7694669522e-05 5.7694669522e-05 5.7694669522e-05
 5.8246761910e-05 5.8246761910e-05 5.8246761910e-05
 5.8810255723e-05 5.8810255723e-05 5.8810255723e-05
 5.9384670749e-05 5.9384670749e-05 5.9384670749e-05
 5.9970669099e-05 5.9970669099e-05 5.9970669099e-05
 6.0567916080e-05 6.0567916080e-05 6.0567916080e-05
 6.1176324380e-05 6.1176324380e-05 6.1176324380e-05
 6.1796432419e-05 6.1796432419e-05 6.1796432419e-05
 6.2427759985e-05 6.2427759985e-05 6.2427759985e-05
 6.3070925535e-05 6.3070925535e-05 6.3070925535e-05
 6.3725434302e-05 6.3725434302e-05 6.3725434302e-05
 6.4391540946e-05 6.4391540946e-05 6.4391540946e-05
 6.5069361881e-05 6.5069361881e-05 6.5069361881e-05
 6.5758853452e-05 6.5758853452e-05 6.5758853452e-05
 6.6460139351e-05 6.6460139351e-05 6.6460139351e-05
 6.7173350544e-05 6.7173350544e-05 6.7173350544e-05
 6.7898399720e-05 6.7898399720e-05 6.7898399720e-05
 6.8635301432e-05 6.8635301432e-05 6.8635301432e-05
 6.9384259405e-05 6.9384259405e-05 6.9384259405e-05
 7.0145149948e-05 7.0145149948e-05 7.0145149948e-05
 7.0918307756e-05 7.0918307756e-05 7.0918307756e-05
 7.1703230788e-05 7.1703230788e-05 7.1703230788e-05
 7.2500813985e-05 7.2500813985e-05 7.2500813985e-05
 7.3310380685e-05 7.3310380685e-05 7.3310380685e-05
 7.4132236477e-05 7.4132236477e-05 7.4132236477e-05
 7.4966432294e-05 7.4966432294e-05 7.4966432294e-05
 7.5813266449e-05 7.5813266449e-05 7.5813266449e-05
 7.6672120485e-05 7.6672120485e-05 7.6672120485e-05
 7.7543998486e-05 7.7543998486e-05 7.7543998486e-05
 7.8427910921e-05 7.8427910921e-05 7.8427910921e-05
 7.9324992839e-05 7.9324992839e-05 7.9324992839e-05
 8.0234603956e-05 8.0234603956e-05 8.0234603956e-05
 8.1156598753e-05 8.1156598753e-05 8.1156598753e-05
 8.2091690274e-05 8.2091690274e-05 8.2091690274e-05
 8.3039776655e-05 8.3039776655e-05 8.3039776655e-05
 8.4000166680e-05 8.4000166680e-05 8.4000166680e-05
 8.4974220954e-05 8.4974220954e-05 8.4974220954e-05
 8.5961321020e-05 8.5961321020e-05 8.5961321020e-05
 8.6960724730e-05 8.6960724730e-05 8.6960724730e-05
 8.7973930931e-05 8.7973930931e-05 8.7973930931e-05
 8.9000095613e-05 8.9000095613e-05 8.9000095613e-05
 9.0039815404e-05 9.0039815404e-05 9.0039815404e-05
 9.1093068477e-05 9.1093068477e-05 9.1093068477e-05
 9.2158901680e-05 9.2158901680e-05 9.2158901680e-05
 9.3238370027e-05 9.3238370027e-05 9.3238370027e-05
 9.4332019216e-05 9.4332019216e-05 9.4332019216e-05
 9.5438641438e-05 9.5438641438e-05 9.5438641438e-05
 9.6559051599e-05 9.6559051599e-05 9.6559051599e-05
 9.7693424323e-05 9.7693424323e-05 9.7693424323e-05
 9.8840740975e-05 9.8840740975e-05 9.8840740975e-05
 1.0000243492e-04 1.0000243492e-04 1.0000243492e-04
 1.0117751663e-04 1.0117751663e-04 1.0117751663e-04
 1.0236744856e-04 1.0236744856e-04 1.0236744856e-04
 1.0357057909e-04 1.0357057909e-04 1.0357057909e-04
 1.0478826880e-04 1.0478826880e-04 1.0478826880e-04
 1.0602051771e-04 1.0602051771e-04 1.0602051771e-04
 1.0726556502e-04 1.0726556502e-04 1.0726556502e-04
 1.0852557898e-04 1.0852557898e-04 1.0852557898e-04
 1.0979989020e-04 1.0979989020e-04 1.0979989020e-04
 1.1108886974e-04 1.1108886974e-04 1.1108886974e-04
 1.1239204468e-04 1.1239204468e-04 1.1239204468e-04
 1.1370979337e-04 1.1370979337e-04 1.1370979337e-04
 1.1504132999e-04 1.1504132999e-04 1.1504132999e-04
 1.1638820433e-04 1.1638820433e-04 1.1638820433e-04
 1.1775048188e-04 1.1775048188e-04 1.1775048188e-04
 1.1912606715e-04 1.1912606715e-04 1.1912606715e-04
 1.2051764497e-04 1.2051764497e-04 1.2051764497e-04
 1.2192333816e-04 1.2192333816e-04 1.2192333816e-04
 1.2334407074e-04 1.2334407074e-04 1.2334407074e-04
 1.2477973360e-04 1.2477973360e-04 1.2477973360e-04
 1.2623114162e-04 1.2623114162e-04 1.2623114162e-04
 1.2769721798e-04 1.2769721798e-04 1.2769721798e-04
 1.2917796266e-04 1.2917796266e-04 1.2917796266e-04
 1.3067541295e-04 1.3067541295e-04 1.3067541295e-04
 1.3218729873e-04 1.3218729873e-04 1.3218729873e-04
 1.3371426030e-04 1.3371426030e-04 1.3371426030e-04
 1.3525696704e-04 1.3525696704e-04 1.3525696704e-04
 1.3681588462e-04 1.3681588462e-04 1.3681588462e-04
 1.3838997984e-04 1.3838997984e-04 1.3838997984e-04
 1.3997917995e-04 1.3997917995e-04 1.3997917995e-04
 1.4158478007e-04 1.4158478007e-04 1.4158478007e-04
 1.4320635819e-04 1.4320635819e-04 1.4320635819e-04
 1.4484283747e-04 1.4484283747e-04 1.4484283747e-04
 1.4649669174e-04 1.4649669174e-04 1.4649669174e-04
 1.4816646581e-04 1.4816646581e-04 1.4816646581e-04
 1.4985073358e-04 1.4985073358e-04 1.4985073358e-04
 1.5155193978e-04 1.5155193978e-04 1.5155193978e-04
 1.5326938592e-04 1.5326938592e-04 1.5326938592e-04
 1.5500353766e-04 1.5500353766e-04 1.5500353766e-04
 1.5675299801e-04 1.5675299801e-04 1.5675299801e-04
 1.5852002252e-04 1.5852002252e-04 1.5852002252e-04
 1.6030347615e-04 1.6030347615e-04 1.6030347615e-04
 1.6210250033e-04 1.6210250033e-04 1.6210250033e-04
 1.6391951067e-04 1.6391951067e-04 1.6391951067e-04
 1.6575187328e-04 1.6575187328e-04 1.6575187328e-04
 1.6760251310e-04 1.6760251310e-04 1.6760251310e-04
 1.6946805408e-04 1.6946805408e-04 1.6946805408e-04
 1.7135169765e-04 1.7135169765e-04 1.7135169765e-04
 1.7325377848e-04 1.7325377848e-04 1.7325377848e-04
 1.7517038214e-04 1.7517038214e-04 1.7517038214e-04
 1.7710472457e-04 1.7710472457e-04 1.7710472457e-04
 1.7905722780e-04 1.7905722780e-04 1.7905722780e-04
 1.8102594186e-04 1.8102594186e-04 1.8102594186e-04
 1.8301438831e-04 1.8301438831e-04 1.8301438831e-04
 1.8501703744e-04 1.8501703744e-04 1.8501703744e-04
 1.8703924434e-04 1.8703924434e-04 1.8703924434e-04
 1.8907719641e-04 1.8907719641e-04 1.8907719641e-04
 1.9113492453e-04 1.9113492453e-04 1.9113492453e-04
 1.9321023137e-04 1.9321023137e-04 1.9321023137e-04
 1.9530129794e-04 1.9530129794e-04 1.9530129794e-04
 1.9741192227e-04 1.9741192227e-04 1.9741192227e-04
 1.9953976152e-04 1.9953976152e-04 1.9953976152e-04
 2.0168499032e-04 2.0168499032e-04 2.0168499032e-04
 2.0385226526e-04 2.0385226526e-04 2.0385226526e-04
 2.0603218582e-04 2.0603218582e-04 2.0603218582e-04
 2.0823386149e-04 2.0823386149e-04 2.0823386149e-04
 2.1045272297e-04 2.1045272297e-04 2.1045272297e-04
 2.1269058925e-04 2.1269058925e-04 2.1269058925e-04
 2.1494591783e-04 2.1494591783e-04 2.1494591783e-04
 2.1721790836e-04 2.1721790836e-04 2.1721790836e-04
 2.1951149392e-04 2.1951149392e-04 2.1951149392e-04
 2.2182449175e-04 2.2182449175e-04 2.2182449175e-04
 2.2415435524e-04 2.2415435524e-04 2.2415435524e-04
 2.2650338360e-04 2.2650338360e-04 2.2650338360e-04
 2.2887159139e-04 2.2887159139e-04 2.2887159139e-04
 2.3125809093e-04 2.3125809093e-04 2.3125809093e-04
 2.3366416281e-04 2.3366416281e-04 2.3366416281e-04
 2.3608969059e-04 2.3608969059e-04 2.3608969059e-04
 2.3853329185e-04 2.3853329185e-04 2.3853329185e-04
 2.4099883740e-04 2.4099883740e-04 2.4099883740e-04
 2.4348088482e-04 2.4348088482e-04 2.4348088482e-04
 2.4598411983e-04 2.4598411983e-04 2.4598411983e-04
 2.4850573391e-04 2.4850573391e-04 2.4850573391e-04
 2.5104972883e-04 2.5104972883e-04 2.5104972883e-04
 2.5360897416e-04 2.5360897416e-04 2.5360897416e-04
 2.5618984364e-04 2.5618984364e-04 2.5618984364e-04
 2.5879224995e-04 2.5879224995e-04 2.5879224995e-04
 2.6141328271e-04 2.6141328271e-04 2.6141328271e-04
 2.6405561948e-04 2.6405561948e-04 2.6405561948e-04
 2.6671274099e-04 2.6671274099e-04 2.6671274099e-04
 2.6939855888e-04 2.6939855888e-04 2.6939855888e-04
 2.7209881227e-04 2.7209881227e-04 2.7209881227e-04
 2.7482080623e-04 2.7482080623e-04 2.7482080623e-04
 2.7756410418e-04 2.7756410418e-04 2.7756410418e-04
 2.8032518458e-04 2.8032518458e-04 2.8032518458e-04
 2.8310791822e-04 2.8310791822e-04 2.8310791822e-04
 2.8591166483e-04 2.8591166483e-04 2.8591166483e-04
 2.8873700649e-04 2.8873700649e-04 2.8873700649e-04
 2.9158382677e-04 2.9158382677e-04 2.9158382677e-04
 2.9444805114e-04 2.9444805114e-04 2.9444805114e-04
 2.9733713018e-04 2.9733713018e-04 2.9733713018e-04
 3.0024407897e-04 3.0024407897e-04 3.0024407897e-04
 3.0317140045e-04 3.0317140045e-04 3.0317140045e-04
 3.0612444971e-04 3.0612444971e-04 3.0612444971e-04
 3.0909420457e-04 3.0909420457e-04 3.0909420457e-04
 3.1208957080e-04 3.1208957080e-04 3.1208957080e-04
 3.1510525150e-04 3.1510525150e-04 3.1510525150e-04
 3.1814258546e-04 3.1814258546e-04 3.1814258546e-04
 3.2120087417e-04 3.2120087417e-04 3.2120087417e-04
 3.2428005943e-04 3.2428005943e-04 3.2428005943e-04
 3.2737996662e-04 3.2737996662e-04 3.2737996662e-04
 3.3050449565e-04 3.3050449565e-04 3.3050449565e-04
 3.3365044510e-04 3.3365044510e-04 3.3365044510e-04
 3.3681694185e-04 3.3681694185e-04 3.3681694185e-04
 3.4000893356e-04 3.4000893356e-04 3.4000893356e-04
 3.4322147258e-04 3.4322147258e-04 3.4322147258e-04
 3.4645420965e-04 3.4645420965e-04 3.4645420965e-04
 3.4970795969e-04 3.4970795969e-04 3.4970795969e-04
 3.5299133742e-04 3.5299133742e-04 3.5299133742e-04
 3.5629066406e-04 3.5629066406e-04 3.5629066406e-04
 3.5961519461e-04 3.5961519461e-04 3.5961519461e-04
 3.6295957398e-04 3.6295957398e-04 3.6295957398e-04
 3.6633008858e-04 3.6633008858e-04 3.6633008858e-04
 3.6972487578e-04 3.6972487578e-04 3.6972487578e-04
 3.7314044312e-04 3.7314044312e-04 3.7314044312e-04
 3.7658121437e-04 3.7658121437e-04 3.7658121437e-04
 3.8004136877e-04 3.8004136877e-04 3.8004136877e-04
 3.8352760021e-04 3.8352760021e-04 3.8352760021e-04
 3.8703315658e-04 3.8703315658e-04 3.8703315658e-04
 3.9056490641e-04 3.9056490641e-04 3.9056490641e-04
 3.9412156912e-04 3.9412156912e-04 3.9412156912e-04
 3.9770221338e-04 3.9770221338e-04 3.9770221338e-04
 4.0130369598e-04 4.0130369598e-04 4.0130369598e-04
 4.0493032429e-04 4.0493032429e-04 4.0493032429e-04
 4.0858204011e-04 4.0858204011e-04 4.0858204011e-04
 4.1225313907e-04 4.1225313907e-04 4.1225313907e-04
 4.1595549555e-04 4.1595549555e-04 4.1595549555e-04
 4.1967729339e-04 4.1967729339e-04 4.1967729339e-04
 4.2342388770e-04 4.2342388770e-04 4.2342388770e-04
 4.2719539488e-04 4.2719539488e-04 4.2719539488e-04
 4.3099257164e-04 4.3099257164e-04 4.3099257164e-04
 4.3480878230e-04 4.3480878230e-04 4.3480878230e-04
 4.3865642510e-04 4.3865642510e-04 4.3865642510e-04
 4.4252892258e-04 4.4252892258e-04 4.4252892258e-04
 4.4642004650e-04 4.4642004650e-04 4.4642004650e-04
 4.5033672359e-04 4.5033672359e-04 4.5033672359e-04
 4.5428494923e-04 4.5428494923e-04 4.5428494923e-04
 4.5825156849e-04 4.5825156849e-04 4.5825156849e-04
 4.6225008555e-04 4.6225008555e-04 4.6225008555e-04
 4.6626647236e-04 4.6626647236e-04 4.6626647236e-04
 4.7030864516e-04 4.7030864516e-04 4.7030864516e-04
 4.7438225010e-04 4.7438225010e-04 4.7438225010e-04
 4.7847372480e-04 4.7847372480e-04 4.7847372480e-04
 4.8260478070e-04 4.8260478070e-04 4.8260478070e-04
 4.8674579011e-04 4.8674579011e-04 4.8674579011e-04
 4.9091997789e-04 4.9091997789e-04 4.9091997789e-04
 4.9511919497e-04 4.9511919497e-04 4.9511919497e-04
 4.9934239360e-04 4.9934239360e-04 4.9934239360e-04
 5.0359749002e-04 5.0359749002e-04 5.0359749002e-04
 5.0787080545e-04 5.0787080545e-04 5.0787080545e-04
 5.1217630971e-04 5.1217630971e-04 5.1217630971e-04
 5.1650684327e-04 5.1650684327e-04 5.1650684327e-04
 5.2086211508e-04 5.2086211508e-04 5.2086211508e-04
 5.2524969215e-04 5.2524969215e-04 5.2524969215e-04
 5.2965362556e-04 5.2965362556e-04 5.2965362556e-04
 5.3409085376e-04 5.3409085376e-04 5.3409085376e-04
 5.3855293663e-04 5.3855293663e-04 5.3855293663e-04
 5.4304709192e-04 5.4304709192e-04 5.4304709192e-04
 5.4755841848e-04 5.4755841848e-04 5.4755841848e-04
 5.5210216669e-04 5.5210216669e-04 5.5210216669e-04
 5.5667769630e-04 5.5667769630e-04 5.5667769630e-04
 5.6127947755e-04 5.6127947755e-04 5.6127947755e-04
 5.6589645101e-04 5.6589645101e-04 5.6589645101e-04
 5.7055498473e-04 5.7055498473e-04 5.7055498473e-04
 5.7523808209e-04 5.7523808209e-04 5.7523808209e-04
 5.7995493989e-04 5.7995493989e-04 5.7995493989e-04
 5.8468652423e-04 5.8468652423e-04 5.8468652423e-04
 5.8945163619e-04 5.8945163619e-04 5.8945163619e-04
 5.9424102074e-04 5.9424102074e-04 5.9424102074e-04
 5.9906259412e-04 5.9906259412e-04 5.9906259412e-04
 6.0391839361e-04 6.0391839361e-04 6.0391839361e-04
 6.0878955992e-04 6.0878955992e-04 6.0878955992e-04
 6.1370350886e-04 6.1370350886e-04 6.1370350886e-04
 6.1863055453e-04 6.1863055453e-04 6.1863055453e-04
 6.2360259471e-04 6.2360259471e-04 6.2360259471e-04
 6.2858726596e-04 6.2858726596e-04 6.2858726596e-04
 6.3360633794e-04 6.3360633794e-04 6.3360633794e-04
 6.3865946140e-04 6.3865946140e-04 6.3865946140e-04
 6.4373598434e-04 6.4373598434e-04 6.4373598434e-04
 6.4884673338e-04 6.4884673338e-04 6.4884673338e-04
 6.5399031155e-04 6.5399031155e-04 6.5399031155e-04
 6.5914751031e-04 6.5914751031e-04 6.5914751031e-04
 6.6435011104e-04 6.6435011104e-04 6.6435011104e-04
 6.6957424860e-04 6.6957424860e-04 6.6957424860e-04
 6.7483453313e-04 6.7483453313e-04 6.7483453313e-04
 6.8011751864e-04 6.8011751864e-04 6.8011751864e-04
 6.8543333327e-04 6.8543333327e-04 6.8543333327e-04
 6.9077353692e-04 6.9077353692e-04 6.9077353692e-04
 6.9614779204e-04 6.9614779204e-04 6.9614779204e-04
 7.0155697176e-04 7.0155697176e-04 7.0155697176e-04
 7.0699874777e-04 7.0699874777e-04 7.0699874777e-04
 7.1246467996e-04 7.1246467996e-04 7.1246467996e-04
 7.1795319673e-04 7.1795319673e-04 7.1795319673e-04
 7.2347582318e-04 7.2347582318e-04 7.2347582318e-04
 7.2904583067e-04 7.2904583067e-04 7.2904583067e-04
 7.3462503497e-04 7.3462503497e-04 7.3462503497e-04
 7.4025144568e-04 7.4025144568e-04 7.4025144568e-04
 7.4590026634e-04 7.4590026634e-04 7.4590026634e-04
 7.5158331310e-04 7.5158331310e-04 7.5158331310e-04
 7.5728981756e-04 7.5728981756e-04 7.5728981756e-04
 7.6304236427e-04 7.6304236427e-04 7.6304236427e-04
 7.6881842688e-04 7.6881842688e-04 7.6881842688e-04
 7.7461596811e-04 7.7461596811e-04 7.7461596811e-04
 7.8046129784e-04 7.8046129784e-04 7.8046129784e-04
 7.8633980593e-04 7.8633980593e-04 7.8633980593e-04
 7.9224153887e-04 7.9224153887e-04 7.9224153887e-04
 7.9816591460e-04 7.9816591460e-04 7.9816591460e-04
 8.0413703108e-04 8.0413703108e-04 8.0413703108e-04
 8.1014289754e-04 8.1014289754e-04 8.1014289754e-04
 8.1617152318e-04 8.1617152318e-04 8.1617152318e-04
 8.2223536447e-04 8.2223536447e-04 8.2223536447e-04
 8.2833372289e-04 8.2833372289e-04 8.2833372289e-04
 8.3445227938e-04 8.3445227938e-04 8.3445227938e-04
 8.4062066162e-04 8.4062066162e-04 8.4062066162e-04
 8.4682338638e-04 8.4682338638e-04 8.4682338638e-04
 8.5304910317e-04 8.5304910317e-04 8.5304910317e-04
 8.5930951172e-04 8.5930951172e-04 8.5930951172e-04
 8.6560443742e-04 8.6560443742e-04 8.6560443742e-04
 8.7193498621e-04 8.7193498621e-04 8.7193498621e-04
 8.7829976110e-04 8.7829976110e-04 8.7829976110e-04
 8.8468688773e-04 8.8468688773e-04 8.8468688773e-04
 8.9110824047e-04 8.9110824047e-04 8.9110824047e-04
 8.9758081594e-04 8.9758081594e-04 8.9758081594e-04
 9.0407248354e-04 9.0407248354e-04 9.0407248354e-04
 9.1061490821e-04 9.1061490821e-04 9.1061490821e-04
 9.1717916075e-04 9.1717916075e-04 9.1717916075e-04
 9.2376151588e-04 9.2376151588e-04 9.2376151588e-04
 9.3039480271e-04 9.3039480271e-04 9.3039480271e-04
 9.3706639018e-04 9.3706639018e-04 9.3706639018e-04
 9.4377022469e-04 9.4377022469e-04 9.4377022469e-04
 9.5051142853e-04 9.5051142853e-04 9.5051142853e-04
 9.5728749875e-04 9.5728749875e-04 9.5728749875e-04
 9.6408434911e-04 9.6408434911e-04 9.6408434911e-04
 9.7093096701e-04 9.7093096701e-04 9.7093096701e-04
 9.7781489603e-04 9.7781489603e-04 9.7781489603e-04
 9.8471634556e-04 9.8471634556e-04 9.8471634556e-04
 9.9167041481e-04 9.9167041481e-04 9.9167041481e-04
 9.9866255186e-04 9.9866255186e-04 9.9866255186e-04
 1.0056711035e-03 1.0056711035e-03 1.0056711035e-03
 1.0127178393e-03 1.0127178393e-03 1.0127178393e-03
 1.0198149830e-03 1.0198149830e-03 1.0198149830e-03
 1.0269496124e-03 1.0269496124e-03 1.0269496124e-03
 1.0341034504e-03 1.0341034504e-03 1.0341034504e-03
 1.0413082782e-03 1.0413082782e-03 1.0413082782e-03
 1.0485321982e-03 1.0485321982e-03 1.0485321982e-03
 1.0558094364e-03 1.0558094364e-03 1.0558094364e-03
 1.0631225305e-03 1.0631225305e-03 1.0631225305e-03
 1.0704732267e-03 1.0704732267e-03 1.0704732267e-03
 1.0778587312e-03 1.0778587312e-03 1.0778587312e-03
 1.0852621635e-03 1.0852621635e-03 1.0852621635e-03
 1.0927374242e-03 1.0927374242e-03 1.0927374242e-03
 1.1002308456e-03 1.1002308456e-03 1.1002308456e-03
 1.1077418458e-03 1.1077418458e-03 1.1077418458e-03
 1.1153251398e-03 1.1153251398e-03 1.1153251398e-03
 1.1229290394e-03 1.1229290394e-03 1.1229290394e-03
 1.1305649532e-03 1.1305649532e-03 1.1305649532e-03
 1.1382595403e-03 1.1382595403e-03 1.1382595403e-03
 1.1459679808e-03 1.1459679808e-03 1.1459679808e-03
 1.1537323007e-03 1.1537323007e-03 1.1537323007e-03
 1.1615343392e-03 1.1615343392e-03 1.1615343392e-03
 1.1693529086e-03 1.1693529086e-03 1.1693529086e-03
 1.1772465659e-03 1.1772465659e-03 1.1772465659e-03
 1.1851568706e-03 1.1851568706e-03 1.1851568706e-03
 1.1930825422e-03 1.1930825422e-03 1.1930825422e-03
 1.2010836508e-03 1.2010836508e-03 1.2010836508e-03
 1.2091039680e-03 1.2091039680e-03 1.2091039680e-03
 1.2171780691e-03 1.2171780691e-03 1.2171780691e-03
 1.2252909364e-03 1.2252909364e-03 1.2252909364e-03
 1.2334375642e-03 1.2334375642e-03 1.2334375642e-03
 1.2416230747e-03 1.2416230747e-03 1.2416230747e-03
 1.2498424621e-03 1.2498424621e-03 1.2498424621e-03
 1.2580995681e-03 1.2580995681e-03 1.2580995681e-03
 1.2664149981e-03 1.2664149981e-03 1.2664149981e-03
 1.2747654691e-03 1.2747654691e-03 1.2747654691e-03
 1.2831297936e-03 1.2831297936e-03 1.2831297936e-03
 1.2915523257e-03 1.2915523257e-03 1.2915523257e-03
 1.3000336476e-03 1.3000336476e-03 1.3000336476e-03
 1.3085324317e-03 1.3085324317e-03 1.3085324317e-03
 1.3170865132e-03 1.3170865132e-03 1.3170865132e-03
 1.3256784296e-03 1.3256784296e-03 1.3256784296e-03
 1.3343049213e-03 1.3343049213e-03 1.3343049213e-03
 1.3429692481e-03 1.3429692481e-03 1.3429692481e-03
 1.3516680337e-03 1.3516680337e-03 1.3516680337e-03
 1.3604293345e-03 1.3604293345e-03 1.3604293345e-03
 1.3692256762e-03 1.3692256762e-03 1.3692256762e-03
 1.3780562440e-03 1.3780562440e-03 1.3780562440e-03
 1.3869248796e-03 1.3869248796e-03 1.3869248796e-03
 1.3958538184e-03 1.3958538184e-03 1.3958538184e-03
 1.4048203593e-03 1.4048203593e-03 1.4048203593e-03
 1.4138207771e-03 1.4138207771e-03 1.4138207771e-03
 1.4228596119e-03 1.4228596119e-03 1.4228596119e-03
 1.4319593320e-03 1.4319593320e-03 1.4319593320e-03
 1.4410698786e-03 1.4410698786e-03 1.4410698786e-03
 1.4502685517e-03 1.4502685517e-03 1.4502685517e-03
 1.4594501117e-03 1.4594501117e-03 1.4594501117e-03
 1.4687218936e-03 1.4687218936e-03 1.4687218936e-03
 1.4780263882e-03 1.4780263882e-03 1.4780263882e-03
 1.4873732580e-03 1.4873732580e-03 1.4873732580e-03
 1.4967494644e-03 1.4967494644e-03 1.4967494644e-03
 1.5061924933e-03 1.5061924933e-03 1.5061924933e-03
 1.5156691661e-03 1.5156691661e-03 1.5156691661e-03
 1.5251830919e-03 1.5251830919e-03 1.5251830919e-03
 1.5347348526e-03 1.5347348526e-03 1.5347348526e-03
 1.5443492448e-03 1.5443492448e-03 1.5443492448e-03
 1.5539980959e-03 1.5539980959e-03 1.5539980959e-03
 1.5637138858e-03 1.5637138858e-03 1.5637138858e-03
 1.5734370099e-03 1.5734370099e-03 1.5734370099e-03
 1.5832242789e-03 1.5832242789e-03 1.5832242789e-03
 1.5930440277e-03 1.5930440277e-03 1.5930440277e-03
 1.6029328108e-03 1.6029328108e-03 1.6029328108e-03
 1.6128277639e-03 1.6128277639e-03 1.6128277639e-03
 1.6227868618e-03 1.6227868618e-03 1.6227868618e-03
 1.6328105703e-03 1.6328105703e-03 1.6328105703e-03
 1.6428715317e-03 1.6428715317e-03 1.6428715317e-03
 1.6529698623e-03 1.6529698623e-03 1.6529698623e-03
 1.6631016042e-03 1.6631016042e-03 1.6631016042e-03
 1.6732977238e-03 1.6732977238e-03 1.6732977238e-03
 1.6835359856e-03 1.6835359856e-03 1.6835359856e-03
 1.6938354820e-03 1.6938354820e-03 1.6938354820e-03
 1.7041718820e-03 1.7041718820e-03 1.7041718820e-03
 1.7145124730e-03 1.7145124730e-03 1.7145124730e-03
 1.7249519005e-03 1.7249519005e-03 1.7249519005e-03
 1.7354292795e-03 1.7354292795e-03 1.7354292795e-03
 1.7459390219e-03 1.7459390219e-03 1.7459390219e-03
 1.7565196613e-03 1.7565196613e-03 1.7565196613e-03
 1.7671326641e-03 1.7671326641e-03 1.7671326641e-03
 1.7777828034e-03 1.7777828034e-03 1.7777828034e-03
 1.7884703120e-03 1.7884703120e-03 1.7884703120e-03
 1.7992235953e-03 1.7992235953e-03 1.7992235953e-03
 1.8100452144e-03 1.8100452144e-03 1.8100452144e-03
 1.8208725378e-03 1.8208725378e-03 1.8208725378e-03
 1.8317995127e-03 1.8317995127e-03 1.8317995127e-03
 1.8427259056e-03 1.8427259056e-03 1.8427259056e-03
 1.8537256401e-03 1.8537256401e-03 1.8537256401e-03
 1.8647620454e-03 1.8647620454e-03 1.8647620454e-03
 1.8758629449e-03 1.8758629449e-03 1.8758629449e-03
 1.8870041240e-03 1.8870041240e-03 1.8870041240e-03
 1.8981767353e-03 1.8981767353e-03 1.8981767353e-03
 1.9094240852e-03 1.9094240852e-03 1.9094240852e-03
 1.9207029836e-03 1.9207029836e-03 1.9207029836e-03
 1.9320499850e-03 1.9320499850e-03 1.9320499850e-03
 1.9434394781e-03 1.9434394781e-03 1.9434394781e-03
 1.9548598211e-03 1.9548598211e-03 1.9548598211e-03
 1.9663495477e-03 1.9663495477e-03 1.9663495477e-03
 1.9778809510e-03 1.9778809510e-03 1.9778809510e-03
 1.9894777797e-03 1.9894777797e-03 1.9894777797e-03
 2.0011104643e-03 2.0011104643e-03 2.0011104643e-03
 2.0128188189e-03 2.0128188189e-03 2.0128188189e-03
 2.0245225169e-03 2.0245225169e-03 2.0245225169e-03
 2.0362974610e-03 2.0362974610e-03 2.0362974610e-03
 2.0481434185e-03 2.0481434185e-03 2.0481434185e-03
 2.0600662101e-03 2.0600662101e-03 2.0600662101e-03
 2.0719829481e-03 2.0719829481e-03 2.0719829481e-03
