aces_1.2/luts/linear_to_rec1886.spi1d
Version 1
From 0 1
Length 4096
Components 1
{
 0.0000000000e+00
 3.1253177673e-02
 4.1717991233e-02
 4.9396336079e-02
 5.5686835200e-02
 6.1112731695e-02
 6.5936200321e-02
 7.0310212672e-02
 7.4333004653e-02
 7.8071989119e-02
 8.1575714052e-02
 8.4880478680e-02
 8.8014259934e-02
 9.0999133885e-02
 9.3852870166e-02
 9.6590012312e-02
 9.9222660065e-02
 1.0176097602e-01
 1.0421360284e-01
 1.0658797622e-01
 1.0889051110e-01
 1.1112682521e-01
 1.1330184340e-01
 1.1541993171e-01
 1.1748494953e-01
 1.1950036138e-01
 1.2146927416e-01
 1.2339448929e-01
 1.2527854741e-01
 1.2712375820e-01
 1.2893220782e-01
 1.3070581853e-01
 1.3244636357e-01
 1.3415545225e-01
 1.3583460450e-01
 1.3748517632e-01
 1.3910847902e-01
 1.4070567489e-01
 1.4227788150e-01
 1.4382612705e-01
 1.4535139501e-01
 1.4685457945e-01
 1.4833651483e-01
 1.4979802072e-01
 1.5123982728e-01
 1.5266263485e-01
 1.5406712890e-01
 1.5545390546e-01
 1.5682359040e-01
 1.5817672014e-01
 1.5951384604e-01
 1.6083544493e-01
 1.6214202344e-01
 1.6343402863e-01
 1.6471189260e-01
 1.6597601771e-01
 1.6722680628e-01
 1.6846463084e-01
 1.6968984902e-01
 1.7090281844e-01
 1.7210383713e-01
 1.7329324782e-01
 1.7447133362e-01
 1.7563837767e-01
 1.7679467797e-01
 1.7794048786e-01
 1.7907604575e-01
 1.8020161986e-01
 1.8131744862e-01
 1.8242372572e-01
 1.8352070451e-01
 1.8460856378e-01
 1.8568752706e-01
 1.8675778806e-01
 1.8781952560e-01
 1.8887293339e-01
 1.8991817534e-01
 1.9095543027e-01
 1.9198484719e-01
 1.9300660491e-01
 1.9402083755e-01
 1.9502769411e-01
 1.9602733850e-01
 1.9701988995e-01
 1.9800549746e-01
 1.9898428023e-01
 1.9995635748e-01
 2.0092187822e-01
 2.0188094676e-01
 2.0283366740e-01
 2.0378017426e-01
 2.0472055674e-01
 2.0565493405e-01
 2.0658341050e-01
 2.0750607550e-01
 2.0842303336e-01
 2.0933437347e-01
 2.1024020016e-01
 2.1114058793e-01
 2.1203564107e-01
 2.1292543411e-01
 2.1381004155e-01
 2.1468956769e-01
 2.1556407213e-01
 2.1643364429e-01
 2.1729834378e-01
 2.1815825999e-01
 2.1901345253e-01
 2.1986399591e-01
 2.2070994973e-01
 2.2155140340e-01
 2.2238838673e-01
 2.2322100401e-01
 2.2404928505e-01
 2.2487330437e-01
 2.2569310665e-01
 2.2650878131e-01
 2.2732034326e-01
 2.2812788188e-01
 2.2893144190e-01
 2.2973106802e-01
 2.3052680492e-01
 2.3131872714e-01
 2.3210687935e-01
 2.3289129138e-01
 2.3367202282e-01
 2.3444911838e-01
 2.3522262275e-01
 2.3599258065e-01
 2.3675905168e-01
 2.3752205074e-01
 2.3828163743e-01
 2.3903785646e-01
 2.3979072273e-01
 2.4054031074e-01
 2.4128663540e-01
 2.4202975631e-01
 2.4276967347e-01
 2.4350646138e-01
 2.4424013495e-01
 2.4497073889e-01
 2.4569830298e-01
 2.4642287195e-01
 2.4714446068e-01
 2.4786311388e-01
 2.4857886136e-01
 2.4929174781e-01
 2.5000178814e-01
 2.5070899725e-01
 2.5141343474e-01
 2.5211513042e-01
 2.5281408429e-01
 2.5351035595e-01
 2.5420394540e-01
 2.5489491224e-01
 2.5558325648e-01
 2.5626903772e-01
 2.5695222616e-01
 2.5763291121e-01
 2.5831106305e-01
 2.5898674130e-01
 2.5965997577e-01
 2.6033073664e-01
 2.6099911332e-01
 2.6166510582e-01
 2.6232871413e-01
 2.6298999786e-01
 2.6364895701e-01
 2.6430562139e-01
 2.6496002078e-01
 2.6561215520e-01
 2.6626202464e-01
 2.6690971851e-01
 2.6755520701e-01
 2.6819851995e-01
 2.6883968711e-01
 2.6947873831e-01
 2.7011564374e-01
 2.7075046301e-01
 2.7138319612e-01
 2.7201390266e-01
 2.7264252305e-01
 2.7326914668e-01
 2.7389377356e-01
 2.7451640368e-01
 2.7513706684e-01
 2.7575576305e-01
 2.7637252212e-01
 2.7698737383e-01
 2.7760031819e-01
 2.7821135521e-01
 2.7882054448e-01
 2.7942785621e-01
 2.8003334999e-01
 2.8063699603e-01
 2.8123882413e-01
 2.8183886409e-01
 2.8243714571e-01
 2.8303363919e-01
 2.8362837434e-01
 2.8422135115e-01
 2.8481262922e-01
 2.8540217876e-01
 2.8599002957e-01
 2.8657618165e-01
 2.8716069460e-01
 2.8774350882e-01
 2.8832471371e-01
 2.8890424967e-01
 2.8948217630e-01
 2.9005849361e-01
 2.9063320160e-01
 2.9120633006e-01
 2.9177787900e-01
 2.9234787822e-01
 2.9291632771e-01
 2.9348322749e-01
 2.9404857755e-01
 2.9461243749e-01
 2.9517477751e-01
 2.9573562741e-01
 2.9629498720e-01
 2.9685288668e-01
 2.9740932584e-01
 2.9796427488e-01
 2.9851782322e-01
 2.9906991124e-01
 2.9962059855e-01
 3.0016985536e-01
 3.0071771145e-01
 3.0126416683e-01
 3.0180925131e-01
 3.0235293508e-01
 3.0289527774e-01
 3.0343624949e-01
 3.0397590995e-01
 3.0451419950e-01
 3.0505114794e-01
 3.0558681488e-01
 3.0612114072e-01
 3.0665418506e-01
 3.0718591809e-01
 3.0771636963e-01
 3.0824553967e-01
 3.0877345800e-01
 3.0930012465e-01
 3.0982550979e-01
 3.1034964323e-01
 3.1087258458e-01
 3.1139424443e-01
 3.1191471219e-01
 3.1243398786e-01
 3.1295201182e-01
 3.1346887350e-01
 3.1398454309e-01
 3.1449902058e-01
 3.1501230597e-01
 3.1552442908e-01
 3.1603541970e-01
 3.1654521823e-01
 3.1705391407e-01
 3.1756141782e-01
 3.1806781888e-01
 3.1857308745e-01
 3.1907725334e-01
 3.1958028674e-01
 3.2008221745e-01
 3.2058304548e-01
 3.2108280063e-01
 3.2158145308e-01
 3.2207903266e-01
 3.2257550955e-01
 3.2307094336e-01
 3.2356533408e-01
 3.2405865192e-01
 3.2455089688e-01
 3.2504212856e-01
 3.2553231716e-01
 3.2602146268e-01
 3.2650959492e-01
 3.2699671388e-01
 3.2748281956e-01
 3.2796788216e-01
 3.2845199108e-01
 3.2893505692e-01
 3.2941716909e-01
 3.2989826798e-01
 3.3037841320e-01
 3.3085757494e-01
 3.3133575320e-01
 3.3181297779e-01
 3.3228924870e-01
 3.3276456594e-01
 3.3323892951e-01
 3.3371233940e-01
 3.3418482542e-01
 3.3465635777e-01
 3.3512696624e-01
 3.3559668064e-01
 3.3606544137e-01
 3.3653330803e-01
 3.3700028062e-01
 3.3746632934e-01
 3.3793145418e-01
 3.3839571476e-01
 3.3885908127e-01
 3.3932158351e-01
 3.3978316188e-01
 3.4024390578e-01
 3.4070375562e-01
 3.4116274118e-01
 3.4162086248e-01
 3.4207811952e-01
 3.4253451228e-01
 3.4299007058e-01
 3.4344479442e-01
 3.4389865398e-01
 3.4435170889e-01
 3.4480389953e-01
 3.4525528550e-01
 3.4570583701e-01
 3.4615555406e-01
 3.4660446644e-01
 3.4705257416e-01
 3.4749984741e-01
 3.4794634581e-01
 3.4839203954e-01
 3.4883692861e-01
 3.4928101301e-01
 3.4972432256e-01
 3.5016682744e-01
 3.5060858727e-01
 3.5104954243e-01
 3.5148972273e-01
 3.5192915797e-01
 3.5236778855e-01
 3.5280567408e-01
 3.5324281454e-01
 3.5367918015e-01
 3.5411480069e-01
 3.5454967618e-01
 3.5498380661e-01
 3.5541719198e-01
 3.5584983230e-01
 3.5628172755e-01
 3.5671290755e-01
 3.5714337230e-01
 3.5757309198e-01
 3.5800209641e-01
 3.5843035579e-01
 3.5885792971e-01
 3.5928478837e-01
 3.5971093178e-01
 3.6013638973e-01
 3.6056113243e-01
 3.6098515987e-01
 3.6140850186e-01
 3.6183115840e-01
 3.6225312948e-01
 3.6267438531e-01
 3.6309498549e-01
 3.6351490021e-01
 3.6393412948e-01
 3.6435267329e-01
 3.6477056146e-01
 3.6518776417e-01
 3.6560431123e-01
 3.6602020264e-01
 3.6643543839e-01
 3.6684998870e-01
 3.6726391315e-01
 3.6767718196e-01
 3.6808979511e-01
 3.6850175261e-01
 3.6891305447e-01
 3.6932376027e-01
 3.6973378062e-01
 3.7014320493e-01
 3.7055197358e-01
 3.7096011639e-01
 3.7136763334e-01
 3.7177452445e-01
 3.7218078971e-01
 3.7258642912e-01
 3.7299144268e-01
 3.7339586020e-01
 3.7379968166e-01
 3.7420287728e-01
 3.7460544705e-01
 3.7500742078e-01
 3.7540879846e-01
 3.7580958009e-01
 3.7620976567e-01
 3.7660935521e-01
 3.7700834870e-01
 3.7740674615e-01
 3.7780457735e-01
 3.7820178270e-01
 3.7859845161e-01
 3.7899449468e-01
 3.7939000130e-01
 3.7978491187e-01
 3.8017922640e-01
 3.8057300448e-01
 3.8096618652e-01
 3.8135883212e-01
 3.8175088167e-01
 3.8214239478e-01
 3.8253331184e-01
 3.8292369246e-01
 3.8331353664e-01
 3.8370278478e-01
 3.8409152627e-01
 3.8447967172e-01
 3.8486731052e-01
 3.8525438309e-01
 3.8564091921e-01
 3.8602688909e-01
 3.8641235232e-01
 3.8679724932e-01
 3.8718163967e-01
 3.8756546378e-01
 3.8794878125e-01
 3.8833156228e-01
 3.8871380687e-01
 3.8909554482e-01
 3.8947674632e-01
 3.8985744119e-01
 3.9023759961e-01
 3.9061725140e-01
 3.9099636674e-01
 3.9137497544e-01
 3.9175310731e-01
 3.9213067293e-01
 3.9250776172e-01
 3.9288434386e-01
 3.9326041937e-01
 3.9363598824e-01
 3.9401105046e-01
 3.9438563585e-01
 3.9475971460e-01
 3.9513328671e-01
 3.9550638199e-01
 3.9587897062e-01
 3.9625105262e-01
 3.9662268758e-01
 3.9699381590e-01
 3.9736443758e-01
 3.9773461223e-01
 3.9810428023e-01
 3.9847347140e-01
 3.9884218574e-01
 3.9921042323e-01
 3.9957821369e-01
 3.9994549751e-01
 4.0031230450e-01
 4.0067866445e-01
 4.0104454756e-01
 4.0140998363e-01
 4.0177491307e-01
 4.0213939548e-01
 4.0250343084e-01
 4.0286698937e-01
 4.0323010087e-01
 4.0359276533e-01
 4.0395495296e-01
 4.0431669354e-01
 4.0467798710e-01
 4.0503880382e-01
 4.0539920330e-01
 4.0575915575e-01
 4.0611863136e-01
 4.0647768974e-01
 4.0683627129e-01
 4.0719443560e-01
 4.0755218267e-01
 4.0790945292e-01
 4.0826630592e-01
 4.0862271190e-01
 4.0897867084e-01
 4.0933421254e-01
 4.0968933702e-01
 4.1004401445e-01
 4.1039824486e-01
 4.1075208783e-01
 4.1110548377e-01
 4.1145846248e-01
 4.1181099415e-01
 4.1216310859e-01
 4.1251483560e-01
 4.1286611557e-01
 4.1321697831e-01
 4.1356742382e-01
 4.1391748190e-01
 4.1426709294e-01
 4.1461628675e-01
 4.1496509314e-01
 4.1531348228e-01
 4.1566145420e-01
 4.1600903869e-01
 4.1635620594e-01
 4.1670295596e-01
 4.1704931855e-01
 4.1739529371e-01
 4.1774082184e-01
 4.1808599234e-01
 4.1843074560e-01
 4.1877511144e-01
 4.1911906004e-01
 4.1946262121e-01
 4.1980582476e-01
 4.2014858127e-01
 4.2049098015e-01
 4.2083299160e-01
 4.2117458582e-01
 4.2151582241e-01
 4.2185667157e-01
 4.2219713330e-01
 4.2253717780e-01
 4.2287686467e-01
 4.2321619391e-01
 4.2355510592e-01
 4.2389366031e-01
 4.2423182726e-01
 4.2456960678e-01
 4.2490702868e-01
 4.2524406314e-01
 4.2558073997e-01
 4.2591702938e-01
 4.2625296116e-01
 4.2658850551e-01
 4.2692369223e-01
 4.2725852132e-01
 4.2759296298e-01
 4.2792704701e-01
 4.2826074362e-01
 4.2859411240e-01
 4.2892709374e-01
 4.2925974727e-01
 4.2959201336e-01
 4.2992392182e-01
 4.3025547266e-01
 4.3058666587e-01
 4.3091750145e-01
 4.3124797940e-01
 4.3157812953e-01
 4.3190789223e-01
 4.3223732710e-01
 4.3256640434e-01
 4.3289512396e-01
 4.3322348595e-01
 4.3355152011e-01
 4.3387919664e-01
 4.3420651555e-01
 4.3453350663e-01
 4.3486014009e-01
 4.3518644571e-01
 4.3551242352e-01
 4.3583804369e-01
 4.3616330624e-01
 4.3648824096e-01
 4.3681284785e-01
 4.3713709712e-01
 4.3746101856e-01
 4.3778461218e-01
 4.3810787797e-01
 4.3843078613e-01
 4.3875339627e-01
 4.3907564878e-01
 4.3939757347e-01
 4.3971917033e-01
 4.4004043937e-01
 4.4036138058e-01
 4.4068199396e-01
 4.4100227952e-01
 4.4132223725e-01
 4.4164186716e-01
 4.4196116924e-01
 4.4228017330e-01
 4.4259884953e-01
 4.4291719794e-01
 4.4323521852e-01
 4.4355294108e-01
 4.4387030602e-01
 4.4418740273e-01
 4.4450414181e-01
 4.4482058287e-01
 4.4513672590e-01
 4.4545251131e-01
 4.4576802850e-01
 4.4608321786e-01
 4.4639807940e-01
 4.4671264291e-01
 4.4702690840e-01
 4.4734084606e-01
 4.4765448570e-01
 4.4796782732e-01
 4.4828084111e-01
 4.4859355688e-01
 4.4890597463e-01
 4.4921809435e-01
 4.4952988625e-01
 4.4984138012e-01
 4.5015257597e-01
 4.5046350360e-01
 4.5077410340e-01
 4.5108440518e-01
 4.5139437914e-01
 4.5170408487e-01
 4.5201349258e-01
 4.5232260227e-01
 4.5263144374e-01
 4.5293995738e-01
 4.5324817300e-01
 4.5355612040e-01
 4.5386376977e-01
 4.5417112112e-01
 4.5447817445e-01
 4.5478492975e-01
 4.5509141684e-01
 4.5539760590e-01
 4.5570349693e-01
 4.5600911975e-01
 4.5631444454e-01
 4.5661950111e-01
 4.5692425966e-01
 4.5722872019e-01
 4.5753291249e-01
 4.5783683658e-01
 4.5814046264e-01
 4.5844379067e-01
 4.5874685049e-01
 4.5904964209e-01
 4.5935213566e-01
 4.5965436101e-01
 4.5995631814e-01
 4.6025797725e-01
 4.6055939794e-01
 4.6086049080e-01
 4.6116134524e-01
 4.6146190166e-01
 4.6176221967e-01
 4.6206223965e-01
 4.6236196160e-01
 4.6266144514e-01
 4.6296066046e-01
 4.6325960755e-01
 4.6355825663e-01
 4.6385666728e-01
 4.6415477991e-01
 4.6445265412e-01
 4.6475023031e-01
 4.6504756808e-01
 4.6534460783e-01
 4.6564140916e-01
 4.6593794227e-01
 4.6623420715e-01
 4.6653020382e-01
 4.6682596207e-01
 4.6712142229e-01
 4.6741664410e-01
 4.6771159768e-01
 4.6800631285e-01
 4.6830072999e-01
 4.6859490871e-01
 4.6888884902e-01
 4.6918249130e-01
 4.6947589517e-01
 4.6976906061e-01
 4.7006192803e-01
 4.7035458684e-01
 4.7064694762e-01
 4.7093909979e-01
 4.7123095393e-01
 4.7152256966e-01
 4.7181394696e-01
 4.7210505605e-01
 4.7239592671e-01
 4.7268655896e-01
 4.7297692299e-01
 4.7326701880e-01
 4.7355690598e-01
 4.7384652495e-01
 4.7413590550e-01
 4.7442501783e-01
 4.7471389174e-01
 4.7500252724e-01
 4.7529092431e-01
 4.7557905316e-01
 4.7586694360e-01
 4.7615459561e-01
 4.7644200921e-01
 4.7672918439e-01
 4.7701612115e-01
 4.7730278969e-01
 4.7758924961e-01
 4.7787544131e-01
 4.7816142440e-01
 4.7844713926e-01
 4.7873261571e-01
 4.7901788354e-01
 4.7930288315e-01
 4.7958767414e-01
 4.7987219691e-01
 4.8015651107e-01
 4.8044055700e-01
 4.8072439432e-01
 4.8100799322e-01
 4.8129135370e-01
 4.8157447577e-01
 4.8185738921e-01
 4.8214003444e-01
 4.8242247105e-01
 4.8270466924e-01
 4.8298665881e-01
 4.8326838017e-01
 4.8354989290e-01
 4.8383116722e-01
 4.8411223292e-01
 4.8439306021e-01
 4.8467364907e-01
 4.8495402932e-01
 4.8523417115e-01
 4.8551407456e-01
 4.8579376936e-01
 4.8607322574e-01
 4.8635247350e-01
 4.8663148284e-01
 4.8691028357e-01
 4.8718884587e-01
 4.8746719956e-01
 4.8774531484e-01
 4.8802322149e-01
 4.8830088973e-01
 4.8857834935e-01
 4.8885560036e-01
 4.8913261294e-01
 4.8940941691e-01
 4.8968601227e-01
 4.8996236920e-01
 4.9023851752e-01
 4.9051442742e-01
 4.9079015851e-01
 4.9106565118e-01
 4.9134090543e-01
 4.9161598086e-01
 4.9189081788e-01
 4.9216544628e-01
 4.9243986607e-01
 4.9271407723e-01
 4.9298804998e-01
 4.9326184392e-01
 4.9353539944e-01
 4.9380874634e-01
 4.9408188462e-01
 4.9435481429e-01
 4.9462753534e-01
 4.9490004778e-01
 4.9517235160e-01
 4.9544441700e-01
 4.9571630359e-01
 4.9598798156e-01
 4.9625942111e-01
 4.9653068185e-01
 4.9680173397e-01
 4.9707257748e-01
 4.9734321237e-01
 4.9761363864e-01
 4.9788385630e-01
 4.9815386534e-01
 4.9842369556e-01
 4.9869328737e-01
 4.9896270037e-01
 4.9923190475e-01
 4.9950090051e-01
 4.9976968765e-01
 5.0003826618e-01
 5.0030666590e-01
 5.0057488680e-01
 5.0084286928e-01
 5.0111061335e-01
 5.0137823820e-01
 5.0164562464e-01
 5.0191277266e-01
 5.0217980146e-01
 5.0244659185e-01
 5.0271320343e-01
 5.0297957659e-01
 5.0324577093e-01
 5.0351178646e-01
 5.0377756357e-01
 5.0404316187e-01
 5.0430858135e-01
 5.0457382202e-01
 5.0483882427e-01
 5.0510364771e-01
 5.0536829233e-01
 5.0563269854e-01
 5.0589698553e-01
 5.0616103411e-01
 5.0642490387e-01
 5.0668853521e-01
 5.0695204735e-01
 5.0721532106e-01
 5.0747841597e-01
 5.0774127245e-01
 5.0800400972e-01
 5.0826650858e-01
 5.0852888823e-01
 5.0879102945e-01
 5.0905293226e-01
 5.0931471586e-01
 5.0957632065e-01
 5.0983768702e-01
 5.1009887457e-01
 5.1035988331e-01
 5.1062071323e-01
 5.1088136435e-01
 5.1114183664e-01
 5.1140207052e-01
 5.1166218519e-01
 5.1192206144e-01
 5.1218175888e-01
 5.1244133711e-01
 5.1270067692e-01
 5.1295983791e-01
 5.1321882010e-01
 5.1347762346e-01
 5.1373618841e-01
 5.1399463415e-01
 5.1425290108e-01
 5.1451098919e-01
 5.1476883888e-01
 5.1502656937e-01
 5.1528406143e-01
 5.1554143429e-01
 5.1579856873e-01
 5.1605558395e-01
 5.1631236076e-01
 5.1656901836e-01
 5.1682549715e-01
 5.1708173752e-01
 5.1733785868e-01
 5.1759374142e-01
 5.1784950495e-01
 5.1810508966e-01
 5.1836043596e-01
 5.1861566305e-01
 5.1887071133e-01
 5.1912558079e-01
 5.1938027143e-01
 5.1963472366e-01
 5.1988911629e-01
 5.2014327049e-01
 5.2039724588e-01
 5.2065104246e-01
 5.2090471983e-01
 5.2115815878e-01
 5.2141147852e-01
 5.2166455984e-01
 5.2191752195e-01
 5.2217030525e-01
 5.2242290974e-01
 5.2267539501e-01
 5.2292764187e-01
 5.2317970991e-01
 5.2343165874e-01
 5.2368342876e-01
 5.2393501997e-01
 5.2418643236e-01
 5.2443766594e-01
 5.2468878031e-01
 5.2493971586e-01
 5.2519041300e-01
 5.2544099092e-01
 5.2569144964e-01
 5.2594166994e-01
 5.2619177103e-01
 5.2644169331e-01
 5.2669143677e-01
 5.2694100142e-01
 5.2719038725e-01
 5.2743965387e-01
 5.2768874168e-01
 5.2793765068e-01
 5.2818644047e-01
 5.2843499184e-01
 5.2868342400e-01
 5.2893173695e-01
 5.2917981148e-01
 5.2942776680e-01
 5.2967554331e-01
 5.2992314100e-01
 5.3017061949e-01
 5.3041791916e-01
 5.3066504002e-01
 5.3091198206e-01
 5.3115880489e-01
 5.3140544891e-01
 5.3165197372e-01
 5.3189826012e-01
 5.3214442730e-01
 5.3239047527e-01
 5.3263628483e-01
 5.3288197517e-01
 5.3312754631e-01
 5.3337293863e-01
 5.3361815214e-01
 5.3386318684e-01
 5.3410810232e-01
 5.3435283899e-01
 5.3459739685e-01
 5.3484183550e-01
 5.3508615494e-01
 5.3533023596e-01
 5.3557419777e-01
 5.3581804037e-01
 5.3606170416e-01
 5.3630518913e-01
 5.3654849529e-01
 5.3679168224e-01
 5.3703474998e-01
 5.3727763891e-01
 5.3752034903e-01
 5.3776293993e-01
 5.3800535202e-01
 5.3824764490e-01
 5.3848975897e-01
 5.3873169422e-01
 5.3897351027e-01
 5.3921514750e-01
 5.3945666552e-01
 5.3969800472e-01
 5.3993922472e-01
 5.4018026590e-01
 5.4042118788e-01
 5.4066193104e-01
 5.4090255499e-01
 5.4114300013e-01
 5.4138332605e-01
 5.4162347317e-01
 5.4186350107e-01
 5.4210335016e-01
 5.4234302044e-01
 5.4258263111e-01
 5.4282200336e-01
 5.4306131601e-01
 5.4330039024e-01
 5.4353940487e-01
 5.4377818108e-01
 5.4401689768e-01
 5.4425543547e-01
 5.4449379444e-01
 5.4473203421e-01
 5.4497015476e-01
 5.4520809650e-01
 5.4544585943e-01
 5.4568350315e-01
 5.4592102766e-01
 5.4615843296e-01
 5.4639565945e-01
 5.4663270712e-01
 5.4686963558e-01
 5.4710644484e-01
 5.4734307528e-01
 5.4757958651e-01
 5.4781597853e-01
 5.4805219173e-01
 5.4828822613e-01
 5.4852420092e-01
 5.4875999689e-01
 5.4899561405e-01
 5.4923111200e-01
 5.4946649075e-01
 5.4970175028e-01
 5.4993683100e-01
 5.5017173290e-01
 5.5040657520e-01
 5.5064123869e-01
 5.5087578297e-01
 5.5111014843e-01
 5.5134439468e-01
 5.5157852173e-01
 5.5181246996e-01
 5.5204629898e-01
 5.5228000879e-01
 5.5251353979e-01
 5.5274695158e-01
 5.5298024416e-01
 5.5321335793e-01
 5.5344635248e-01
 5.5367922783e-01
 5.5391192436e-01
 5.5414456129e-01
 5.5437701941e-01
 5.5460929871e-01
 5.5484151840e-01
 5.5507355928e-01
 5.5530542135e-01
 5.5553722382e-01
 5.5576884747e-01
 5.5600035191e-01
 5.5623173714e-01
 5.5646294355e-01
 5.5669403076e-01
 5.5692499876e-01
 5.5715584755e-01
 5.5738657713e-01
 5.5761712790e-01
 5.5784755945e-01
 5.5807781219e-01
 5.5830800533e-01
 5.5853801966e-01
 5.5876791477e-01
 5.5899769068e-01
 5.5922734737e-01
 5.5945682526e-01
 5.5968618393e-01
 5.5991542339e-01
 5.6014454365e-01
 5.6037354469e-01
 5.6060236692e-01
 5.6083106995e-01
 5.6105965376e-01
 5.6128811836e-01
 5.6151646376e-01
 5.6174463034e-01
 5.6197267771e-01
 5.6220066547e-01
 5.6242847443e-01
 5.6265610456e-01
 5.6288367510e-01
 5.6311106682e-01
 5.6333839893e-01
 5.6356555223e-01
 5.6379258633e-01
 5.6401950121e-01
 5.6424623728e-01
 5.6447291374e-01
 5.6469941139e-01
 5.6492584944e-01
 5.6515210867e-01
 5.6537824869e-01
 5.6560426950e-01
 5.6583017111e-01
 5.6605589390e-01
 5.6628155708e-01
 5.6650704145e-01
 5.6673246622e-01
 5.6695771217e-01
 5.6718283892e-01
 5.6740784645e-01
 5.6763273478e-01
 5.6785750389e-01
 5.6808215380e-01
 5.6830662489e-01
 5.6853103638e-01
 5.6875526905e-01
 5.6897944212e-01
 5.6920343637e-01
 5.6942737103e-01
 5.6965112686e-01
 5.6987476349e-01
 5.7009828091e-01
 5.7032167912e-01
 5.7054495811e-01
 5.7076811790e-01
 5.7099115849e-01
 5.7121407986e-01
 5.7143688202e-01
 5.7165950537e-01
 5.7188206911e-01
 5.7210451365e-01
 5.7232683897e-01
 5.7254898548e-01
 5.7277107239e-01
 5.7299298048e-01
 5.7321482897e-01
 5.7343655825e-01
 5.7365810871e-01
 5.7387959957e-01
 5.7410091162e-01
 5.7432216406e-01
 5.7454323769e-01
 5.7476425171e-01
 5.7498508692e-01
 5.7520586252e-01
 5.7542645931e-01
 5.7564699650e-01
 5.7586741447e-01
 5.7608765364e-01
 5.7630783319e-01
 5.7652789354e-01
 5.7674777508e-01
 5.7696759701e-01
 5.7718729973e-01
 5.7740688324e-01
 5.7762628794e-01
 5.7784563303e-01
 5.7806485891e-01
 5.7828396559e-01
 5.7850295305e-01
 5.7872182131e-01
 5.7894057035e-01
 5.7915925980e-01
 5.7937777042e-01
 5.7959616184e-01
 5.7981449366e-01
 5.8003264666e-01
 5.8025074005e-01
 5.8046865463e-01
 5.8068650961e-01
 5.8090424538e-01
 5.8112180233e-01
 5.8133929968e-01
 5.8155667782e-01
 5.8177399635e-01
 5.8199113607e-01
 5.8220815659e-01
 5.8242511749e-01
 5.8264189959e-01
 5.8285862207e-01
 5.8307516575e-01
 5.8329164982e-01
 5.8350801468e-01
 5.8372426033e-01
 5.8394038677e-01
 5.8415645361e-01
 5.8437234163e-01
 5.8458817005e-01
 5.8480387926e-01
 5.8501940966e-01
 5.8523488045e-01
 5.8545023203e-01
 5.8566552401e-01
 5.8588063717e-01
 5.8609569073e-01
 5.8631056547e-01
 5.8652538061e-01
 5.8674007654e-01
 5.8695465326e-01
 5.8716917038e-01
 5.8738350868e-01
 5.8759778738e-01
 5.8781188726e-01
 5.8802592754e-01
 5.8823984861e-01
 5.8845371008e-01
 5.8866739273e-01
 5.8888101578e-01
 5.8909451962e-01
 5.8930790424e-01
 5.8952116966e-01
 5.8973431587e-01
 5.8994740248e-01
 5.9016036987e-01
 5.9037321806e-01
 5.9058594704e-01
 5.9079855680e-01
 5.9101110697e-01
 5.9122353792e-01
 5.9143584967e-01
 5.9164804220e-01
 5.9186011553e-01
 5.9207212925e-01
 5.9228402376e-01
 5.9249579906e-01
 5.9270745516e-01
 5.9291905165e-01
 5.9313046932e-01
 5.9334182739e-01
 5.9355312586e-01
 5.9376424551e-01
 5.9397530556e-01
 5.9418624640e-01
 5.9439706802e-01
 5.9460777044e-01
 5.9481841326e-01
 5.9502893686e-01
 5.9523934126e-01
 5.9544962645e-01
 5.9565985203e-01
 5.9586995840e-01
 5.9607994556e-01
 5.9628987312e-01
 5.9649962187e-01
 5.9670931101e-01
 5.9691894054e-01
 5.9712839127e-01
 5.9733778238e-01
 5.9754705429e-01
 5.9775620699e-01
 5.9796530008e-01
 5.9817427397e-01
 5.9838312864e-01
 5.9859192371e-01
 5.9880053997e-01
 5.9900909662e-01
 5.9921759367e-01
 5.9942591190e-01
 5.9963417053e-01
 5.9984236956e-01
 6.0005038977e-01
 6.0025835037e-01
 6.0046619177e-01
 6.0067397356e-01
 6.0088163614e-01
 6.0108917952e-01
 6.0129660368e-01
 6.0150396824e-01
 6.0171121359e-01
 6.0191839933e-01
 6.0212540627e-01
 6.0233235359e-01
 6.0253924131e-01
 6.0274595022e-01
 6.0295265913e-01
 6.0315918922e-01
 6.0336565971e-01
 6.0357201099e-01
 6.0377824306e-01
 6.0398441553e-01
 6.0419046879e-01
 6.0439646244e-01
 6.0460227728e-01
 6.0480809212e-01
 6.0501372814e-01
 6.0521930456e-01
 6.0542476177e-01
 6.0563015938e-01
 6.0583543777e-01
 6.0604059696e-01
 6.0624569654e-01
 6.0645067692e-01
 6.0665559769e-01
 6.0686033964e-01
 6.0706508160e-01
 6.0726964474e-01
 6.0747414827e-01
 6.0767859221e-01
 6.0788285732e-01
 6.0808706284e-01
 6.0829120874e-01
 6.0849523544e-01
 6.0869914293e-01
 6.0890299082e-01
 6.0910671949e-01
 6.0931032896e-01
 6.0951387882e-01
 6.0971736908e-01
 6.0992068052e-01
 6.1012399197e-01
 6.1032712460e-01
 6.1053019762e-01
 6.1073315144e-01
 6.1093604565e-01
 6.1113882065e-01
 6.1134153605e-01
 6.1154413223e-01
 6.1174666882e-01
 6.1194902658e-01
 6.1215138435e-01
 6.1235356331e-01
 6.1255574226e-01
 6.1275774240e-01
 6.1295968294e-01
 6.1316156387e-01
 6.1336332560e-01
 6.1356496811e-01
 6.1376655102e-01
 6.1396801472e-01
 6.1416941881e-01
 6.1437070370e-01
 6.1457192898e-01
 6.1477303505e-01
 6.1497402191e-01
 6.1517494917e-01
 6.1537581682e-01
 6.1557656527e-01
 6.1577719450e-01
 6.1597776413e-01
 6.1617821455e-01
 6.1637860537e-01
 6.1657887697e-01
 6.1677908897e-01
 6.1697918177e-01
 6.1717921495e-01
 6.1737912893e-01
 6.1757892370e-01
 6.1777865887e-01
 6.1797833443e-01
 6.1817789078e-01
 6.1837738752e-01
 6.1857676506e-01
 6.1877602339e-01
 6.1897522211e-01
 6.1917436123e-01
 6.1937338114e-01
 6.1957228184e-01
 6.1977112293e-01
 6.1996990442e-01
 6.2016856670e-01
 6.2036710978e-01
 6.2056559324e-01
 6.2076401711e-01
 6.2096232176e-01
 6.2116056681e-01
 6.2135869265e-01
 6.2155669928e-01
 6.2175464630e-01
 6.2195253372e-01
 6.2215030193e-01
 6.2234801054e-01
 6.2254559994e-01
 6.2274312973e-01
 6.2294054031e-01
 6.2313789129e-01
 6.2333512306e-01
 6.2353229523e-01
 6.2372940779e-01
 6.2392640114e-01
 6.2412327528e-01
 6.2432008982e-01
 6.2451684475e-01
 6.2471348047e-01
 6.2490999699e-01
 6.2510651350e-01
 6.2530285120e-01
 6.2549918890e-01
 6.2569540739e-01
