aces_1.2/luts/LMT_Shaper_to_linear.spi1d
Version 1
From 0 1
Length 4096
Components 1
{
 1.7578125698e-04
 1.7627287889e-04
 1.7676588323e-04
 1.7726024089e-04
 1.7775601009e-04
 1.7825316172e-04
 1.7875169578e-04
 1.7925161228e-04
 1.7975295486e-04
 1.8025567988e-04
 1.8075981643e-04
 1.8126536452e-04
 1.8177232414e-04
 1.8228069530e-04
 1.8279049254e-04
 1.8330173043e-04
 1.8381449627e-04
 1.8432860088e-04
 1.8484413158e-04
 1.8536108837e-04
 1.8587950035e-04
 1.8639936752e-04
 1.8692067533e-04
 1.8744346744e-04
 1.8796770019e-04
 1.8849340267e-04
 1.8902057491e-04
 1.8954923144e-04
 1.9007935771e-04
 1.9061095372e-04
 1.9114407769e-04
 1.9167864230e-04
 1.9221473485e-04
 1.9275232626e-04
 1.9329141651e-04
 1.9383200561e-04
 1.9437409355e-04
 1.9491772400e-04
 1.9546286785e-04
 1.9600953965e-04
 1.9655773940e-04
 1.9710745255e-04
 1.9765873731e-04
 1.9821155001e-04
 1.9876590522e-04
 1.9932181749e-04
 1.9987927226e-04
 2.0043828408e-04
 2.0099898393e-04
 2.0156113897e-04
 2.0212486561e-04
 2.0269016386e-04
 2.0325704827e-04
 2.0382551884e-04
 2.0439556101e-04
 2.0496723300e-04
 2.0554047660e-04
 2.0611532091e-04
 2.0669179503e-04
 2.0726984076e-04
 2.0784954540e-04
 2.0843085076e-04
 2.0901378593e-04
 2.0959836547e-04
 2.1018454572e-04
 2.1077239944e-04
 2.1136189753e-04
 2.1195302543e-04
 2.1254581225e-04
 2.1314025798e-04
 2.1373636264e-04
 2.1433414076e-04
 2.1493356326e-04
 2.1553470287e-04
 2.1613750141e-04
 2.1674198797e-04
 2.1734816255e-04
 2.1795603971e-04
 2.1856563399e-04
 2.1917704726e-04
 2.1979004669e-04
 2.2040474869e-04
 2.2102118237e-04
 2.2163931862e-04
 2.2225920111e-04
 2.2288080072e-04
 2.2350414656e-04
 2.2412925318e-04
 2.2475609148e-04
 2.2538469057e-04
 2.2601503588e-04
 2.2664715652e-04
 2.2728103795e-04
 2.2791669471e-04
 2.2855412681e-04
 2.2919334879e-04
 2.2983434610e-04
 2.3047713330e-04
 2.3112175404e-04
 2.3176813556e-04
 2.3241633608e-04
 2.3306635558e-04
 2.3371819407e-04
 2.3437185155e-04
 2.3502734257e-04
 2.3568466713e-04
 2.3634382524e-04
 2.3700481688e-04
 2.3766768572e-04
 2.3833238811e-04
 2.3899893858e-04
 2.3966736626e-04
 2.4033784575e-04
 2.4100999872e-04
 2.4168405798e-04
 2.4235999444e-04
 2.4303782266e-04
 2.4371754262e-04
 2.4439915433e-04
 2.4508271599e-04
 2.4576814030e-04
 2.4645548547e-04
 2.4714478059e-04
 2.4783599656e-04
 2.4852913339e-04
 2.4922422017e-04
 2.4992125691e-04
 2.5062024361e-04
 2.5132115115e-04
 2.5202406687e-04
 2.5272890343e-04
 2.5343574816e-04
 2.5414454285e-04
 2.5485531660e-04
 2.5556809851e-04
 2.5628285948e-04
 2.5699962862e-04
 2.5771840592e-04
 2.5843919138e-04
 2.5916198501e-04
 2.5988681591e-04
 2.6061382960e-04
 2.6134253130e-04
 2.6207361952e-04
 2.6280659949e-04
 2.6354161673e-04
 2.6427867124e-04
 2.6501782122e-04
 2.6575900847e-04
 2.6650226209e-04
 2.6724764029e-04
 2.6799505576e-04
 2.6874456671e-04
 2.6949620224e-04
 2.7024993324e-04
 2.7100575971e-04
 2.7176368167e-04
 2.7252375730e-04
 2.7328595752e-04
 2.7405028231e-04
 2.7481673169e-04
 2.7558533475e-04
 2.7635609149e-04
 2.7712900192e-04
 2.7790406602e-04
 2.7868128382e-04
 2.7946071350e-04
 2.8024229687e-04
 2.8102609213e-04
 2.8181207017e-04
 2.8260020190e-04
 2.8339057462e-04
 2.8418318834e-04
 2.8497798485e-04
 2.8577516787e-04
 2.8657441726e-04
 2.8737593675e-04
 2.8817963903e-04
 2.8898564051e-04
 2.8979385388e-04
 2.9060433735e-04
 2.9141709092e-04
 2.9223214369e-04
 2.9304943746e-04
 2.9386903043e-04
 2.9469092260e-04
 2.9551511398e-04
 2.9634160455e-04
 2.9717042344e-04
 2.9800154152e-04
 2.9883498792e-04
 2.9967076262e-04
 3.0050886562e-04
 3.0134932604e-04
 3.0219214386e-04
 3.0303731910e-04
 3.0388485175e-04
 3.0473471270e-04
 3.0558701837e-04
 3.0644168146e-04
 3.0729873106e-04
 3.0815816717e-04
 3.0902001890e-04
 3.0988428625e-04
 3.1075096922e-04
 3.1162027153e-04
 3.1249158201e-04
 3.1336577376e-04
 3.1424220651e-04
 3.1512105488e-04
 3.1600240618e-04
 3.1688617310e-04
 3.1777244294e-04
 3.1866118661e-04
 3.1955240411e-04
 3.2044612453e-04
 3.2134234789e-04
 3.2224107417e-04
 3.2314230339e-04
 3.2404606463e-04
 3.2495235791e-04
 3.2586115412e-04
 3.2677254057e-04
 3.2768645906e-04
 3.2860293868e-04
 3.2952195033e-04
 3.3044355223e-04
 3.3136771526e-04
 3.3229449764e-04
 3.3322384115e-04
 3.3415580401e-04
 3.3509038622e-04
 3.3602752956e-04
 3.3696735045e-04
 3.3790976158e-04
 3.3885482117e-04
 3.3980252920e-04
 3.4075288568e-04
 3.4170612344e-04
 3.4266180592e-04
 3.4362016595e-04
 3.4458117443e-04
 3.4554488957e-04
 3.4651131136e-04
 3.4748041071e-04
 3.4845227492e-04
 3.4942681668e-04
 3.5040406510e-04
 3.5138407839e-04
 3.5236682743e-04
 3.5335231223e-04
 3.5434056190e-04
 3.5533157643e-04
 3.5632535582e-04
 3.5732192919e-04
 3.5832129652e-04
 3.5932345781e-04
 3.6032838398e-04
 3.6133616231e-04
 3.6234670551e-04
 3.6336013000e-04
 3.6437634844e-04
 3.6539544817e-04
 3.6641737097e-04
 3.6744214594e-04
 3.6846983130e-04
 3.6950036883e-04
 3.7053402048e-04
 3.7157008774e-04
 3.7260950194e-04
 3.7365165190e-04
 3.7469665403e-04
 3.7574459566e-04
 3.7679547677e-04
 3.7784929737e-04
 3.7890605745e-04
 3.7996575702e-04
 3.8102845429e-04
 3.8209409104e-04
 3.8316275459e-04
 3.8423438673e-04
 3.8530898746e-04
 3.8638658589e-04
 3.8746724022e-04
 3.8855089224e-04
 3.8963760016e-04
 3.9072733489e-04
 3.9182012551e-04
 3.9291594294e-04
 3.9401484537e-04
 3.9511680370e-04
 3.9622187614e-04
 3.9733000449e-04
 3.9844127605e-04
 3.9955560351e-04
 4.0067310329e-04
 4.0179371717e-04
 4.0291744517e-04
 4.0404457832e-04
 4.0517433081e-04
 4.0630777949e-04
 4.0744387661e-04
 4.0858366992e-04
 4.0972637362e-04
 4.1087230784e-04
 4.1202144348e-04
 4.1317375144e-04
 4.1432931903e-04
 4.1548811714e-04
 4.1665014578e-04
 4.1781543405e-04
 4.1898395284e-04
 4.2015578947e-04
 4.2133082752e-04
 4.2250921251e-04
 4.2369088624e-04
 4.2487584869e-04
 4.2606412899e-04
 4.2725575622e-04
 4.2845067219e-04
 4.2964899330e-04
 4.3085063226e-04
 4.3205561815e-04
 4.3326398009e-04
 4.3447571807e-04
 4.3569083209e-04
 4.3690940947e-04
 4.3813130469e-04
 4.3935666326e-04
 4.4058545609e-04
 4.4181768317e-04
 4.4305366464e-04
 4.4429246918e-04
 4.4553537737e-04
 4.4678142876e-04
 4.4803097262e-04
 4.4928403804e-04
 4.5054059592e-04
 4.5180064626e-04
 4.5306421816e-04
 4.5433136984e-04
 4.5560201397e-04
 4.5687623788e-04
 4.5815404155e-04
 4.5943539590e-04
 4.6072033001e-04
 4.6200887300e-04
 4.6330099576e-04
 4.6459675650e-04
 4.6589612612e-04
 4.6719913371e-04
 4.6850577928e-04
 4.6981612104e-04
 4.7113007167e-04
 4.7244774760e-04
 4.7376906150e-04
 4.7509407159e-04
 4.7642283607e-04
 4.7775529674e-04
 4.7909145360e-04
 4.8043139395e-04
 4.8177505960e-04
 4.8312277067e-04
 4.8447365407e-04
 4.8582896125e-04
 4.8718738253e-04
 4.8855028581e-04
 4.8991665244e-04
 4.9128686078e-04
 4.9266085261e-04
 4.9403868616e-04
 4.9542041961e-04
 4.9680599477e-04
 4.9819546985e-04
 4.9958884483e-04
 5.0098606152e-04
 5.0238717813e-04
 5.0379225286e-04
 5.0520122750e-04
 5.0661421847e-04
 5.0803110935e-04
 5.0945195835e-04
 5.1087676547e-04
 5.1230558893e-04
 5.1373837050e-04
 5.1517522661e-04
 5.1661604084e-04
 5.1806087140e-04
 5.1950977650e-04
 5.2096275613e-04
 5.2241975209e-04
 5.2388088079e-04
 5.2534608403e-04
 5.2681536181e-04
 5.2828877233e-04
 5.2976660663e-04
 5.3124787519e-04
 5.3273403319e-04
 5.3422397468e-04
 5.3571810713e-04
 5.3721637232e-04
 5.3871882847e-04
 5.4022547556e-04
 5.4173643002e-04
 5.4325151723e-04
 5.4477085359e-04
 5.4629449733e-04
 5.4782233201e-04
 5.4935453227e-04
 5.5089092348e-04
 5.5243162205e-04
 5.5397668621e-04
 5.5552605772e-04
 5.5707967840e-04
 5.5863772286e-04
 5.6020019110e-04
 5.6176690850e-04
 5.6333804969e-04
 5.6491355645e-04
 5.6649348699e-04
 5.6807789952e-04
 5.6966667762e-04
 5.7125993771e-04
 5.7285756338e-04
 5.7445972925e-04
 5.7606637711e-04
 5.7767791441e-04
 5.7929317700e-04
 5.8091367828e-04
 5.8253802126e-04
 5.8416760294e-04
 5.8580143377e-04
 5.8743980480e-04
 5.8908271603e-04
 5.9073022567e-04
 5.9238239191e-04
 5.9403915657e-04
 5.9570057783e-04
 5.9736659750e-04
 5.9903733199e-04
 6.0071272310e-04
 6.0239277082e-04
 6.0407753335e-04
 6.0576701071e-04
 6.0746120289e-04
 6.0916010989e-04
 6.1086384812e-04
 6.1257224297e-04
 6.1428552726e-04
 6.1600352637e-04
 6.1772635672e-04
 6.1945401831e-04
 6.2118645292e-04
 6.2292377697e-04
 6.2466599047e-04
 6.2641303521e-04
 6.2816496938e-04
 6.2992185121e-04
 6.3168356428e-04
 6.3345069066e-04
 6.3522189157e-04
 6.3699891325e-04
 6.3878041692e-04
 6.4056698466e-04
 6.4235850004e-04
 6.4415502129e-04
 6.4595660660e-04
 6.4776319778e-04
 6.4957485301e-04
 6.5139157232e-04
 6.5321341390e-04
 6.5504026134e-04
 6.5687223105e-04
 6.5870938124e-04
 6.6055165371e-04
 6.6239904845e-04
 6.6425168188e-04
 6.6610943759e-04
 6.6797243198e-04
 6.6984054865e-04
 6.7171396222e-04
 6.7359261448e-04
 6.7547650542e-04
 6.7736569326e-04
 6.7926011980e-04
 6.8115990143e-04
 6.8306492176e-04
 6.8497529719e-04
 6.8689102773e-04
 6.8881211337e-04
 6.9073901977e-04
 6.9267046638e-04
 6.9460814120e-04
 6.9655035622e-04
 6.9849891588e-04
 7.0045248140e-04
 7.0241146022e-04
 7.0437596878e-04
 7.0634594886e-04
 7.0832145866e-04
 7.1030243998e-04
 7.1228906745e-04
 7.1428116644e-04
 7.1627885336e-04
 7.1828212822e-04
 7.2029099101e-04
 7.2230549995e-04
 7.2432565503e-04
 7.2635145625e-04
 7.2838290362e-04
 7.3041999713e-04
 7.3246279499e-04
 7.3451129720e-04
 7.3656562017e-04
 7.3862564750e-04
 7.4069137918e-04
 7.4276322266e-04
 7.4484059587e-04
 7.4692373164e-04
 7.4901268817e-04
 7.5110746548e-04
 7.5320823817e-04
 7.5531477341e-04
 7.5742718764e-04
 7.5954577187e-04
 7.6167011866e-04
 7.6380034443e-04
 7.6593650738e-04
 7.6807866571e-04
 7.7022687765e-04
 7.7238102676e-04
 7.7454117127e-04
 7.7670742758e-04
 7.7887967927e-04
 7.8105804278e-04
 7.8324251808e-04
 7.8543304699e-04
 7.8762968769e-04
 7.8983255662e-04
 7.9204159556e-04
 7.9425674630e-04
 7.9647806706e-04
 7.9870561603e-04
 8.0093950965e-04
 8.0317957327e-04
 8.0542580690e-04
 8.0767844338e-04
 8.0993736628e-04
 8.1220286665e-04
 8.1447442062e-04
 8.1675231922e-04
 8.1903662067e-04
 8.2132720854e-04
 8.2362437388e-04
 8.2592776744e-04
 8.2823773846e-04
 8.3055446157e-04
 8.3287729649e-04
 8.3520670887e-04
 8.3754258230e-04
 8.3988497499e-04
 8.4223400336e-04
 8.4458949277e-04
 8.4695167607e-04
 8.4932043683e-04
 8.5169577505e-04
 8.5407780716e-04
 8.5646653315e-04
 8.5886177840e-04
 8.6126389215e-04
 8.6367269978e-04
 8.6608820129e-04
 8.6851039669e-04
 8.7093946058e-04
 8.7337521836e-04
 8.7581790285e-04
 8.7826739764e-04
 8.8072376093e-04
 8.8318693452e-04
 8.8565697661e-04
 8.8813423645e-04
 8.9061813196e-04
 8.9310907060e-04
 8.9560687775e-04
 8.9811172802e-04
 9.0062356321e-04
 9.0314238332e-04
 9.0566830477e-04
 9.0820156038e-04
 9.1074156808e-04
 9.1328867711e-04
 9.1584300390e-04
 9.1840443201e-04
 9.2097296147e-04
 9.2354870867e-04
 9.2613167362e-04
 9.2872185633e-04
 9.3131931499e-04
 9.3392399140e-04
 9.3653606018e-04
 9.3915534671e-04
 9.4178196741e-04
 9.4441586407e-04
 9.4705721131e-04
 9.4970595092e-04
 9.5236202469e-04
 9.5502560725e-04
 9.5769658219e-04
 9.6037500771e-04
 9.6306100022e-04
 9.6575455973e-04
 9.6845551161e-04
 9.7116437973e-04
 9.7388052382e-04
 9.7660429310e-04
 9.7933551297e-04
 9.8207464907e-04
 9.8482123576e-04
 9.8757562228e-04
 9.9033769220e-04
 9.9310767837e-04
 9.9588523153e-04
 9.9867058452e-04
 1.0014635045e-03
 1.0042644572e-03
 1.0070730932e-03
 1.0098897619e-03
 1.0127141140e-03
 1.0155464988e-03
 1.0183867998e-03
 1.0212349007e-03
 1.0240911506e-03
 1.0269553168e-03
 1.0298275156e-03
 1.0327076307e-03
 1.0355958948e-03
 1.0384923080e-03
 1.0413966374e-03
 1.0443092324e-03
 1.0472299764e-03
 1.0501588695e-03
 1.0530959116e-03
 1.0560412193e-03
 1.0589947924e-03
 1.0619568639e-03
 1.0649268515e-03
 1.0679053375e-03
 1.0708919726e-03
 1.0738869896e-03
 1.0768905049e-03
 1.0799022857e-03
 1.0829225648e-03
 1.0859515751e-03
 1.0889888508e-03
 1.0920345085e-03
 1.0950886644e-03
 1.0981514351e-03
 1.1012225877e-03
 1.1043025879e-03
 1.1073909700e-03
 1.1104880832e-03
 1.1135939276e-03
 1.1167083867e-03
 1.1198315769e-03
 1.1229636148e-03
 1.1261042673e-03
 1.1292537674e-03
 1.1324119987e-03
 1.1355790775e-03
 1.1387551203e-03
 1.1419398943e-03
 1.1451336322e-03
 1.1483363342e-03
 1.1515480001e-03
 1.1547686299e-03
 1.1579982238e-03
 1.1612373637e-03
 1.1644851184e-03
 1.1677419534e-03
 1.1710078688e-03
 1.1742828647e-03
 1.1775670573e-03
 1.1808604468e-03
 1.1841630330e-03
 1.1874752818e-03
 1.1907963781e-03
 1.1941269040e-03
 1.1974665103e-03
 1.2008156627e-03
 1.2041740119e-03
 1.2075419072e-03
 1.2109191157e-03
 1.2143057538e-03
 1.2177019380e-03
 1.2211075518e-03
 1.2245227117e-03
 1.2279474176e-03
 1.2313817861e-03
 1.2348255841e-03
 1.2382792775e-03
 1.2417424005e-03
 1.2452153023e-03
 1.2486979831e-03
 1.2521902099e-03
 1.2556923321e-03
 1.2592042331e-03
 1.2627259130e-03
 1.2662574882e-03
 1.2697994243e-03
 1.2733507901e-03
 1.2769120513e-03
 1.2804833241e-03
 1.2840644922e-03
 1.2876557885e-03
 1.2912570965e-03
 1.2948684162e-03
 1.2984903296e-03
 1.3021219056e-03
 1.3057637261e-03
 1.3094155584e-03
 1.3130777515e-03
 1.3167501893e-03
 1.3204328716e-03
 1.3241257984e-03
 1.3278290862e-03
 1.3315427350e-03
 1.3352667447e-03
 1.3390012318e-03
 1.3427461963e-03
 1.3465015218e-03
 1.3502673246e-03
 1.3540438376e-03
 1.3578307116e-03
 1.3616282959e-03
 1.3654364739e-03
 1.3692552457e-03
 1.3730848441e-03
 1.3769250363e-03
 1.3807760552e-03
 1.3846377842e-03
 1.3885106891e-03
 1.3923940714e-03
 1.3962882804e-03
 1.4001934323e-03
 1.4041095274e-03
 1.4080364490e-03
 1.4119744301e-03
 1.4159234706e-03
 1.4198839199e-03
 1.4238550793e-03
 1.4278372983e-03
 1.4318305766e-03
 1.4358351473e-03
 1.4398507774e-03
 1.4438778162e-03
 1.4479160309e-03
 1.4519654214e-03
 1.4560263371e-03
 1.4600985451e-03
 1.4641820453e-03
 1.4682771871e-03
 1.4723836211e-03
 1.4765014639e-03
 1.4806309482e-03
 1.4847718412e-03
 1.4889246086e-03
 1.4930887846e-03
 1.4972646022e-03
 1.5014520613e-03
 1.5056513948e-03
 1.5098622534e-03
 1.5140851028e-03
 1.5183201758e-03
 1.5225665411e-03
 1.5268248972e-03
 1.5310950112e-03
 1.5353771159e-03
 1.5396713279e-03
 1.5439774143e-03
 1.5482956078e-03
 1.5526263742e-03
 1.5569687821e-03
 1.5613232972e-03
 1.5656899195e-03
 1.5700688818e-03
 1.5744599514e-03
 1.5788634773e-03
 1.5832792269e-03
 1.5877072001e-03
 1.5921477461e-03
 1.5966005158e-03
 1.6010659747e-03
 1.6055437736e-03
 1.6100340290e-03
 1.6145369736e-03
 1.6190524912e-03
 1.6235806979e-03
 1.6281215940e-03
 1.6326749464e-03
 1.6372412210e-03
 1.6418203013e-03
 1.6464120708e-03
 1.6510167625e-03
 1.6556342598e-03
 1.6602652613e-03
 1.6649087192e-03
 1.6695649829e-03
 1.6742344014e-03
 1.6789168585e-03
 1.6836124705e-03
 1.6883212375e-03
 1.6930430429e-03
 1.6977787018e-03
 1.7025270499e-03
 1.7072886694e-03
 1.7120634438e-03
 1.7168518389e-03
 1.7216535052e-03
 1.7264685594e-03
 1.7312971177e-03
 1.7361391801e-03
 1.7409947468e-03
 1.7458640505e-03
 1.7507467419e-03
 1.7556431703e-03
 1.7605534522e-03
 1.7654773546e-03
 1.7704148777e-03
 1.7753664870e-03
 1.7803317169e-03
 1.7853109166e-03
 1.7903039698e-03
 1.7953112256e-03
 1.8003323348e-03
 1.8053674139e-03
 1.8104165792e-03
 1.8154805293e-03
 1.8205579836e-03
 1.8256498734e-03
 1.8307557330e-03
 1.8358759116e-03
 1.8410105258e-03
 1.8461593427e-03
 1.8513227114e-03
 1.8565010978e-03
 1.8616933376e-03
 1.8669000128e-03
 1.8721214728e-03
 1.8773572519e-03
 1.8826079322e-03
 1.8878730480e-03
 1.8931531813e-03
 1.8984478666e-03
 1.9037574530e-03
 1.9090818241e-03
 1.9144210964e-03
 1.9197752699e-03
 1.9251445774e-03
 1.9305287860e-03
 1.9359280122e-03
 1.9413423724e-03
 1.9467718666e-03
 1.9522166112e-03
 1.9576763734e-03
 1.9631516188e-03
 1.9686419982e-03
 1.9741479773e-03
 1.9796693232e-03
 1.9852067344e-03
 1.9907588139e-03
 1.9963264931e-03
 2.0019097719e-03
 2.0075088833e-03
 2.0131233614e-03
 2.0187536720e-03
 2.0243995823e-03
 2.0300622564e-03
 2.0357398316e-03
 2.0414332394e-03
 2.0471427124e-03
 2.0528682508e-03
 2.0586096216e-03
 2.0643670578e-03
 2.0701405592e-03
 2.0759303588e-03
 2.0817362238e-03
 2.0875583868e-03
 2.0933970809e-03
 2.0992518403e-03
 2.1051226649e-03
 2.1110104863e-03
 2.1169143729e-03
 2.1228350233e-03
 2.1287722047e-03
 2.1347259171e-03
 2.1406961605e-03
 2.1466831677e-03
 2.1526871715e-03
 2.1587077063e-03
 2.1647450048e-03
 2.1708002314e-03
 2.1768712904e-03
 2.1829595789e-03
 2.1890648641e-03
 2.1951873787e-03
 2.2013266571e-03
 2.2074833978e-03
 2.2136571351e-03
 2.2198490333e-03
 2.2260574624e-03
 2.2322833538e-03
 2.2385264747e-03
 2.2447872907e-03
 2.2510655690e-03
 2.2573610768e-03
 2.2636745125e-03
 2.2700056434e-03
 2.2763542365e-03
 2.2827207576e-03
 2.2891049739e-03
 2.2955071181e-03
 2.3019271903e-03
 2.3083651904e-03
 2.3148211185e-03
 2.3212949745e-03
 2.3277874570e-03
 2.3342976347e-03
 2.3408262059e-03
 2.3473729379e-03
 2.3539380636e-03
 2.3605215829e-03
 2.3671232630e-03
 2.3737445008e-03
 2.3803832009e-03
 2.3870407604e-03
 2.3937167134e-03
 2.4004115257e-03
 2.4071249645e-03
 2.4138570298e-03
 2.4206081871e-03
 2.4273789022e-03
 2.4341677781e-03
 2.4409755133e-03
 2.4478025734e-03
 2.4546484929e-03
 2.4615135044e-03
 2.4683978409e-03
 2.4753015023e-03
 2.4822242558e-03
 2.4891665671e-03
 2.4961282033e-03
 2.5031093974e-03
 2.5101101492e-03
 2.5171302259e-03
 2.5241700932e-03
 2.5312297512e-03
 2.5383089669e-03
 2.5454079732e-03
 2.5525270030e-03
 2.5596658234e-03
 2.5668246672e-03
 2.5740035344e-03
 2.5812024251e-03
 2.5884215720e-03
 2.5956616737e-03
 2.6029211003e-03
 2.6102010161e-03
 2.6175011881e-03
 2.6248218492e-03
 2.6321627665e-03
 2.6395244058e-03
 2.6469065342e-03
 2.6543103158e-03
 2.6617338881e-03
 2.6691781823e-03
 2.6766431984e-03
 2.6841291692e-03
 2.6916360948e-03
 2.6991639752e-03
 2.7067130432e-03
 2.7142830659e-03
 2.7218745090e-03
 2.7294869069e-03
 2.7371207252e-03
 2.7447757311e-03
 2.7524523903e-03
 2.7601504698e-03
 2.7678699698e-03
 2.7756111231e-03
 2.7833739296e-03
 2.7911583893e-03
 2.7989647351e-03
 2.8067927342e-03
 2.8146435507e-03
 2.8225155547e-03
 2.8304094449e-03
 2.8383254539e-03
 2.8462638147e-03
 2.8542242944e-03
 2.8622068930e-03
 2.8702118434e-03
 2.8782391455e-03
 2.8862890322e-03
 2.8943610378e-03
 2.9024560936e-03
 2.9105737340e-03
 2.9187139589e-03
 2.9268767685e-03
 2.9350635596e-03
 2.9432724696e-03
 2.9515041970e-03
 2.9597592074e-03
 2.9680368025e-03
 2.9763379134e-03
 2.9846618418e-03
 2.9930095188e-03
 3.0013802461e-03
 3.0097742565e-03
 3.0181920156e-03
 3.0266332906e-03
 3.0350980815e-03
 3.0435866211e-03
 3.0520989094e-03
 3.0606349465e-03
 3.0691958964e-03
 3.0777796637e-03
 3.0863874126e-03
 3.0950196087e-03
 3.1036757864e-03
 3.1123559456e-03
 3.1210605521e-03
 3.1297893729e-03
 3.1385438051e-03
 3.1473215204e-03
 3.1561239157e-03
 3.1649512239e-03
 3.1738027465e-03
 3.1826791819e-03
 3.1915805303e-03
 3.2005065586e-03
 3.2094577327e-03
 3.2184340525e-03
 3.2274352852e-03
 3.2364614308e-03
 3.2455131877e-03
 3.2545900904e-03
 3.2636926044e-03
 3.2728204969e-03
 3.2819749322e-03
 3.2911540475e-03
 3.3003587741e-03
 3.3095888793e-03
 3.3188452944e-03
 3.3281273209e-03
 3.3374351915e-03
 3.3467693720e-03
 3.3561296295e-03
 3.3655159641e-03
 3.3749286085e-03
 3.3843675628e-03
 3.3938328270e-03
 3.4033246338e-03
 3.4128432162e-03
 3.4223881084e-03
 3.4319609404e-03
 3.4415593836e-03
 3.4511848353e-03
 3.4608370624e-03
 3.4705160651e-03
 3.4802223090e-03
 3.4899557941e-03
 3.4997162875e-03
 3.5095042549e-03
 3.5193194635e-03
 3.5291626118e-03
 3.5390327685e-03
 3.5489308648e-03
 3.5588562023e-03
 3.5688097123e-03
 3.5787909292e-03
 3.5888012499e-03
 3.5988383461e-03
 3.6089033820e-03
 3.6189968232e-03
 3.6291182041e-03
 3.6392679904e-03
 3.6494461820e-03
 3.6596530117e-03
 3.6698884796e-03
 3.6801521201e-03
 3.6904448643e-03
 3.7007662468e-03
 3.7111162674e-03
 3.7214953918e-03
 3.7319036201e-03
 3.7423411850e-03
 3.7528087851e-03
 3.7633047905e-03
 3.7738296669e-03
 3.7843845785e-03
 3.7949685939e-03
 3.8055824116e-03
 3.8162255660e-03
 3.8268987555e-03
 3.8376019802e-03
 3.8483347744e-03
 3.8590978365e-03
 3.8698907010e-03
 3.8807140663e-03
 3.8915676996e-03
 3.9024513680e-03
 3.9133657701e-03
 3.9243116044e-03
 3.9352872409e-03
 3.9462931454e-03
 3.9573302492e-03
 3.9683980867e-03
 3.9794966578e-03
 3.9906264283e-03
 4.0017873980e-03
 4.0129800327e-03
 4.0242034011e-03
 4.0354579687e-03
 4.0467446670e-03
 4.0580620989e-03
 4.0694116615e-03
 4.0807928890e-03
 4.0922062472e-03
 4.1036526673e-03
 4.1151293553e-03
 4.1266386397e-03
 4.1381800547e-03
 4.1497531347e-03
 4.1613597423e-03
 4.1729975492e-03
 4.1846688837e-03
 4.1963723488e-03
 4.2081088759e-03
 4.2198779993e-03
 4.2316801846e-03
 4.2435149662e-03
 4.2553832754e-03
 4.2672846466e-03
 4.2792195454e-03
 4.2911889032e-03
 4.3031903915e-03
 4.3152254075e-03
 4.3272939511e-03
 4.3393964879e-03
 4.3515334837e-03
 4.3637035415e-03
 4.3759080581e-03
 4.3881461024e-03
 4.4004190713e-03
 4.4127260335e-03
 4.4250674546e-03
 4.4374433346e-03
 4.4498541392e-03
 4.4622989371e-03
 4.4747791253e-03
 4.4872956350e-03
 4.4998456724e-03
 4.5124311000e-03
 4.5250509866e-03
 4.5377067290e-03
 4.5503973961e-03
 4.5631239191e-03
 4.5758862980e-03
 4.5886840671e-03
 4.6015176922e-03
 4.6143871732e-03
 4.6272925101e-03
 4.6402337030e-03
 4.6532116830e-03
 4.6662259847e-03
 4.6792761423e-03
 4.6923644841e-03
 4.7054882161e-03
 4.7186482698e-03
 4.7318455763e-03
 4.7450792044e-03
 4.7583500855e-03
 4.7716582194e-03
 4.7850036062e-03
 4.7983862460e-03
 4.8118066043e-03
 4.8252642155e-03
 4.8387590796e-03
 4.8522921279e-03
 4.8658628948e-03
 4.8794718459e-03
 4.8931185156e-03
 4.9068052322e-03
 4.9205282703e-03
 4.9342899583e-03
 4.9480902962e-03
 4.9619288184e-03
 4.9758064561e-03
 4.9897227436e-03
 5.0036776811e-03
 5.0176721998e-03
 5.0317053683e-03
 5.0457776524e-03
 5.0598899834e-03
 5.0740414299e-03
 5.0882319920e-03
 5.1024630666e-03
 5.1167337224e-03
 5.1310458221e-03
 5.1453961059e-03
 5.1597864367e-03
 5.1742172800e-03
 5.1886886358e-03
 5.2032000385e-03
 5.2177524194e-03
 5.2323453128e-03
 5.2469791844e-03
 5.2616535686e-03
 5.2763693966e-03
 5.2911262028e-03
 5.3059244528e-03
 5.3207641467e-03
 5.3356448188e-03
 5.3505678661e-03
 5.3655337542e-03
 5.3805401549e-03
 5.3955879994e-03
 5.4106786847e-03
 5.4258108139e-03
 5.4409857839e-03
 5.4562031291e-03
 5.4714628495e-03
 5.4867654108e-03
 5.5021108128e-03
 5.5174990557e-03
 5.5329301395e-03
 5.5484045297e-03
 5.5639222264e-03
 5.5794836953e-03
 5.5950880051e-03
 5.6107384153e-03
 5.6264298037e-03
 5.6421658956e-03
 5.6579457596e-03
 5.6737703271e-03
 5.6896382011e-03
 5.7055507787e-03
 5.7215080597e-03
 5.7375100441e-03
 5.7535562664e-03
 5.7696476579e-03
 5.7857846841e-03
 5.8019664139e-03
 5.8181928471e-03
 5.8344653808e-03
 5.8507826179e-03
 5.8671482839e-03
 5.8835572563e-03
 5.9000123292e-03
 5.9165135026e-03
 5.9330607764e-03
 5.9496541508e-03
 5.9662940912e-03
 5.9829805978e-03
 5.9997136705e-03
 6.0164933093e-03
 6.0333204456e-03
 6.0501941480e-03
 6.0671153478e-03
 6.0840835795e-03
 6.1010997742e-03
 6.1181634665e-03
 6.1352765188e-03
 6.1524352059e-03
 6.1696423218e-03
 6.1868974008e-03
 6.2042004429e-03
 6.2215523794e-03
 6.2389532104e-03
 6.2564015388e-03
 6.2738996930e-03
 6.2914467417e-03
 6.3090422191e-03
 6.3266875222e-03
 6.3443812542e-03
 6.3621257432e-03
 6.3799195923e-03
 6.3977623358e-03
 6.4156576991e-03
 6.4336010255e-03
 6.4515941776e-03
 6.4696380869e-03
 6.4877322875e-03
 6.5058767796e-03
 6.5240724944e-03
 6.5423189662e-03
 6.5606166609e-03
 6.5789646469e-03
 6.5973647870e-03
 6.6158161499e-03
 6.6343196668e-03
 6.6528739408e-03
 6.6714808345e-03
 6.6901398823e-03
 6.7088520154e-03
 6.7276153713e-03
 6.7464313470e-03
 6.7652999423e-03
 6.7842206918e-03
 6.8031949922e-03
 6.8222219124e-03
 6.8413023837e-03
 6.8604359403e-03
 6.8796230480e-03
 6.8988637067e-03
 6.9181583822e-03
 6.9375070743e-03
 6.9569093175e-03
 6.9763660431e-03
 6.9958781824e-03
 7.0154462010e-03
 7.0350668393e-03
 7.0547424257e-03
 7.0744729601e-03
 7.0942589082e-03
 7.1140998043e-03
 7.1339961141e-03
 7.1539487690e-03
 7.1739563718e-03
 7.1940207854e-03
