aces_1.2/luts/Log2_108_nits_Shaper_to_linear.spi1d
Version 1
From 0 1
Length 4096
Components 1
{
 4.3945314246e-05
 4.4094329496e-05
 4.4243875891e-05
 4.4393902499e-05
 4.4544442062e-05
 4.4695483666e-05
 4.4847074605e-05
 4.4999145757e-05
 4.5151733502e-05
 4.5304837840e-05
 4.5458495151e-05
 4.5612636313e-05
 4.5767304982e-05
 4.5922501158e-05
 4.6078246669e-05
 4.6234494221e-05
 4.6391272917e-05
 4.6548582759e-05
 4.6706456487e-05
 4.6864832257e-05
 4.7023746447e-05
 4.7183195420e-05
 4.7343222832e-05
 4.7503755923e-05
 4.7664841986e-05
 4.7826466471e-05
 4.7988669394e-05
 4.8151399824e-05
 4.8314675951e-05
 4.8478505050e-05
 4.8642927140e-05
 4.8807865824e-05
 4.8973372031e-05
 4.9139434850e-05
 4.9306097935e-05
 4.9473284889e-05
 4.9641046644e-05
 4.9809372285e-05
 4.9978305469e-05
 5.0147777074e-05
 5.0317823479e-05
 5.0488448323e-05
 5.0659680710e-05
 5.0831462431e-05
 5.1003829867e-05
 5.1176775742e-05
 5.1350347348e-05
 5.1524471928e-05
 5.1699189498e-05
 5.1874496421e-05
 5.2050425438e-05
 5.2226929256e-05
 5.2404022426e-05
 5.2581719501e-05
 5.2760053222e-05
 5.2938961744e-05
 5.3118470532e-05
 5.3298590501e-05
 5.3479358030e-05
 5.3660700360e-05
 5.3842653870e-05
 5.4025233112e-05
 5.4208463553e-05
 5.4392276070e-05
 5.4576717957e-05
 5.4761781939e-05
 5.4947511671e-05
 5.5133830756e-05
 5.5320790125e-05
 5.5508375226e-05
 5.5696633353e-05
 5.5885499023e-05
 5.6074997701e-05
 5.6265140302e-05
 5.6455970480e-05
 5.6647408201e-05
 5.6839493482e-05
 5.7032229961e-05
 5.7225661294e-05
 5.7419707446e-05
 5.7614412071e-05
 5.7809775171e-05
 5.8005840401e-05
 5.8202535001e-05
 5.8399891714e-05
 5.8597925090e-05
 5.8796660596e-05
 5.8996032749e-05
 5.9196081565e-05
 5.9396814322e-05
 5.9598263761e-05
 5.9800353483e-05
 6.0003130784e-05
 6.0206595663e-05
 6.0410788137e-05
 6.0615635448e-05
 6.0821177613e-05
 6.1027418269e-05
 6.1234393797e-05
 6.1442035076e-05
 6.1650382122e-05
 6.1859434936e-05
 6.2069229898e-05
 6.2279701524e-05
 6.2490886194e-05
 6.2702791183e-05
 6.2915445596e-05
 6.3128791226e-05
 6.3342849899e-05
 6.3557643443e-05
 6.3773208240e-05
 6.3989449700e-05
 6.4206433308e-05
 6.4424151788e-05
 6.4642648795e-05
 6.4861844294e-05
 6.5081789216e-05
 6.5302469011e-05
 6.5523956437e-05
 6.5746135078e-05
 6.5969077696e-05
 6.6192769737e-05
 6.6417262133e-05
 6.6642482125e-05
 6.6868466092e-05
 6.7095206759e-05
 6.7322762334e-05
 6.7551045504e-05
 6.7780107202e-05
 6.8009940151e-05
 6.8240602559e-05
 6.8471999839e-05
 6.8704182922e-05
 6.8937151809e-05
 6.9170957431e-05
 6.9405505201e-05
 6.9640853326e-05
 6.9877001806e-05
 7.0113994298e-05
 7.0351743489e-05
 7.0590300311e-05
 7.0829664764e-05
 7.1069895057e-05
 7.1310882049e-05
 7.1552691224e-05
 7.1795322583e-05
 7.2038812505e-05
 7.2283095506e-05
 7.2528200690e-05
 7.2774135333e-05
 7.3020950367e-05
 7.3268558481e-05
 7.3517003329e-05
 7.3766299465e-05
 7.4016475992e-05
 7.4267460150e-05
 7.4519295595e-05
 7.4771982327e-05
 7.5025578553e-05
 7.5279982411e-05
 7.5535252108e-05
 7.5791380368e-05
 7.6048432675e-05
 7.6306307164e-05
 7.6565054769e-05
 7.6824682765e-05
 7.7085242083e-05
 7.7346623584e-05
 7.7608900028e-05
 7.7872064139e-05
 7.8136174125e-05
 7.8401128121e-05
 7.8666977060e-05
 7.8933728219e-05
 7.9201439803e-05
 7.9470002674e-05
 7.9739482317e-05
 8.0009871454e-05
 8.0281228293e-05
 8.0553450971e-05
 8.0826597696e-05
 8.1100675743e-05
 8.1375736045e-05
 8.1651676737e-05
 8.1928541476e-05
 8.2206359366e-05
 8.2485166786e-05
 8.2764861872e-05
 8.3045510110e-05
 8.3327111497e-05
 8.3609724243e-05
 8.3893239207e-05
 8.4177707322e-05
 8.4463150415e-05
 8.4749612142e-05
 8.5036990640e-05
 8.5325344116e-05
 8.5614672571e-05
 8.5905041487e-05
 8.6196334451e-05
 8.6488616944e-05
 8.6781888967e-05
 8.7076216005e-05
 8.7371481641e-05
 8.7667751359e-05
 8.7965025159e-05
 8.8263361249e-05
 8.8562657766e-05
 8.8862972916e-05
 8.9164292149e-05
 8.9466695499e-05
 8.9770073828e-05
 9.0074470791e-05
 9.0379908215e-05
 9.0686429758e-05
 9.0993940830e-05
 9.1302499641e-05
 9.1612098913e-05
 9.1922804131e-05
 9.2234506155e-05
 9.2547270469e-05
 9.2861089797e-05
 9.3176029623e-05
 9.3491980806e-05
 9.3809008831e-05
 9.4127099146e-05
 9.4446331786e-05
 9.4766597613e-05
 9.5087940281e-05
 9.5410381618e-05
 9.5733965281e-05
 9.6058596682e-05
 9.6384312201e-05
 9.6711148217e-05
 9.7039148386e-05
 9.7368203569e-05
 9.7698364698e-05
 9.8029653600e-05
 9.8362128483e-05
 9.8695665656e-05
 9.9030323327e-05
 9.9366137874e-05
 9.9703138403e-05
 1.0004122305e-04
 1.0038045002e-04
 1.0072082659e-04
 1.0106243280e-04
 1.0140513041e-04
 1.0174898489e-04
 1.0209400352e-04
 1.0244025907e-04
 1.0278762784e-04
 1.0313616804e-04
 1.0348589421e-04
 1.0383687186e-04
 1.0418897728e-04
 1.0454227595e-04
 1.0489676788e-04
 1.0525252583e-04
 1.0560942610e-04
 1.0596754146e-04
 1.0632686462e-04
 1.0668749019e-04
 1.0704925080e-04
 1.0741224833e-04
 1.0777646094e-04
 1.0814199777e-04
 1.0850869876e-04
 1.0887664394e-04
 1.0924583330e-04
 1.0961634689e-04
 1.0998805374e-04
 1.1036100477e-04
 1.1073522182e-04
 1.1111079220e-04
 1.1148756312e-04
 1.1186560732e-04
 1.1224493210e-04
 1.1262561748e-04
 1.1300751794e-04
 1.1339071352e-04
 1.1377521150e-04
 1.1416108464e-04
 1.1454820196e-04
 1.1493662169e-04
 1.1532635835e-04
 1.1571749928e-04
 1.1610989168e-04
 1.1650360830e-04
 1.1689865642e-04
 1.1729512335e-04
 1.1769286357e-04
 1.1809194984e-04
 1.1849238217e-04
 1.1889426241e-04
 1.1929742323e-04
 1.1970194464e-04
 1.2010784849e-04
 1.2051520025e-04
 1.2092385441e-04
 1.2133389828e-04
 1.2174532458e-04
 1.2215823517e-04
 1.2257245544e-04
 1.2298808724e-04
 1.2340513058e-04
 1.2382367277e-04
 1.2424353918e-04
 1.2466484623e-04
 1.2508756481e-04
 1.2551181135e-04
 1.2593741121e-04
 1.2636445172e-04
 1.2679293286e-04
 1.2722297106e-04
 1.2765436259e-04
 1.2808722386e-04
 1.2852156942e-04
 1.2895745749e-04
 1.2939472799e-04
 1.2983351189e-04
 1.3027375098e-04
 1.3071559079e-04
 1.3115882757e-04
 1.3160357776e-04
 1.3204984134e-04
 1.3249769108e-04
 1.3294698147e-04
 1.3339778525e-04
 1.3385013153e-04
 1.3430409308e-04
 1.3475949527e-04
 1.3521645451e-04
 1.3567497081e-04
 1.3613511692e-04
 1.3659673277e-04
 1.3705992023e-04
 1.3752467930e-04
 1.3799111184e-04
 1.3845901412e-04
 1.3892851712e-04
 1.3939962082e-04
 1.3987239799e-04
 1.4034670312e-04
 1.4082259440e-04
 1.4130010095e-04
 1.4177933917e-04
 1.4226009080e-04
 1.4274248679e-04
 1.4322652714e-04
 1.4371228463e-04
 1.4419959916e-04
 1.4468855807e-04
 1.4517919044e-04
 1.4567156904e-04
 1.4616553381e-04
 1.4666115749e-04
 1.4715848374e-04
 1.4765757078e-04
 1.4815825853e-04
 1.4866064885e-04
 1.4916475629e-04
 1.4967065363e-04
 1.5017818077e-04
 1.5068741050e-04
 1.5119838645e-04
 1.5171118139e-04
 1.5222562070e-04
 1.5274180623e-04
 1.5325973800e-04
 1.5377951786e-04
 1.5430097119e-04
 1.5482419985e-04
 1.5534918930e-04
 1.5587607049e-04
 1.5640463971e-04
 1.5693498426e-04
 1.5746713325e-04
 1.5800120309e-04
 1.5853696095e-04
 1.5907453781e-04
 1.5961394820e-04
 1.6015529400e-04
 1.6069837147e-04
 1.6124326794e-04
 1.6179004160e-04
 1.6233876522e-04
 1.6288923507e-04
 1.6344158212e-04
 1.6399579181e-04
 1.6455199511e-04
 1.6510997375e-04
 1.6566985869e-04
 1.6623162082e-04
 1.6679540568e-04
 1.6736099496e-04
 1.6792849055e-04
 1.6849792155e-04
 1.6906938981e-04
 1.6964269162e-04
 1.7021794338e-04
 1.7079513054e-04
 1.7137439863e-04
 1.7195550026e-04
 1.7253859551e-04
 1.7312365526e-04
 1.7371081049e-04
 1.7429984291e-04
 1.7489088350e-04
 1.7548393225e-04
 1.7607909103e-04
 1.7667615612e-04
 1.7727524391e-04
 1.7787638353e-04
 1.7847966228e-04
 1.7908486188e-04
 1.7969212786e-04
 1.8030154752e-04
 1.8091294623e-04
 1.8152639677e-04
 1.8214194279e-04
 1.8275956973e-04
 1.8337940855e-04
 1.8400122644e-04
 1.8462516891e-04
 1.8525133783e-04
 1.8587950035e-04
 1.8650980201e-04
 1.8714224279e-04
 1.8777682271e-04
 1.8841368728e-04
 1.8905257457e-04
 1.8969363009e-04
 1.9033699937e-04
 1.9098240591e-04
 1.9163000979e-04
 1.9227979647e-04
 1.9293180958e-04
 1.9358616555e-04
 1.9424258790e-04
 1.9490123668e-04
 1.9556225743e-04
 1.9622538821e-04
 1.9689075998e-04
 1.9755840185e-04
 1.9822831382e-04
 1.9890062686e-04
 1.9957506447e-04
 2.0025180129e-04
 2.0093099738e-04
 2.0161231805e-04
 2.0229596703e-04
 2.0298194431e-04
 2.0367022080e-04
 2.0436098566e-04
 2.0505396242e-04
 2.0574926748e-04
 2.0644707547e-04
 2.0714713901e-04
 2.0784954540e-04
 2.0855435287e-04
 2.0926153229e-04
 2.0997124375e-04
 2.1068325441e-04
 2.1139766613e-04
 2.1211462445e-04
 2.1283388196e-04
 2.1355558420e-04
 2.1427973115e-04
 2.1500633738e-04
 2.1573554841e-04
 2.1646707319e-04
 2.1720110090e-04
 2.1793774795e-04
 2.1867675241e-04
 2.1941825980e-04
 2.2016229923e-04
 2.2090884158e-04
 2.2165807604e-04
 2.2240969702e-04
 2.2316386458e-04
 2.2392075334e-04
 2.2468004317e-04
 2.2544189414e-04
 2.2620634991e-04
 2.2697339591e-04
 2.2774319223e-04
 2.2851546237e-04
 2.2929032275e-04
 2.3006797710e-04
 2.3084811983e-04
 2.3163091100e-04
 2.3241633608e-04
 2.3320443870e-04
 2.3399537895e-04
 2.3478883668e-04
 2.3558497196e-04
 2.3638397397e-04
 2.3718553712e-04
 2.3798979237e-04
 2.3879681248e-04
 2.3960653925e-04
 2.4041919096e-04
 2.4123443291e-04
 2.4205242516e-04
 2.4287337146e-04
 2.4369692255e-04
 2.4452328216e-04
 2.4535245029e-04
 2.4618441239e-04
 2.4701934308e-04
 2.4785698042e-04
 2.4869741173e-04
 2.4954089895e-04
 2.5038706372e-04
 2.5123610976e-04
 2.5208803709e-04
 2.5294284569e-04
 2.5380071020e-04
 2.5466131046e-04
 2.5552485022e-04
 2.5639150408e-04
 2.5726089370e-04
 2.5813322281e-04
 2.5900852052e-04
 2.5988681591e-04
 2.6076822542e-04
 2.6165248710e-04
 2.6253971737e-04
 2.6343011996e-04
 2.6432340383e-04
 2.6521968539e-04
 2.6611902285e-04
 2.6702141622e-04
 2.6792704011e-04
 2.6883554528e-04
 2.6974716457e-04
 2.7066201437e-04
 2.7157980367e-04
 2.7250070707e-04
 2.7342472458e-04
 2.7435188531e-04
 2.7528236387e-04
 2.7621581103e-04
 2.7715243050e-04
 2.7809242602e-04
 2.7903541923e-04
 2.7998161386e-04
 2.8093098081e-04
 2.8188360739e-04
 2.8283961001e-04
 2.8379869764e-04
 2.8476104490e-04
 2.8572682641e-04
 2.8669569292e-04
 2.8766784817e-04
 2.8864332126e-04
 2.8962208307e-04
 2.9060433735e-04
 2.9158976395e-04
 2.9257850838e-04
 2.9357080348e-04
 2.9456627090e-04
 2.9556514346e-04
 2.9656736297e-04
 2.9757298762e-04
 2.9858225025e-04
 2.9959468520e-04
 3.0061061261e-04
 3.0163011979e-04
 3.0265294481e-04
 3.0367920408e-04
 3.0470895581e-04
 3.0574220000e-04
 3.0677914037e-04
 3.0781939859e-04
 3.0886317836e-04
 3.0991071253e-04
 3.1096159364e-04
 3.1201602542e-04
 3.1307403697e-04
 3.1413565739e-04
 3.1520106131e-04
 3.1626987038e-04
 3.1734231743e-04
 3.1841860618e-04
 3.1949832919e-04
 3.2058171928e-04
 3.2166877645e-04
 3.2275952981e-04
 3.2385421218e-04
 3.2495235791e-04
 3.2605425804e-04
 3.2716005808e-04
 3.2826943789e-04
 3.2938257209e-04
 3.3049948979e-04
 3.3162016189e-04
 3.3274487942e-04
 3.3387317671e-04
 3.3500531572e-04
 3.3614150016e-04
 3.3728135168e-04
 3.3842504490e-04
 3.3957260894e-04
 3.4072404378e-04
 3.4187964047e-04
 3.4303890425e-04
 3.4420212614e-04
 3.4536950989e-04
 3.4654064802e-04
 3.4771571518e-04
 3.4889479866e-04
 3.5007786937e-04
 3.5126516013e-04
 3.5245626350e-04
 3.5365141230e-04
 3.5485086846e-04
 3.5605413723e-04
 3.5726145143e-04
 3.5847289837e-04
 3.5968847806e-04
 3.6090836511e-04
 3.6213218118e-04
 3.6336013000e-04
 3.6459247349e-04
 3.6582877510e-04
 3.6706929677e-04
 3.6831395118e-04
 3.6956291297e-04
 3.7081629853e-04
 3.7207370042e-04
 3.7333535147e-04
 3.7460157182e-04
 3.7587180850e-04
 3.7714635255e-04
 3.7842520396e-04
 3.7970839185e-04
 3.8099620724e-04
 3.8228815538e-04
 3.8358443999e-04
 3.8488541031e-04
 3.8619051338e-04
 3.8750004023e-04
 3.8881399087e-04
 3.9013242349e-04
 3.9145560004e-04
 3.9278299664e-04
 3.9411487523e-04
 3.9545155596e-04
 3.9679248584e-04
 3.9813798503e-04
 3.9948802441e-04
 4.0084266220e-04
 4.0220213123e-04
 4.0356599493e-04
 4.0493439883e-04
 4.0630777949e-04
 4.0768552572e-04
 4.0906795766e-04
 4.1045507533e-04
 4.1184687871e-04
 4.1324368794e-04
 4.1464497917e-04
 4.1605098522e-04
 4.1746205534e-04
 4.1887763655e-04
 4.2029799079e-04
 4.2172320536e-04
 4.2315319297e-04
 4.2458833195e-04
 4.2602809845e-04
 4.2747272528e-04
 4.2892253259e-04
 4.3037696742e-04
 4.3183634989e-04
 4.3330062181e-04
 4.3476992869e-04
 4.3624447426e-04
 4.3772373465e-04
 4.3920800090e-04
 4.4069759315e-04
 4.4219195843e-04
 4.4369141688e-04
 4.4519591029e-04
 4.4670555508e-04
 4.4822058408e-04
 4.4974047341e-04
 4.5126545592e-04
 4.5279596816e-04
 4.5433136984e-04
 4.5587195200e-04
 4.5741777285e-04
 4.5896886149e-04
 4.6052545076e-04
 4.6208704589e-04
 4.6365396702e-04
 4.6522644698e-04
 4.6680402011e-04
 4.6838689013e-04
 4.6997514437e-04
 4.7156878281e-04
 4.7316812561e-04
 4.7477259068e-04
 4.7638249816e-04
 4.7799819731e-04
 4.7961904784e-04
 4.8124539899e-04
 4.8287727986e-04
 4.8451463226e-04
 4.8615789274e-04
 4.8780642101e-04
 4.8946053721e-04
 4.9112056149e-04
 4.9278588267e-04
 4.9445690820e-04
 4.9613352166e-04
 4.9781589769e-04
 4.9950426910e-04
 5.0119805383e-04
 5.0289760111e-04
 5.0460314378e-04
 5.0631427439e-04
 5.0803110935e-04
 5.0975382328e-04
 5.1148229977e-04
 5.1321706269e-04
 5.1495729713e-04
 5.1670346875e-04
 5.1845586859e-04
 5.2021397278e-04
 5.2197795594e-04
 5.2374793449e-04
 5.2552390844e-04
 5.2730628522e-04
 5.2909430815e-04
 5.3088838467e-04
 5.3268898046e-04
 5.3449528059e-04
 5.3630769253e-04
 5.3812627448e-04
 5.3995096823e-04
 5.4178229766e-04
 5.4361938965e-04
 5.4546276806e-04
 5.4731272394e-04
 5.4916861700e-04
 5.5103079649e-04
 5.5289926240e-04
 5.5477407295e-04
 5.5665569380e-04
 5.5854325183e-04
 5.6043721270e-04
 5.6233798387e-04
 5.6424480863e-04
 5.6615809444e-04
 5.6807789952e-04
 5.7000416564e-04
 5.7193735847e-04
 5.7387677953e-04
 5.7582271984e-04
 5.7777564507e-04
 5.7973485673e-04
 5.8170064585e-04
 5.8367318707e-04
 5.8565236395e-04
 5.8763864217e-04
 5.8963126503e-04
 5.9163063997e-04
 5.9363723267e-04
 5.9565017000e-04
 5.9766997583e-04
 5.9969659196e-04
 6.0173007660e-04
 6.0377095360e-04
 6.0581823345e-04
 6.0787255643e-04
 6.0993421357e-04
 6.1200238997e-04
 6.1407766771e-04
 6.1615993036e-04
 6.1824923614e-04
 6.2034610892e-04
 6.2244961737e-04
 6.2456028536e-04
 6.2667852035e-04
 6.2880350742e-04
 6.3093577046e-04
 6.3307519304e-04
 6.3522189157e-04
 6.3737627352e-04
 6.3953758217e-04
 6.4170616679e-04
 6.4388255123e-04
 6.4606592059e-04
 6.4825668233e-04
 6.5045483643e-04
 6.5266049933e-04
 6.5487402026e-04
 6.5709464252e-04
 6.5932277357e-04
 6.6155893728e-04
 6.6380220233e-04
 6.6605309257e-04
 6.6831160802e-04
 6.7057780689e-04
 6.7285209661e-04
 6.7513366230e-04
 6.7742302781e-04
 6.7972054239e-04
 6.8202539114e-04
 6.8433809793e-04
 6.8665860454e-04
 6.8898696918e-04
 6.9132371573e-04
 6.9366791286e-04
 6.9602008443e-04
 6.9838069612e-04
 7.0074881660e-04
 7.0312502794e-04
 7.0550950477e-04
 7.0790178142e-04
 7.1030243998e-04
 7.1271107299e-04
 7.1512797149e-04
 7.1755296085e-04
 7.1998633211e-04
 7.2242773604e-04
 7.2487763828e-04
 7.2733563138e-04
 7.2980218101e-04
 7.3227687972e-04
 7.3476025136e-04
 7.3725171387e-04
 7.3975190753e-04
 7.4226036668e-04
 7.4477755697e-04
 7.4730301276e-04
 7.4983731611e-04
 7.5237994315e-04
 7.5493141776e-04
 7.5749133248e-04
 7.6006009476e-04
 7.6263747178e-04
 7.6522369636e-04
 7.6781847747e-04
 7.7042239718e-04
 7.7303481521e-04
 7.7565631364e-04
 7.7828654321e-04
 7.8092585318e-04
 7.8357395250e-04
 7.8623119043e-04
 7.8889721772e-04
 7.9157255823e-04
 7.9425674630e-04
 7.9695018940e-04
 7.9965259647e-04
 8.0236443318e-04
 8.0508517567e-04
 8.0781540601e-04
 8.1055460032e-04
 8.1330339890e-04
 8.1606127787e-04
 8.1882876111e-04
 8.2160526654e-04
 8.2439155085e-04
 8.2718703197e-04
 8.2999217557e-04
 8.3280657418e-04
 8.3563086810e-04
 8.3846435882e-04
 8.4130780306e-04
 8.4416061873e-04
 8.4702338791e-04
 8.4989552852e-04
 8.5277773906e-04
 8.5566937923e-04
 8.5857120575e-04
 8.6148246191e-04
 8.6440402083e-04
 8.6733512580e-04
 8.7027641712e-04
 8.7322748732e-04
 8.7618880207e-04
 8.7915989570e-04
 8.8214129210e-04
 8.8513264200e-04
 8.8813423645e-04
 8.9114590082e-04
 8.9416798437e-04
 8.9719996322e-04
 9.0024259407e-04
 9.0329517843e-04
 9.0635853121e-04
 9.0943189571e-04
 9.1251597041e-04
 9.1561023146e-04
 9.1871531913e-04
 9.2183059314e-04
 9.2495669378e-04
 9.2809315538e-04
 9.3124056002e-04
 9.3439826742e-04
 9.3756703427e-04
 9.4074627850e-04
 9.4393652398e-04
 9.4713730505e-04
 9.5034937840e-04
 9.5357187092e-04
 9.5680565573e-04
 9.6005009254e-04
 9.6330582164e-04
 9.6657226095e-04
 9.6985016717e-04
 9.7313884180e-04
 9.7643904155e-04
 9.7975006793e-04
 9.8307256121e-04
 9.8640611395e-04
 9.8975130823e-04
 9.9310732912e-04
 9.9647522438e-04
 9.9985417910e-04
 1.0032450082e-03
 1.0066467803e-03
 1.0100606596e-03
 1.0134855984e-03
 1.0169226443e-03
 1.0203709826e-03
 1.0238311952e-03
 1.0273029329e-03
 1.0307867778e-03
 1.0342820315e-03
 1.0377895087e-03
 1.0413086275e-03
 1.0448398534e-03
 1.0483828373e-03
 1.0519381613e-03
 1.0555052431e-03
 1.0590846650e-03
 1.0626759613e-03
 1.0662797140e-03
 1.0698954575e-03
 1.0735236574e-03
 1.0771638481e-03
 1.0808167281e-03
 1.0844817152e-03
 1.0881595081e-03
 1.0918492917e-03
 1.0955519974e-03
 1.0992669268e-03
 1.1029947782e-03
 1.1067349697e-03
 1.1104880832e-03
 1.1142536532e-03
 1.1180324946e-03
 1.1218235595e-03
 1.1256278958e-03
 1.1294448050e-03
 1.1332749855e-03
 1.1371178553e-03
 1.1409741128e-03
 1.1448430596e-03
 1.1487255106e-03
 1.1526206508e-03
 1.1565295281e-03
 1.1604512110e-03
 1.1643865146e-03
 1.1683348566e-03
 1.1722969357e-03
 1.1762720533e-03
 1.1802611407e-03
 1.1842632666e-03
 1.1882793624e-03
 1.1923087295e-03
 1.1963521829e-03
 1.2004089076e-03
 1.2044797186e-03
 1.2085640337e-03
 1.2126625516e-03
 1.2167745735e-03
 1.2209009146e-03
 1.2250408763e-03
 1.2291953899e-03
 1.2333634077e-03
 1.2375459773e-03
 1.2417424005e-03
 1.2459534919e-03
 1.2501783203e-03
 1.2544180499e-03
 1.2586716330e-03
 1.2629400007e-03
 1.2672225712e-03
 1.2715200428e-03
 1.2758317171e-03
 1.2801582925e-03
 1.2844991870e-03
 1.2888552155e-03
 1.2932255631e-03
 1.2976112776e-03
 1.3020113111e-03
 1.3064268278e-03
 1.3108566636e-03
 1.3153020991e-03
 1.3197622029e-03
 1.3242377900e-03
 1.3287281618e-03
 1.3332342496e-03
 1.3377551222e-03
 1.3422918273e-03
 1.3468433172e-03
 1.3514107559e-03
 1.3559933286e-03
 1.3605918502e-03
 1.3652055059e-03
 1.3698351104e-03
 1.3744800817e-03
 1.3791413512e-03
 1.3838178711e-03
 1.3885106891e-03
 1.3932189904e-03
 1.3979437063e-03
 1.4026840217e-03
 1.4074409846e-03
 1.4122137800e-03
 1.4170025242e-03
 1.4218079159e-03
 1.4266291400e-03
 1.4314671280e-03
 1.4363211812e-03
 1.4411919983e-03
 1.4460789971e-03
 1.4509828761e-03
 1.4559030533e-03
 1.4608403435e-03
 1.4657940483e-03
 1.4707648661e-03
 1.4757520985e-03
 1.4807567932e-03
 1.4857779024e-03
 1.4908164740e-03
 1.4958716929e-03
 1.5009446070e-03
 1.5060340520e-03
 1.5111413086e-03
 1.5162655618e-03
 1.5214075102e-03
 1.5265665716e-03
 1.5317434445e-03
 1.5369375469e-03
 1.5421495773e-03
 1.5473788371e-03
 1.5526263742e-03
 1.5578912571e-03
 1.5631744172e-03
 1.5684749233e-03
 1.5737940557e-03
 1.5791306505e-03
 1.5844858717e-03
 1.5898586717e-03
 1.5952502145e-03
 1.6006595688e-03
 1.6060876660e-03
 1.6115339240e-03
 1.6169989249e-03
 1.6224820865e-03
 1.6279842239e-03
 1.6335046384e-03
 1.6390441451e-03
 1.6446020454e-03
 1.6501793871e-03
 1.6557750059e-03
 1.6613899497e-03
 1.6670236364e-03
 1.6726768808e-03
 1.6783487517e-03
 1.6840404132e-03
 1.6897508176e-03
 1.6954812454e-03
 1.7012305325e-03
 1.7069998430e-03
 1.7127880128e-03
 1.7185964389e-03
 1.7244240735e-03
 1.7302719643e-03
 1.7361391801e-03
 1.7420268850e-03
 1.7479337985e-03
 1.7538615502e-03
 1.7598088598e-03
 1.7657767748e-03
 1.7717642477e-03
 1.7777726753e-03
 1.7838010099e-03
 1.7898501828e-03
 1.7959194956e-03
 1.8020098796e-03
 1.8081202870e-03
 1.8142521149e-03
 1.8204040825e-03
 1.8265773542e-03
 1.8327712314e-03
 1.8389866455e-03
 1.8452224322e-03
 1.8514799885e-03
 1.8577582669e-03
 1.8640581984e-03
 1.8703792011e-03
 1.8767219735e-03
 1.8830858171e-03
 1.8894717796e-03
 1.8958788132e-03
 1.9023081986e-03
 1.9087587716e-03
 1.9152318127e-03
 1.9217260415e-03
 1.9282432040e-03
 1.9347816706e-03
 1.9413429545e-03
 1.9479258917e-03
 1.9545317627e-03
 1.9611592870e-03
 1.9678100944e-03
 1.9744827878e-03
 1.9811787643e-03
 1.9878966268e-03
 1.9946382381e-03
 2.0014017355e-03
 2.0081889816e-03
 2.0149985794e-03
 2.0218319260e-03
 2.0286876243e-03
 2.0355675370e-03
 2.0424698014e-03
 2.0493962802e-03
 2.0563458093e-03
 2.0633193199e-03
 2.0703156479e-03
 2.0773366559e-03
 2.0843807142e-03
 2.0914494526e-03
 2.0985412411e-03
 2.1056579426e-03
 2.1127981599e-03
 2.1199630573e-03
 2.1271517035e-03
 2.1343654953e-03
 2.1416028030e-03
 2.1488654893e-03
 2.1561519243e-03
 2.1634639706e-03
 2.1708002314e-03
 2.1781618707e-03
 2.1855477244e-03
 2.1929594222e-03
 2.2003955673e-03
 2.2078577895e-03
 2.2153442260e-03
 2.2228569724e-03
 2.2303946316e-03
 2.2379583679e-03
 2.2455472499e-03
 2.2531622089e-03
 2.2608025465e-03
 2.2684694268e-03
 2.2761614528e-03
 2.2838807199e-03
 2.2916249000e-03
 2.2993965540e-03
 2.3071935866e-03
 2.3150176276e-03
 2.3228677455e-03
 2.3307451047e-03
 2.3386485409e-03
 2.3465794511e-03
 2.3545364384e-03
 2.3625211325e-03
 2.3705321364e-03
 2.3785713129e-03
 2.3866367992e-03
 2.3947304580e-03
 2.4028508924e-03
 2.4109994993e-03
 2.4191748817e-03
 2.4273789022e-03
 2.4356099311e-03
 2.4438695982e-03
 2.4521565065e-03
 2.4604722857e-03
 2.4688155390e-03
 2.4771878961e-03
 2.4855879601e-03
 2.4940171279e-03
 2.5024742354e-03
 2.5109604467e-03
 2.5194750633e-03
 2.5280192494e-03
 2.5365913752e-03
 2.5451935362e-03
 2.5538241025e-03
 2.5624847040e-03
 2.5711739436e-03
 2.5798932184e-03
 2.5886413641e-03
 2.5974202435e-03
 2.6062277611e-03
 2.6150660124e-03
 2.6239336003e-03
 2.6328319218e-03
 2.6417595800e-03
 2.6507184375e-03
 2.6597066317e-03
 2.6687264908e-03
 2.6777759194e-03
 2.6868567802e-03
 2.6959676761e-03
 2.7051102370e-03
 2.7142830659e-03
 2.7234880254e-03
 2.7327230200e-03
 2.7419903781e-03
 2.7512880042e-03
 2.7606184594e-03
 2.7699794155e-03
 2.7793729678e-03
 2.7887974866e-03
 2.7982550673e-03
 2.8077436145e-03
 2.8172654565e-03
 2.8268184979e-03
 2.8364050668e-03
 2.8460230678e-03
 2.8556745965e-03
 2.8653577901e-03
 2.8750749771e-03
 2.8848238289e-03
 2.8946071398e-03
 2.9044223484e-03
 2.9142722487e-03
 2.9241540469e-03
 2.9340705369e-03
 2.9440196231e-03
 2.9540036339e-03
 2.9640204739e-03
 2.9740720056e-03
 2.9841568321e-03
 2.9942768160e-03
 3.0044298619e-03
 3.0146189965e-03
 3.0248411931e-03
 3.0350990128e-03
 3.0453910585e-03
 3.0557184946e-03
 3.0660801567e-03
 3.0764776748e-03
 3.0869098846e-03
 3.0973786488e-03
 3.1078814063e-03
 3.1184207182e-03
 3.1289951876e-03
 3.1396062113e-03
 3.1502521597e-03
 3.1609355938e-03
 3.1716539524e-03
 3.1824100297e-03
 3.1932010315e-03
 3.2040302176e-03
 3.2148945611e-03
 3.2257970888e-03
 3.2367354725e-03
 3.2477120403e-03
 3.2587249298e-03
 3.2697757706e-03
 3.2808633987e-03
 3.2919896767e-03
 3.3031522762e-03
 3.3143542241e-03
 3.3255927265e-03
 3.3368705772e-03
 3.3481854480e-03
 3.3595399000e-03
 3.3709320705e-03
 3.3823635895e-03
 3.3938328270e-03
 3.4053421114e-03
 3.4168893471e-03
 3.4284768626e-03
 3.4401025623e-03
 3.4517687745e-03
 3.4634731710e-03
 3.4752187785e-03
 3.4870030358e-03
 3.4988280386e-03
 3.5106921569e-03
 3.5225979518e-03
 3.5345428623e-03
 3.5465292167e-03
 3.5585551523e-03
 3.5706232302e-03
 3.5827306565e-03
 3.5948806908e-03
 3.6070703063e-03
 3.6193029955e-03
 3.6315757316e-03
 3.6438910756e-03
 3.6562473979e-03
 3.6686465610e-03
 3.6810867023e-03
 3.6935699172e-03
 3.7060945760e-03
 3.7186627742e-03
 3.7312724162e-03
 3.7439260632e-03
 3.7566213869e-03
 3.7693607155e-03
 3.7821424194e-03
 3.7949685939e-03
 3.8078366779e-03
 3.8207501639e-03
 3.8337060250e-03
 3.8467070553e-03
 3.8597509265e-03
 3.8728399668e-03
 3.8859725464e-03
 3.8991507608e-03
 3.9123725146e-03
 3.9256401360e-03
 3.9389519952e-03
 3.9523094893e-03
