aces_1.2/luts/REDLog3G10_to_linear.spi1d
Version 1
From 0 1
Length 4096
Components 1
{
 -9.9999997765e-03
 -9.9839065224e-03
 -9.9677722901e-03
 -9.9515980110e-03
 -9.9353827536e-03
 -9.9191265181e-03
 -9.9028302357e-03
 -9.8864920437e-03
 -9.8701138049e-03
 -9.8536936566e-03
 -9.8372325301e-03
 -9.8207304254e-03
 -9.8041864112e-03
 -9.7876014188e-03
 -9.7709745169e-03
 -9.7543057054e-03
 -9.7375959158e-03
 -9.7208432853e-03
 -9.7040487453e-03
 -9.6872122958e-03
 -9.6703330055e-03
 -9.6534118056e-03
 -9.6364486963e-03
 -9.6194418147e-03
 -9.6023930237e-03
 -9.5853013918e-03
 -9.5681669191e-03
 -9.5509886742e-03
 -9.5337685198e-03
 -9.5165036619e-03
 -9.4991968945e-03
 -9.4818454236e-03
 -9.4644511119e-03
 -9.4470130280e-03
 -9.4295311719e-03
 -9.4120055437e-03
 -9.3944361433e-03
 -9.3768220395e-03
 -9.3591641635e-03
 -9.3414615840e-03
 -9.3237152323e-03
 -9.3059241772e-03
 -9.2880874872e-03
 -9.2702070251e-03
 -9.2522818595e-03
 -9.2343110591e-03
 -9.2162955552e-03
 -9.1982344165e-03
 -9.1801276430e-03
 -9.1619761661e-03
 -9.1437790543e-03
 -9.1255353764e-03
 -9.1072469950e-03
 -9.0889120474e-03
 -9.0705314651e-03
 -9.0521043167e-03
 -9.0336315334e-03
 -9.0151121840e-03
 -8.9965462685e-03
 -8.9779337868e-03
 -8.9592738077e-03
 -8.9405681938e-03
 -8.9218150824e-03
 -8.9030144736e-03
 -8.8841672987e-03
 -8.8652726263e-03
 -8.8463304564e-03
 -8.8273407891e-03
 -8.8083036244e-03
 -8.7892180309e-03
 -8.7700849399e-03
 -8.7509043515e-03
 -8.7316753343e-03
 -8.7123978883e-03
 -8.6930720136e-03
 -8.6736977100e-03
 -8.6542740464e-03
 -8.6348028854e-03
 -8.6152814329e-03
 -8.5957124829e-03
 -8.5760932416e-03
 -8.5564255714e-03
 -8.5367076099e-03
 -8.5169412196e-03
 -8.4971245378e-03
 -8.4772584960e-03
 -8.4573421627e-03
 -8.4373764694e-03
 -8.4173595533e-03
 -8.3972932771e-03
 -8.3771767095e-03
 -8.3570089191e-03
 -8.3367908373e-03
 -8.3165224642e-03
 -8.2962028682e-03
 -8.2758320495e-03
 -8.2554109395e-03
 -8.2349376753e-03
 -8.2144131884e-03
 -8.1938374788e-03
 -8.1732096151e-03
 -8.1525305286e-03
 -8.1317992881e-03
 -8.1110158935e-03
 -8.0901803449e-03
 -8.0692926422e-03
 -8.0483527854e-03
 -8.0273598433e-03
 -8.0063138157e-03
 -7.9852156341e-03
 -7.9640643671e-03
 -7.9428600147e-03
 -7.9216025770e-03
 -7.9002920538e-03
 -7.8789275140e-03
 -7.8575089574e-03
 -7.8360373154e-03
 -7.8145116568e-03
 -7.7929319814e-03
 -7.7712978236e-03
 -7.7496096492e-03
 -7.7278669924e-03
 -7.7060698532e-03
 -7.6842177659e-03
 -7.6623111963e-03
 -7.6403492130e-03
 -7.6183322817e-03
 -7.5962599367e-03
 -7.5741321780e-03
 -7.5519490056e-03
 -7.5297104195e-03
 -7.5074154884e-03
 -7.4850651436e-03
 -7.4626584537e-03
 -7.4401954189e-03
 -7.4176760390e-03
 -7.3950998485e-03
 -7.3724673130e-03
 -7.3497779667e-03
 -7.3270318098e-03
 -7.3042283766e-03
 -7.2813676670e-03
 -7.2584496811e-03
 -7.2354739532e-03
 -7.2124404833e-03
 -7.1893497370e-03
 -7.1662003174e-03
 -7.1429931559e-03
 -7.1197277866e-03
 -7.0964042097e-03
 -7.0730219595e-03
 -7.0495805703e-03
 -7.0260809734e-03
 -7.0025217719e-03
 -6.9789038971e-03
 -6.9552264176e-03
 -6.9314897992e-03
 -6.9076935761e-03
 -6.8838372827e-03
 -6.8599213846e-03
 -6.8359454162e-03
 -6.8119093776e-03
 -6.7878128029e-03
 -6.7636556923e-03
 -6.7394380458e-03
 -6.7151598632e-03
 -6.6908202134e-03
 -6.6664195620e-03
 -6.6419579089e-03
 -6.6174347885e-03
 -6.5928502008e-03
 -6.5682036802e-03
 -6.5434956923e-03
 -6.5187253058e-03
 -6.4938929863e-03
 -6.4689978026e-03
 -6.4440406859e-03
 -6.4190207049e-03
 -6.3939378597e-03
 -6.3687921502e-03
 -6.3435835764e-03
 -6.3183112070e-03
 -6.2929759733e-03
 -6.2675764784e-03
 -6.2421136536e-03
 -6.2165870331e-03
 -6.1909961514e-03
 -6.1653410085e-03
 -6.1396211386e-03
 -6.1138370074e-03
 -6.0879886150e-03
 -6.0620745644e-03
 -6.0360957868e-03
 -6.0100518167e-03
 -5.9839426540e-03
 -5.9577678330e-03
 -5.9315268882e-03
 -5.9052207507e-03
 -5.8788480237e-03
 -5.8524096385e-03
 -5.8259041980e-03
 -5.7993326336e-03
 -5.7726944797e-03
 -5.7459892705e-03
 -5.7192170061e-03
 -5.6923776865e-03
 -5.6654708460e-03
 -5.6384964846e-03
 -5.6114546023e-03
 -5.5843447335e-03
 -5.5571664125e-03
 -5.5299205706e-03
 -5.5026058108e-03
 -5.4752225988e-03
 -5.4477709346e-03
 -5.4202498868e-03
 -5.3926599212e-03
 -5.3650010377e-03
 -5.3372723050e-03
 -5.3094741888e-03
 -5.2816062234e-03
 -5.2536684088e-03
 -5.2256602794e-03
 -5.1975818351e-03
 -5.1694330759e-03
 -5.1412135363e-03
 -5.1129232161e-03
 -5.0845621154e-03
 -5.0561293028e-03
 -5.0276257098e-03
 -4.9990499392e-03
 -4.9704029225e-03
 -4.9416837282e-03
 -4.9128923565e-03
 -4.8840292729e-03
 -4.8550930806e-03
 -4.8260847107e-03
 -4.7970032319e-03
 -4.7678491101e-03
 -4.7386214137e-03
 -4.7093206085e-03
 -4.6799457632e-03
 -4.6504978091e-03
 -4.6209758148e-03
 -4.5913793147e-03
 -4.5617087744e-03
 -4.5319637284e-03
 -4.5021441765e-03
 -4.4722496532e-03
 -4.4422801584e-03
 -4.4122352265e-03
 -4.3821148574e-03
 -4.3519190513e-03
 -4.3216473423e-03
 -4.2912997305e-03
 -4.2608762160e-03
 -4.2303758673e-03
 -4.1997991502e-03
 -4.1691455990e-03
 -4.1384152137e-03
 -4.1076075286e-03
 -4.0767230093e-03
 -4.0457602590e-03
 -4.0147202089e-03
 -3.9836019278e-03
 -3.9524058811e-03
 -3.9211316034e-03
 -3.8897783961e-03
 -3.8583467249e-03
 -3.8268361241e-03
 -3.7952463608e-03
 -3.7635774352e-03
 -3.7318288814e-03
 -3.7000006996e-03
 -3.6680926569e-03
 -3.6361045204e-03
 -3.6040360574e-03
 -3.5718870349e-03
 -3.5396572202e-03
 -3.5073466133e-03
 -3.4749549814e-03
 -3.4424820915e-03
 -3.4099274781e-03
 -3.3772913739e-03
 -3.3445730805e-03
 -3.3117728308e-03
 -3.2788901590e-03
 -3.2459250651e-03
 -3.2128770836e-03
 -3.1797462143e-03
 -3.1465322245e-03
 -3.1132346485e-03
 -3.0798537191e-03
 -3.0463889707e-03
 -3.0128401704e-03
 -2.9792070854e-03
 -2.9454897158e-03
 -2.9116875958e-03
 -2.8778007254e-03
 -2.8438286390e-03
 -2.8097713366e-03
 -2.7756285854e-03
 -2.7414001524e-03
 -2.7070858050e-03
 -2.6726853102e-03
 -2.6381984353e-03
 -2.6036249474e-03
 -2.5689646136e-03
 -2.5342174340e-03
 -2.4993829429e-03
 -2.4644611403e-03
 -2.4294515606e-03
 -2.3943539709e-03
 -2.3591686040e-03
 -2.3238947615e-03
 -2.2885322105e-03
 -2.2530809510e-03
 -2.2175409831e-03
 -2.1819113754e-03
 -2.1461925935e-03
 -2.1103841718e-03
 -2.0744858775e-03
 -2.0384972449e-03
 -2.0024185069e-03
 -1.9662489649e-03
 -1.9299888518e-03
 -1.8936377019e-03
 -1.8571951659e-03
 -1.8206612440e-03
 -1.7840355868e-03
 -1.7473180778e-03
 -1.7105082516e-03
 -1.6736061079e-03
 -1.6366112977e-03
 -1.5995237045e-03
 -1.5623429790e-03
 -1.5250688884e-03
 -1.4877011999e-03
 -1.4502397971e-03
 -1.4126842143e-03
 -1.3750344515e-03
 -1.3372902758e-03
 -1.2994512217e-03
 -1.2615171727e-03
 -1.2234880123e-03
 -1.1853632750e-03
 -1.1471429607e-03
 -1.1088266037e-03
 -1.0704140877e-03
 -1.0319051798e-03
 -9.9329953082e-04
 -9.5459708245e-04
 -9.1579742730e-04
 -8.7690033251e-04
 -8.3790562348e-04
 -7.9881306738e-04
 -7.5962237315e-04
 -7.2033324977e-04
 -6.8094558083e-04
 -6.4145895885e-04
 -6.0187326744e-04
 -5.6218821555e-04
 -5.2240351215e-04
 -4.8251895350e-04
 -4.4253424858e-04
 -4.0244922275e-04
 -3.6226352677e-04
 -3.2197698602e-04
 -2.8158930945e-04
 -2.4110026425e-04
 -2.0050957392e-04
 -1.5981697652e-04
 -1.1902224651e-04
 -7.8125114669e-05
 -3.7125315430e-05
 3.9773985918e-06
 4.5183289330e-05
 8.6492618721e-05
 1.2790564506e-04
 1.6942262300e-04
 2.1104382176e-04
 2.5276950328e-04
 2.9459991492e-04
 3.3653533319e-04
 3.7857602001e-04
 4.2072223732e-04
 4.6297424706e-04
 5.0533231115e-04
 5.4779672064e-04
 5.9036770836e-04
 6.3304556534e-04
 6.7583058262e-04
 7.1872299304e-04
 7.6172302943e-04
 8.0483104102e-04
 8.4804726066e-04
 8.9137192117e-04
 9.3480537180e-04
 9.7834784538e-04
 1.0219996329e-03
 1.0657609673e-03
 1.1096321978e-03
 1.1536135571e-03
 1.1977052782e-03
 1.2419077102e-03
 1.2862210860e-03
 1.3306456385e-03
 1.3751817169e-03
 1.4198296703e-03
 1.4645897318e-03
 1.5094620176e-03
 1.5544469934e-03
 1.5995448921e-03
 1.6447560629e-03
 1.6900806222e-03
 1.7355190357e-03
 1.7810715362e-03
 1.8267382402e-03
 1.8725197297e-03
 1.9184160046e-03
 1.9644275308e-03
 2.0105547737e-03
 2.0567975007e-03
 2.1031564102e-03
 2.1496317349e-03
 2.1962237079e-03
 2.2429325618e-03
 2.2897587623e-03
 2.3367025424e-03
 2.3837639019e-03
 2.4309437722e-03
 2.4782419205e-03
 2.5256585795e-03
 2.5731944479e-03
 2.6208497584e-03
 2.6686245110e-03
 2.7165191714e-03
 2.7645342052e-03
 2.8126698453e-03
 2.8609260917e-03
 2.9093036428e-03
 2.9578024987e-03
 3.0064231250e-03
 3.0551657546e-03
 3.1040308531e-03
 3.1530186534e-03
 3.2021291554e-03
 3.2513632905e-03
 3.3007208258e-03
 3.3502022270e-03
 3.3998077270e-03
 3.4495380241e-03
 3.4993931185e-03
 3.5493732430e-03
 3.5994788632e-03
 3.6497102119e-03
 3.7000677548e-03
 3.7505514920e-03
 3.8011621218e-03
 3.8518998772e-03
 3.9027647581e-03
 3.9537576959e-03
 4.0048784576e-03
 4.0561272763e-03
 4.1075050831e-03
 4.1590118781e-03
 4.2106476612e-03
 4.2624133639e-03
 4.3143085204e-03
 4.3663345277e-03
 4.4184909202e-03
 4.4707781635e-03
 4.5231967233e-03
 4.5757465996e-03
 4.6284287237e-03
 4.6812430955e-03
 4.7341901809e-03
 4.7872695141e-03
 4.8404829577e-03
 4.8938291147e-03
 4.9473098479e-03
 5.0009246916e-03
 5.0546741113e-03
 5.1085581072e-03
 5.1625776105e-03
 5.2167326212e-03
 5.2710240707e-03
 5.3254510276e-03
 5.3800153546e-03
 5.4347161204e-03
 5.4895542562e-03
 5.5445302278e-03
 5.5996440351e-03
 5.6548966095e-03
 5.7102874853e-03
 5.7658171281e-03
 5.8214869350e-03
 5.8772959746e-03
 5.9332451783e-03
 5.9893345460e-03
 6.0455650091e-03
 6.1019365676e-03
 6.1584496871e-03
 6.2151048332e-03
 6.2719020061e-03
 6.3288416713e-03
 6.3859247603e-03
 6.4431503415e-03
 6.5005202778e-03
 6.5580336377e-03
 6.6156918183e-03
 6.6734943539e-03
 6.7314426415e-03
 6.7895357497e-03
 6.8477750756e-03
 6.9061601534e-03
 6.9646919146e-03
 7.0233708248e-03
 7.0821968839e-03
 7.1411710232e-03
 7.2002927773e-03
 7.2595630772e-03
 7.3189819232e-03
 7.3785502464e-03
 7.4382675812e-03
 7.4981353246e-03
 7.5581534766e-03
 7.6183215715e-03
 7.6786414720e-03
 7.7391122468e-03
 7.7997352928e-03
 7.8605096787e-03
 7.9214377329e-03
 7.9825185239e-03
 8.0437520519e-03
 8.1051392481e-03
 8.1666810438e-03
 8.2283774391e-03
 8.2902284339e-03
 8.3522340283e-03
 8.4143960848e-03
 8.4767136723e-03
 8.5391886532e-03
 8.6018191651e-03
 8.6646080017e-03
 8.7275542319e-03
 8.7906578556e-03
 8.8539198041e-03
 8.9173410088e-03
 8.9809214696e-03
 9.0446621180e-03
 9.1085620224e-03
 9.1726221144e-03
 9.2368433252e-03
 9.3012256548e-03
 9.3657700345e-03
 9.4304755330e-03
 9.4953440130e-03
 9.5603754744e-03
 9.6255699173e-03
 9.6909282729e-03
 9.7564505413e-03
 9.8221376538e-03
 9.8879896104e-03
 9.9540064111e-03
 1.0020188987e-02
 1.0086537339e-02
 1.0153053328e-02
 1.0219735093e-02
 1.0286584496e-02
 1.0353602469e-02
 1.0420788080e-02
 1.0488142259e-02
 1.0555665940e-02
 1.0623359121e-02
 1.0691221803e-02
 1.0759254918e-02
 1.0827459395e-02
 1.0895834304e-02
 1.0964381509e-02
 1.1033100076e-02
 1.1101991870e-02
 1.1171055958e-02
 1.1240293272e-02
 1.1309704743e-02
 1.1379291303e-02
 1.1449051090e-02
 1.1518986896e-02
 1.1589097790e-02
 1.1659384705e-02
 1.1729848571e-02
 1.1800489388e-02
 1.1871307157e-02
 1.1942301877e-02
 1.2013476342e-02
 1.2084828690e-02
 1.2156359851e-02
 1.2228070758e-02
 1.2299962342e-02
 1.2372033671e-02
 1.2444285676e-02
 1.2516720220e-02
 1.2589335442e-02
 1.2662133202e-02
 1.2735114433e-02
 1.2808278203e-02
 1.2881625444e-02
 1.2955157086e-02
 1.3028873131e-02
 1.3102774508e-02
 1.3176861219e-02
 1.3251134194e-02
 1.3325593434e-02
 1.3400238939e-02
 1.3475072570e-02
 1.3550094329e-02
 1.3625303283e-02
 1.3700702228e-02
 1.3776289299e-02
 1.3852067292e-02
 1.3928034343e-02
 1.4004193246e-02
 1.4080543071e-02
 1.4157083817e-02
 1.4233817346e-02
 1.4310742728e-02
 1.4387861826e-02
 1.4465174638e-02
 1.4542681165e-02
 1.4620382339e-02
 1.4698279090e-02
 1.4776370488e-02
 1.4854658395e-02
 1.4933142811e-02
 1.5011824667e-02
 1.5090703033e-02
 1.5169779770e-02
 1.5249055810e-02
 1.5328530222e-02
 1.5408203937e-02
 1.5488077886e-02
 1.5568152070e-02
 1.5648428351e-02
 1.5728903934e-02
 1.5809582546e-02
 1.5890464187e-02
 1.5971548855e-02
 1.6052836552e-02
 1.6134329140e-02
 1.6216026619e-02
 1.6297927126e-02
 1.6380034387e-02
 1.6462348402e-02
 1.6544869170e-02
 1.6627594829e-02
 1.6710530967e-02
 1.6793673858e-02
 1.6877025366e-02
 1.6960585490e-02
 1.7044357955e-02
 1.7128337175e-02
 1.7212530598e-02
 1.7296932638e-02
 1.7381548882e-02
 1.7466375604e-02
 1.7551416531e-02
 1.7636669800e-02
 1.7722137272e-02
 1.7807818949e-02
 1.7893716693e-02
 1.7979830503e-02
 1.8066160381e-02
 1.8152706325e-02
 1.8239468336e-02
 1.8326450139e-02
 1.8413649872e-02
 1.8501067534e-02
 1.8588704988e-02
 1.8676562235e-02
 1.8764641136e-02
 1.8852939829e-02
 1.8941462040e-02
 1.9030204043e-02
 1.9119169563e-02
 1.9208358601e-02
 1.9297773018e-02
 1.9387410954e-02
 1.9477272406e-02
 1.9567361102e-02
 1.9657675177e-02
 1.9748216495e-02
 1.9838985056e-02
 1.9929980859e-02
 2.0021205768e-02
 2.0112657920e-02
 2.0204341039e-02
 2.0296255127e-02
 2.0388398319e-02
 2.0480774343e-02
 2.0573381335e-02
 2.0666221157e-02
 2.0759293810e-02
 2.0852599293e-02
 2.0946141332e-02
 2.1039916202e-02
 2.1133927628e-02
 2.1228173748e-02
 2.1322656423e-02
 2.1417377517e-02
 2.1512335166e-02
 2.1607533097e-02
 2.1702967584e-02
 2.1798642352e-02
 2.1894557402e-02
 2.1990714595e-02
 2.2087112069e-02
 2.2183751687e-02
 2.2280633450e-02
 2.2377759218e-02
 2.2475127131e-02
 2.2572740912e-02
 2.2670598701e-02
 2.2768704221e-02
 2.2867053747e-02
 2.2965651006e-02
 2.3064495996e-02
 2.3163588718e-02
 2.3262931034e-02
 2.3362521082e-02
 2.3462362587e-02
 2.3562453687e-02
 2.3662796244e-02
 2.3763392121e-02
 2.3864239454e-02
 2.3965340108e-02
 2.4066694081e-02
 2.4168301374e-02
 2.4270165712e-02
 2.4372285232e-02
 2.4474659935e-02
 2.4577293545e-02
 2.4680184200e-02
 2.4783331901e-02
 2.4886740372e-02
 2.4990407750e-02
 2.5094334036e-02
 2.5198522955e-02
 2.5302972645e-02
 2.5407684967e-02
 2.5512659922e-02
 2.5617897511e-02
 2.5723399594e-02
 2.5829168037e-02
 2.5935200974e-02
 2.6041498408e-02
 2.6148064062e-02
 2.6254897937e-02
 2.6362000033e-02
 2.6469370350e-02
 2.6577010751e-02
 2.6684919372e-02
 2.6793101802e-02
 2.6901554316e-02
 2.7010278776e-02
 2.7119275182e-02
 2.7228547260e-02
 2.7338093147e-02
 2.7447912842e-02
 2.7558010072e-02
 2.7668381110e-02
 2.7779031545e-02
 2.7889959514e-02
 2.8001165017e-02
 2.8112649918e-02
 2.8224414214e-02
 2.8336459771e-02
 2.8448786587e-02
 2.8561394662e-02
 2.8674287722e-02
 2.8787462041e-02
 2.8900919482e-02
 2.9014663771e-02
 2.9128693044e-02
 2.9243009165e-02
 2.9357610270e-02
 2.9472500086e-02
 2.9587678611e-02
 2.9703145847e-02
 2.9818903655e-02
 2.9934952036e-02
 3.0051290989e-02
 3.0167922378e-02
 3.0284846202e-02
 3.0402064323e-02
 3.0519574881e-02
 3.0637383461e-02
 3.0755484477e-02
 3.0873883516e-02
 3.0992580578e-02
 3.1111573800e-02
 3.1230866909e-02
 3.1350459903e-02
 3.1470350921e-02
 3.1590543687e-02
 3.1711041927e-02
 3.1831838191e-02
 3.1952939928e-02
 3.2074343413e-02
 3.2196052372e-02
 3.2318066806e-02
 3.2440390438e-02
 3.2563019544e-02
 3.2685954124e-02
 3.2809197903e-02
 3.2932754606e-02
 3.3056616783e-02
 3.3180791885e-02
 3.3305279911e-02
 3.3430080861e-02
 3.3555191010e-02
 3.3680617809e-02
 3.3806361258e-02
 3.3932417631e-02
 3.4058790654e-02
 3.4185484052e-02
 3.4312490374e-02
 3.4439820796e-02
 3.4567467868e-02
 3.4695435315e-02
 3.4823723137e-02
 3.4952335060e-02
 3.5081271082e-02
 3.5210527480e-02
 3.5340107977e-02
 3.5470016301e-02
 3.5600248724e-02
 3.5730808973e-02
 3.5861697048e-02
 3.5992916673e-02
 3.6124460399e-02
 3.6256339401e-02
 3.6388546228e-02
 3.6521084607e-02
 3.6653954536e-02
 3.6787159741e-02
 3.6920700222e-02
 3.7054575980e-02
 3.7188787013e-02
 3.7323337048e-02
 3.7458222359e-02
 3.7593446672e-02
 3.7729009986e-02
 3.7864912301e-02
 3.8001157343e-02
 3.8137745112e-02
 3.8274675608e-02
 3.8411948830e-02
 3.8549568504e-02
 3.8687530905e-02
 3.8825843483e-02
 3.8964498788e-02
 3.9103504270e-02
 3.9242859930e-02
 3.9382562041e-02
 3.9522618055e-02
 3.9663024247e-02
 3.9803784341e-02
 3.9944894612e-02
 4.0086362511e-02
 4.0228184313e-02
 4.0370360017e-02
 4.0512893349e-02
 4.0655788034e-02
 4.0799036622e-02
 4.0942650288e-02
 4.1086617857e-02
 4.1230950505e-02
 4.1375648230e-02
 4.1520703584e-02
 4.1666127741e-02
 4.1811913252e-02
 4.1958067566e-02
 4.2104586959e-02
 4.2251475155e-02
 4.2398732156e-02
 4.2546357960e-02
 4.2694352567e-02
 4.2842723429e-02
 4.2991463095e-02
 4.3140575290e-02
 4.3290063739e-02
 4.3439928442e-02
 4.3590169400e-02
 4.3740782887e-02
 4.3891780078e-02
 4.4043153524e-02
 4.4194906950e-02
 4.4347044080e-02
 4.4499557465e-02
 4.4652458280e-02
 4.4805742800e-02
 4.4959411025e-02
 4.5113462955e-02
 4.5267906040e-02
 4.5422732830e-02
 4.5577950776e-02
 4.5733556151e-02
 4.5889552683e-02
 4.6045944095e-02
 4.6202722937e-02
 4.6359900385e-02
 4.6517468989e-02
 4.6675432473e-02
 4.6833794564e-02
 4.6992555261e-02
 4.7151710838e-02
 4.7311268747e-02
 4.7471225262e-02
 4.7631584108e-02
 4.7792349011e-02
 4.7953512520e-02
 4.8115082085e-02
 4.8277057707e-02
 4.8439439386e-02
 4.8602230847e-02
 4.8765428364e-02
 4.8929035664e-02
 4.9093052745e-02
 4.9257483333e-02
 4.9422327429e-02
 4.9587585032e-02
 4.9753256142e-02
 4.9919344485e-02
 5.0085846335e-02
 5.0252769142e-02
 5.0420112908e-02
 5.0587873906e-02
 5.0756055862e-02
 5.0924662501e-02
 5.1093690097e-02
 5.1263142377e-02
 5.1433019340e-02
 5.1603324711e-02
 5.1774054766e-02
 5.1945213228e-02
 5.2116803825e-02
 5.2288826555e-02
 5.2461277694e-02
 5.2634164691e-02
 5.2807483822e-02
 5.2981235087e-02
 5.3155425936e-02
 5.3330056369e-02
 5.3505122662e-02
 5.3680624813e-02
 5.3856573999e-02
 5.4032959044e-02
 5.4209791124e-02
 5.4387066513e-02
 5.4564785212e-02
 5.4742950946e-02
 5.4921563715e-02
 5.5100623518e-02
 5.5280134082e-02
 5.5460095406e-02
 5.5640507489e-02
 5.5821374059e-02
 5.6002695113e-02
 5.6184470654e-02
 5.6366700679e-02
 5.6549388915e-02
 5.6732539088e-02
 5.6916143745e-02
 5.7100214064e-02
 5.7284742594e-02
 5.7469736785e-02
 5.7655192912e-02
 5.7841114700e-02
 5.8027505875e-02
 5.8214362711e-02
 5.8401692659e-02
 5.8589488268e-02
 5.8777756989e-02
 5.8966498822e-02
 5.9155713767e-02
 5.9345401824e-02
 5.9535566717e-02
 5.9726212174e-02
 5.9917334467e-02
 6.0108933598e-02
 6.0301017016e-02
 6.0493580997e-02
 6.0686629266e-02
 6.0880161822e-02
 6.1074182391e-02
 6.1268687248e-02
 6.1463680118e-02
 6.1659164727e-02
 6.1855137348e-02
 6.2051605433e-02
 6.2248561531e-02
 6.2446016818e-02
 6.2643967569e-02
 6.2842413783e-02
 6.3041359186e-02
 6.3240796328e-02
 6.3440747559e-02
 6.3641190529e-02
 6.3842140138e-02
 6.4043596387e-02
 6.4245551825e-02
 6.4448021352e-02
 6.4650997519e-02
 6.4854480326e-02
 6.5058469772e-02
 6.5262980759e-02
 6.5467998385e-02
 6.5673537552e-02
 6.5879583359e-02
 6.6086158156e-02
 6.6293239594e-02
 6.6500850022e-02
 6.6708974540e-02
 6.6917628050e-02
 6.7126803100e-02
 6.7336499691e-02
 6.7546725273e-02
 6.7757479846e-02
 6.7968755960e-02
 6.8180568516e-02
 6.8392917514e-02
 6.8605795503e-02
 6.8819202483e-02
 6.9033153355e-02
 6.9247633219e-02
 6.9462656975e-02
 6.9678224623e-02
 6.9894328713e-02
 7.0110969245e-02
 7.0328161120e-02
 7.0545896888e-02
 7.0764176548e-02
 7.0983007550e-02
 7.1202389896e-02
 7.1422316134e-02
 7.1642801166e-02
 7.1863830090e-02
 7.2085425258e-02
 7.2307571769e-02
 7.2530269623e-02
 7.2753533721e-02
 7.2977356613e-02
 7.3201745749e-02
 7.3426693678e-02
 7.3652207851e-02
 7.3878288269e-02
 7.4104934931e-02
 7.4332147837e-02
 7.4559934437e-02
 7.4788294733e-02
 7.5017221272e-02
 7.5246728957e-02
 7.5476810336e-02
 7.5707465410e-02
 7.5938709080e-02
 7.6170526445e-02
 7.6402924955e-02
 7.6635912061e-02
 7.6869480312e-02
 7.7103637159e-02
 7.7338375151e-02
 7.7573709190e-02
 7.7809631824e-02
 7.8046150506e-02
 7.8283257782e-02
 7.8520961106e-02
 7.8759260476e-02
 7.8998163342e-02
 7.9237662256e-02
 7.9477757215e-02
 7.9718463123e-02
 7.9959772527e-02
 8.0201685429e-02
 8.0444201827e-02
 8.0687329173e-02
 8.0931067467e-02
 8.1175424159e-02
 8.1420384347e-02
 8.1665962934e-02
 8.1912159920e-02
 8.2158975303e-02
 8.2406409085e-02
 8.2654461265e-02
 8.2903139293e-02
 8.3152435720e-02
 8.3402365446e-02
 8.3652921021e-02
 8.3904102445e-02
 8.4155917168e-02
 8.4408365190e-02
 8.4661439061e-02
 8.4915153682e-02
 8.5169509053e-02
 8.5424497724e-02
 8.5680127144e-02
 8.5936397314e-02
 8.6193315685e-02
 8.6450874805e-02
 8.6709082127e-02
 8.6967937648e-02
 8.7227441370e-02
 8.7487600744e-02
 8.7748408318e-02
 8.8009871542e-02
 8.8271990418e-02
 8.8534764946e-02
 8.8798202574e-02
 8.9062303305e-02
 8.9327067137e-02
 8.9592494071e-02
 8.9858584106e-02
 9.0125344694e-02
 9.0392775834e-02
 9.0660877526e-02
 9.0929657221e-02
 9.1199100018e-02
 9.1469228268e-02
 9.1740034521e-02
 9.2011518776e-02
 9.2283681035e-02
 9.2556528747e-02
 9.2830061913e-02
 9.3104280531e-02
 9.3379192054e-02
 9.3654789031e-02
 9.3931078911e-02
 9.4208061695e-02
 9.4485744834e-02
 9.4764120877e-02
 9.5043189824e-02
 9.5322966576e-02
 9.5603443682e-02
 9.5884628594e-02
 9.6166513860e-02
 9.6449106932e-02
 9.6732415259e-02
 9.7016431391e-02
 9.7301155329e-02
 9.7586601973e-02
 9.7872763872e-02
 9.8159641027e-02
 9.8447240889e-02
 9.8735556006e-02
 9.9024601281e-02
 9.9314369261e-02
 9.9604867399e-02
 9.9896095693e-02
 1.0018805414e-01
 1.0048074275e-01
 1.0077416897e-01
 1.0106832534e-01
 1.0136322677e-01
 1.0165886581e-01
 1.0195524991e-01
 1.0225237906e-01
 1.0255024582e-01
 1.0284886509e-01
 1.0314823687e-01
 1.0344835371e-01
 1.0374923050e-01
 1.0405085981e-01
 1.0435324907e-01
 1.0465639085e-01
 1.0496030003e-01
 1.0526496917e-01
 1.0557040572e-01
 1.0587660223e-01
 1.0618357360e-01
 1.0649131238e-01
 1.0679982603e-01
 1.0710911453e-01
 1.0741917789e-01
 1.0773001611e-01
 1.0804163665e-01
 1.0835404694e-01
 1.0866723210e-01
 1.0898120701e-01
 1.0929597169e-01
 1.0961152613e-01
 1.0992787033e-01
 1.1024500430e-01
 1.1056294292e-01
 1.1088167876e-01
 1.1120121181e-01
 1.1152154207e-01
 1.1184268445e-01
 1.1216463149e-01
 1.1248738319e-01
 1.1281094700e-01
 1.1313532293e-01
 1.1346051097e-01
 1.1378651857e-01
 1.1411334574e-01
 1.1444099247e-01
 1.1476945877e-01
 1.1509875208e-01
 1.1542887241e-01
 1.1575981975e-01
 1.1609160155e-01
 1.1642421037e-01
 1.1675765365e-01
 1.1709193885e-01
 1.1742705852e-01
 1.1776302755e-01
 1.1809983104e-01
 1.1843748391e-01
 1.1877598614e-01
 1.1911533773e-01
 1.1945553869e-01
 1.1979658902e-01
 1.2013850361e-01
 1.2048127502e-01
 1.2082490325e-01
 1.2116939574e-01
 1.2151475251e-01
 1.2186098099e-01
 1.2220807374e-01
 1.2255603820e-01
 1.2290488183e-01
 1.2325458974e-01
 1.2360518426e-01
 1.2395665795e-01
 1.2430901080e-01
 1.2466225028e-01
 1.2501637638e-01
 1.2537139654e-01
 1.2572729588e-01
 1.2608408928e-01
 1.2644179165e-01
 1.2680038810e-01
 1.2715987861e-01
 1.2752027810e-01
 1.2788157165e-01
 1.2824377418e-01
 1.2860690057e-01
 1.2897092104e-01
 1.2933586538e-01
 1.2970171869e-01
 1.3006849587e-01
 1.3043619692e-01
 1.3080480695e-01
 1.3117435575e-01
 1.3154482841e-01
 1.3191622496e-01
 1.3228856027e-01
 1.3266183436e-01
 1.3303604722e-01
 1.3341118395e-01
 1.3378727436e-01
 1.3416430354e-01
 1.3454228640e-01
 1.3492120802e-01
 1.3530108333e-01
 1.3568192720e-01
 1.3606370986e-01
 1.3644646108e-01
 1.3683016598e-01
 1.3721482456e-01
 1.3760046661e-01
 1.3798706234e-01
 1.3837464154e-01
 1.3876318932e-01
 1.3915270567e-01
 1.3954320550e-01
 1.3993468881e-01
 1.4032715559e-01
 1.4072060585e-01
 1.4111503959e-01
 1.4151047170e-01
 1.4190688729e-01
 1.4230430126e-01
 1.4270271361e-01
 1.4310212433e-01
 1.4350253344e-01
 1.4390395582e-01
 1.4430637658e-01
 1.4470981061e-01
 1.4511425793e-01
 1.4551973343e-01
 1.4592620730e-01
 1.4633370936e-01
 1.4674223959e-01
 1.4715179801e-01
 1.4756236970e-01
 1.4797398448e-01
 1.4838662744e-01
 1.4880029857e-01
 1.4921502769e-01
 1.4963078499e-01
 1.5004758537e-01
 1.5046542883e-01
 1.5088433027e-01
 1.5130427480e-01
 1.5172527730e-01
 1.5214733779e-01
 1.5257045627e-01
 1.5299463272e-01
 1.5341988206e-01
 1.5384620428e-01
