aces_1.2/luts/V3_LogC_640_to_linear.spi1d
Version 1
From 0 1
Length 65536
Components 1
{
 -1.7080347985e-02
 -1.7077539116e-02
 -1.7074732110e-02
 -1.7071923241e-02
 -1.7069114372e-02
 -1.7066305503e-02
 -1.7063498497e-02
 -1.7060689628e-02
 -1.7057880759e-02
 -1.7055071890e-02
 -1.7052264884e-02
 -1.7049456015e-02
 -1.7046647146e-02
 -1.7043840140e-02
 -1.7041031271e-02
 -1.7038222402e-02
 -1.7035413533e-02
 -1.7032606527e-02
 -1.7029797658e-02
 -1.7026988789e-02
 -1.7024179921e-02
 -1.7021372914e-02
 -1.7018564045e-02
 -1.7015755177e-02
 -1.7012948170e-02
 -1.7010139301e-02
 -1.7007330433e-02
 -1.7004521564e-02
 -1.7001714557e-02
 -1.6998905689e-02
 -1.6996096820e-02
 -1.6993287951e-02
 -1.6990480945e-02
 -1.6987672076e-02
 -1.6984863207e-02
 -1.6982056201e-02
 -1.6979247332e-02
 -1.6976438463e-02
 -1.6973629594e-02
 -1.6970822588e-02
 -1.6968013719e-02
 -1.6965204850e-02
 -1.6962395981e-02
 -1.6959588975e-02
 -1.6956780106e-02
 -1.6953971237e-02
 -1.6951164231e-02
 -1.6948355362e-02
 -1.6945546493e-02
 -1.6942737624e-02
 -1.6939930618e-02
 -1.6937121749e-02
 -1.6934312880e-02
 -1.6931504011e-02
 -1.6928697005e-02
 -1.6925888136e-02
 -1.6923079267e-02
 -1.6920272261e-02
 -1.6917463392e-02
 -1.6914654523e-02
 -1.6911845654e-02
 -1.6909038648e-02
 -1.6906229779e-02
 -1.6903420910e-02
 -1.6900612041e-02
 -1.6897805035e-02
 -1.6894996166e-02
 -1.6892187297e-02
 -1.6889380291e-02
 -1.6886571422e-02
 -1.6883762553e-02
 -1.6880953684e-02
 -1.6878146678e-02
 -1.6875337809e-02
 -1.6872528940e-02
 -1.6869720072e-02
 -1.6866913065e-02
 -1.6864104196e-02
 -1.6861295328e-02
 -1.6858488321e-02
 -1.6855679452e-02
 -1.6852870584e-02
 -1.6850061715e-02
 -1.6847254708e-02
 -1.6844445840e-02
 -1.6841636971e-02
 -1.6838828102e-02
 -1.6836021096e-02
 -1.6833212227e-02
 -1.6830403358e-02
 -1.6827596352e-02
 -1.6824787483e-02
 -1.6821978614e-02
 -1.6819169745e-02
 -1.6816362739e-02
 -1.6813553870e-02
 -1.6810745001e-02
 -1.6807936132e-02
 -1.6805129126e-02
 -1.6802320257e-02
 -1.6799511388e-02
 -1.6796704382e-02
 -1.6793895513e-02
 -1.6791086644e-02
 -1.6788277775e-02
 -1.6785470769e-02
 -1.6782661900e-02
 -1.6779853031e-02
 -1.6777044162e-02
 -1.6774237156e-02
 -1.6771428287e-02
 -1.6768619418e-02
 -1.6765812412e-02
 -1.6763003543e-02
 -1.6760194674e-02
 -1.6757385805e-02
 -1.6754578799e-02
 -1.6751769930e-02
 -1.6748961061e-02
 -1.6746152192e-02
 -1.6743345186e-02
 -1.6740536317e-02
 -1.6737727448e-02
 -1.6734920442e-02
 -1.6732111573e-02
 -1.6729302704e-02
 -1.6726493835e-02
 -1.6723686829e-02
 -1.6720877960e-02
 -1.6718069091e-02
 -1.6715260223e-02
 -1.6712453216e-02
 -1.6709644347e-02
 -1.6706835479e-02
 -1.6704028472e-02
 -1.6701219603e-02
 -1.6698410735e-02
 -1.6695601866e-02
 -1.6692794859e-02
 -1.6689985991e-02
 -1.6687177122e-02
 -1.6684368253e-02
 -1.6681561247e-02
 -1.6678752378e-02
 -1.6675943509e-02
 -1.6673136503e-02
 -1.6670327634e-02
 -1.6667518765e-02
 -1.6664709896e-02
 -1.6661902890e-02
 -1.6659094021e-02
 -1.6656285152e-02
 -1.6653476283e-02
 -1.6650669277e-02
 -1.6647860408e-02
 -1.6645051539e-02
 -1.6642244533e-02
 -1.6639435664e-02
 -1.6636626795e-02
 -1.6633817926e-02
 -1.6631010920e-02
 -1.6628202051e-02
 -1.6625393182e-02
 -1.6622584313e-02
 -1.6619777307e-02
 -1.6616968438e-02
 -1.6614159569e-02
 -1.6611352563e-02
 -1.6608543694e-02
 -1.6605734825e-02
 -1.6602925956e-02
 -1.6600118950e-02
 -1.6597310081e-02
 -1.6594501212e-02
 -1.6591692343e-02
 -1.6588885337e-02
 -1.6586076468e-02
 -1.6583267599e-02
 -1.6580460593e-02
 -1.6577651724e-02
 -1.6574842855e-02
 -1.6572033986e-02
 -1.6569226980e-02
 -1.6566418111e-02
 -1.6563609242e-02
 -1.6560800374e-02
 -1.6557993367e-02
 -1.6555184498e-02
 -1.6552375630e-02
 -1.6549568623e-02
 -1.6546759754e-02
 -1.6543950886e-02
 -1.6541142017e-02
 -1.6538335010e-02
 -1.6535526142e-02
 -1.6532717273e-02
 -1.6529908404e-02
 -1.6527101398e-02
 -1.6524292529e-02
 -1.6521483660e-02
 -1.6518676654e-02
 -1.6515867785e-02
 -1.6513058916e-02
 -1.6510250047e-02
 -1.6507443041e-02
 -1.6504634172e-02
 -1.6501825303e-02
 -1.6499016434e-02
 -1.6496209428e-02
 -1.6493400559e-02
 -1.6490591690e-02
 -1.6487784684e-02
 -1.6484975815e-02
 -1.6482166946e-02
 -1.6479358077e-02
 -1.6476551071e-02
 -1.6473742202e-02
 -1.6470933333e-02
 -1.6468124464e-02
 -1.6465317458e-02
 -1.6462508589e-02
 -1.6459699720e-02
 -1.6456892714e-02
 -1.6454083845e-02
 -1.6451274976e-02
 -1.6448466107e-02
 -1.6445659101e-02
 -1.6442850232e-02
 -1.6440041363e-02
 -1.6437232494e-02
 -1.6434425488e-02
 -1.6431616619e-02
 -1.6428807750e-02
 -1.6426000744e-02
 -1.6423191875e-02
 -1.6420383006e-02
 -1.6417574137e-02
 -1.6414767131e-02
 -1.6411958262e-02
 -1.6409149393e-02
 -1.6406340525e-02
 -1.6403533518e-02
 -1.6400724649e-02
 -1.6397915781e-02
 -1.6395108774e-02
 -1.6392299905e-02
 -1.6389491037e-02
 -1.6386682168e-02
 -1.6383875161e-02
 -1.6381066293e-02
 -1.6378257424e-02
 -1.6375448555e-02
 -1.6372641549e-02
 -1.6369832680e-02
 -1.6367023811e-02
 -1.6364216805e-02
 -1.6361407936e-02
 -1.6358599067e-02
 -1.6355790198e-02
 -1.6352983192e-02
 -1.6350174323e-02
 -1.6347365454e-02
 -1.6344556585e-02
 -1.6341749579e-02
 -1.6338940710e-02
 -1.6336131841e-02
 -1.6333324835e-02
 -1.6330515966e-02
 -1.6327707097e-02
 -1.6324898228e-02
 -1.6322091222e-02
 -1.6319282353e-02
 -1.6316473484e-02
 -1.6313664615e-02
 -1.6310857609e-02
 -1.6308048740e-02
 -1.6305239871e-02
 -1.6302432865e-02
 -1.6299623996e-02
 -1.6296815127e-02
 -1.6294006258e-02
 -1.6291199252e-02
 -1.6288390383e-02
 -1.6285581514e-02
 -1.6282772645e-02
 -1.6279965639e-02
 -1.6277156770e-02
 -1.6274347901e-02
 -1.6271540895e-02
 -1.6268732026e-02
 -1.6265923157e-02
 -1.6263114288e-02
 -1.6260307282e-02
 -1.6257498413e-02
 -1.6254689544e-02
 -1.6251880676e-02
 -1.6249073669e-02
 -1.6246264800e-02
 -1.6243455932e-02
 -1.6240648925e-02
 -1.6237840056e-02
 -1.6235031188e-02
 -1.6232222319e-02
 -1.6229415312e-02
 -1.6226606444e-02
 -1.6223797575e-02
 -1.6220988706e-02
 -1.6218181700e-02
 -1.6215372831e-02
 -1.6212563962e-02
 -1.6209756956e-02
 -1.6206948087e-02
 -1.6204139218e-02
 -1.6201330349e-02
 -1.6198523343e-02
 -1.6195714474e-02
 -1.6192905605e-02
 -1.6190096736e-02
 -1.6187289730e-02
 -1.6184480861e-02
 -1.6181671992e-02
 -1.6178864986e-02
 -1.6176056117e-02
 -1.6173247248e-02
 -1.6170438379e-02
 -1.6167631373e-02
 -1.6164822504e-02
 -1.6162013635e-02
 -1.6159204766e-02
 -1.6156397760e-02
 -1.6153588891e-02
 -1.6150780022e-02
 -1.6147973016e-02
 -1.6145164147e-02
 -1.6142355278e-02
 -1.6139546409e-02
 -1.6136739403e-02
 -1.6133930534e-02
 -1.6131121665e-02
 -1.6128312796e-02
 -1.6125505790e-02
 -1.6122696921e-02
 -1.6119888052e-02
 -1.6117081046e-02
 -1.6114272177e-02
 -1.6111463308e-02
 -1.6108654439e-02
 -1.6105847433e-02
 -1.6103038564e-02
 -1.6100229695e-02
 -1.6097420827e-02
 -1.6094613820e-02
 -1.6091804951e-02
 -1.6088996083e-02
 -1.6086189076e-02
 -1.6083380207e-02
 -1.6080571339e-02
 -1.6077762470e-02
 -1.6074955463e-02
 -1.6072146595e-02
 -1.6069337726e-02
 -1.6066528857e-02
 -1.6063721851e-02
 -1.6060912982e-02
 -1.6058104113e-02
 -1.6055297107e-02
 -1.6052488238e-02
 -1.6049679369e-02
 -1.6046870500e-02
 -1.6044063494e-02
 -1.6041254625e-02
 -1.6038445756e-02
 -1.6035636887e-02
 -1.6032829881e-02
 -1.6030021012e-02
 -1.6027212143e-02
 -1.6024405137e-02
 -1.6021596268e-02
 -1.6018787399e-02
 -1.6015978530e-02
 -1.6013171524e-02
 -1.6010362655e-02
 -1.6007553786e-02
 -1.6004744917e-02
 -1.6001937911e-02
 -1.5999129042e-02
 -1.5996320173e-02
 -1.5993513167e-02
 -1.5990704298e-02
 -1.5987895429e-02
 -1.5985086560e-02
 -1.5982279554e-02
 -1.5979470685e-02
 -1.5976661816e-02
 -1.5973852947e-02
 -1.5971045941e-02
 -1.5968237072e-02
 -1.5965428203e-02
 -1.5962621197e-02
 -1.5959812328e-02
 -1.5957003459e-02
 -1.5954194590e-02
 -1.5951387584e-02
 -1.5948578715e-02
 -1.5945769846e-02
 -1.5942960978e-02
 -1.5940153971e-02
 -1.5937345102e-02
 -1.5934536234e-02
 -1.5931729227e-02
 -1.5928920358e-02
 -1.5926111490e-02
 -1.5923302621e-02
 -1.5920495614e-02
 -1.5917686746e-02
 -1.5914877877e-02
 -1.5912069008e-02
 -1.5909262002e-02
 -1.5906453133e-02
 -1.5903644264e-02
 -1.5900837258e-02
 -1.5898028389e-02
 -1.5895219520e-02
 -1.5892410651e-02
 -1.5889603645e-02
 -1.5886794776e-02
 -1.5883985907e-02
 -1.5881177038e-02
 -1.5878370032e-02
 -1.5875561163e-02
 -1.5872752294e-02
 -1.5869945288e-02
 -1.5867136419e-02
 -1.5864327550e-02
 -1.5861518681e-02
 -1.5858711675e-02
 -1.5855902806e-02
 -1.5853093937e-02
 -1.5850285068e-02
 -1.5847478062e-02
 -1.5844669193e-02
 -1.5841860324e-02
 -1.5839053318e-02
 -1.5836244449e-02
 -1.5833435580e-02
 -1.5830626711e-02
 -1.5827819705e-02
 -1.5825010836e-02
 -1.5822201967e-02
 -1.5819393098e-02
 -1.5816586092e-02
 -1.5813777223e-02
 -1.5810968354e-02
 -1.5808161348e-02
 -1.5805352479e-02
 -1.5802543610e-02
 -1.5799734741e-02
 -1.5796927735e-02
 -1.5794118866e-02
 -1.5791309997e-02
 -1.5788501129e-02
 -1.5785694122e-02
 -1.5782885253e-02
 -1.5780076385e-02
 -1.5777269378e-02
 -1.5774460509e-02
 -1.5771651641e-02
 -1.5768842772e-02
 -1.5766035765e-02
 -1.5763226897e-02
 -1.5760418028e-02
 -1.5757609159e-02
 -1.5754802153e-02
 -1.5751993284e-02
 -1.5749184415e-02
 -1.5746377409e-02
 -1.5743568540e-02
 -1.5740759671e-02
 -1.5737950802e-02
 -1.5735143796e-02
 -1.5732334927e-02
 -1.5729526058e-02
 -1.5726717189e-02
 -1.5723910183e-02
 -1.5721101314e-02
 -1.5718292445e-02
 -1.5715485439e-02
 -1.5712676570e-02
 -1.5709867701e-02
 -1.5707058832e-02
 -1.5704251826e-02
 -1.5701442957e-02
 -1.5698634088e-02
 -1.5695825219e-02
 -1.5693018213e-02
 -1.5690209344e-02
 -1.5687400475e-02
 -1.5684593469e-02
 -1.5681784600e-02
 -1.5678975731e-02
 -1.5676166862e-02
 -1.5673359856e-02
 -1.5670550987e-02
 -1.5667742118e-02
 -1.5664933249e-02
 -1.5662126243e-02
 -1.5659317374e-02
 -1.5656508505e-02
 -1.5653701499e-02
 -1.5650892630e-02
 -1.5648083761e-02
 -1.5645274892e-02
 -1.5642467886e-02
 -1.5639659017e-02
 -1.5636850148e-02
 -1.5634041280e-02
 -1.5631234273e-02
 -1.5628425404e-02
 -1.5625616536e-02
 -1.5622808598e-02
 -1.5620000660e-02
 -1.5617191792e-02
 -1.5614383854e-02
 -1.5611574985e-02
 -1.5608767048e-02
 -1.5605958179e-02
 -1.5603150241e-02
 -1.5600341372e-02
 -1.5597533435e-02
 -1.5594725497e-02
 -1.5591916628e-02
 -1.5589108691e-02
 -1.5586299822e-02
 -1.5583491884e-02
 -1.5580683015e-02
 -1.5577875078e-02
 -1.5575066209e-02
 -1.5572258271e-02
 -1.5569449402e-02
 -1.5566641465e-02
 -1.5563833527e-02
 -1.5561024658e-02
 -1.5558216721e-02
 -1.5555407852e-02
 -1.5552599914e-02
 -1.5549791045e-02
 -1.5546983108e-02
 -1.5544174239e-02
 -1.5541366301e-02
 -1.5538557433e-02
 -1.5535749495e-02
 -1.5532941557e-02
 -1.5530132689e-02
 -1.5527324751e-02
 -1.5524515882e-02
 -1.5521707945e-02
 -1.5518899076e-02
 -1.5516091138e-02
 -1.5513282269e-02
 -1.5510474332e-02
 -1.5507665463e-02
 -1.5504857525e-02
 -1.5502049588e-02
 -1.5499240719e-02
 -1.5496432781e-02
 -1.5493623912e-02
 -1.5490815975e-02
 -1.5488007106e-02
 -1.5485199168e-02
 -1.5482390299e-02
 -1.5479582362e-02
 -1.5476773493e-02
 -1.5473965555e-02
 -1.5471157618e-02
 -1.5468348749e-02
 -1.5465540811e-02
 -1.5462731943e-02
 -1.5459924005e-02
 -1.5457115136e-02
 -1.5454307199e-02
 -1.5451498330e-02
 -1.5448690392e-02
 -1.5445881523e-02
 -1.5443073586e-02
 -1.5440265648e-02
 -1.5437456779e-02
 -1.5434648842e-02
 -1.5431839973e-02
 -1.5429032035e-02
 -1.5426223166e-02
 -1.5423415229e-02
 -1.5420606360e-02
 -1.5417798422e-02
 -1.5414989553e-02
 -1.5412181616e-02
 -1.5409373678e-02
 -1.5406564809e-02
 -1.5403756872e-02
 -1.5400948003e-02
 -1.5398140065e-02
 -1.5395331196e-02
 -1.5392523259e-02
 -1.5389714390e-02
 -1.5386906452e-02
 -1.5384097584e-02
 -1.5381289646e-02
 -1.5378481708e-02
 -1.5375672840e-02
 -1.5372864902e-02
 -1.5370056033e-02
 -1.5367248096e-02
 -1.5364439227e-02
 -1.5361631289e-02
 -1.5358822420e-02
 -1.5356014483e-02
 -1.5353205614e-02
 -1.5350397676e-02
 -1.5347589739e-02
 -1.5344780870e-02
 -1.5341972932e-02
 -1.5339164063e-02
 -1.5336356126e-02
 -1.5333547257e-02
 -1.5330739319e-02
 -1.5327930450e-02
 -1.5325122513e-02
 -1.5322313644e-02
 -1.5319505706e-02
 -1.5316697769e-02
 -1.5313888900e-02
 -1.5311080962e-02
 -1.5308272094e-02
 -1.5305464156e-02
 -1.5302655287e-02
 -1.5299847350e-02
 -1.5297038481e-02
 -1.5294230543e-02
 -1.5291421674e-02
 -1.5288613737e-02
 -1.5285805799e-02
 -1.5282996930e-02
 -1.5280188993e-02
 -1.5277380124e-02
 -1.5274572186e-02
 -1.5271763317e-02
 -1.5268955380e-02
 -1.5266146511e-02
 -1.5263338573e-02
 -1.5260529704e-02
 -1.5257721767e-02
 -1.5254913829e-02
 -1.5252104960e-02
 -1.5249297023e-02
 -1.5246488154e-02
 -1.5243680216e-02
 -1.5240871347e-02
 -1.5238063410e-02
 -1.5235254541e-02
 -1.5232446603e-02
 -1.5229637735e-02
 -1.5226829797e-02
 -1.5224021859e-02
 -1.5221212991e-02
 -1.5218405053e-02
 -1.5215596184e-02
 -1.5212788247e-02
 -1.5209979378e-02
 -1.5207171440e-02
 -1.5204362571e-02
 -1.5201554634e-02
 -1.5198745765e-02
 -1.5195937827e-02
 -1.5193129890e-02
 -1.5190321021e-02
 -1.5187513083e-02
 -1.5184704214e-02
 -1.5181896277e-02
 -1.5179087408e-02
 -1.5176279470e-02
 -1.5173470601e-02
 -1.5170662664e-02
 -1.5167853795e-02
 -1.5165045857e-02
 -1.5162237920e-02
 -1.5159429051e-02
 -1.5156621113e-02
 -1.5153812245e-02
 -1.5151004307e-02
 -1.5148195438e-02
 -1.5145387501e-02
 -1.5142578632e-02
 -1.5139770694e-02
 -1.5136961825e-02
 -1.5134153888e-02
 -1.5131345950e-02
 -1.5128537081e-02
 -1.5125729144e-02
 -1.5122920275e-02
 -1.5120112337e-02
 -1.5117303468e-02
 -1.5114495531e-02
 -1.5111686662e-02
 -1.5108878724e-02
 -1.5106069855e-02
 -1.5103261918e-02
 -1.5100453980e-02
 -1.5097645111e-02
 -1.5094837174e-02
 -1.5092028305e-02
 -1.5089220367e-02
 -1.5086411498e-02
 -1.5083603561e-02
 -1.5080794692e-02
 -1.5077986754e-02
 -1.5075177886e-02
 -1.5072369948e-02
 -1.5069562010e-02
 -1.5066753142e-02
 -1.5063945204e-02
 -1.5061136335e-02
 -1.5058328398e-02
 -1.5055519529e-02
 -1.5052711591e-02
 -1.5049902722e-02
 -1.5047094785e-02
 -1.5044285916e-02
 -1.5041477978e-02
 -1.5038670041e-02
 -1.5035861172e-02
 -1.5033053234e-02
 -1.5030244365e-02
 -1.5027436428e-02
 -1.5024627559e-02
 -1.5021819621e-02
 -1.5019010752e-02
 -1.5016202815e-02
 -1.5013393946e-02
 -1.5010586008e-02
 -1.5007778071e-02
 -1.5004969202e-02
 -1.5002161264e-02
 -1.4999352396e-02
 -1.4996544458e-02
 -1.4993735589e-02
 -1.4990927652e-02
 -1.4988118783e-02
 -1.4985310845e-02
 -1.4982501976e-02
 -1.4979694039e-02
 -1.4976886101e-02
 -1.4974077232e-02
 -1.4971269295e-02
 -1.4968460426e-02
 -1.4965652488e-02
 -1.4962843619e-02
 -1.4960035682e-02
 -1.4957226813e-02
 -1.4954418875e-02
 -1.4951610006e-02
 -1.4948802069e-02
 -1.4945994131e-02
 -1.4943185262e-02
 -1.4940377325e-02
 -1.4937568456e-02
 -1.4934760518e-02
 -1.4931951649e-02
 -1.4929143712e-02
 -1.4926334843e-02
 -1.4923526905e-02
 -1.4920718037e-02
 -1.4917910099e-02
 -1.4915102161e-02
 -1.4912293293e-02
 -1.4909485355e-02
 -1.4906676486e-02
 -1.4903868549e-02
 -1.4901059680e-02
 -1.4898251742e-02
 -1.4895442873e-02
 -1.4892634936e-02
 -1.4889826067e-02
 -1.4887018129e-02
 -1.4884210192e-02
 -1.4881401323e-02
 -1.4878593385e-02
 -1.4875784516e-02
 -1.4872976579e-02
 -1.4870167710e-02
 -1.4867359772e-02
 -1.4864550903e-02
 -1.4861742966e-02
 -1.4858934097e-02
 -1.4856126159e-02
 -1.4853318222e-02
 -1.4850509353e-02
 -1.4847701415e-02
 -1.4844892547e-02
 -1.4842084609e-02
 -1.4839275740e-02
 -1.4836467803e-02
 -1.4833658934e-02
 -1.4830850996e-02
 -1.4828042127e-02
 -1.4825234190e-02
 -1.4822426252e-02
 -1.4819617383e-02
 -1.4816809446e-02
 -1.4814000577e-02
 -1.4811192639e-02
 -1.4808383770e-02
 -1.4805575833e-02
 -1.4802766964e-02
 -1.4799959026e-02
 -1.4797150157e-02
 -1.4794342220e-02
 -1.4791534282e-02
 -1.4788725413e-02
 -1.4785917476e-02
 -1.4783108607e-02
 -1.4780300669e-02
 -1.4777491800e-02
 -1.4774683863e-02
 -1.4771874994e-02
 -1.4769067056e-02
 -1.4766258188e-02
 -1.4763450250e-02
 -1.4760642312e-02
 -1.4757833444e-02
 -1.4755025506e-02
 -1.4752216637e-02
 -1.4749408700e-02
 -1.4746599831e-02
 -1.4743791893e-02
 -1.4740983024e-02
 -1.4738175087e-02
 -1.4735366218e-02
 -1.4732558280e-02
 -1.4729750343e-02
 -1.4726941474e-02
 -1.4724133536e-02
 -1.4721324667e-02
 -1.4718516730e-02
 -1.4715707861e-02
 -1.4712899923e-02
 -1.4710091054e-02
 -1.4707283117e-02
 -1.4704474248e-02
 -1.4701666310e-02
 -1.4698858373e-02
 -1.4696049504e-02
 -1.4693241566e-02
 -1.4690432698e-02
 -1.4687624760e-02
 -1.4684815891e-02
 -1.4682007954e-02
 -1.4679199085e-02
 -1.4676391147e-02
 -1.4673582278e-02
 -1.4670774341e-02
 -1.4667966403e-02
 -1.4665157534e-02
 -1.4662349597e-02
 -1.4659540728e-02
 -1.4656732790e-02
 -1.4653923921e-02
 -1.4651115984e-02
 -1.4648307115e-02
 -1.4645499177e-02
 -1.4642690308e-02
 -1.4639882371e-02
 -1.4637074433e-02
 -1.4634265564e-02
 -1.4631457627e-02
 -1.4628648758e-02
 -1.4625840820e-02
 -1.4623031951e-02
 -1.4620224014e-02
 -1.4617415145e-02
 -1.4614607207e-02
 -1.4611798339e-02
 -1.4608990401e-02
 -1.4606182463e-02
 -1.4603373595e-02
 -1.4600565657e-02
 -1.4597756788e-02
 -1.4594948851e-02
 -1.4592139982e-02
 -1.4589332044e-02
 -1.4586523175e-02
 -1.4583715238e-02
 -1.4580906369e-02
 -1.4578098431e-02
 -1.4575290494e-02
 -1.4572481625e-02
 -1.4569673687e-02
 -1.4566864818e-02
 -1.4564056881e-02
 -1.4561248012e-02
 -1.4558440074e-02
 -1.4555631205e-02
 -1.4552823268e-02
 -1.4550014399e-02
 -1.4547206461e-02
 -1.4544398524e-02
 -1.4541589655e-02
 -1.4538781717e-02
 -1.4535972849e-02
 -1.4533164911e-02
 -1.4530356042e-02
 -1.4527548105e-02
 -1.4524739236e-02
 -1.4521931298e-02
 -1.4519122429e-02
 -1.4516314492e-02
 -1.4513506554e-02
 -1.4510697685e-02
 -1.4507889748e-02
 -1.4505080879e-02
 -1.4502272941e-02
 -1.4499464072e-02
 -1.4496656135e-02
 -1.4493847266e-02
 -1.4491039328e-02
 -1.4488230459e-02
 -1.4485422522e-02
 -1.4482614584e-02
 -1.4479805715e-02
 -1.4476997778e-02
 -1.4474188909e-02
 -1.4471380971e-02
 -1.4468572102e-02
 -1.4465764165e-02
 -1.4462955296e-02
 -1.4460147358e-02
 -1.4457338490e-02
 -1.4454530552e-02
 -1.4451722614e-02
 -1.4448913746e-02
 -1.4446105808e-02
 -1.4443296939e-02
 -1.4440489002e-02
 -1.4437680133e-02
 -1.4434872195e-02
 -1.4432063326e-02
 -1.4429255389e-02
 -1.4426446520e-02
 -1.4423638582e-02
 -1.4420830645e-02
 -1.4418021776e-02
 -1.4415213838e-02
 -1.4412404969e-02
 -1.4409597032e-02
 -1.4406788163e-02
 -1.4403980225e-02
 -1.4401171356e-02
 -1.4398363419e-02
 -1.4395554550e-02
 -1.4392746612e-02
 -1.4389938675e-02
 -1.4387129806e-02
 -1.4384321868e-02
 -1.4381513000e-02
 -1.4378705062e-02
 -1.4375896193e-02
 -1.4373088256e-02
 -1.4370279387e-02
 -1.4367471449e-02
 -1.4364662580e-02
 -1.4361854643e-02
 -1.4359046705e-02
 -1.4356237836e-02
 -1.4353429899e-02
 -1.4350621030e-02
 -1.4347813092e-02
 -1.4345004223e-02
 -1.4342196286e-02
 -1.4339387417e-02
 -1.4336579479e-02
 -1.4333770610e-02
 -1.4330962673e-02
 -1.4328154735e-02
 -1.4325345866e-02
 -1.4322537929e-02
 -1.4319729060e-02
 -1.4316921122e-02
 -1.4314112253e-02
 -1.4311304316e-02
 -1.4308495447e-02
 -1.4305687509e-02
 -1.4302878641e-02
 -1.4300070703e-02
 -1.4297262765e-02
 -1.4294453897e-02
 -1.4291645959e-02
 -1.4288837090e-02
 -1.4286029153e-02
 -1.4283220284e-02
 -1.4280412346e-02
 -1.4277603477e-02
 -1.4274795540e-02
 -1.4271986671e-02
 -1.4269178733e-02
 -1.4266370796e-02
 -1.4263561927e-02
 -1.4260753989e-02
 -1.4257945120e-02
 -1.4255137183e-02
 -1.4252328314e-02
 -1.4249520376e-02
 -1.4246711507e-02
 -1.4243903570e-02
 -1.4241094701e-02
 -1.4238286763e-02
 -1.4235478826e-02
 -1.4232669957e-02
 -1.4229862019e-02
 -1.4227053151e-02
 -1.4224245213e-02
 -1.4221436344e-02
 -1.4218628407e-02
 -1.4215819538e-02
 -1.4213011600e-02
 -1.4210202731e-02
 -1.4207394794e-02
 -1.4204586856e-02
 -1.4201777987e-02
 -1.4198970050e-02
 -1.4196161181e-02
 -1.4193353243e-02
 -1.4190544374e-02
 -1.4187736437e-02
 -1.4184927568e-02
 -1.4182119630e-02
 -1.4179310761e-02
 -1.4176502824e-02
 -1.4173694886e-02
 -1.4170886017e-02
 -1.4168078080e-02
 -1.4165269211e-02
 -1.4162461273e-02
 -1.4159652404e-02
 -1.4156844467e-02
 -1.4154035598e-02
 -1.4151227660e-02
 -1.4148418792e-02
 -1.4145610854e-02
 -1.4142802916e-02
 -1.4139994048e-02
 -1.4137186110e-02
 -1.4134377241e-02
 -1.4131569304e-02
 -1.4128760435e-02
 -1.4125952497e-02
 -1.4123143628e-02
 -1.4120335691e-02
 -1.4117526822e-02
 -1.4114718884e-02
 -1.4111910947e-02
 -1.4109102078e-02
 -1.4106294140e-02
 -1.4103485271e-02
 -1.4100677334e-02
 -1.4097868465e-02
 -1.4095060527e-02
 -1.4092251658e-02
 -1.4089443721e-02
 -1.4086634852e-02
 -1.4083826914e-02
 -1.4081018977e-02
 -1.4078210108e-02
 -1.4075402170e-02
 -1.4072593302e-02
 -1.4069785364e-02
 -1.4066976495e-02
 -1.4064168558e-02
 -1.4061359689e-02
 -1.4058551751e-02
 -1.4055742882e-02
 -1.4052934945e-02
 -1.4050127007e-02
 -1.4047318138e-02
 -1.4044510201e-02
 -1.4041701332e-02
 -1.4038893394e-02
 -1.4036084525e-02
 -1.4033276588e-02
 -1.4030467719e-02
 -1.4027659781e-02
 -1.4024850912e-02
 -1.4022042975e-02
 -1.4019235037e-02
 -1.4016426168e-02
 -1.4013618231e-02
 -1.4010809362e-02
 -1.4008001424e-02
 -1.4005192555e-02
 -1.4002384618e-02
 -1.3999575749e-02
 -1.3996767811e-02
 -1.3993958943e-02
 -1.3991151005e-02
 -1.3988343067e-02
 -1.3985534199e-02
 -1.3982726261e-02
 -1.3979917392e-02
 -1.3977109455e-02
 -1.3974300586e-02
 -1.3971492648e-02
 -1.3968683779e-02
 -1.3965875842e-02
 -1.3963066973e-02
 -1.3960259035e-02
 -1.3957451098e-02
 -1.3954642229e-02
 -1.3951834291e-02
 -1.3949025422e-02
 -1.3946217485e-02
 -1.3943408616e-02
 -1.3940600678e-02
 -1.3937791809e-02
 -1.3934983872e-02
 -1.3932175003e-02
 -1.3929367065e-02
 -1.3926559128e-02
 -1.3923750259e-02
 -1.3920942321e-02
 -1.3918133453e-02
 -1.3915325515e-02
 -1.3912516646e-02
 -1.3909708709e-02
 -1.3906899840e-02
 -1.3904091902e-02
 -1.3901283033e-02
 -1.3898475096e-02
 -1.3895667158e-02
 -1.3892858289e-02
 -1.3890050352e-02
 -1.3887241483e-02
 -1.3884433545e-02
 -1.3881624676e-02
 -1.3878816739e-02
 -1.3876007870e-02
 -1.3873199932e-02
 -1.3870391063e-02
 -1.3867583126e-02
 -1.3864775188e-02
 -1.3861966319e-02
 -1.3859158382e-02
 -1.3856349513e-02
 -1.3853541575e-02
 -1.3850732706e-02
 -1.3847924769e-02
 -1.3845115900e-02
 -1.3842307962e-02
 -1.3839499094e-02
 -1.3836691156e-02
 -1.3833883218e-02
 -1.3831074350e-02
 -1.3828266412e-02
 -1.3825457543e-02
 -1.3822649606e-02
 -1.3819840737e-02
 -1.3817032799e-02
 -1.3814223930e-02
 -1.3811415993e-02
 -1.3808607124e-02
 -1.3805799186e-02
 -1.3802991249e-02
 -1.3800182380e-02
 -1.3797374442e-02
 -1.3794565573e-02
 -1.3791757636e-02
 -1.3788948767e-02
 -1.3786140829e-02
 -1.3783331960e-02
 -1.3780524023e-02
 -1.3777715154e-02
 -1.3774907216e-02
 -1.3772099279e-02
 -1.3769290410e-02
 -1.3766482472e-02
 -1.3763673604e-02
 -1.3760865666e-02
 -1.3758056797e-02
 -1.3755248860e-02
 -1.3752439991e-02
 -1.3749632053e-02
 -1.3746823184e-02
 -1.3744015247e-02
 -1.3741207309e-02
 -1.3738398440e-02
 -1.3735590503e-02
 -1.3732781634e-02
 -1.3729973696e-02
 -1.3727164827e-02
 -1.3724356890e-02
 -1.3721548021e-02
 -1.3718740083e-02
 -1.3715931214e-02
 -1.3713123277e-02
 -1.3710315339e-02
 -1.3707506470e-02
 -1.3704698533e-02
 -1.3701889664e-02
 -1.3699081726e-02
 -1.3696272857e-02
 -1.3693464920e-02
 -1.3690656051e-02
 -1.3687848113e-02
 -1.3685039245e-02
 -1.3682231307e-02
 -1.3679423369e-02
 -1.3676614501e-02
 -1.3673806563e-02
 -1.3670997694e-02
 -1.3668189757e-02
 -1.3665380888e-02
 -1.3662572950e-02
 -1.3659764081e-02
 -1.3656956144e-02
 -1.3654147275e-02
 -1.3651339337e-02
 -1.3648531400e-02
 -1.3645722531e-02
 -1.3642914593e-02
 -1.3640105724e-02
 -1.3637297787e-02
 -1.3634488918e-02
 -1.3631680980e-02
 -1.3628872111e-02
 -1.3626064174e-02
 -1.3623255305e-02
 -1.3620447367e-02
 -1.3617639430e-02
 -1.3614830561e-02
 -1.3612022623e-02
 -1.3609213755e-02
 -1.3606405817e-02
 -1.3603596948e-02
 -1.3600789011e-02
 -1.3597980142e-02
 -1.3595172204e-02
 -1.3592363335e-02
 -1.3589555398e-02
 -1.3586747460e-02
 -1.3583938591e-02
 -1.3581130654e-02
 -1.3578321785e-02
 -1.3575513847e-02
 -1.3572704978e-02
 -1.3569897041e-02
 -1.3567088172e-02
 -1.3564280234e-02
 -1.3561471365e-02
 -1.3558663428e-02
 -1.3555855490e-02
 -1.3553046621e-02
 -1.3550238684e-02
 -1.3547429815e-02
 -1.3544621877e-02
