aces_1.0.0/luts/ACESproxy_to_linear.spi1d
Version 1
From 0.000000 1.000000
Length 1024
Components 3
{
         0.00048828125 0.00048828125 0.00048828125
         0.000494956970215 0.000494956970215 0.000494956970215
         0.000502109527588 0.000502109527588 0.000502109527588
         0.000508785247803 0.000508785247803 0.000508785247803
         0.000515937805176 0.000515937805176 0.000515937805176
         0.000523090362549 0.000523090362549 0.000523090362549
         0.00053071975708 0.00053071975708 0.00053071975708
         0.000537872314453 0.000537872314453 0.000537872314453
         0.000545501708984 0.000545501708984 0.000545501708984
         0.000553131103516 0.000553131103516 0.000553131103516
         0.000561237335205 0.000561237335205 0.000561237335205
         0.000568866729736 0.000568866729736 0.000568866729736
         0.000576972961426 0.000576972961426 0.000576972961426
         0.000584602355957 0.000584602355957 0.000584602355957
         0.000593185424805 0.000593185424805 0.000593185424805
         0.000601291656494 0.000601291656494 0.000601291656494
         0.000609874725342 0.000609874725342 0.000609874725342
         0.000617980957031 0.000617980957031 0.000617980957031
         0.000627040863037 0.000627040863037 0.000627040863037
         0.000635623931885 0.000635623931885 0.000635623931885
         0.000644207000732 0.000644207000732 0.000644207000732
         0.000653266906738 0.000653266906738 0.000653266906738
         0.000662326812744 0.000662326812744 0.000662326812744
         0.000671863555908 0.000671863555908 0.000671863555908
         0.000681400299072 0.000681400299072 0.000681400299072
         0.000690937042236 0.000690937042236 0.000690937042236
         0.0007004737854 0.0007004737854 0.0007004737854
         0.000710487365723 0.000710487365723 0.000710487365723
         0.000720024108887 0.000720024108887 0.000720024108887
         0.000730037689209 0.000730037689209 0.000730037689209
         0.000740528106689 0.000740528106689 0.000740528106689
         0.000750541687012 0.000750541687012 0.000750541687012
         0.000761032104492 0.000761032104492 0.000761032104492
         0.000771999359131 0.000771999359131 0.000771999359131
         0.000782489776611 0.000782489776611 0.000782489776611
         0.00079345703125 0.00079345703125 0.00079345703125
         0.000804424285889 0.000804424285889 0.000804424285889
         0.000815868377686 0.000815868377686 0.000815868377686
         0.000827312469482 0.000827312469482 0.000827312469482
         0.000838756561279 0.000838756561279 0.000838756561279
         0.000850677490234 0.000850677490234 0.000850677490234
         0.000862598419189 0.000862598419189 0.000862598419189
         0.000874519348145 0.000874519348145 0.000874519348145
         0.000886917114258 0.000886917114258 0.000886917114258
         0.000899314880371 0.000899314880371 0.000899314880371
         0.000911712646484 0.000911712646484 0.000911712646484
         0.000924587249756 0.000924587249756 0.000924587249756
         0.000937461853027 0.000937461853027 0.000937461853027
         0.000950336456299 0.000950336456299 0.000950336456299
         0.000963687896729 0.000963687896729 0.000963687896729
         0.000977516174316 0.000977516174316 0.000977516174316
         0.000990867614746 0.000990867614746 0.000990867614746
         0.00100421905518 0.00100421905518 0.00100421905518
         0.00101852416992 0.00101852416992 0.00101852416992
         0.00103282928467 0.00103282928467 0.00103282928467
         0.00104713439941 0.00104713439941 0.00104713439941
         0.00106239318848 0.00106239318848 0.00106239318848
         0.00107669830322 0.00107669830322 0.00107669830322
         0.00109195709229 0.00109195709229 0.00109195709229
         0.00110721588135 0.00110721588135 0.00110721588135
         0.00112247467041 0.00112247467041 0.00112247467041
         0.00113868713379 0.00113868713379 0.00113868713379
         0.00115394592285 0.00115394592285 0.00115394592285
         0.00117015838623 0.00117015838623 0.00117015838623
         0.00118637084961 0.00118637084961 0.00118637084961
         0.0012035369873 0.0012035369873 0.0012035369873
         0.00121974945068 0.00121974945068 0.00121974945068
         0.00123691558838 0.00123691558838 0.00123691558838
         0.00125408172607 0.00125408172607 0.00125408172607
         0.00127220153809 0.00127220153809 0.00127220153809
         0.00128936767578 0.00128936767578 0.00128936767578
         0.00130748748779 0.00130748748779 0.00130748748779
         0.0013256072998 0.0013256072998 0.0013256072998
         0.00134468078613 0.00134468078613 0.00134468078613
         0.00136375427246 0.00136375427246 0.00136375427246
         0.00138282775879 0.00138282775879 0.00138282775879
         0.00140190124512 0.00140190124512 0.00140190124512
         0.00142097473145 0.00142097473145 0.00142097473145
         0.00144100189209 0.00144100189209 0.00144100189209
         0.00146102905273 0.00146102905273 0.00146102905273
         0.0014820098877 0.0014820098877 0.0014820098877
         0.00150203704834 0.00150203704834 0.00150203704834
         0.0015230178833 0.0015230178833 0.0015230178833
         0.00154495239258 0.00154495239258 0.00154495239258
         0.00156593322754 0.00156593322754 0.00156593322754
         0.00158786773682 0.00158786773682 0.00158786773682
         0.00161075592041 0.00161075592041 0.00161075592041
         0.00163269042969 0.00163269042969 0.00163269042969
         0.00165557861328 0.00165557861328 0.00165557861328
         0.00167846679688 0.00167846679688 0.00167846679688
         0.00170230865479 0.00170230865479 0.00170230865479
         0.0017261505127 0.0017261505127 0.0017261505127
         0.00174999237061 0.00174999237061 0.00174999237061
         0.00177478790283 0.00177478790283 0.00177478790283
         0.00179958343506 0.00179958343506 0.00179958343506
         0.00182437896729 0.00182437896729 0.00182437896729
         0.00185012817383 0.00185012817383 0.00185012817383
         0.00187587738037 0.00187587738037 0.00187587738037
         0.00190258026123 0.00190258026123 0.00190258026123
         0.00192832946777 0.00192832946777 0.00192832946777
         0.00195503234863 0.00195503234863 0.00195503234863
         0.00198364257812 0.00198364257812 0.00198364257812
         0.00201034545898 0.00201034545898 0.00201034545898
         0.00203895568848 0.00203895568848 0.00203895568848
         0.00206756591797 0.00206756591797 0.00206756591797
         0.00209617614746 0.00209617614746 0.00209617614746
         0.00212669372559 0.00212669372559 0.00212669372559
         0.00215530395508 0.00215530395508 0.00215530395508
         0.0021858215332 0.0021858215332 0.0021858215332
         0.00221633911133 0.00221633911133 0.00221633911133
         0.00224685668945 0.00224685668945 0.00224685668945
         0.00227737426758 0.00227737426758 0.00227737426758
         0.00230979919434 0.00230979919434 0.00230979919434
         0.00234222412109 0.00234222412109 0.00234222412109
         0.00237464904785 0.00237464904785 0.00237464904785
         0.00240898132324 0.00240898132324 0.00240898132324
         0.00244140625 0.00244140625 0.00244140625
         0.00247573852539 0.00247573852539 0.00247573852539
         0.00251007080078 0.00251007080078 0.00251007080078
         0.0025463104248 0.0025463104248 0.0025463104248
         0.0025806427002 0.0025806427002 0.0025806427002
         0.00261688232422 0.00261688232422 0.00261688232422
         0.00265502929688 0.00265502929688 0.00265502929688
         0.0026912689209 0.0026912689209 0.0026912689209
         0.00272941589355 0.00272941589355 0.00272941589355
         0.00276756286621 0.00276756286621 0.00276756286621
         0.00280570983887 0.00280570983887 0.00280570983887
         0.00284385681152 0.00284385681152 0.00284385681152
         0.00288391113281 0.00288391113281 0.00288391113281
         0.0029239654541 0.0029239654541 0.0029239654541
         0.00296592712402 0.00296592712402 0.00296592712402
         0.00300598144531 0.00300598144531 0.00300598144531
         0.00304794311523 0.00304794311523 0.00304794311523
         0.00309181213379 0.00309181213379 0.00309181213379
         0.00313377380371 0.00313377380371 0.00313377380371
         0.00317764282227 0.00317764282227 0.00317764282227
         0.00322341918945 0.00322341918945 0.00322341918945
         0.00326728820801 0.00326728820801 0.00326728820801
         0.0033130645752 0.0033130645752 0.0033130645752
         0.00336074829102 0.00336074829102 0.00336074829102
         0.0034065246582 0.0034065246582 0.0034065246582
         0.00345420837402 0.00345420837402 0.00345420837402
         0.00350379943848 0.00350379943848 0.00350379943848
         0.0035514831543 0.0035514831543 0.0035514831543
         0.00360107421875 0.00360107421875 0.00360107421875
         0.00365257263184 0.00365257263184 0.00365257263184
         0.00370216369629 0.00370216369629 0.00370216369629
         0.00375366210938 0.00375366210938 0.00375366210938
         0.00380706787109 0.00380706787109 0.00380706787109
         0.00386047363281 0.00386047363281 0.00386047363281
         0.00391387939453 0.00391387939453 0.00391387939453
         0.00396728515625 0.00396728515625 0.00396728515625
         0.00402450561523 0.00402450561523 0.00402450561523
         0.00408172607422 0.00408172607422 0.00408172607422
         0.00413513183594 0.00413513183594 0.00413513183594
         0.00419616699219 0.00419616699219 0.00419616699219
         0.00425338745117 0.00425338745117 0.00425338745117
         0.00431442260742 0.00431442260742 0.00431442260742
         0.00437545776367 0.00437545776367 0.00437545776367
         0.00443649291992 0.00443649291992 0.00443649291992
         0.00449752807617 0.00449752807617 0.00449752807617
         0.00455856323242 0.00455856323242 0.00455856323242
         0.00462341308594 0.00462341308594 0.00462341308594
         0.00468826293945 0.00468826293945 0.00468826293945
         0.00475311279297 0.00475311279297 0.00475311279297
         0.00481796264648 0.00481796264648 0.00481796264648
         0.00488662719727 0.00488662719727 0.00488662719727
         0.00495529174805 0.00495529174805 0.00495529174805
         0.00502395629883 0.00502395629883 0.00502395629883
         0.00509262084961 0.00509262084961 0.00509262084961
         0.00516510009766 0.00516510009766 0.00516510009766
         0.0052375793457 0.0052375793457 0.0052375793457
         0.00531005859375 0.00531005859375 0.00531005859375
         0.00538635253906 0.00538635253906 0.00538635253906
         0.00546264648438 0.00546264648438 0.00546264648438
         0.00553894042969 0.00553894042969 0.00553894042969
         0.005615234375 0.005615234375 0.005615234375
         0.00569152832031 0.00569152832031 0.00569152832031
         0.00577163696289 0.00577163696289 0.00577163696289
         0.00585174560547 0.00585174560547 0.00585174560547
         0.00593566894531 0.00593566894531 0.00593566894531
         0.00601959228516 0.00601959228516 0.00601959228516
         0.006103515625 0.006103515625 0.006103515625
         0.00618743896484 0.00618743896484 0.00618743896484
         0.00627517700195 0.00627517700195 0.00627517700195
         0.0063591003418 0.0063591003418 0.0063591003418
         0.00645065307617 0.00645065307617 0.00645065307617
         0.00654220581055 0.00654220581055 0.00654220581055
         0.00663375854492 0.00663375854492 0.00663375854492
         0.0067253112793 0.0067253112793 0.0067253112793
         0.00682067871094 0.00682067871094 0.00682067871094
         0.00691223144531 0.00691223144531 0.00691223144531
         0.00701141357422 0.00701141357422 0.00701141357422
         0.00710678100586 0.00710678100586 0.00710678100586
         0.00720596313477 0.00720596313477 0.00720596313477
         0.00730895996094 0.00730895996094 0.00730895996094
         0.00741195678711 0.00741195678711 0.00741195678711
         0.00751495361328 0.00751495361328 0.00751495361328
         0.00761795043945 0.00761795043945 0.00761795043945
         0.00772476196289 0.00772476196289 0.00772476196289
         0.00783538818359 0.00783538818359 0.00783538818359
         0.00794219970703 0.00794219970703 0.00794219970703
         0.008056640625 0.008056640625 0.008056640625
         0.00816345214844 0.00816345214844 0.00816345214844
         0.00827789306641 0.00827789306641 0.00827789306641
         0.00839996337891 0.00839996337891 0.00839996337891
         0.00851440429688 0.00851440429688 0.00851440429688
         0.00863647460938 0.00863647460938 0.00863647460938
         0.00875091552734 0.00875091552734 0.00875091552734
         0.00887298583984 0.00887298583984 0.00887298583984
         0.00900268554688 0.00900268554688 0.00900268554688
         0.00912475585938 0.00912475585938 0.00912475585938
         0.00925445556641 0.00925445556641 0.00925445556641
         0.00938415527344 0.00938415527344 0.00938415527344
         0.00951385498047 0.00951385498047 0.00951385498047
         0.0096435546875 0.0096435546875 0.0096435546875
         0.00978088378906 0.00978088378906 0.00978088378906
         0.00991821289062 0.00991821289062 0.00991821289062
         0.0100555419922 0.0100555419922 0.0100555419922
         0.0101928710938 0.0101928710938 0.0101928710938
         0.0103378295898 0.0103378295898 0.0103378295898
         0.0104827880859 0.0104827880859 0.0104827880859
         0.010627746582 0.010627746582 0.010627746582
         0.0107803344727 0.0107803344727 0.0107803344727
         0.0109329223633 0.0109329223633 0.0109329223633
         0.0110855102539 0.0110855102539 0.0110855102539
         0.0112380981445 0.0112380981445 0.0112380981445
         0.0113906860352 0.0113906860352 0.0113906860352
         0.0115509033203 0.0115509033203 0.0115509033203
         0.0117111206055 0.0117111206055 0.0117111206055
         0.0118789672852 0.0118789672852 0.0118789672852
         0.0120468139648 0.0120468139648 0.0120468139648
         0.0122146606445 0.0122146606445 0.0122146606445
         0.0123825073242 0.0123825073242 0.0123825073242
         0.0125579833984 0.0125579833984 0.0125579833984
         0.0127334594727 0.0127334594727 0.0127334594727
         0.0129089355469 0.0129089355469 0.0129089355469
         0.0130920410156 0.0130920410156 0.0130920410156
         0.0132751464844 0.0132751464844 0.0132751464844
         0.0134582519531 0.0134582519531 0.0134582519531
         0.0136489868164 0.0136489868164 0.0136489868164
         0.0138397216797 0.0138397216797 0.0138397216797
         0.014030456543 0.014030456543 0.014030456543
         0.0142288208008 0.0142288208008 0.0142288208008
         0.0144271850586 0.0144271850586 0.0144271850586
         0.0146255493164 0.0146255493164 0.0146255493164
         0.0148315429688 0.0148315429688 0.0148315429688
         0.0150375366211 0.0150375366211 0.0150375366211
         0.0152435302734 0.0152435302734 0.0152435302734
         0.0154571533203 0.0154571533203 0.0154571533203
         0.0156707763672 0.0156707763672 0.0156707763672
         0.0158996582031 0.0158996582031 0.0158996582031
         0.01611328125 0.01611328125 0.01611328125
         0.0163421630859 0.0163421630859 0.0163421630859
         0.0165710449219 0.0165710449219 0.0165710449219
         0.0167999267578 0.0167999267578 0.0167999267578
         0.0170440673828 0.0170440673828 0.0170440673828
         0.0172729492188 0.0172729492188 0.0172729492188
         0.0175170898438 0.0175170898438 0.0175170898438
         0.0177612304688 0.0177612304688 0.0177612304688
         0.0180053710938 0.0180053710938 0.0180053710938
         0.0182647705078 0.0182647705078 0.0182647705078
         0.0185241699219 0.0185241699219 0.0185241699219
         0.0187683105469 0.0187683105469 0.0187683105469
         0.01904296875 0.01904296875 0.01904296875
         0.0193023681641 0.0193023681641 0.0193023681641
         0.0195770263672 0.0195770263672 0.0195770263672
         0.0198516845703 0.0198516845703 0.0198516845703
         0.0201263427734 0.0201263427734 0.0201263427734
         0.0204010009766 0.0204010009766 0.0204010009766
         0.0206909179688 0.0206909179688 0.0206909179688
         0.0209808349609 0.0209808349609 0.0209808349609
         0.0212707519531 0.0212707519531 0.0212707519531
         0.0215759277344 0.0215759277344 0.0215759277344
         0.0218658447266 0.0218658447266 0.0218658447266
         0.0221710205078 0.0221710205078 0.0221710205078
         0.0224914550781 0.0224914550781 0.0224914550781
         0.0227966308594 0.0227966308594 0.0227966308594
         0.0231170654297 0.0231170654297 0.0231170654297
         0.0234375 0.0234375 0.0234375
         0.0237731933594 0.0237731933594 0.0237731933594
         0.0241088867188 0.0241088867188 0.0241088867188
         0.0244445800781 0.0244445800781 0.0244445800781
         0.0247802734375 0.0247802734375 0.0247802734375
         0.0251312255859 0.0251312255859 0.0251312255859
         0.0254821777344 0.0254821777344 0.0254821777344
         0.0258331298828 0.0258331298828 0.0258331298828
         0.0261993408203 0.0261993408203 0.0261993408203
         0.0265655517578 0.0265655517578 0.0265655517578
         0.0269317626953 0.0269317626953 0.0269317626953
         0.0273132324219 0.0273132324219 0.0273132324219
         0.0276947021484 0.0276947021484 0.0276947021484
         0.028076171875 0.028076171875 0.028076171875
         0.0284729003906 0.0284729003906 0.0284729003906
         0.0288696289062 0.0288696289062 0.0288696289062
         0.0292663574219 0.0292663574219 0.0292663574219
         0.0296783447266 0.0296783447266 0.0296783447266
         0.0300903320312 0.0300903320312 0.0300903320312
         0.030517578125 0.030517578125 0.030517578125
         0.0309448242188 0.0309448242188 0.0309448242188
         0.0313720703125 0.0313720703125 0.0313720703125
         0.0318298339844 0.0318298339844 0.0318298339844
         0.0322570800781 0.0322570800781 0.0322570800781
         0.03271484375 0.03271484375 0.03271484375
         0.0331726074219 0.0331726074219 0.0331726074219
         0.0336303710938 0.0336303710938 0.0336303710938
         0.0340881347656 0.0340881347656 0.0340881347656
         0.0345764160156 0.0345764160156 0.0345764160156
         0.0350646972656 0.0350646972656 0.0350646972656
         0.0355529785156 0.0355529785156 0.0355529785156
         0.0360412597656 0.0360412597656 0.0360412597656
         0.0365600585938 0.0365600585938 0.0365600585938
         0.0370483398438 0.0370483398438 0.0370483398438
         0.0375671386719 0.0375671386719 0.0375671386719
         0.0380859375 0.0380859375 0.0380859375
         0.0386352539062 0.0386352539062 0.0386352539062
         0.0391845703125 0.0391845703125 0.0391845703125
         0.0397338867188 0.0397338867188 0.0397338867188
         0.040283203125 0.040283203125 0.040283203125
         0.0408325195312 0.0408325195312 0.0408325195312
         0.0414123535156 0.0414123535156 0.0414123535156
         0.0419921875 0.0419921875 0.0419921875
         0.0425720214844 0.0425720214844 0.0425720214844
         0.0431823730469 0.0431823730469 0.0431823730469
         0.0437622070312 0.0437622070312 0.0437622070312
         0.0443725585938 0.0443725585938 0.0443725585938
         0.0450134277344 0.0450134277344 0.0450134277344
         0.0456237792969 0.0456237792969 0.0456237792969
         0.0462646484375 0.0462646484375 0.0462646484375
         0.0469055175781 0.0469055175781 0.0469055175781
         0.0475769042969 0.0475769042969 0.0475769042969
         0.0482482910156 0.0482482910156 0.0482482910156
         0.0489196777344 0.0489196777344 0.0489196777344
         0.0495910644531 0.0495910644531 0.0495910644531
         0.05029296875 0.05029296875 0.05029296875
         0.0509948730469 0.0509948730469 0.0509948730469
         0.0516967773438 0.0516967773438 0.0516967773438
         0.0524291992188 0.0524291992188 0.0524291992188
         0.0531616210938 0.0531616210938 0.0531616210938
         0.0538940429688 0.0538940429688 0.0538940429688
         0.0546569824219 0.0546569824219 0.0546569824219
         0.055419921875 0.055419921875 0.055419921875
         0.0561828613281 0.0561828613281 0.0561828613281
         0.0569763183594 0.0569763183594 0.0569763183594
         0.0577697753906 0.0577697753906 0.0577697753906
         0.05859375 0.05859375 0.05859375
         0.0593872070312 0.0593872070312 0.0593872070312
         0.0602416992188 0.0602416992188 0.0602416992188
         0.0610656738281 0.0610656738281 0.0610656738281
         0.0619201660156 0.0619201660156 0.0619201660156
         0.0628051757812 0.0628051757812 0.0628051757812
         0.0636596679688 0.0636596679688 0.0636596679688
         0.0645751953125 0.0645751953125 0.0645751953125
         0.0654907226562 0.0654907226562 0.0654907226562
         0.06640625 0.06640625 0.06640625
         0.0673217773438 0.0673217773438 0.0673217773438
         0.0682373046875 0.0682373046875 0.0682373046875
         0.0692138671875 0.0692138671875 0.0692138671875
         0.0701904296875 0.0701904296875 0.0701904296875
         0.0711669921875 0.0711669921875 0.0711669921875
         0.0721435546875 0.0721435546875 0.0721435546875
         0.0731201171875 0.0731201171875 0.0731201171875
         0.0741577148438 0.0741577148438 0.0741577148438
         0.0751953125 0.0751953125 0.0751953125
         0.0762329101562 0.0762329101562 0.0762329101562
         0.0773315429688 0.0773315429688 0.0773315429688
         0.0784301757812 0.0784301757812 0.0784301757812
         0.0795288085938 0.0795288085938 0.0795288085938
         0.0806274414062 0.0806274414062 0.0806274414062
         0.0817260742188 0.0817260742188 0.0817260742188
         0.0828857421875 0.0828857421875 0.0828857421875
         0.0840454101562 0.0840454101562 0.0840454101562
         0.085205078125 0.085205078125 0.085205078125
         0.08642578125 0.08642578125 0.08642578125
         0.0875854492188 0.0875854492188 0.0875854492188
         0.0888061523438 0.0888061523438 0.0888061523438
         0.090087890625 0.090087890625 0.090087890625
         0.09130859375 0.09130859375 0.09130859375
         0.0925903320312 0.0925903320312 0.0925903320312
         0.0938720703125 0.0938720703125 0.0938720703125
         0.09521484375 0.09521484375 0.09521484375
         0.0965576171875 0.0965576171875 0.0965576171875
         0.097900390625 0.097900390625 0.097900390625
         0.0992431640625 0.0992431640625 0.0992431640625
         0.100646972656 0.100646972656 0.100646972656
         0.10205078125 0.10205078125 0.10205078125
         0.103515625 0.103515625 0.103515625
         0.104919433594 0.104919433594 0.104919433594
         0.106384277344 0.106384277344 0.106384277344
         0.10791015625 0.10791015625 0.10791015625
         0.109375 0.109375 0.109375
         0.110900878906 0.110900878906 0.110900878906
         0.112487792969 0.112487792969 0.112487792969
         0.114013671875 0.114013671875 0.114013671875
         0.115600585938 0.115600585938 0.115600585938
         0.117248535156 0.117248535156 0.117248535156
         0.118896484375 0.118896484375 0.118896484375
         0.120544433594 0.120544433594 0.120544433594
         0.122253417969 0.122253417969 0.122253417969
         0.123962402344 0.123962402344 0.123962402344
         0.125732421875 0.125732421875 0.125732421875
         0.12744140625 0.12744140625 0.12744140625
         0.129272460938 0.129272460938 0.129272460938
         0.130981445312 0.130981445312 0.130981445312
         0.1328125 0.1328125 0.1328125
         0.134643554688 0.134643554688 0.134643554688
         0.136596679688 0.136596679688 0.136596679688
         0.138427734375 0.138427734375 0.138427734375
         0.140380859375 0.140380859375 0.140380859375
         0.142333984375 0.142333984375 0.142333984375
         0.144409179688 0.144409179688 0.144409179688
         0.146362304688 0.146362304688 0.146362304688
