aces_1.0.0/luts/ACEScc_to_ACES.spi1d
Version 1
From 0.000000 1.000000
Length 4096
Components 3
{
         0.00118573696818 0.0011857370846 0.00118573673535
         0.00118925841525 0.00118925853167 0.00118925829884
         0.0011927903397 0.0011927903397 0.00119279010687
         0.00119633344002 0.00119633344002 0.00119633344002
         0.00119988620281 0.00119988643564 0.00119988631923
         0.00120344979223 0.00120344967581 0.00120344979223
         0.00120702374261 0.00120702385902 0.00120702374261
         0.00121060921811 0.00121060910169 0.00121060921811
         0.00121420447249 0.0012142045889 0.00121420435607
         0.0012178105535 0.00121781066991 0.00121781032067
         0.00122142734472 0.00122142734472 0.00122142699547
         0.00122505438048 0.00122505472973 0.00122505426407
         0.00122869352344 0.00122869363986 0.00122869340703
         0.00123234244529 0.00123234279454 0.00123234221246
         0.00123600231018 0.00123600254301 0.00123600207735
         0.00123967300169 0.00123967311811 0.00123967288528
         0.00124335463624 0.00124335475266 0.00124335440341
         0.00124704791233 0.00124704791233 0.00124704791233
         0.00125075143296 0.00125075154938 0.00125075143296
         0.00125446578022 0.00125446624588 0.00125446566381
         0.00125819141977 0.0012581916526 0.00125819141977
         0.00126192881726 0.00126192893367 0.00126192893367
         0.0012656764593 0.00126567680854 0.0012656764593
         0.00126943527721 0.00126943562645 0.00126943516079
         0.00127320538741 0.00127320562024 0.00127320538741
         0.00127698678989 0.00127698667347 0.00127698644064
         0.00128077971749 0.00128078006674 0.00128077983391
         0.00128458347172 0.00128458358813 0.0012845833553
         0.00128839851823 0.00128839863464 0.00128839840181
         0.00129222474061 0.00129222497344 0.00129222462419
         0.00129606248811 0.00129606248811 0.00129606237169
         0.00129991245922 0.00129991257563 0.00129991222639
         0.00130377279129 0.00130377314053 0.0013037729077
         0.00130764476489 0.00130764499772 0.00130764476489
         0.0013115281472 0.00131152849644 0.00131152826361
         0.00131542410236 0.00131542421877 0.00131542386953
         0.00131933065131 0.00131933065131 0.00131933065131
         0.00132324895822 0.0013232488418 0.0013232488418
         0.00132717867382 0.00132717867382 0.00132717867382
         0.00133112014737 0.0013311203802 0.00133112003095
         0.00133507419378 0.00133507431019 0.00133507419378
         0.00133903906681 0.00133903929964 0.00133903895039
         0.0013430158142 0.00134301604703 0.00134301569778
         0.00134700431954 0.00134700455237 0.00134700420313
         0.00135100469925 0.00135100481566 0.00135100458283
         0.00135501776822 0.00135501800105 0.00135501776822
         0.00135904201306 0.00135904212948 0.00135904189665
         0.00136307789944 0.00136307813227 0.00136307789944
         0.00136712612584 0.00136712612584 0.00136712600943
         0.00137118739076 0.00137118739076 0.00137118704151
         0.00137525959872 0.00137525936589 0.00137525913306
         0.00137934356462 0.00137934368104 0.00137934344821
         0.00138344010338 0.00138344010338 0.00138343987055
         0.00138754863292 0.00138754863292 0.00138754840009
         0.00139167020097 0.00139167020097 0.00139167020097
         0.00139580329414 0.00139580341056 0.0013958029449
         0.00139994849451 0.00139994861092 0.00139994837809
         0.00140410591848 0.00140410615131 0.0014041060349
         0.00140827696305 0.00140827684663 0.00140827684663
         0.00141245918348 0.00141245941631 0.00141245918348
         0.00141665432602 0.00141665420961 0.00141665386036
         0.00142086111009 0.00142086122651 0.00142086111009
         0.00142508093268 0.00142508093268 0.00142508069985
         0.00142931379378 0.00142931425944 0.00142931379378
         0.0014335589949 0.00143355887849 0.00143355876207
         0.00143781607039 0.00143781630322 0.00143781607039
         0.00144208630081 0.00144208641723 0.00144208606798
         0.00144636898767 0.00144636910409 0.00144636887126
         0.00145066541154 0.00145066564437 0.00145066529512
         0.00145497382618 0.00145497359335 0.00145497359335
         0.00145929469727 0.00145929469727 0.00145929446444
         0.00146362837404 0.00146362872329 0.00146362837404
         0.00146797590423 0.00146797602065 0.00146797602065
         0.00147233589087 0.00147233589087 0.00147233554162
         0.00147670833394 0.00147670845035 0.00147670798469
         0.00148109369911 0.00148109393194 0.00148109369911
         0.0014854921028 0.00148549268488 0.00148549221922
         0.00148990517482 0.00148990505841 0.00148990482558
         0.00149432965554 0.00149432988837 0.00149432965554
         0.00149876787327 0.00149876787327 0.00149876752403
         0.00150321843103 0.00150321889669 0.00150321854744
         0.00150768319145 0.00150768307503 0.00150768295862
         0.00151216168888 0.00151216145605 0.00151216133963
         0.00151665240992 0.00151665252633 0.0015166522935
         0.00152115663514 0.00152115663514 0.00152115628589
         0.00152567401528 0.00152567424811 0.00152567401528
         0.00153020606376 0.00153020606376 0.00153020594735
         0.00153475045227 0.0015347506851 0.00153475045227
         0.00153930846136 0.00153930869419 0.00153930811211
         0.00154387985822 0.00154387985822 0.00154387962539
         0.00154846499208 0.00154846499208 0.00154846475925
         0.00155306467786 0.00155306479428 0.00155306432862
         0.00155767682008 0.00155767716933 0.00155767670367
         0.00156230316497 0.00156230304856 0.00156230269931
         0.00156694254838 0.00156694278121 0.00156694243196
         0.00157159613445 0.00157159625087 0.00157159601804
         0.00157626438886 0.00157626473811 0.00157626438886
         0.00158094568178 0.0015809457982 0.00158094556537
         0.00158564071171 0.00158564117737 0.00158564071171
         0.00159034994431 0.00159034994431 0.00159034971148
         0.00159507396165 0.0015950743109 0.00159507384524
         0.0015998109011 0.00159981125034 0.0015998109011
         0.00160456215963 0.00160456250887 0.00160456204321
         0.00160932750441 0.00160932762083 0.001609327388
         0.00161410705186 0.00161410705186 0.00161410670262
         0.00161890173331 0.00161890184972 0.00161890126765
         0.00162370945327 0.00162370945327 0.00162370922044
         0.00162853172515 0.00162853149232 0.00162853125948
         0.00163336796686 0.00163336796686 0.00163336773403
         0.00163821852766 0.00163821876049 0.00163821841124
         0.00164308492094 0.00164308515377 0.00164308480453
         0.00164796470199 0.0016479648184 0.00164796458557
         0.00165285856929 0.00165285880212 0.0016528586857
         0.00165776733775 0.00165776757058 0.00165776722133
         0.00166269182228 0.00166269193869 0.00166269158944
         0.00166762957815 0.00166762981098 0.00166762946174
         0.00167258223519 0.0016725823516 0.00167258200236
         0.00167754956055 0.00167754944414 0.00167754932772
         0.00168253143784 0.00168253167067 0.00168253132142
         0.00168752949685 0.00168752949685 0.00168752926402
         0.00169254082721 0.00169254106004 0.00169254082721
         0.00169756740797 0.00169756775722 0.00169756740797
         0.0017026088899 0.00170260912273 0.00170260900632
         0.00170766655356 0.00170766678639 0.00170766643714
         0.00171273795422 0.00171273841988 0.00171273783781
         0.00171782448888 0.00171782460529 0.00171782437246
         0.00172292615753 0.00172292650677 0.00172292604111
         0.00172804284375 0.001728043193 0.00172804272734
         0.00173317594454 0.00173317617737 0.00173317582812
         0.00173832301516 0.00173832336441 0.00173832301516
         0.00174348568544 0.00174348591827 0.00174348568544
         0.00174866383895 0.00174866360612 0.00174866337329
         0.00175385654438 0.0017538566608 0.00175385654438
         0.00175906647928 0.00175906671211 0.00175906636287
         0.00176429084968 0.00176429073326 0.00176429050043
         0.00176953035407 0.00176953047048 0.00176953012124
         0.00177478557453 0.00177478545811 0.00177478522528
         0.00178005755879 0.00178005744237 0.00178005720954
         0.00178534374572 0.00178534386214 0.00178534351289
         0.00179064599797 0.00179064611439 0.00179064576514
         0.00179596384987 0.0017959640827 0.00179596361704
         0.00180129753426 0.00180129765067 0.00180129730143
         0.00180664821528 0.00180664844811 0.00180664798245
         0.00181201356463 0.00181201356463 0.00181201344822
         0.00181739486288 0.0018173949793 0.00181739474647
         0.00182279222645 0.00182279234286 0.00182279211003
         0.00182820553891 0.00182820600457 0.0018282054225
         0.00183363608085 0.00183363631368 0.00183363608085
         0.00183908175677 0.00183908175677 0.00183908164036
         0.00184454349801 0.00184454373084 0.00184454338159
         0.00185002142098 0.00185002188664 0.00185002130456
         0.00185551692266 0.00185551727191 0.00185551680624
         0.00186102767475 0.00186102767475 0.0018610273255
         0.00186655414291 0.00186655460857 0.00186655414291
         0.0018720976077 0.00187209784053 0.00187209749129
         0.00187765748706 0.00187765771989 0.00187765725423
         0.00188323506154 0.00188323529437 0.00188323482871
         0.00188882788643 0.00188882800285 0.0018888276536
         0.00189443747513 0.00189443747513 0.00189443712588
         0.0019000635948 0.00190006347839 0.00190006324556
         0.00190570764244 0.00190570740961 0.00190570729319
         0.00191136705689 0.00191136740614 0.00191136694048
         0.00191704370081 0.00191704370081 0.00191704335157
         0.00192273664288 0.00192273710854 0.00192273664288
         0.00192844704725 0.00192844716366 0.00192844681442
         0.00193417537957 0.00193417537957 0.00193417514674
         0.00193991954438 0.00193991954438 0.00193991931155
         0.00194568058942 0.00194568082225 0.001945680473
         0.00195145898033 0.00195145909674 0.0019514587475
         0.00195725471713 0.00195725471713 0.0019572544843
         0.0019630684983 0.0019630684983 0.00196306779981
         0.00196889834478 0.00196889881045 0.00196889834478
         0.00197474542074 0.00197474611923 0.00197474542074
         0.00198061019182 0.00198061042465 0.00198060972616
         0.0019864924252 0.00198649265803 0.00198649219237
         0.00199239351787 0.00199239328504 0.00199239281937
         0.00199831021018 0.00199831021018 0.00199830974452
         0.0020042443648 0.00200424483046 0.0020042443648
         0.0020101966802 0.00201019761153 0.00201019691303
         0.00201616808772 0.00201616808772 0.00201616785489
         0.00202215579338 0.00202215602621 0.00202215579338
         0.00202816142701 0.00202816142701 0.00202816119418
         0.00203418498859 0.00203418475576 0.0020341842901
         0.00204022531398 0.00204022554681 0.00204022531398
         0.00204628612846 0.00204628659412 0.00204628589563
         0.00205236300826 0.00205236324109 0.00205236324109
         0.00205845804885 0.00205845851451 0.00205845828168
         0.00206457194872 0.00206457171589 0.00206457125023
         0.00207070424221 0.00207070447505 0.00207070424221
         0.00207685353234 0.00207685399801 0.00207685353234
         0.00208302168176 0.00208302191459 0.00208302144893
         0.00208920822479 0.00208920822479 0.00208920775913
         0.00209541292861 0.00209541269578 0.00209541223012
         0.00210163695738 0.00210163695738 0.00210163649172
         0.00210787844844 0.00210787844844 0.00210787798278
         0.0021141381003 0.00211413856596 0.00211413833313
         0.00212041707709 0.00212041707709 0.00212041661143
         0.00212671421468 0.00212671468034 0.00212671421468
         0.00213303160854 0.00213303160854 0.00213303114288
         0.00213936599903 0.00213936646469 0.00213936599903
         0.00214571971446 0.00214571994729 0.00214571948163
         0.00215209182352 0.00215209228918 0.00215209159069
         0.00215848372318 0.00215848349035 0.00215848349035
         0.00216489541344 0.00216489541344 0.00216489518061
         0.00217132433318 0.00217132433318 0.00217132410035
         0.00217777257785 0.00217777304351 0.00217777257785
         0.00218424061313 0.00218424061313 0.0021842403803
         0.00219072890468 0.00219072913751 0.00219072820619
         0.00219723442569 0.00219723489136 0.00219723442569
         0.00220376066864 0.0022037604358 0.00220375997014
         0.00221030507237 0.00221030507237 0.00221030460671
         0.0022168692667 0.0022168692667 0.00221686903387
         0.00222345395014 0.00222345464863 0.00222345371731
         0.00223005749285 0.00223005772568 0.00223005749285
         0.00223668012768 0.00223668059334 0.00223668036051
         0.00224332278594 0.00224332301877 0.00224332232028
         0.0022499866318 0.00224998709746 0.00224998639897
         0.00225666863844 0.0022566691041 0.00225666863844
         0.00226337020285 0.00226337066852 0.00226337043568
         0.00227009202354 0.0022700924892 0.00227009225637
         0.00227683410048 0.00227683410048 0.00227683363482
         0.00228359736502 0.00228359783068 0.00228359713219
         0.00229037879035 0.00229037925601 0.00229037902318
         0.0022971809376 0.00229718140326 0.00229718117043
         0.00230400334112 0.00230400357395 0.00230400310829
         0.00231084739789 0.00231084786355 0.00231084739789
         0.00231771008112 0.00231771008112 0.00231771008112
         0.00232459325343 0.00232459348626 0.00232459278777
         0.00233149668202 0.00233149714768 0.00233149691485
         0.00233842083253 0.00233842106536 0.0023384205997
         0.00234536733478 0.00234536710195 0.00234536686912
         0.00235233269632 0.00235233269632 0.00235233223066
         0.00235931854695 0.00235931877978 0.00235931854695
         0.00236632558517 0.00236632558517 0.00236632488668
         0.00237335264683 0.00237335264683 0.00237335264683
         0.00238040275872 0.00238040299155 0.00238040275872
         0.00238747219555 0.00238747219555 0.00238747196272
         0.00239456235431 0.00239456281997 0.00239456212148
         0.00240167393349 0.00240167416632 0.00240167346783
         0.0024088062346 0.00240880646743 0.00240880600177
         0.00241596181877 0.0024159620516 0.00241596135311
         0.00242313649505 0.00242313672788 0.00242313626222
         0.00243033329025 0.00243033282459 0.00243033282459
         0.00243755010888 0.00243755080737 0.00243754987605
         0.0024447911419 0.00244479160756 0.00244479090907
         0.00245205173269 0.00245205173269 0.00245205173269
         0.0024593337439 0.00245933397673 0.0024593337439
         0.00246663787402 0.00246663833968 0.00246663764119
         0.00247396319173 0.00247396342456 0.00247396272607
         0.00248131155968 0.00248131202534 0.00248131155968
         0.00248868088238 0.00248868111521 0.00248868088238
         0.00249607185833 0.00249607185833 0.0024960716255
         0.00250348495319 0.00250348541886 0.00250348448753
         0.00251092156395 0.00251092133112 0.00251092109829
         0.00251837843098 0.00251837866381 0.00251837773249
         0.00252585718408 0.00252585764974 0.00252585695125
         0.00253335898742 0.00253335852176 0.00253335852176
         0.00254088221118 0.00254088290967 0.00254088197835
         0.00254842988215 0.00254843011498 0.00254842988215
         0.00255599804223 0.00255599850789 0.00255599804223
         0.00256358878687 0.00256358948536 0.0025635890197
         0.00257120211609 0.00257120281458 0.00257120211609
         0.00257884012535 0.00257884035818 0.00257883989252
         0.00258649932221 0.00258649932221 0.00258649839088
         0.00259418017231 0.0025941808708 0.00259418017231
         0.00260188430548 0.00260188453831 0.00260188407265
         0.00260961172171 0.00260961148888 0.00260961125605
         0.00261736358516 0.00261736381799 0.0026173631195
         0.0026251366362 0.00262513686903 0.00262513593771
         0.00263293227181 0.00263293273747 0.00263293250464
         0.00264075212181 0.00264075235464 0.00264075165614
         0.00264859432355 0.00264859478921 0.00264859409072
         0.00265646213666 0.00265646236949 0.00265646143816
         0.00266435113735 0.00266435137019 0.00266435113735
         0.00267226365395 0.00267226435244 0.00267226365395
         0.0026802001521 0.0026802001521 0.00268019945361
         0.00268816016614 0.00268815970048 0.00268815946765
         0.00269614486024 0.00269614509307 0.00269614462741
         0.00270415144041 0.00270415190607 0.00270415144041
         0.00271218270063 0.00271218293346 0.00271218223497
         0.00272023747675 0.00272023770958 0.00272023677826
         0.00272831739858 0.00272831809707 0.00272831739858
         0.00273642013781 0.00273642013781 0.00273642013781
         0.00274454709142 0.00274454732426 0.00274454662576
         0.00275269756094 0.0027526980266 0.00275269732811
         0.0027608727105 0.00276087317616 0.00276087247767
         0.00276907347143 0.00276907416992 0.00276907347143
         0.00277729751542 0.00277729751542 0.00277729728259
         0.00278554554097 0.00278554600663 0.00278554530814
         0.00279381801374 0.00279381824657 0.00279381801374
         0.00280211679637 0.00280211726204 0.00280211679637
         0.00281043839641 0.00281043886207 0.00281043862924
         0.00281878560781 0.00281878560781 0.00281878514215
         0.00282715633512 0.00282715680078 0.00282715633512
         0.00283555267379 0.00283555267379 0.00283555220813
         0.00284397532232 0.00284397602081 0.00284397555515
         0.00285242171958 0.00285242171958 0.00285242125392
         0.00286089279689 0.00286089326255 0.00286089279689
         0.00286938878708 0.00286938925274 0.00286938878708
         0.00287791271694 0.00287791271694 0.00287791248411
         0.00288645946421 0.00288645969704 0.00288645899855
         0.00289503205568 0.00289503228851 0.00289503135718
         0.00290362956002 0.00290362979285 0.00290362932719
         0.00291225221008 0.00291225267574 0.00291225221008
         0.00292090117 0.00292090210132 0.00292090117
         0.00292957760394 0.00292957830243 0.00292957760394
         0.0029382777866 0.00293827848509 0.00293827801943
         0.00294700451195 0.00294700474478 0.00294700404629
         0.00295575615019 0.00295575661585 0.00295575615019
         0.00296453619376 0.00296453665942 0.00296453596093
         0.00297334091738 0.00297334068455 0.00297334045172
         0.00298217055388 0.0029821714852 0.00298217032105
         0.00299102743156 0.00299102766439 0.0029910269659
         0.00299991015345 0.00299991015345 0.00299990968779
         0.00300882104784 0.0030088215135 0.00300882104784
         0.00301775685512 0.00301775662228 0.00301775638945
         0.00302671967074 0.00302671943791 0.00302671873942
         0.00303570763208 0.00303570833057 0.00303570739925
         0.00304472516291 0.00304472562857 0.00304472516291
         0.00305376783945 0.00305376783945 0.00305376714095
         0.00306283636019 0.00306283682585 0.00306283636019
         0.0030719328206 0.00307193258777 0.00307193258777
         0.00308105559088 0.00308105628937 0.00308105535805
         0.00309020793065 0.00309020816348 0.00309020769782
         0.00309938564897 0.00309938564897 0.00309938495047
         0.00310858967714 0.0031085901428 0.00310858944431
         0.00311782187782 0.00311782187782 0.00311782164499
         0.003127083648 0.003127083648 0.0031270829495
         0.00313637033105 0.00313636986539 0.00313636986539
         0.00314568495378 0.00314568472095 0.00314568425529
         0.0031550261192 0.00315502705052 0.00315502658486
         0.00316439615563 0.00316439662129 0.00316439615563
         0.00317379413173 0.00317379436456 0.0031737938989
         0.00318322191015 0.00318322191015 0.00318322144449
         0.00319267529994 0.0031926757656 0.00319267506711
         0.00320215709507 0.00320215732791 0.00320215662941
         0.00321166659705 0.00321166706271 0.00321166636422
         0.00322120683268 0.00322120706551 0.00322120683268
         0.00323077314533 0.00323077361099 0.0032307729125
         0.00324036879465 0.00324036809616 0.00324036809616
         0.00324999098666 0.00324999168515 0.00324999098666
         0.00325964321382 0.00325964367948 0.00325964298099
         0.00326932617463 0.00326932640746 0.0032693259418
         0.0032790354453 0.00327903591096 0.00327903497964
         0.00328877312131 0.00328877358697 0.00328877288848
         0.00329854013398 0.00329854059964 0.00329854013398
         0.00330833904445 0.00330833881162 0.00330833834596
         0.00331816310063 0.00331816426478 0.00331816333346
         0.00332801835611 0.00332801789045 0.00332801765762
         0.00333790155128 0.00333790201694 0.00333790131845
         0.00334781478159 0.00334781454876 0.00334781431593
         0.00335775897838 0.00335775921121 0.00335775874555
         0.00336773134768 0.00336773181334 0.00336773088202
         0.00337773305364 0.00337773258798 0.00337773235515
         0.00338776432909 0.00338776409626 0.0033877636306
         0.00339782750234 0.00339782726951 0.00339782680385
         0.00340791861527 0.00340791838244 0.00340791768394
         0.00341803859919 0.00341803953052 0.00341803859919
         0.00342819001526 0.00342819048092 0.0034281895496
         0.00343837123364 0.00343837123364 0.00343837053515
         0.00344858434983 0.00344858504832 0.003448584117
         0.00345882610418 0.00345882610418 0.00345882587135
         0.00346909859218 0.00346909859218 0.00346909789369
         0.00347940018401 0.00347940064967 0.00347940041684
         0.00348973600194 0.0034897364676 0.00348973600194
         0.00350009975955 0.00350010069087 0.00350009975955
         0.0035104949493 0.00351049518213 0.00351049448363
         0.00352091970854 0.00352092063986 0.00352091994137
         0.0035313765984 0.00353137683123 0.00353137636557
         0.00354186445475 0.00354186445475 0.00354186398908
         0.00355238514021 0.00355238514021 0.00355238490738
         0.00356293539517 0.00356293609366 0.0035629349295
         0.0035735166166 0.00357351638377 0.00357351615094
         0.00358412927017 0.003584129503 0.0035841288045
         0.00359477545135 0.00359477545135 0.00359477521852
         0.00360545143485 0.00360545143485 0.00360545096919
         0.00361615931615 0.00361615931615 0.00361615838483
         0.00362689839676 0.00362689816393 0.0036268979311
         0.00363766937517 0.00363767007366 0.00363766890951
         0.00364847527817 0.00364847574383 0.00364847457968
         0.00365931075066 0.00365931051783 0.00365931005217
         0.00367017742246 0.00367017812096 0.00367017742246
         0.00368107715622 0.00368107762188 0.00368107715622
         0.00369201181456 0.00369201251306 0.00369201158173
         0.00370297650807 0.00370297650807 0.00370297627524
         0.00371397403069 0.00371397403069 0.00371397356503
         0.00372500345111 0.00372500391677 0.00372500321828
         0.00373606616631 0.00373606663197 0.00373606593348
         0.0037471645046 0.00374716427177 0.00374716380611
         0.00375829264522 0.00375829264522 0.00375829217955
         0.00376945431344 0.00376945454627 0.00376945361495
         0.00378064881079 0.00378064857796 0.0037806481123
         0.00379187893122 0.00379187893122 0.00379187846556
         0.00380314025097 0.00380314025097 0.00380313931964
         0.00381443439983 0.00381443509832 0.003814434167
         0.0038257627748 0.00382576230913 0.0038257620763
         0.00383712444454 0.00383712491021 0.00383712421171
         0.00384852010757 0.00384852010757 0.00384851964191
         0.00385995185934 0.003859952325 0.00385995185934
         0.00387141550891 0.00387141574174 0.00387141504325
         0.00388291291893 0.00388291338459 0.00388291268609
