aces_1.0.0/luts/ACESproxy_to_aces.spi1d
Version 1
From 0.000000 1.000000
Length 4096
Components 3
{
         0.00048828125 0.00048828125 0.00048828125
         0.000490188598633 0.000490188598633 0.000490188598633
         0.000491619110107 0.000491619110107 0.000491619110107
         0.00049352645874 0.00049352645874 0.00049352645874
         0.000494956970215 0.000494956970215 0.000494956970215
         0.000496864318848 0.000496864318848 0.000496864318848
         0.00049877166748 0.00049877166748 0.00049877166748
         0.000500202178955 0.000500202178955 0.000500202178955
         0.000502109527588 0.000502109527588 0.000502109527588
         0.000503540039062 0.000503540039062 0.000503540039062
         0.000505447387695 0.000505447387695 0.000505447387695
         0.000507354736328 0.000507354736328 0.000507354736328
         0.000508785247803 0.000508785247803 0.000508785247803
         0.000510692596436 0.000510692596436 0.000510692596436
         0.000512599945068 0.000512599945068 0.000512599945068
         0.000514507293701 0.000514507293701 0.000514507293701
         0.000515937805176 0.000515937805176 0.000515937805176
         0.000517845153809 0.000517845153809 0.000517845153809
         0.000519752502441 0.000519752502441 0.000519752502441
         0.000521659851074 0.000521659851074 0.000521659851074
         0.000523090362549 0.000523090362549 0.000523090362549
         0.000524997711182 0.000524997711182 0.000524997711182
         0.000526905059814 0.000526905059814 0.000526905059814
         0.000528812408447 0.000528812408447 0.000528812408447
         0.00053071975708 0.00053071975708 0.00053071975708
         0.000532627105713 0.000532627105713 0.000532627105713
         0.000534534454346 0.000534534454346 0.000534534454346
         0.00053596496582 0.00053596496582 0.00053596496582
         0.000537872314453 0.000537872314453 0.000537872314453
         0.000539779663086 0.000539779663086 0.000539779663086
         0.000541687011719 0.000541687011719 0.000541687011719
         0.000543594360352 0.000543594360352 0.000543594360352
         0.000545501708984 0.000545501708984 0.000545501708984
         0.000547409057617 0.000547409057617 0.000547409057617
         0.00054931640625 0.00054931640625 0.00054931640625
         0.000551223754883 0.000551223754883 0.000551223754883
         0.000553131103516 0.000553131103516 0.000553131103516
         0.000555038452148 0.000555038452148 0.000555038452148
         0.000556945800781 0.000556945800781 0.000556945800781
         0.000558853149414 0.000558853149414 0.000558853149414
         0.000560760498047 0.000560760498047 0.000560760498047
         0.00056266784668 0.00056266784668 0.00056266784668
         0.000564575195312 0.000564575195312 0.000564575195312
         0.000566959381104 0.000566959381104 0.000566959381104
         0.000568866729736 0.000568866729736 0.000568866729736
         0.000570774078369 0.000570774078369 0.000570774078369
         0.000572681427002 0.000572681427002 0.000572681427002
         0.000574588775635 0.000574588775635 0.000574588775635
         0.000576496124268 0.000576496124268 0.000576496124268
         0.000578880310059 0.000578880310059 0.000578880310059
         0.000580787658691 0.000580787658691 0.000580787658691
         0.000582695007324 0.000582695007324 0.000582695007324
         0.000584602355957 0.000584602355957 0.000584602355957
         0.00058650970459 0.00058650970459 0.00058650970459
         0.000588893890381 0.000588893890381 0.000588893890381
         0.000590801239014 0.000590801239014 0.000590801239014
         0.000592708587646 0.000592708587646 0.000592708587646
         0.000595092773438 0.000595092773438 0.000595092773438
         0.00059700012207 0.00059700012207 0.00059700012207
         0.000598907470703 0.000598907470703 0.000598907470703
         0.000601291656494 0.000601291656494 0.000601291656494
         0.000603199005127 0.000603199005127 0.000603199005127
         0.00060510635376 0.00060510635376 0.00060510635376
         0.000607490539551 0.000607490539551 0.000607490539551
         0.000609397888184 0.000609397888184 0.000609397888184
         0.000611782073975 0.000611782073975 0.000611782073975
         0.000613689422607 0.000613689422607 0.000613689422607
         0.000616073608398 0.000616073608398 0.000616073608398
         0.000617980957031 0.000617980957031 0.000617980957031
         0.000620365142822 0.000620365142822 0.000620365142822
         0.000622272491455 0.000622272491455 0.000622272491455
         0.000624656677246 0.000624656677246 0.000624656677246
         0.000626564025879 0.000626564025879 0.000626564025879
         0.00062894821167 0.00062894821167 0.00062894821167
         0.000630855560303 0.000630855560303 0.000630855560303
         0.000633239746094 0.000633239746094 0.000633239746094
         0.000635623931885 0.000635623931885 0.000635623931885
         0.000637531280518 0.000637531280518 0.000637531280518
         0.000639915466309 0.000639915466309 0.000639915466309
         0.0006422996521 0.0006422996521 0.0006422996521
         0.000644207000732 0.000644207000732 0.000644207000732
         0.000646591186523 0.000646591186523 0.000646591186523
         0.000648975372314 0.000648975372314 0.000648975372314
         0.000650882720947 0.000650882720947 0.000650882720947
         0.000653266906738 0.000653266906738 0.000653266906738
         0.000655651092529 0.000655651092529 0.000655651092529
         0.00065803527832 0.00065803527832 0.00065803527832
         0.000659942626953 0.000659942626953 0.000659942626953
         0.000662326812744 0.000662326812744 0.000662326812744
         0.000664710998535 0.000664710998535 0.000664710998535
         0.000667095184326 0.000667095184326 0.000667095184326
         0.000669479370117 0.000669479370117 0.000669479370117
         0.000671863555908 0.000671863555908 0.000671863555908
         0.000673770904541 0.000673770904541 0.000673770904541
         0.000676155090332 0.000676155090332 0.000676155090332
         0.000678539276123 0.000678539276123 0.000678539276123
         0.000680923461914 0.000680923461914 0.000680923461914
         0.000683307647705 0.000683307647705 0.000683307647705
         0.000685691833496 0.000685691833496 0.000685691833496
         0.000688076019287 0.000688076019287 0.000688076019287
         0.000690460205078 0.000690460205078 0.000690460205078
         0.000692844390869 0.000692844390869 0.000692844390869
         0.00069522857666 0.00069522857666 0.00069522857666
         0.000697612762451 0.000697612762451 0.000697612762451
         0.000699996948242 0.000699996948242 0.000699996948242
         0.000702381134033 0.000702381134033 0.000702381134033
         0.000705242156982 0.000705242156982 0.000705242156982
         0.000707626342773 0.000707626342773 0.000707626342773
         0.000710010528564 0.000710010528564 0.000710010528564
         0.000712394714355 0.000712394714355 0.000712394714355
         0.000714778900146 0.000714778900146 0.000714778900146
         0.000717163085938 0.000717163085938 0.000717163085938
         0.000720024108887 0.000720024108887 0.000720024108887
         0.000722408294678 0.000722408294678 0.000722408294678
         0.000724792480469 0.000724792480469 0.000724792480469
         0.00072717666626 0.00072717666626 0.00072717666626
         0.000730037689209 0.000730037689209 0.000730037689209
         0.000732421875 0.000732421875 0.000732421875
         0.000734806060791 0.000734806060791 0.000734806060791
         0.00073766708374 0.00073766708374 0.00073766708374
         0.000740051269531 0.000740051269531 0.000740051269531
         0.000742435455322 0.000742435455322 0.000742435455322
         0.000745296478271 0.000745296478271 0.000745296478271
         0.000747680664062 0.000747680664062 0.000747680664062
         0.000750541687012 0.000750541687012 0.000750541687012
         0.000752925872803 0.000752925872803 0.000752925872803
         0.000755786895752 0.000755786895752 0.000755786895752
         0.000758171081543 0.000758171081543 0.000758171081543
         0.000761032104492 0.000761032104492 0.000761032104492
         0.000763416290283 0.000763416290283 0.000763416290283
         0.000766277313232 0.000766277313232 0.000766277313232
         0.000768661499023 0.000768661499023 0.000768661499023
         0.000771522521973 0.000771522521973 0.000771522521973
         0.000774383544922 0.000774383544922 0.000774383544922
         0.000776767730713 0.000776767730713 0.000776767730713
         0.000779628753662 0.000779628753662 0.000779628753662
         0.000782489776611 0.000782489776611 0.000782489776611
         0.000785350799561 0.000785350799561 0.000785350799561
         0.000787734985352 0.000787734985352 0.000787734985352
         0.000790596008301 0.000790596008301 0.000790596008301
         0.00079345703125 0.00079345703125 0.00079345703125
         0.000796318054199 0.000796318054199 0.000796318054199
         0.00079870223999 0.00079870223999 0.00079870223999
         0.000801563262939 0.000801563262939 0.000801563262939
         0.000804424285889 0.000804424285889 0.000804424285889
         0.000807285308838 0.000807285308838 0.000807285308838
         0.000810146331787 0.000810146331787 0.000810146331787
         0.000813007354736 0.000813007354736 0.000813007354736
         0.000815868377686 0.000815868377686 0.000815868377686
         0.000818729400635 0.000818729400635 0.000818729400635
         0.000821590423584 0.000821590423584 0.000821590423584
         0.000824451446533 0.000824451446533 0.000824451446533
         0.000827312469482 0.000827312469482 0.000827312469482
         0.000830173492432 0.000830173492432 0.000830173492432
         0.000833034515381 0.000833034515381 0.000833034515381
         0.00083589553833 0.00083589553833 0.00083589553833
         0.000838756561279 0.000838756561279 0.000838756561279
         0.000841617584229 0.000841617584229 0.000841617584229
         0.000844478607178 0.000844478607178 0.000844478607178
         0.000847339630127 0.000847339630127 0.000847339630127
         0.000850200653076 0.000850200653076 0.000850200653076
         0.000853061676025 0.000853061676025 0.000853061676025
         0.000856399536133 0.000856399536133 0.000856399536133
         0.000859260559082 0.000859260559082 0.000859260559082
         0.000862121582031 0.000862121582031 0.000862121582031
         0.00086498260498 0.00086498260498 0.00086498260498
         0.000868320465088 0.000868320465088 0.000868320465088
         0.000871181488037 0.000871181488037 0.000871181488037
         0.000874042510986 0.000874042510986 0.000874042510986
         0.000877380371094 0.000877380371094 0.000877380371094
         0.000880241394043 0.000880241394043 0.000880241394043
         0.00088357925415 0.00088357925415 0.00088357925415
         0.0008864402771 0.0008864402771 0.0008864402771
         0.000889301300049 0.000889301300049 0.000889301300049
         0.000892639160156 0.000892639160156 0.000892639160156
         0.000895500183105 0.000895500183105 0.000895500183105
         0.000898838043213 0.000898838043213 0.000898838043213
         0.000901699066162 0.000901699066162 0.000901699066162
         0.00090503692627 0.00090503692627 0.00090503692627
         0.000908374786377 0.000908374786377 0.000908374786377
         0.000911235809326 0.000911235809326 0.000911235809326
         0.000914573669434 0.000914573669434 0.000914573669434
         0.000917911529541 0.000917911529541 0.000917911529541
         0.00092077255249 0.00092077255249 0.00092077255249
         0.000924110412598 0.000924110412598 0.000924110412598
         0.000927448272705 0.000927448272705 0.000927448272705
         0.000930309295654 0.000930309295654 0.000930309295654
         0.000933647155762 0.000933647155762 0.000933647155762
         0.000936985015869 0.000936985015869 0.000936985015869
         0.000940322875977 0.000940322875977 0.000940322875977
         0.000943660736084 0.000943660736084 0.000943660736084
         0.000946998596191 0.000946998596191 0.000946998596191
         0.000949859619141 0.000949859619141 0.000949859619141
         0.000953197479248 0.000953197479248 0.000953197479248
         0.000956535339355 0.000956535339355 0.000956535339355
         0.000959873199463 0.000959873199463 0.000959873199463
         0.00096321105957 0.00096321105957 0.00096321105957
         0.000966548919678 0.000966548919678 0.000966548919678
         0.000969886779785 0.000969886779785 0.000969886779785
         0.000973224639893 0.000973224639893 0.000973224639893
         0.0009765625 0.0009765625 0.0009765625
         0.000980377197266 0.000980377197266 0.000980377197266
         0.000983238220215 0.000983238220215 0.000983238220215
         0.00098705291748 0.00098705291748 0.00098705291748
         0.000990867614746 0.000990867614746 0.000990867614746
         0.000993728637695 0.000993728637695 0.000993728637695
         0.000997543334961 0.000997543334961 0.000997543334961
         0.00100040435791 0.00100040435791 0.00100040435791
         0.00100421905518 0.00100421905518 0.00100421905518
         0.00100803375244 0.00100803375244 0.00100803375244
         0.00101089477539 0.00101089477539 0.00101089477539
         0.00101470947266 0.00101470947266 0.00101470947266
         0.00101852416992 0.00101852416992 0.00101852416992
         0.00102138519287 0.00102138519287 0.00102138519287
         0.00102519989014 0.00102519989014 0.00102519989014
         0.0010290145874 0.0010290145874 0.0010290145874
         0.00103282928467 0.00103282928467 0.00103282928467
         0.00103569030762 0.00103569030762 0.00103569030762
         0.00103950500488 0.00103950500488 0.00103950500488
         0.00104331970215 0.00104331970215 0.00104331970215
         0.00104713439941 0.00104713439941 0.00104713439941
         0.00105094909668 0.00105094909668 0.00105094909668
         0.00105381011963 0.00105381011963 0.00105381011963
         0.00105762481689 0.00105762481689 0.00105762481689
         0.00106143951416 0.00106143951416 0.00106143951416
         0.00106525421143 0.00106525421143 0.00106525421143
         0.00106906890869 0.00106906890869 0.00106906890869
         0.00107288360596 0.00107288360596 0.00107288360596
         0.00107669830322 0.00107669830322 0.00107669830322
         0.00108051300049 0.00108051300049 0.00108051300049
         0.00108337402344 0.00108337402344 0.00108337402344
         0.0010871887207 0.0010871887207 0.0010871887207
         0.00109100341797 0.00109100341797 0.00109100341797
         0.00109481811523 0.00109481811523 0.00109481811523
         0.0010986328125 0.0010986328125 0.0010986328125
         0.00110244750977 0.00110244750977 0.00110244750977
         0.00110626220703 0.00110626220703 0.00110626220703
         0.0011100769043 0.0011100769043 0.0011100769043
         0.00111389160156 0.00111389160156 0.00111389160156
         0.00111770629883 0.00111770629883 0.00111770629883
         0.00112247467041 0.00112247467041 0.00112247467041
         0.00112628936768 0.00112628936768 0.00112628936768
         0.00113010406494 0.00113010406494 0.00113010406494
         0.00113391876221 0.00113391876221 0.00113391876221
         0.00113773345947 0.00113773345947 0.00113773345947
         0.00114154815674 0.00114154815674 0.00114154815674
         0.001145362854 0.001145362854 0.001145362854
         0.00114917755127 0.00114917755127 0.00114917755127
         0.00115394592285 0.00115394592285 0.00115394592285
         0.00115776062012 0.00115776062012 0.00115776062012
         0.00116157531738 0.00116157531738 0.00116157531738
         0.00116539001465 0.00116539001465 0.00116539001465
         0.00116920471191 0.00116920471191 0.00116920471191
         0.0011739730835 0.0011739730835 0.0011739730835
         0.00117778778076 0.00117778778076 0.00117778778076
         0.00118160247803 0.00118160247803 0.00118160247803
         0.00118637084961 0.00118637084961 0.00118637084961
         0.00119018554688 0.00119018554688 0.00119018554688
         0.00119400024414 0.00119400024414 0.00119400024414
         0.00119876861572 0.00119876861572 0.00119876861572
         0.00120258331299 0.00120258331299 0.00120258331299
         0.00120639801025 0.00120639801025 0.00120639801025
         0.00121116638184 0.00121116638184 0.00121116638184
         0.0012149810791 0.0012149810791 0.0012149810791
         0.00121974945068 0.00121974945068 0.00121974945068
         0.00122356414795 0.00122356414795 0.00122356414795
         0.00122737884521 0.00122737884521 0.00122737884521
         0.0012321472168 0.0012321472168 0.0012321472168
         0.00123596191406 0.00123596191406 0.00123596191406
         0.00124073028564 0.00124073028564 0.00124073028564
         0.00124454498291 0.00124454498291 0.00124454498291
         0.00124931335449 0.00124931335449 0.00124931335449
         0.00125408172607 0.00125408172607 0.00125408172607
         0.00125789642334 0.00125789642334 0.00125789642334
         0.00126266479492 0.00126266479492 0.00126266479492
         0.00126647949219 0.00126647949219 0.00126647949219
         0.00127124786377 0.00127124786377 0.00127124786377
         0.00127506256104 0.00127506256104 0.00127506256104
         0.00127983093262 0.00127983093262 0.00127983093262
         0.0012845993042 0.0012845993042 0.0012845993042
         0.00128841400146 0.00128841400146 0.00128841400146
         0.00129318237305 0.00129318237305 0.00129318237305
         0.00129795074463 0.00129795074463 0.00129795074463
         0.00130271911621 0.00130271911621 0.00130271911621
         0.00130653381348 0.00130653381348 0.00130653381348
         0.00131130218506 0.00131130218506 0.00131130218506
         0.00131607055664 0.00131607055664 0.00131607055664
         0.00132083892822 0.00132083892822 0.00132083892822
         0.00132465362549 0.00132465362549 0.00132465362549
         0.00132942199707 0.00132942199707 0.00132942199707
         0.00133419036865 0.00133419036865 0.00133419036865
         0.00133895874023 0.00133895874023 0.00133895874023
         0.00134372711182 0.00134372711182 0.00134372711182
         0.0013484954834 0.0013484954834 0.0013484954834
         0.00135326385498 0.00135326385498 0.00135326385498
         0.00135803222656 0.00135803222656 0.00135803222656
         0.00136280059814 0.00136280059814 0.00136280059814
         0.00136661529541 0.00136661529541 0.00136661529541
         0.00137138366699 0.00137138366699 0.00137138366699
         0.00137615203857 0.00137615203857 0.00137615203857
         0.00138092041016 0.00138092041016 0.00138092041016
         0.00138568878174 0.00138568878174 0.00138568878174
         0.00139141082764 0.00139141082764 0.00139141082764
         0.00139617919922 0.00139617919922 0.00139617919922
         0.0014009475708 0.0014009475708 0.0014009475708
         0.00140571594238 0.00140571594238 0.00140571594238
         0.00141048431396 0.00141048431396 0.00141048431396
         0.00141525268555 0.00141525268555 0.00141525268555
         0.00142002105713 0.00142002105713 0.00142002105713
         0.00142478942871 0.00142478942871 0.00142478942871
         0.00143051147461 0.00143051147461 0.00143051147461
         0.00143527984619 0.00143527984619 0.00143527984619
         0.00144004821777 0.00144004821777 0.00144004821777
         0.00144481658936 0.00144481658936 0.00144481658936
         0.00144958496094 0.00144958496094 0.00144958496094
         0.00145530700684 0.00145530700684 0.00145530700684
         0.00146007537842 0.00146007537842 0.00146007537842
         0.00146484375 0.00146484375 0.00146484375
         0.0014705657959 0.0014705657959 0.0014705657959
         0.00147533416748 0.00147533416748 0.00147533416748
         0.00148010253906 0.00148010253906 0.00148010253906
         0.00148582458496 0.00148582458496 0.00148582458496
         0.00149059295654 0.00149059295654 0.00149059295654
         0.00149631500244 0.00149631500244 0.00149631500244
         0.00150108337402 0.00150108337402 0.00150108337402
         0.00150680541992 0.00150680541992 0.00150680541992
         0.0015115737915 0.0015115737915 0.0015115737915
         0.0015172958374 0.0015172958374 0.0015172958374
         0.00152206420898 0.00152206420898 0.00152206420898
         0.00152778625488 0.00152778625488 0.00152778625488
         0.00153255462646 0.00153255462646 0.00153255462646
         0.00153827667236 0.00153827667236 0.00153827667236
         0.00154304504395 0.00154304504395 0.00154304504395
         0.00154876708984 0.00154876708984 0.00154876708984
         0.00155448913574 0.00155448913574 0.00155448913574
         0.00155925750732 0.00155925750732 0.00155925750732
         0.00156497955322 0.00156497955322 0.00156497955322
         0.00157070159912 0.00157070159912 0.00157070159912
         0.0015754699707 0.0015754699707 0.0015754699707
         0.0015811920166 0.0015811920166 0.0015811920166
         0.0015869140625 0.0015869140625 0.0015869140625
         0.0015926361084 0.0015926361084 0.0015926361084
         0.00159740447998 0.00159740447998 0.00159740447998
         0.00160312652588 0.00160312652588 0.00160312652588
         0.00160884857178 0.00160884857178 0.00160884857178
         0.00161457061768 0.00161457061768 0.00161457061768
         0.00162029266357 0.00162029266357 0.00162029266357
         0.00162601470947 0.00162601470947 0.00162601470947
         0.00163173675537 0.00163173675537 0.00163173675537
         0.00163745880127 0.00163745880127 0.00163745880127
         0.00164318084717 0.00164318084717 0.00164318084717
         0.00164890289307 0.00164890289307 0.00164890289307
         0.00165462493896 0.00165462493896 0.00165462493896
         0.00166034698486 0.00166034698486 0.00166034698486
         0.00166606903076 0.00166606903076 0.00166606903076
         0.00167179107666 0.00167179107666 0.00167179107666
         0.00167751312256 0.00167751312256 0.00167751312256
         0.00168323516846 0.00168323516846 0.00168323516846
         0.00168895721436 0.00168895721436 0.00168895721436
         0.00169467926025 0.00169467926025 0.00169467926025
         0.00170040130615 0.00170040130615 0.00170040130615
         0.00170612335205 0.00170612335205 0.00170612335205
         0.00171279907227 0.00171279907227 0.00171279907227
         0.00171852111816 0.00171852111816 0.00171852111816
         0.00172424316406 0.00172424316406 0.00172424316406
         0.00172996520996 0.00172996520996 0.00172996520996
         0.00173664093018 0.00173664093018 0.00173664093018
         0.00174236297607 0.00174236297607 0.00174236297607
         0.00174808502197 0.00174808502197 0.00174808502197
         0.00175476074219 0.00175476074219 0.00175476074219
         0.00176048278809 0.00176048278809 0.00176048278809
         0.0017671585083 0.0017671585083 0.0017671585083
         0.0017728805542 0.0017728805542 0.0017728805542
         0.0017786026001 0.0017786026001 0.0017786026001
         0.00178527832031 0.00178527832031 0.00178527832031
         0.00179100036621 0.00179100036621 0.00179100036621
         0.00179767608643 0.00179767608643 0.00179767608643
         0.00180339813232 0.00180339813232 0.00180339813232
         0.00181007385254 0.00181007385254 0.00181007385254
         0.00181674957275 0.00181674957275 0.00181674957275
         0.00182247161865 0.00182247161865 0.00182247161865
         0.00182914733887 0.00182914733887 0.00182914733887
         0.00183582305908 0.00183582305908 0.00183582305908
         0.00184154510498 0.00184154510498 0.00184154510498
         0.0018482208252 0.0018482208252 0.0018482208252
         0.00185489654541 0.00185489654541 0.00185489654541
         0.00186061859131 0.00186061859131 0.00186061859131
         0.00186729431152 0.00186729431152 0.00186729431152
         0.00187397003174 0.00187397003174 0.00187397003174
         0.00188064575195 0.00188064575195 0.00188064575195
         0.00188732147217 0.00188732147217 0.00188732147217
