aces_1.0.0/luts/ACEScc_to_linear.spi1d
Version 1
From -0.358400 1.468000
Length 1024
Components 3
{
         1.75969034899e-08 1.75969070426e-08 1.75969017135e-08
         6.868467608e-07 6.86846874487e-07 6.86846647113e-07
         1.3708121287e-06 1.37081246976e-06 1.37081201501e-06
         2.06972299566e-06 2.06972276828e-06 2.06972254091e-06
         2.78395259556e-06 2.78395259556e-06 2.78395214082e-06
         3.51383323505e-06 3.51383323505e-06 3.51383255293e-06
         4.25973803431e-06 4.2597389438e-06 4.25973848905e-06
         5.02198963659e-06 5.02199100083e-06 5.02198963659e-06
         5.80092455493e-06 5.80092546443e-06 5.80092410019e-06
         6.59693159832e-06 6.59693296257e-06 6.59693205307e-06
         7.41041276342e-06 7.41041503716e-06 7.41041321817e-06
         8.24172093417e-06 8.24172184366e-06 8.24171911518e-06
         9.0912271844e-06 9.0912262749e-06 9.09122445591e-06
         9.95934897219e-06 9.95934988168e-06 9.95934806269e-06
         1.0846524674e-05 1.0846526493e-05 1.08465237645e-05
         1.17531453725e-05 1.17531471915e-05 1.17531435535e-05
         1.26796121549e-05 1.26796121549e-05 1.26796112454e-05
         1.36264134198e-05 1.36264152388e-05 1.36264125103e-05
         1.45939629874e-05 1.45939629874e-05 1.45939611684e-05
         1.55826946866e-05 1.55826946866e-05 1.55826910486e-05
         1.65930905496e-05 1.65930923686e-05 1.65930905496e-05
         1.76256653504e-05 1.76256689883e-05 1.76256635314e-05
         1.86808756553e-05 1.86808774743e-05 1.86808720173e-05
         1.97591762117e-05 1.97591798496e-05 1.97591762117e-05
         2.08611127164e-05 2.08611127164e-05 2.08611108974e-05
         2.19872399612e-05 2.19872399612e-05 2.19872363232e-05
         2.31380454352e-05 2.31380472542e-05 2.31380417972e-05
         2.43140348175e-05 2.43140366365e-05 2.43140329985e-05
         2.55158010987e-05 2.55158047366e-05 2.55157992797e-05
         2.67439481831e-05 2.67439500021e-05 2.67439445452e-05
         2.79990108538e-05 2.79990126728e-05 2.79990072158e-05
         2.92815439025e-05 2.92815475404e-05 2.92815402645e-05
         3.05549001496e-05 3.05549037876e-05 3.05548965116e-05
         3.12246083922e-05 3.12246083922e-05 3.12246047542e-05
         3.19089667755e-05 3.19089740515e-05 3.19089704135e-05
         3.26083354594e-05 3.26083390974e-05 3.26083245454e-05
         3.33230454999e-05 3.33230418619e-05 3.33230382239e-05
         3.40534243151e-05 3.40534243151e-05 3.40534170391e-05
         3.47997847712e-05 3.47997884091e-05 3.47997811332e-05
         3.556250158e-05 3.55625124939e-05 3.5562505218e-05
         3.63419676432e-05 3.63419712812e-05 3.63419676432e-05
         3.7138517655e-05 3.7138517655e-05 3.7138510379e-05
         3.79524972232e-05 3.79524972232e-05 3.79524935852e-05
         3.87843138014e-05 3.87843174394e-05 3.87843101635e-05
         3.96343930333e-05 3.96343966713e-05 3.96343930333e-05
         4.05031023547e-05 4.05031059927e-05 4.05030987167e-05
         4.13908310293e-05 4.13908273913e-05 4.13908201153e-05
         4.22980047006e-05 4.22980119765e-05 4.22980047006e-05
         4.32250963058e-05 4.32251035818e-05 4.32250963058e-05
         4.41725096607e-05 4.41725169367e-05 4.41725096607e-05
         4.51406631328e-05 4.51406631328e-05 4.51406522188e-05
         4.61300223833e-05 4.61300296593e-05 4.61300151073e-05
         4.71411040053e-05 4.71411076433e-05 4.71410967293e-05
         4.81743554701e-05 4.81743518321e-05 4.81743481942e-05
         4.92302060593e-05 4.92302133352e-05 4.92302024213e-05
         5.03092051076e-05 5.03092123836e-05 5.03092014696e-05
         5.1411880122e-05 5.1411891036e-05 5.1411880122e-05
         5.25387367816e-05 5.25387476955e-05 5.25387331436e-05
         5.36902516615e-05 5.36902589374e-05 5.36902443855e-05
         5.48670068383e-05 5.48670068383e-05 5.48669995624e-05
         5.60696098546e-05 5.60696207685e-05 5.60696134926e-05
         5.72985227336e-05 5.72985227336e-05 5.72985190956e-05
         5.85543639318e-05 5.85543602938e-05 5.85543493798e-05
         5.98377519054e-05 5.98377591814e-05 5.98377482675e-05
         6.11492723692e-05 6.11492869211e-05 6.11492796452e-05
         6.24895183137e-05 6.24895328656e-05 6.24895110377e-05
         6.3859130023e-05 6.3859130023e-05 6.38591154711e-05
         6.52587987133e-05 6.52588059893e-05 6.52587841614e-05
         6.6689135565e-05 6.66891501169e-05 6.6689128289e-05
         6.81507954141e-05 6.8150809966e-05 6.81507954141e-05
         6.96444840287e-05 6.96444913046e-05 6.96444840287e-05
         7.11709508323e-05 7.11709581083e-05 7.11709581083e-05
         7.27308943169e-05 7.27309015929e-05 7.2730887041e-05
         7.43249547668e-05 7.43249693187e-05 7.43249620427e-05
         7.59540271247e-05 7.59540416766e-05 7.59540198487e-05
         7.7618737123e-05 7.76187589508e-05 7.76187443989e-05
         7.93200015323e-05 7.93199942564e-05 7.93199869804e-05
         8.10584897408e-05 8.10584970168e-05 8.10584824649e-05
         8.28351330711e-05 8.2835147623e-05 8.28351185191e-05
         8.46507246024e-05 8.46507173264e-05 8.46507100505e-05
         8.65060574142e-05 8.65060428623e-05 8.65060355864e-05
         8.84020337253e-05 8.84020482772e-05 8.84020264493e-05
         9.03396285139e-05 9.03396503418e-05 9.03396357899e-05
         9.23196348595e-05 9.23196639633e-05 9.23196421354e-05
         9.43431296037e-05 9.43431296037e-05 9.43431150517e-05
         9.64108767221e-05 9.6410891274e-05 9.64108694461e-05
         9.852401854e-05 9.8524033092e-05 9.85240112641e-05
         0.000100683479104 0.000100683493656 0.000100683471828
         0.000102890197013 0.000102890211565 0.000102890189737
         0.000105145292764 0.000105145285488 0.000105145285488
         0.000107449872303 0.000107449886855 0.000107449865027
         0.000109804968815 0.000109804983367 0.000109804954263
         0.000112211608212 0.000112211630039 0.000112211600936
         0.000114671063784 0.000114671085612 0.000114671063784
         0.000117184375995 0.000117184368719 0.000117184354167
         0.000119752810861 0.000119752839964 0.000119752803585
         0.000122377474327 0.000122377517982 0.000122377488879
         0.000125059785205 0.000125059785205 0.000125059756101
         0.000127800740302 0.000127800769405 0.000127800754854
         0.000130601925775 0.000130601925775 0.000130601911223
         0.000133464345708 0.000133464374812 0.00013346436026
         0.000136389659019 0.000136389659019 0.000136389644467
         0.000139378957101 0.000139378971653 0.000139378957101
         0.000142433869769 0.000142433898873 0.000142433884321
         0.000145555663039 0.000145555677591 0.000145555663039
         0.000148745966726 0.000148745981278 0.000148745952174
         0.000152006105054 0.000152006090502 0.00015200607595
         0.000155337766046 0.000155337780598 0.000155337766046
         0.000158742361236 0.000158742404892 0.000158742375788
         0.000162221695064 0.000162221753271 0.000162221709616
         0.000165777280927 0.000165777324582 0.000165777280927
         0.000169410704984 0.000169410719536 0.000169410690432
         0.000173123728018 0.000173123771674 0.00017312374257
         0.000176918285433 0.000176918314537 0.000176918256329
         0.000180796007044 0.000180796007044 0.000180795992492
         0.000184758595424 0.000184758609976 0.000184758580872
         0.000188808160601 0.000188808175153 0.000188808116945
         0.000192946317839 0.000192946361494 0.000192946317839
         0.000197175351786 0.000197175351786 0.000197175322683
         0.000201496892259 0.000201496935915 0.000201496906811
         0.000205913325772 0.000205913383979 0.000205913325772
         0.000210426573176 0.000210426631384 0.000210426558624
         0.000215038569877 0.000215038598981 0.000215038555325
         0.000219751658733 0.000219751687837 0.000219751644181
         0.000224568197154 0.000224568182603 0.000224568197154
         0.00022949014965 0.000229490164202 0.000229490135098
         0.000234520150116 0.00023452017922 0.000234520121012
         0.000239660206717 0.00023966023582 0.000239660192165
         0.000244913098868 0.000244913127972 0.000244913098868
         0.000250281125773 0.000250281154877 0.000250281125773
         0.000255766644841 0.000255766673945 0.000255766615737
         0.000261372362729 0.000261372420937 0.000261372391833
         0.000267101218924 0.000267101218924 0.00026710118982
         0.000272955541732 0.000272955541732 0.000272955512628
         0.000278938037809 0.000278938037809 0.000278937950497
         0.000285051617539 0.00028505170485 0.000285051617539
         0.000291299365927 0.000291299424134 0.000291299365927
         0.000297684135148 0.000297684164252 0.000297684076941
         0.000304208602756 0.000304208602756 0.000304208515445
         0.00031087626121 0.000310876290314 0.000310876232106
         0.00031768984627 0.000317689875374 0.00031768984627
         0.000324653025018 0.000324653054122 0.000324652995914
         0.000331768562319 0.000331768620526 0.000331768533215
         0.000339040387189 0.000339040328981 0.00033904024167
         0.000346471206285 0.000346471235389 0.000346471148077
         0.000354065181455 0.000354065210558 0.000354065152351
         0.000361825397704 0.000361825397704 0.000361825339496
         0.000369755900465 0.000369755900465 0.000369755900465
         0.000377860269509 0.000377860269509 0.000377860211302
         0.000386141880881 0.000386141997296 0.000386141909985
         0.000394605158363 0.00039460521657 0.000394605158363
         0.000403254118282 0.000403254263802 0.000403254147386
         0.000412092747865 0.000412092806073 0.000412092747865
         0.000421124743298 0.000421124743298 0.000421124714194
         0.000430354732089 0.000430354761193 0.000430354673881
         0.000439787225332 0.000439787312644 0.000439787225332
         0.000449426588602 0.00044942664681 0.000449426530395
         0.000459276838228 0.000459276896436 0.000459276809124
         0.000469343329314 0.000469343329314 0.000469343271106
         0.000479630049085 0.000479630078189 0.000479630049085
         0.000490142730996 0.000490142672788 0.000490142672788
         0.000500885245856 0.000500885362271 0.000500885245856
         0.000511863792781 0.000511863850988 0.000511863792781
         0.000523082562722 0.000523082504515 0.000523082446307
         0.000534547434654 0.000534547551069 0.000534547492862
         0.000546263356227 0.000546263414435 0.000546263356227
         0.000558236497454 0.000558236555662 0.000558236381039
         0.000570471631363 0.000570471573155 0.000570471514948
         0.000582975102589 0.000582975277212 0.000582975102589
         0.000595752557274 0.000595752615482 0.000595752440859
         0.000608810281847 0.000608810281847 0.000608810223639
         0.000622153864242 0.000622153864242 0.000622153689619
         0.000635790231172 0.000635790172964 0.000635790114757
         0.000649725086987 0.000649725145195 0.000649725028779
         0.00066396582406 0.000663965940475 0.00066396582406
         0.000678518728819 0.000678518670611 0.000678518670611
         0.000693390029483 0.000693390145898 0.000693389971275
         0.000708587875124 0.000708587816916 0.000708587758709
         0.00072411831934 0.000724118435755 0.000724118202925
         0.000739989569411 0.000739989511203 0.000739989452995
         0.000756208261009 0.000756208261009 0.000756208202802
         0.000772782776039 0.000772782950662 0.000772782776039
         0.000789720274042 0.00078972033225 0.000789720157627
         0.000807029486168 0.000807029486168 0.000807029311545
         0.000824717513751 0.000824717513751 0.000824717339128
         0.000842793670017 0.00084279384464 0.000842793553602
         0.000861265521962 0.00086126558017 0.000861265405547
         0.000880142906681 0.000880142848473 0.000880142732058
         0.000899433216546 0.000899433332961 0.000899433158338
         0.000919147045352 0.000919147161767 0.000919147045352
         0.000939292542171 0.000939292542171 0.000939292367548
         0.000959879893344 0.000959880009759 0.000959879835136
         0.000980918062851 0.000980917946436 0.00098091783002
         0.0010024177609 0.00100241799373 0.0010024177609
         0.00102438824251 0.00102438847534 0.00102438824251
         0.00104684091639 0.0010468410328 0.00104684091639
         0.00106978579424 0.00106978579424 0.00106978567783
         0.00109323265497 0.00109323253855 0.00109323253855
         0.00111719418783 0.00111719407141 0.00111719407141
         0.00114168017171 0.00114168040454 0.00114168017171
         0.00116670352872 0.00116670364514 0.00116670352872
         0.00119227473624 0.00119227496907 0.00119227461983
         0.00121840694919 0.00121840729844 0.00121840706561
         0.00124511145987 0.00124511157628 0.00124511145987
         0.00127240188885 0.00127240212169 0.00127240177244
         0.00130028976128 0.00130028976128 0.00130028952844
         0.00132878962904 0.00132878962904 0.00132878939621
         0.00135791301727 0.00135791313369 0.00135791313369
         0.00138767599128 0.00138767634053 0.00138767599128
         0.00141809042543 0.00141809054185 0.0014180901926
         0.00144917215221 0.00144917215221 0.00144917191938
         0.00148093409371 0.00148093444295 0.00148093409371
         0.0015133934794 0.00151339382865 0.0015133934794
         0.00154656311497 0.00154656323139 0.00154656299856
         0.00158046092838 0.0015804610448 0.00158046069555
         0.00161510054022 0.00161510065664 0.00161510019097
         0.00165050034411 0.00165050057694 0.0016505002277
         0.00168667628895 0.00168667652179 0.00168667605612
         0.00172364362516 0.0017236439744 0.00172364362516
         0.00176142272539 0.00176142284181 0.00176142260898
         0.00180002849083 0.00180002884008 0.00180002849083
         0.00183948199265 0.00183948175982 0.0018394816434
         0.00187979871407 0.00187979871407 0.00187979836483
         0.00192100007553 0.00192100030836 0.00192099995911
         0.00196310319006 0.00196310388856 0.00196310319006
         0.0020061309915 0.00200613075867 0.00200613075867
         0.0020501005929 0.00205010036007 0.00205010012724
         0.00209503434598 0.00209503434598 0.00209503434598
         0.00214095204137 0.0021409522742 0.00214095204137
         0.00218787766062 0.00218787812628 0.00218787742779
         0.00223583029583 0.00223583052866 0.002235830063
         0.00228483579122 0.00228483532555 0.00228483509272
         0.00233491300605 0.00233491323888 0.00233491300605
         0.00238608988002 0.00238609011285 0.00238608988002
         0.00243838736787 0.00243838690221 0.00243838690221
         0.00249183177948 0.00249183201231 0.00249183131382
         0.00254644779488 0.00254644802772 0.00254644732922
         0.00260225939564 0.00260225986131 0.00260225939564
         0.00265929591842 0.00265929615125 0.00265929568559
         0.00271758134477 0.00271758134477 0.00271758064628
         0.00277714524418 0.00277714501135 0.00277714477852
         0.00283801252954 0.00283801322803 0.00283801252954
         0.00290021719411 0.00290021696128 0.00290021649562
         0.00296378182247 0.00296378228813 0.00296378182247
         0.00302874203771 0.00302874273621 0.00302874203771
         0.00309512461536 0.00309512508102 0.00309512438253
         0.00316296378151 0.00316296424717 0.00316296354868
         0.0032322879415 0.00323228817433 0.00323228747584
         0.00330313364975 0.00330313364975 0.00330313318409
         0.00337552907877 0.00337553001009 0.0033755293116
         0.00344951497391 0.00344951543957 0.00344951450825
         0.00352511904202 0.00352511974052 0.00352511880919
         0.00360238272697 0.00360238365829 0.00360238272697
         0.00368133792654 0.00368133862503 0.00368133769371
         0.0037620253861 0.00376202631742 0.00376202561893
         0.00384447956458 0.00384447979741 0.00384447933175
         0.00392874330282 0.00392874376848 0.00392874283716
         0.00401485292241 0.00401485292241 0.00401485245675
         0.00410284847021 0.00410284940153 0.00410284893587
         0.00419277464971 0.00419277418405 0.00419277371839
         0.00428467057645 0.00428467104211 0.00428467057645
         0.00437858095393 0.00437858141959 0.0043785800226
         0.00447455001995 0.00447455001995 0.00447454955429
         0.00457262201235 0.00457262201235 0.00457262154669
         0.00467284303159 0.00467284349725 0.00467284256592
         0.00477526290342 0.00477526290342 0.00477526290342
         0.0048799244687 0.0048799244687 0.0048799244687
         0.0049868831411 0.00498688360676 0.0049868831411
         0.00509618222713 0.00509618408978 0.0050961826928
         0.00520788133144 0.00520788086578 0.00520788040012
         0.00532202422619 0.00532202422619 0.00532202376053
         0.00543867237866 0.00543867377564 0.00543867237866
         0.0055578770116 0.00555787654594 0.00555787654594
         0.00567969214171 0.0056796935387 0.00567969167605
         0.00580417923629 0.00580417970195 0.00580417877063
         0.00593139324337 0.00593139324337 0.00593139324337
         0.0060613960959 0.00606139702722 0.00606139563024
         0.00619424879551 0.00619424926117 0.00619424832985
         0.00633000954986 0.00633001094684 0.00633000954986
         0.00646875239909 0.00646875333041 0.00646875146776
         0.00661053322256 0.00661053275689 0.00661053182557
         0.00675542000681 0.00675542093813 0.00675542000681
         0.00690348353237 0.00690348539501 0.00690348353237
         0.00705479225144 0.00705479318276 0.00705479225144
         0.00720941787586 0.00720941741019 0.00720941741019
         0.00736743211746 0.00736743351445 0.0073674316518
         0.00752891041338 0.00752891041338 0.00752890948206
         0.00769392633811 0.00769392773509 0.00769392633811
         0.007862563245 0.007862563245 0.007862563245
         0.00803488865495 0.00803489051759 0.00803488865495
         0.00821099895984 0.00821099989116 0.00821099802852
         0.00839096400887 0.00839096400887 0.0083909612149
         0.00857487786561 0.00857487786561 0.00857487507164
         0.0087628159672 0.00876281782985 0.00876281503588
         0.0089548798278 0.00895488169044 0.00895488075912
         0.00915115326643 0.00915115326643 0.00915115047246
         0.00935172382742 0.00935172475874 0.00935172196478
         0.00955669209361 0.00955669488758 0.00955669302493
         0.00976615399122 0.00976615492254 0.0097661530599
         0.00998020265251 0.00998020358384 0.00998020172119
         0.0101989498362 0.0101989516988 0.0101989498362
         0.0104224886745 0.0104224886745 0.0104224877432
         0.0106509262696 0.0106509253383 0.0106509253383
         0.0108843687922 0.0108843715861 0.0108843687922
         0.0111229317263 0.0111229335889 0.0111229289323
         0.01136671938 0.0113667212427 0.01136671938
         0.0116158528253 0.011615854688 0.011615851894
         0.0118704475462 0.0118704484776 0.0118704456836
         0.012130619958 0.0121306208894 0.0121306190267
         0.0123965013772 0.0123965013772 0.0123964995146
         0.0126681998372 0.0126682007685 0.0126681979746
         0.0129458615556 0.0129458634183 0.0129458606243
         0.0132296029478 0.0132296048105 0.0132296010852
         0.0135195702314 0.0135195702314 0.0135195683688
         0.0138158826157 0.0138158844784 0.0138158826157
         0.0141187021509 0.0141187030822 0.0141187002882
         0.0144281527027 0.0144281527027 0.0144281508401
         0.0147443842143 0.0147443860769 0.0147443823516
         0.0150675466284 0.0150675503537 0.0150675466284
         0.0153977936134 0.0153977964073 0.0153977936134
         0.0157352779061 0.0157352816314 0.0157352797687
         0.0160801634192 0.0160801634192 0.0160801615566
         0.0164325945079 0.0164325982332 0.0164325963706
         0.0167927704751 0.0167927704751 0.0167927686125
         0.0171608291566 0.0171608310193 0.0171608254313
         0.0175369530916 0.0175369568169 0.0175369530916
         0.017921326682 0.0179213248193 0.0179213229567
         0.018314121291 0.0183141231537 0.018314121291
         0.0187155269086 0.0187155269086 0.018715525046
         0.019125726074 0.0191257297993 0.0191257279366
         0.0195449218154 0.0195449218154 0.0195449180901
         0.01997330226 0.0199733003974 0.0199732966721
         0.0204110704362 0.0204110741615 0.0204110704362
         0.0208584405482 0.0208584461361 0.0208584405482
         0.0213156118989 0.0213156118989 0.0213156118989
         0.0217828042805 0.0217828042805 0.0217828005552
         0.0222602337599 0.0222602337599 0.0222602300346
         0.0227481294423 0.022748131305 0.022748125717
         0.0232467148453 0.0232467185706 0.0232467129827
         0.0237562339753 0.0237562339753 0.0237562283874
         0.0242769159377 0.0242769159377 0.024276914075
         0.0248090066016 0.0248090103269 0.0248090066016
         0.0253527648747 0.0253527667373 0.0253527667373
         0.0259084440768 0.0259084440768 0.0259084403515
         0.0264762956649 0.0264763031155 0.0264762956649
         0.0270565990359 0.0270566027611 0.0270565990359
         0.0276496205479 0.0276496224105 0.0276496168226
         0.028255648911 0.028255648911 0.0282556433231
         0.0288749486208 0.0288749486208 0.0288749430329
         0.0295078214258 0.0295078232884 0.0295078177005
         0.0301545634866 0.0301545690745 0.0301545616239
         0.0308154840022 0.0308154914528 0.0308154821396
         0.0314908847213 0.0314908996224 0.0314908921719
         0.0321810878813 0.0321810916066 0.0321810878813
         0.0328864306211 0.0328864268959 0.0328864231706
         0.0336072295904 0.0336072221398 0.0336072221398
         0.0343438237906 0.0343438200653 0.0343438088894
         0.0350965559483 0.0350965596735 0.0350965559483
         0.0358657948673 0.0358657985926 0.0358657874167
         0.0366518869996 0.0366518944502 0.0366518869996
         0.0374552197754 0.037455227226 0.0374552197754
         0.0382761582732 0.0382761619985 0.0382761508226
         0.0391150936484 0.0391151048243 0.0391150861979
         0.039972409606 0.039972409606 0.039972409606
         0.0408485159278 0.0408485196531 0.0408485122025
         0.0417438298464 0.0417438261211 0.0417438186705
         0.0426587536931 0.0426587536931 0.0426587536931
         0.0435937419534 0.0435937382281 0.0435937345028
         0.0445492193103 0.0445492118597 0.0445492118597
         0.045525636524 0.0455256402493 0.0455256290734
         0.0465234555304 0.0465234518051 0.0465234518051
         0.0475431419909 0.0475431457162 0.0475431382656
         0.0485851839185 0.0485851839185 0.0485851764679
         0.0496500581503 0.0496500656009 0.049650054425
         0.0507382787764 0.0507382787764 0.0507382750511
         0.0518503449857 0.0518503524363 0.0518503412604
         0.0529868081212 0.0529868081212 0.0529868006706
         0.0541481599212 0.0541481636465 0.0541481524706
         0.0553349629045 0.055334970355 0.0553349591792
         0.0565477795899 0.0565477833152 0.0565477758646
         0.0577871799469 0.0577871873975 0.0577871762216
         0.0590537451208 0.0590537451208 0.0590537413955
         0.0603480674326 0.0603480748832 0.0603480674326
         0.061670769006 0.0616707727313 0.0616707578301
         0.063022442162 0.0630224645138 0.063022442162
         0.064403757453 0.0644037723541 0.0644037425518
         0.0658153519034 0.0658153519034 0.0658153444529
         0.067257873714 0.0672578811646 0.0672578588128
         0.068732008338 0.0687320232391 0.0687320008874
         0.0702384710312 0.0702384784818 0.0702384635806
         0.0717779621482 0.0717779621482 0.0717779546976
         0.0733511596918 0.073351174593 0.0733511671424
         0.0749588534236 0.0749588683248 0.0749588608742
         0.0766017958522 0.0766017958522 0.0766017735004
         0.0782807320356 0.0782807469368 0.0782807245851
         0.0799964666367 0.0799964815378 0.0799964666367
