aces_1.0.0/luts/Canon-Log_to_linear.spi1d
Version 1
From 0.000000 1.000000
Length 1024
Components 1
{
         -0.0416811369359
         -0.0414475537837
         -0.0412128083408
         -0.0409768894315
         -0.040739800781
         -0.0405015274882
         -0.0402620695531
         -0.0400214195251
         -0.0397795699537
         -0.0395365171134
         -0.0392922535539
         -0.0390467718244
         -0.0388000681996
         -0.0385521389544
         -0.0383029729128
         -0.0380525663495
         -0.037800911814
         -0.0375480055809
         -0.0372938364744
         -0.0370384044945
         -0.0367817021906
         -0.0365237183869
         -0.036264449358
         -0.0360038913786
         -0.0357420369983
         -0.035478875041
         -0.0352144055068
         -0.0349486172199
         -0.0346815064549
         -0.0344130657613
         -0.0341432876885
         -0.0338721647859
         -0.0335996933281
         -0.0333258621395
         -0.0330506712198
         -0.0327741093934
         -0.0324961692095
         -0.0322168432176
         -0.0319361276925
         -0.0316540151834
         -0.03137049824
         -0.0310855675489
         -0.0307992175221
         -0.0305114425719
         -0.0302222352475
         -0.0299315862358
         -0.0296394899487
         -0.0293459389359
         -0.0290509276092
         -0.0287544466555
         -0.0284564886242
         -0.0281570460647
         -0.0278561133891
         -0.0275536812842
         -0.027249744162
         -0.0269442927092
         -0.0266373213381
         -0.0263288188726
         -0.0260187815875
         -0.0257072020322
         -0.0253940690309
         -0.0250793751329
         -0.024763116613
         -0.0244452822953
         -0.0241258647293
         -0.0238048564643
         -0.0234822500497
         -0.023158038035
         -0.0228322092444
         -0.0225047599524
         -0.0221756789833
         -0.0218449588865
         -0.0215125922114
         -0.0211785696447
         -0.0208428855985
         -0.020505528897
         -0.020166490227
         -0.0198257658631
         -0.0194833427668
         -0.0191392172128
         -0.0187933743
         -0.0184458121657
         -0.0180965177715
         -0.0177454836667
         -0.0173927024007
         -0.0170381627977
         -0.0166818592697
         -0.016323780641
         -0.0159639194608
         -0.0156022654846
         -0.0152388103306
         -0.0148735456169
         -0.0145064620301
         -0.0141375502571
         -0.0137668009847
         -0.013394205831
         -0.0130197545514
         -0.0126434387639
         -0.0122652491555
         -0.0118851764128
         -0.0115032112226
         -0.0111193433404
         -0.010733563453
         -0.0103458631784
         -0.00995623134077
         -0.00956465955824
         -0.00917113758624
         -0.00877565611154
         -0.00837820582092
         -0.0079787755385
         -0.00757735595107
         -0.00717393774539
         -0.00676851021126
         -0.00636106403545
         -0.00595158850774
         -0.00554007384926
         -0.00512651028112
         -0.00471088662744
         -0.00429319357499
         -0.00387342018075
         -0.00345155666582
         -0.00302759208716
         -0.00260151620023
         -0.00217331852764
         -0.00174298835918
         -0.00131051521748
         -0.000875888392329
         -0.000439097202616
         -1.30785210217e-07
         0.000441021635197
         0.000884370994754
         0.00132992817089
         0.00177770422306
         0.0022277100943
         0.00267995707691
         0.00313445623033
         0.0035912184976
         0.0040502557531
         0.00451157893986
         0.00497519923374
         0.00544112827629
         0.00590937817469
         0.0063799591735
         0.00685288431123
         0.00732816429809
         0.00780581077561
         0.00828583631665
         0.00876825209707
         0.00925307068974
         0.00974030327052
         0.0102299628779
         0.0107220606878
         0.0112166088074
         0.0117136193439
         0.0122131053358
         0.0127150788903
         0.0132195521146
         0.0137265380472
         0.014236047864
         0.0147480955347
         0.0152626931667
         0.0157798528671
         0.0162995886058
         0.0168219134212
         0.0173468384892
         0.0178743768483
         0.0184045433998
         0.0189373511821
         0.0194728095084
         0.0200109370053
         0.0205517429858
         0.0210952423513
         0.0216414481401
         0.0221903733909
         0.0227420330048
         0.0232964400202
         0.0238536074758
         0.0244135502726
         0.0249762814492
         0.0255418140441
         0.0261101648211
         0.0266813449562
         0.0272553693503
         0.0278322510421
         0.0284120067954
         0.0289946496487
         0.0295801945031
         0.0301686543971
         0.0307600460947
         0.0313543826342
         0.0319516770542
         0.0325519479811
         0.0331552065909
         0.0337614715099
         0.0343707539141
         0.0349830724299
         0.0355984382331
         0.0362168699503
         0.0368383787572
         0.0374629870057
         0.0380907021463
         0.0387215428054
         0.0393555276096
         0.0399926677346
         0.040632981807
         0.0412764847279
         0.0419231913984
         0.042573120445
         0.0432262830436
         0.043882701546
         0.0445423871279
         0.0452053584158
         0.045871630311
         0.0465412214398
         0.0472141467035
         0.0478904247284
         0.0485700666904
         0.0492530949414
         0.0499395243824
         0.0506293736398
         0.0513226576149
         0.0520193949342
         0.0527196004987
         0.0534232929349
         0.0541304908693
         0.054841209203
         0.0555554702878
         0.0562732852995
         0.05699467659
         0.0577196590602
         0.0584482513368
         0.0591804720461
         0.0599163398147
         0.0606558732688
         0.0613990873098
         0.0621460042894
         0.0628966391087
         0.0636510103941
         0.0644091442227
         0.0651710480452
         0.0659367516637
         0.0667062625289
         0.0674796104431
         0.0682568103075
         0.0690378770232
         0.069822832942
         0.0706117004156
         0.0714044943452
         0.0722012370825
         0.0730019435287
         0.073806643486
         0.0746153518558
         0.075428083539
         0.0762448608875
         0.0770657062531
         0.0778906419873
         0.0787196829915
         0.0795528590679
         0.0803901776671
         0.0812316685915
         0.0820773541927
         0.0829272419214
         0.0837813690305
         0.084639750421
         0.0855024009943
         0.0863693505526
         0.087240613997
         0.0881162211299
         0.0889961868525
         0.0898805335164
         0.0907692909241
         0.091662466526
         0.0925600901246
         0.0934621840715
         0.0943687781692
         0.095279879868
         0.0961955189705
         0.0971157178283
         0.0980405062437
         0.0989698916674
         0.0999039039016
         0.100842572749
         0.10178592056
         0.102733954787
         0.103686720133
         0.104644224048
         0.105606496334
         0.106573566794
         0.10754545033
         0.108522169292
         0.109503753483
         0.110490232706
         0.111481614411
         0.112477943301
         0.113479226828
         0.114485494792
         0.115496784449
         0.116513103247
         0.117534480989
         0.118560947478
         0.119592525065
         0.120629243553
         0.121671117842
         0.122718185186
         0.123770467937
         0.124827988446
         0.125890776515
         0.126958861947
         0.128032252192
         0.129111006856
         0.130195125937
         0.131284639239
         0.132379576564
         0.133479967713
         0.13458584249
         0.135697230697
         0.136814147234
         0.137936621904
         0.13906468451
         0.140198379755
         0.141337707639
         0.142482712865
         0.143633425236
         0.144789859653
         0.145952060819
         0.147120043635
         0.148293837905
         0.149473488331
         0.150659009814
         0.151850432158
         0.153047785163
         0.154251113534
         0.155460417271
         0.156675755978
         0.157897144556
         0.159124612808
         0.160358205438
         0.161597922444
         0.162843823433
         0.164095923305
         0.165354266763
         0.166618868709
         0.167889773846
         0.169167011976
         0.170450598001
         0.171740591526
         0.173037007451
         0.174339860678
         0.175649225712
         0.176965087652
         0.178287521005
         0.17961654067
         0.180952161551
         0.18229444325
         0.18364341557
         0.184999093413
         0.186361536384
         0.187730759382
         0.189106792212
         0.190489694476
         0.191879466176
         0.193276166916
         0.194679826498
         0.196090459824
         0.197508141398
         0.198932871222
         0.200364693999
         0.201803654432
         0.203249767423
         0.204703092575
         0.206163659692
         0.207631483674
         0.209106624126
         0.210589125752
         0.212078988552
         0.213576287031
         0.215081036091
         0.216593280435
         0.218113049865
         0.219640389085
         0.221175342798
         0.222717925906
         0.224268198013
         0.225826188922
         0.227391943336
         0.228965491056
         0.230546876788
         0.232136145234
         0.233733326197
         0.235338449478
         0.236951574683
         0.238572731614
         0.240201950073
         0.241839304566
         0.243484795094
         0.245138481259
         0.246800407767
         0.248470619321
         0.250149130821
         0.251836001873
         0.25353127718
         0.255235016346
         0.256947219372
         0.258667945862
         0.260397255421
         0.262135177851
         0.263881742954
         0.265637010336
         0.267401009798
         0.269173800945
         0.27095541358
         0.272745907307
         0.274545311928
         0.276353687048
         0.278171062469
         0.279997497797
         0.281833022833
         0.283677667379
         0.285531520844
         0.287394613028
         0.289266973734
         0.291148662567
         0.29303970933
         0.294940173626
         0.296850115061
         0.298769563437
         0.300698548555
         0.302637159824
         0.304585427046
         0.306543409824
         0.308511137962
         0.310488641262
         0.31247600913
         0.31447327137
         0.316480487585
         0.318497687578
         0.320524930954
         0.322562277317
         0.32460975647
         0.326667457819
         0.328735381365
         0.330813616514
         0.332902193069
         0.335001200438
         0.337110638618
         0.339230567217
         0.34136107564
         0.343502163887
         0.345653951168
         0.347816437483
         0.349989682436
         0.352173775434
         0.354368716478
         0.356574594975
         0.358791470528
         0.36101937294
         0.363258391619
         0.365508556366
         0.367769896984
         0.370042532682
         0.372326463461
         0.374621778727
         0.376928538084
         0.379246771336
         0.381576538086
         0.38391789794
         0.386270940304
         0.388635694981
         0.391012251377
         0.393400609493
         0.395800858736
         0.398213088512
         0.400637298822
         0.403073608875
         0.405522048473
         0.407982677221
         0.410455554724
         0.412940740585
         0.415438294411
         0.417948305607
         0.420470833778
         0.423005878925
         0.425553590059
         0.42811396718
         0.430687099695
         0.433273047209
         0.435871869326
         0.43848362565
         0.44110840559
         0.443746238947
         0.446397215128
         0.449061393738
         0.451738864183
         0.454429626465
         0.457133829594
         0.45985147357
         0.4625826478
         0.465327441692
         0.468085885048
         0.470858067274
         0.473644077778
         0.476443946362
         0.479257762432
         0.482085585594
         0.484927475452
         0.487783551216
         0.490653812885
         0.493538409472
         0.496437340975
         0.499350726604
         0.502278625965
         0.505221068859
         0.508178174496
         0.51115000248
         0.51413667202
         0.517138183117
         0.52015465498
         0.523186147213
         0.526232719421
         0.529294490814
         0.532371520996
         0.535463809967
         0.538571536541
         0.541694760323
         0.544833481312
         0.547987878323
         0.55115801096
         0.554343879223
         0.557545602322
         0.560763299465
         0.563997030258
         0.567246854305
         0.570512831211
         0.57379513979
         0.577093720436
         0.580408751965
         0.58374029398
         0.587088465691
         0.590453267097
         0.593834877014
         0.597233235836
         0.600648581982
         0.604080915451
         0.607530355453
         0.610996961594
         0.614480853081
         0.61798208952
         0.621500730515
         0.62503695488
         0.628590703011
         0.632162213326
         0.635751485825
         0.639358639717
         0.642983734608
         0.64662694931
         0.65028822422
         0.653967797756
         0.657665669918
         0.661381959915
         0.665116727352
         0.668870091438
         0.672642171383
         0.676433086395
         0.680242836475
         0.684071540833
         0.687919318676
         0.69178622961
         0.69567245245
         0.699577987194
         0.703503012657
         0.707447588444
         0.711411774158
         0.715395689011
         0.719399452209
         0.723423182964
         0.72746694088
         0.731530845165
         0.735614955425
         0.739719390869
         0.743844330311
         0.74798977375
         0.752155840397
         0.756342709064
         0.760550379753
         0.764779031277
         0.76902872324
         0.773299574852
         0.777591705322
         0.78190523386
         0.78624022007
         0.790596783161
         0.794975042343
         0.799375116825
         0.803797125816
         0.808241128922
         0.81270724535
         0.817195653915
         0.821706414223
         0.826239585876
         0.830795347691
         0.835373818874
         0.839975059032
         0.844599246979
         0.849246442318
         0.853916764259
         0.858610391617
         0.863327383995
         0.868067800999
         0.872831881046
         0.877619683743
         0.882431328297
         0.887266933918
         0.892126619816
         0.897010505199
         0.901918709278
         0.906851351261
         0.911808550358
         0.916790425777
         0.921797156334
         0.926828801632
         0.931885480881
         0.936967372894
         0.942074537277
         0.947207212448
         0.952365338802
         0.957549214363
         0.962758898735
         0.967994570732
         0.973256230354
         0.978544175625
         0.983858406544
         0.989199101925
         0.994566380978
         0.999960422516
         1.00538134575
         1.01082921028
         1.01630413532
         1.0218064785
         1.02733612061
         1.03289341927
         1.03847825527
         1.04409098625
         1.04973161221
         1.05540037155
         1.0610973835
         1.06682264805
         1.07257652283
         1.07835900784
         1.08417034149
         1.09001064301
         1.09587991238
         1.10177850723
         1.10770642757
         1.11366391182
         1.11965095997
         1.12566792965
         1.13171482086
         1.13779187202
         1.14389920235
         1.15003681183
         1.1562050581
         1.16240406036
         1.16863393784
         1.17489480972
         1.18118679523
         1.187510252
         1.19386506081
         1.20025157928
         1.20666992664
         1.21312022209
         1.21960270405
         1.22611737251
         1.2326644659
         1.23924422264
         1.24585676193
         1.25250220299
         1.25918066502
         1.26589250565
         1.27263772488
         1.27941644192
         1.2862290144
         1.29307556152
         1.2999560833
         1.30687093735
         1.31382024288
         1.32080411911
         1.32782280445
         1.33487641811
         1.34196519852
         1.34908926487
         1.35624873638
         1.36344397068
         1.37067496777
         1.37794196606
         1.38524520397
         1.39258468151
         1.39996087551
         1.40737378597
         1.4148235321
         1.42231035233
         1.42983460426
         1.43739616871
         1.4449955225
         1.45263254642
         1.46030771732
         1.4680211544
         1.47577297688
         1.48356330395
         1.49139249325
         1.4992607832
         1.50716805458
         1.51511490345
         1.52310121059
         1.53112721443
         1.53919327259
         1.54729950428
         1.55544614792
         1.56363332272
         1.57186126709
         1.58013021946
         1.58844029903
         1.59679174423
         1.60518479347
         1.61361968517
         1.62209653854
         1.630615592
         1.63917720318
         1.64778125286
         1.6564283371
         1.66511833668
         1.67385172844
         1.68262851238
         1.69144904613
         1.70031344891
         1.70922207832
         1.7181750536
         1.72717261314
         1.73621499538
         1.74530231953
         1.7544349432
         1.76361310482
         1.7728369236
         1.78210663795
         1.79142260551
         1.80078494549
         1.81019389629
         1.81964969635
         1.82915258408
         1.83870267868
         1.848300457
         1.85794603825
         1.86763966084
         1.87738156319
         1.88717186451
         1.89701104164
         1.90689921379
         1.91683661938
         1.92682349682
         1.93686008453
         1.94694662094
         1.95708346367
         1.96727073193
         1.97750878334
         1.98779773712
         1.99813807011
         2.0085299015
         2.01897335052
         2.0294687748
         2.04001665115
         2.05061674118
         2.06126999855
         2.07197618484
         2.08273553848
         2.0935485363
         2.10441541672
         2.11533641815
         2.12631177902
         2.13734197617
         2.14842677116
         2.15956711769
         2.17076277733
         2.18201398849
         2.19332146645
         2.20468521118
         2.21610569954
         2.2275826931
         2.23911714554
         2.25070905685
         2.26235842705
         2.27406597137
         2.28583192825
         2.29765629768
         2.3095395565
         2.32148218155
         2.33348417282
         2.34554576874
         2.35766768456
         2.36984992027
         2.38209271431
         2.3943965435
         2.40676164627
         2.41918826103
         2.43167686462
         2.44422745705
         2.45684075356
         2.46951675415
         2.48225593567
         2.49505853653
         2.50792503357
         2.52085542679
         2.53385019302
         2.54690980911
         2.56003451347
         2.57322430611
         2.58648014069
         2.59980177879
         2.61318969727
         2.62664437294
         2.64016604424
         2.65375494957
         2.66741156578
         2.68113636971
         2.69492936134
         2.70879101753
         2.72272181511
         2.73672199249
         2.7507917881
         2.76493167877
         2.77914214134
         2.79342317581
         2.80777525902
         2.82219910622
         2.83669447899
         2.85126233101
         2.86590242386
         2.88061571121
         2.89540195465
         2.91026210785
         2.92519617081
         2.94020462036
         2.95528769493
         2.97044610977
         2.98567986488
         3.0009894371
         3.01637530327
         3.03183794022
         3.04737734795
         3.06299424171
         3.07868885994
         3.09446167946
         3.11031317711
         3.12624335289
         3.14225292206
         3.15834236145
         3.17451190948
         3.19076180458
         3.20709276199
         3.22350502014
         3.23999905586
         3.25657510757
         3.27323389053
         3.28997540474
         3.30680036545
         3.3237092495
         3.3407022953
         3.35777997971
         3.37494254112
         3.39219069481
         3.40952467918
         3.4269452095
         3.44445228577
         3.46204638481
         3.47972846031
         3.49749827385
         3.5153567791
         3.53330421448
         3.55134105682
         3.56946754456
         3.58768439293
         3.60599207878
         3.62439084053
         3.64288115501
         3.66146349907
         3.68013858795
         3.69890666008
         3.71776795387
         3.736723423
         3.75577330589
         3.77491784096
         3.79415774345
         3.81349372864
         3.83292579651
         3.85245466232
         3.87208080292
         3.89180445671
         3.91162657738
         3.93154740334
         3.95156741142
         3.97168707848
         3.99190688133
         4.01222753525
         4.03264951706
         4.05317258835
         4.07379865646
         4.09452676773
         4.11535835266
         4.13629388809
         4.15733337402
         4.17847776413
         4.19972753525
         4.22108316422
         4.24254512787
         4.26411342621
         4.28578996658
         4.30757379532
         4.32946634293
         4.35146808624
         4.37357902527
         4.39580059052
         4.41813230515
         4.44057559967
         4.46313047409
         4.48579788208
         4.50857782364
         4.53147125244
         4.55447912216
         4.57760095596
         4.60083866119
         4.62419128418
         4.64766073227
         4.67124700546
         4.6949505806
         4.71877241135
         4.74271249771
         4.7667722702
         4.79095172882
         4.8152513504
         4.83967208862
         4.86421442032
         4.88887929916
         4.91366672516
         4.93857717514
         4.96361255646
         4.98877191544
         5.01405668259
         5.03946781158
         5.06500482559
         5.09066963196
         5.11646175385
         5.14238262177
         5.16843271255
         5.19461202621
         5.22092199326
         5.24736309052
         5.27393579483
         5.30064058304
         5.32747888565
         5.35445022583
         5.38155651093
         5.4087972641
         5.43617391586
         5.46368694305
         5.49133682251
         5.5191245079
         5.54705047607
         5.57511568069
         5.60332012177
         5.63166570663
         5.66015195847
         5.68878030777
         5.71755123138
         5.74646568298
         5.77552366257
         5.80472660065
         5.83407497406
         5.86356925964
         5.89321041107
         5.92299938202
         5.95293664932
         5.98302316666
         6.01325941086
         6.0436463356
         6.07418441772
         6.1048746109
         6.13571739197
         6.16671419144
         6.19786500931
         6.22917127609
         6.26063299179
         6.29225158691
         6.32402801514
         6.35596227646
         6.38805580139
         6.42030906677
         6.45272302628
         6.48529815674
         6.51803541183
         6.55093622208
