aces_1.0.0/luts/Dolby_PQ_1000_nits_Shaper_to_linear.spi1d
Version 1
From 0.000000 1.000000
Length 1024
Components 3
{
         4.39453142462e-05 4.39453142462e-05 4.39453142462e-05
         4.46903795819e-05 4.46903795819e-05 4.46903795819e-05
         4.63620017399e-05 4.63620017399e-05 4.63620017399e-05
         4.87813158543e-05 4.87813158543e-05 4.87813158543e-05
         5.18989763805e-05 5.18989763805e-05 5.18989763805e-05
         5.56950908503e-05 5.56950908503e-05 5.56950908503e-05
         6.01622923568e-05 6.01622923568e-05 6.01622923568e-05
         6.52996022836e-05 6.52996022836e-05 6.52996022836e-05
         7.11102184141e-05 7.11102184141e-05 7.11102184141e-05
         7.760002336e-05 7.760002336e-05 7.760002336e-05
         8.47769188113e-05 8.47769188113e-05 8.47769188113e-05
         9.26500506466e-05 9.26500506466e-05 9.26500506466e-05
         0.000101229576103 0.000101229576103 0.000101229576103
         0.000110526838398 0.000110526838398 0.000110526838398
         0.000120554024761 0.000120554024761 0.000120554024761
         0.000131322623929 0.000131322623929 0.000131322623929
         0.000142844466609 0.000142844466609 0.000142844466609
         0.000155135581736 0.000155135581736 0.000155135581736
         0.000168206635863 0.000168206635863 0.000168206635863
         0.000182075382327 0.000182075382327 0.000182075382327
         0.000196752822376 0.000196752822376 0.000196752822376
         0.000212252722122 0.000212252722122 0.000212252722122
         0.000228594406508 0.000228594406508 0.000228594406508
         0.000245789880864 0.000245789880864 0.000245789880864
         0.000263853085926 0.000263853085926 0.000263853085926
         0.000282802153379 0.000282802153379 0.000282802153379
         0.000302653585095 0.000302653585095 0.000302653585095
         0.000323423417285 0.000323423417285 0.000323423417285
         0.000345123116858 0.000345123116858 0.000345123116858
         0.000367774162441 0.000367774162441 0.000367774162441
         0.000391395180486 0.000391395180486 0.000391395180486
         0.000415996764787 0.000415996764787 0.000415996764787
         0.000441600568593 0.000441600568593 0.000441600568593
         0.000468221667688 0.000468221667688 0.000468221667688
         0.000495883286931 0.000495883286931 0.000495883286931
         0.000524591538124 0.000524591538124 0.000524591538124
         0.000554376340006 0.000554376340006 0.000554376340006
         0.000585249974392 0.000585249974392 0.000585249974392
         0.000617223267909 0.000617223267909 0.000617223267909
         0.000650337140542 0.000650337140542 0.000650337140542
         0.000684589380398 0.000684589380398 0.000684589380398
         0.000720004958566 0.000720004958566 0.000720004958566
         0.000756602617912 0.000756602617912 0.000756602617912
         0.000794402381871 0.000794402381871 0.000794402381871
         0.00083343219012 0.00083343219012 0.00083343219012
         0.00087370548863 0.00087370548863 0.00087370548863
         0.000915243581403 0.000915243581403 0.000915243581403
         0.000958048505709 0.000958048505709 0.000958048505709
         0.00100217561703 0.00100217561703 0.00100217561703
         0.00104761624243 0.00104761624243 0.00104761624243
         0.00109440565575 0.00109440565575 0.00109440565575
         0.00114254863001 0.00114254863001 0.00114254863001
         0.00119208439719 0.00119208439719 0.00119208439719
         0.00124304252677 0.00124304252677 0.00124304252677
         0.0012954310514 0.0012954310514 0.0012954310514
         0.00134924706072 0.00134924706072 0.00134924706072
         0.00140455795918 0.00140455795918 0.00140455795918
         0.0014613828389 0.0014613828389 0.0014613828389
         0.00151969410945 0.00151969410945 0.00151969410945
         0.00157957279589 0.00157957279589 0.00157957279589
         0.00164099293761 0.00164099293761 0.00164099293761
         0.00170402845833 0.00170402845833 0.00170402845833
         0.00176867120899 0.00176867120899 0.00176867120899
         0.00183494528756 0.00183494528756 0.00183494528756
         0.00190287653822 0.00190287653822 0.00190287653822
         0.00197248789482 0.00197248789482 0.00197248789482
         0.00204384652898 0.00204384652898 0.00204384652898
         0.00211691414006 0.00211691414006 0.00211691414006
         0.00219171959907 0.00219171959907 0.00219171959907
         0.00226833391935 0.00226833391935 0.00226833391935
         0.00234675570391 0.00234675570391 0.00234675570391
         0.00242702523246 0.00242702523246 0.00242702523246
         0.00250913505442 0.00250913505442 0.00250913505442
         0.00259316829033 0.00259316829033 0.00259316829033
         0.0026790923439 0.0026790923439 0.0026790923439
         0.00276698730886 0.00276698730886 0.00276698730886
         0.00285681686364 0.00285681686364 0.00285681686364
         0.00294867018238 0.00294867018238 0.00294867018238
         0.00304254540242 0.00304254540242 0.00304254540242
         0.00313845369965 0.00313845369965 0.00313845369965
         0.00323644187301 0.00323644187301 0.00323644187301
         0.00333657534793 0.00333657534793 0.00333657534793
         0.00343884737231 0.00343884737231 0.00343884737231
         0.00354328309186 0.00354328309186 0.00354328309186
         0.00364985782653 0.00364985782653 0.00364985782653
         0.00375871872529 0.00375871872529 0.00375871872529
         0.00386986671947 0.00386986671947 0.00386986671947
         0.00398324336857 0.00398324336857 0.00398324336857
         0.0040989164263 0.0040989164263 0.0040989164263
         0.00421703280881 0.00421703280881 0.00421703280881
         0.00433746119961 0.00433746119961 0.00433746119961
         0.00446027843282 0.00446027843282 0.00446027843282
         0.00458564888686 0.00458564888686 0.00458564888686
         0.00471341563389 0.00471341563389 0.00471341563389
         0.00484367925674 0.00484367925674 0.00484367925674
         0.00497652264312 0.00497652264312 0.00497652264312
         0.00511195370927 0.00511195370927 0.00511195370927
         0.0052499002777 0.0052499002777 0.0052499002777
         0.00539064360783 0.00539064360783 0.00539064360783
         0.00553391035646 0.00553391035646 0.00553391035646
         0.00567998830229 0.00567998830229 0.00567998830229
         0.00582871539518 0.00582871539518 0.00582871539518
         0.00598028721288 0.00598028721288 0.00598028721288
         0.00613471819088 0.00613471819088 0.00613471819088
         0.00629192125052 0.00629192125052 0.00629192125052
         0.00645201234147 0.00645201234147 0.00645201234147
         0.00661512929946 0.00661512929946 0.00661512929946
         0.00678116735071 0.00678116735071 0.00678116735071
         0.00695011205971 0.00695011205971 0.00695011205971
         0.00712214643136 0.00712214643136 0.00712214643136
         0.0072973696515 0.0072973696515 0.0072973696515
         0.00747555634007 0.00747555634007 0.00747555634007
         0.00765684340149 0.00765684340149 0.00765684340149
         0.00784154981375 0.00784154981375 0.00784154981375
         0.00802923645824 0.00802923645824 0.00802923645824
         0.00822020601481 0.00822020601481 0.00822020601481
         0.00841464009136 0.00841464009136 0.00841464009136
         0.00861241389066 0.00861241389066 0.00861241389066
         0.00881353579462 0.00881353579462 0.00881353579462
         0.00901803653687 0.00901803653687 0.00901803653687
         0.00922604091465 0.00922604091465 0.00922604091465
         0.0094376411289 0.0094376411289 0.0094376411289
         0.00965282507241 0.00965282507241 0.00965282507241
         0.00987143628299 0.00987143628299 0.00987143628299
         0.0100936535746 0.0100936535746 0.0100936535746
         0.0103197079152 0.0103197079152 0.0103197079152
         0.0105494270101 0.0105494270101 0.0105494270101
         0.0107830241323 0.0107830241323 0.0107830241323
         0.011020344682 0.011020344682 0.011020344682
         0.0112615758553 0.0112615758553 0.0112615758553
         0.0115067362785 0.0115067362785 0.0115067362785
         0.011755910702 0.011755910702 0.011755910702
         0.0120090832934 0.0120090832934 0.0120090832934
         0.0122662736103 0.0122662736103 0.0122662736103
         0.0125274928287 0.0125274928287 0.0125274928287
         0.0127927968279 0.0127927968279 0.0127927968279
         0.0130624016747 0.0130624016747 0.0130624016747
         0.0133361518383 0.0133361518383 0.0133361518383
         0.0136142903939 0.0136142903939 0.0136142903939
         0.0138968378305 0.0138968378305 0.0138968378305
         0.0141838165 0.0141838165 0.0141838165
         0.014475023374 0.014475023374 0.014475023374
         0.014770696871 0.014770696871 0.014770696871
         0.0150712337345 0.0150712337345 0.0150712337345
         0.0153762875125 0.0153762875125 0.0153762875125
         0.0156859774143 0.0156859774143 0.0156859774143
         0.0160002205521 0.0160002205521 0.0160002205521
         0.0163194909692 0.0163194909692 0.0163194909692
         0.0166430491954 0.0166430491954 0.0166430491954
         0.0169719532132 0.0169719532132 0.0169719532132
         0.0173056460917 0.0173056460917 0.0173056460917
         0.0176443438977 0.0176443438977 0.0176443438977
         0.0179878566414 0.0179878566414 0.0179878566414
         0.0183368846774 0.0183368846774 0.0183368846774
         0.0186907798052 0.0186907798052 0.0186907798052
         0.0190498307347 0.0190498307347 0.0190498307347
         0.0194146055728 0.0194146055728 0.0194146055728
         0.0197842158377 0.0197842158377 0.0197842158377
         0.0201596282423 0.0201596282423 0.0201596282423
         0.0205403678119 0.0205403678119 0.0205403678119
         0.0209260936826 0.0209260936826 0.0209260936826
         0.0213180985302 0.0213180985302 0.0213180985302
         0.0217151399702 0.0217151399702 0.0217151399702
         0.0221181064844 0.0221181064844 0.0221181064844
         0.0225270949304 0.0225270949304 0.0225270949304
         0.0229416489601 0.0229416489601 0.0229416489601
         0.023362243548 0.023362243548 0.023362243548
         0.0237884987146 0.0237884987146 0.0237884987146
         0.0242209397256 0.0242209397256 0.0242209397256
         0.0246595367789 0.0246595367789 0.0246595367789
         0.0251043941826 0.0251043941826 0.0251043941826
         0.025555036962 0.025555036962 0.025555036962
         0.0260120090097 0.0260120090097 0.0260120090097
         0.0264758784324 0.0264758784324 0.0264758784324
         0.0269456356764 0.0269456356764 0.0269456356764
         0.0274224672467 0.0274224672467 0.0274224672467
         0.0279051568359 0.0279051568359 0.0279051568359
         0.0283944420516 0.0283944420516 0.0283944420516
         0.0288909431547 0.0288909431547 0.0288909431547
         0.0293940696865 0.0293940696865 0.0293940696865
         0.0299038253725 0.0299038253725 0.0299038253725
         0.0304210614413 0.0304210614413 0.0304210614413
         0.030945006758 0.030945006758 0.030945006758
         0.0314750820398 0.0314750820398 0.0314750820398
         0.0320133939385 0.0320133939385 0.0320133939385
         0.0325593389571 0.0325593389571 0.0325593389571
         0.0331114679575 0.0331114679575 0.0331114679575
         0.0336713828146 0.0336713828146 0.0336713828146
         0.0342382378876 0.0342382378876 0.0342382378876
         0.0348137207329 0.0348137207329 0.0348137207329
         0.0353955626488 0.0353955626488 0.0353955626488
         0.0359861701727 0.0359861701727 0.0359861701727
         0.0365847311914 0.0365847311914 0.0365847311914
         0.0371905751526 0.0371905751526 0.0371905751526
         0.0378037504852 0.0378037504852 0.0378037504852
         0.0384258516133 0.0384258516133 0.0384258516133
         0.0390554256737 0.0390554256737 0.0390554256737
         0.0396932028234 0.0396932028234 0.0396932028234
         0.0403402410448 0.0403402410448 0.0403402410448
         0.0409948788583 0.0409948788583 0.0409948788583
         0.0416579842567 0.0416579842567 0.0416579842567
         0.042329646647 0.042329646647 0.042329646647
         0.0430098511279 0.0430098511279 0.0430098511279
         0.0436997562647 0.0436997562647 0.0436997562647
         0.0443973168731 0.0443973168731 0.0443973168731
         0.0451037846506 0.0451037846506 0.0451037846506
         0.0458199493587 0.0458199493587 0.0458199493587
         0.046544123441 0.046544123441 0.046544123441
         0.0472782999277 0.0472782999277 0.0472782999277
         0.0480214692652 0.0480214692652 0.0480214692652
         0.0487748794258 0.0487748794258 0.0487748794258
         0.0495362244546 0.0495362244546 0.0495362244546
         0.0503081306815 0.0503081306815 0.0503081306815
         0.0510891154408 0.0510891154408 0.0510891154408
         0.0518806651235 0.0518806651235 0.0518806651235
         0.052681747824 0.052681747824 0.052681747824
         0.0534921959043 0.0534921959043 0.0534921959043
         0.0543135069311 0.0543135069311 0.0543135069311
         0.0551443248987 0.0551443248987 0.0551443248987
         0.0559861063957 0.0559861063957 0.0559861063957
         0.0568377152085 0.0568377152085 0.0568377152085
         0.0577002726495 0.0577002726495 0.0577002726495
         0.0585727803409 0.0585727803409 0.0585727803409
         0.0594565756619 0.0594565756619 0.0594565756619
         0.0603504180908 0.0603504180908 0.0603504180908
         0.0612557120621 0.0612557120621 0.0612557120621
         0.0621725618839 0.0621725618839 0.0621725618839
         0.0630995035172 0.0630995035172 0.0630995035172
         0.0640382990241 0.0640382990241 0.0640382990241
         0.0649889484048 0.0649889484048 0.0649889484048
         0.065949998796 0.065949998796 0.065949998796
         0.0669230222702 0.0669230222702 0.0669230222702
         0.0679081454873 0.0679081454873 0.0679081454873
         0.0689054355025 0.0689054355025 0.0689054355025
         0.0699133649468 0.0699133649468 0.0699133649468
         0.070933803916 0.070933803916 0.070933803916
         0.0719666555524 0.0719666555524 0.0719666555524
         0.0730120763183 0.0730120763183 0.0730120763183
         0.0740683153272 0.0740683153272 0.0740683153272
         0.0751374363899 0.0751374363899 0.0751374363899
         0.0762213394046 0.0762213394046 0.0762213394046
         0.0773161053658 0.0773161053658 0.0773161053658
         0.0784240141511 0.0784240141511 0.0784240141511
         0.0795470476151 0.0795470476151 0.0795470476151
         0.0806813985109 0.0806813985109 0.0806813985109
         0.0818291679025 0.0818291679025 0.0818291679025
         0.0829902738333 0.0829902738333 0.0829902738333
         0.0841650515795 0.0841650515795 0.0841650515795
         0.0853532850742 0.0853532850742 0.0853532850742
         0.0865553915501 0.0865553915501 0.0865553915501
         0.0877735316753 0.0877735316753 0.0877735316753
         0.089003354311 0.089003354311 0.089003354311
         0.0902496948838 0.0902496948838 0.0902496948838
         0.0915078669786 0.0915078669786 0.0915078669786
         0.0927801132202 0.0927801132202 0.0927801132202
         0.0940692648292 0.0940692648292 0.0940692648292
         0.0953726842999 0.0953726842999 0.0953726842999
         0.0966907665133 0.0966907665133 0.0966907665133
         0.0980235338211 0.0980235338211 0.0980235338211
         0.0993735715747 0.0993735715747 0.0993735715747
         0.100736148655 0.100736148655 0.100736148655
         0.102116167545 0.102116167545 0.102116167545
         0.103511370718 0.103511370718 0.103511370718
         0.104921527207 0.104921527207 0.104921527207
         0.106349885464 0.106349885464 0.106349885464
         0.107793718576 0.107793718576 0.107793718576
         0.109253130853 0.109253130853 0.109253130853
         0.110730946064 0.110730946064 0.110730946064
         0.112221717834 0.112221717834 0.112221717834
         0.113731198013 0.113731198013 0.113731198013
         0.115256667137 0.115256667137 0.115256667137
         0.116801351309 0.116801351309 0.116801351309
         0.118365198374 0.118365198374 0.118365198374
         0.119942143559 0.119942143559 0.119942143559
         0.121539130807 0.121539130807 0.121539130807
         0.123152330518 0.123152330518 0.123152330518
         0.124785520136 0.124785520136 0.124785520136
         0.126432061195 0.126432061195 0.126432061195
         0.128102406859 0.128102406859 0.128102406859
         0.129789471626 0.129789471626 0.129789471626
         0.131493881345 0.131493881345 0.131493881345
         0.133218884468 0.133218884468 0.133218884468
         0.134961530566 0.134961530566 0.134961530566
         0.136724993587 0.136724993587 0.136724993587
         0.138506397605 0.138506397605 0.138506397605
         0.14030893147 0.14030893147 0.14030893147
         0.142129331827 0.142129331827 0.142129331827
         0.14397148788 0.14397148788 0.14397148788
         0.145831719041 0.145831719041 0.145831719041
         0.147714197636 0.147714197636 0.147714197636
         0.149618700147 0.149618700147 0.149618700147
         0.151541978121 0.151541978121 0.151541978121
         0.15348803997 0.15348803997 0.15348803997
         0.155452758074 0.155452758074 0.155452758074
         0.157436028123 0.157436028123 0.157436028123
         0.15944263339 0.15944263339 0.15944263339
         0.161472663283 0.161472663283 0.161472663283
         0.163526430726 0.163526430726 0.163526430726
         0.165599480271 0.165599480271 0.165599480271
         0.167696490884 0.167696490884 0.167696490884
         0.169812902808 0.169812902808 0.169812902808
         0.171953678131 0.171953678131 0.171953678131
         0.174119159579 0.174119159579 0.174119159579
         0.17630943656 0.17630943656 0.17630943656
         0.178519710898 0.178519710898 0.178519710898
         0.18075568974 0.18075568974 0.18075568974
         0.183016613126 0.183016613126 0.183016613126
         0.185297816992 0.185297816992 0.185297816992
         0.187605232 0.187605232 0.187605232
         0.18993832171 0.18993832171 0.18993832171
         0.192292436957 0.192292436957 0.192292436957
         0.194672912359 0.194672912359 0.194672912359
         0.197080045938 0.197080045938 0.197080045938
         0.199513986707 0.199513986707 0.199513986707
         0.201975136995 0.201975136995 0.201975136995
         0.204457461834 0.204457461834 0.204457461834
         0.206967800856 0.206967800856 0.206967800856
         0.209505394101 0.209505394101 0.209505394101
         0.212065026164 0.212065026164 0.212065026164
         0.214659124613 0.214659124613 0.214659124613
         0.217275097966 0.217275097966 0.217275097966
         0.219919636846 0.219919636846 0.219919636846
         0.222593009472 0.222593009472 0.222593009472
         0.225295856595 0.225295856595 0.225295856595
         0.228021204472 0.228021204472 0.228021204472
         0.230782181025 0.230782181025 0.230782181025
         0.233566567302 0.233566567302 0.233566567302
         0.236381307244 0.236381307244 0.236381307244
         0.239225536585 0.239225536585 0.239225536585
         0.242100715637 0.242100715637 0.242100715637
         0.244999244809 0.244999244809 0.244999244809
         0.247935786843 0.247935786843 0.247935786843
         0.250903487206 0.250903487206 0.250903487206
         0.253895461559 0.253895461559 0.253895461559
         0.256926119328 0.256926119328 0.256926119328
         0.259981334209 0.259981334209 0.259981334209
         0.263068556786 0.263068556786 0.263068556786
         0.266188710928 0.266188710928 0.266188710928
         0.26934042573 0.26934042573 0.26934042573
         0.272525817156 0.272525817156 0.272525817156
         0.275743961334 0.275743961334 0.275743961334
         0.278996229172 0.278996229172 0.278996229172
         0.282281130552 0.282281130552 0.282281130552
         0.285600721836 0.285600721836 0.285600721836
         0.288954108953 0.288954108953 0.288954108953
         0.292333543301 0.292333543301 0.292333543301
         0.29575663805 0.29575663805 0.29575663805
         0.299213677645 0.299213677645 0.299213677645
         0.302697867155 0.302697867155 0.302697867155
         0.306235522032 0.306235522032 0.306235522032
         0.309790462255 0.309790462255 0.309790462255
         0.31339097023 0.31339097023 0.31339097023
         0.31701824069 0.31701824069 0.31701824069
         0.320691972971 0.320691972971 0.320691972971
         0.324402242899 0.324402242899 0.324402242899
         0.328149586916 0.328149586916 0.328149586916
         0.33193475008 0.33193475008 0.33193475008
         0.335757613182 0.335757613182 0.335757613182
         0.339618116617 0.339618116617 0.339618116617
         0.34351760149 0.34351760149 0.34351760149
         0.347455382347 0.347455382347 0.347455382347
         0.3514316082 0.3514316082 0.3514316082
         0.355447620153 0.355447620153 0.355447620153
         0.359514176846 0.359514176846 0.359514176846
         0.363608717918 0.363608717918 0.363608717918
         0.367755562067 0.367755562067 0.367755562067
         0.37193068862 0.37193068862 0.37193068862
         0.376158088446 0.376158088446 0.376158088446
         0.380427092314 0.380427092314 0.380427092314
         0.384737014771 0.384737014771 0.384737014771
         0.389076799154 0.389076799154 0.389076799154
         0.393482208252 0.393482208252 0.393482208252
         0.397918760777 0.397918760777 0.397918760777
         0.40239751339 0.40239751339 0.40239751339
         0.406930863857 0.406930863857 0.406930863857
         0.411495685577 0.411495685577 0.411495685577
         0.416117101908 0.416117101908 0.416117101908
         0.42078179121 0.42078179121 0.42078179121
         0.425490438938 0.425490438938 0.425490438938
         0.430258005857 0.430258005857 0.430258005857
         0.435043215752 0.435043215752 0.435043215752
         0.439901232719 0.439901232719 0.439901232719
         0.44480329752 0.44480329752 0.44480329752
         0.449753135443 0.449753135443 0.449753135443
         0.454748570919 0.454748570919 0.454748570919
         0.459790080786 0.459790080786 0.459790080786
         0.46489456296 0.46489456296 0.46489456296
         0.470030218363 0.470030218363 0.470030218363
         0.475229769945 0.475229769945 0.475229769945
         0.48047670722 0.48047670722 0.48047670722
         0.485772430897 0.485772430897 0.485772430897
         0.491116523743 0.491116523743 0.491116523743
         0.496525198221 0.496525198221 0.496525198221
         0.501967430115 0.501967430115 0.501967430115
         0.50749206543 0.50749206543 0.50749206543
         0.513051092625 0.513051092625 0.513051092625
         0.518659710884 0.518659710884 0.518659710884
         0.524335801601 0.524335801601 0.524335801601
         0.530047655106 0.530047655106 0.530047655106
         0.535844743252 0.535844743252 0.535844743252
         0.541676342487 0.541676342487 0.541676342487
         0.547578275204 0.547578275204 0.547578275204
         0.553533673286 0.553533673286 0.553533673286
         0.559542894363 0.559542894363 0.559542894363
         0.565604686737 0.565604686737 0.565604686737
         0.571739137173 0.571739137173 0.571739137173
         0.577909350395 0.577909350395 0.577909350395
         0.58417236805 0.58417236805 0.58417236805
         0.590471982956 0.590471982956 0.590471982956
         0.596846044064 0.596846044064 0.596846044064
         0.6032756567 0.6032756567 0.6032756567
         0.609763741493 0.609763741493 0.609763741493
         0.616327166557 0.616327166557 0.616327166557
         0.622928917408 0.622928917408 0.622928917408
         0.62962859869 0.62962859869 0.62962859869
         0.636365711689 0.636365711689 0.636365711689
         0.643161833286 0.643161833286 0.643161833286
         0.650037884712 0.650037884712 0.650037884712
         0.656994998455 0.656994998455 0.656994998455
         0.663991510868 0.663991510868 0.663991510868
         0.671070218086 0.671070218086 0.671070218086
         0.678208768368 0.678208768368 0.678208768368
