aces_1.0.0/luts/Dolby_PQ_2000_nits_Shaper_to_linear.spi1d
Version 1
From 0.000000 1.000000
Length 1024
Components 3
{
         4.39453142462e-05 4.39453142462e-05 4.39453142462e-05
         4.54354485555e-05 4.54354485555e-05 4.54354485555e-05
         4.87786892336e-05 4.87786892336e-05 4.87786892336e-05
         5.36173211003e-05 5.36173211003e-05 5.36173211003e-05
         5.98526385147e-05 5.98526385147e-05 5.98526385147e-05
         6.74448747304e-05 6.74448747304e-05 6.74448747304e-05
         7.63792777434e-05 7.63792777434e-05 7.63792777434e-05
         8.6653897597e-05 8.6653897597e-05 8.6653897597e-05
         9.8275122582e-05 9.8275122582e-05 9.8275122582e-05
         0.000111254747026 0.000111254747026 0.000111254747026
         0.000125608523376 0.000125608523376 0.000125608523376
         0.000141354787047 0.000141354787047 0.000141354787047
         0.000158513852512 0.000158513852512 0.000158513852512
         0.000177108377102 0.000177108377102 0.000177108377102
         0.000197162749828 0.000197162749828 0.000197162749828
         0.000218699948164 0.000218699948164 0.000218699948164
         0.000241743633524 0.000241743633524 0.000241743633524
         0.000266325834673 0.000266325834673 0.000266325834673
         0.000292468001135 0.000292468001135 0.000292468001135
         0.000320205464959 0.000320205464959 0.000320205464959
         0.000349560345057 0.000349560345057 0.000349560345057
         0.000380560173653 0.000380560173653 0.000380560173653
         0.000413243542425 0.000413243542425 0.000413243542425
         0.000447634491138 0.000447634491138 0.000447634491138
         0.000483760901261 0.000483760901261 0.000483760901261
         0.000521659036167 0.000521659036167 0.000521659036167
         0.000561361957807 0.000561361957807 0.000561361957807
         0.00060290156398 0.00060290156398 0.00060290156398
         0.000646301021334 0.000646301021334 0.000646301021334
         0.0006916031125 0.0006916031125 0.0006916031125
         0.000738845090382 0.000738845090382 0.000738845090382
         0.00078804831719 0.00078804831719 0.00078804831719
         0.000839255866595 0.000839255866595 0.000839255866595
         0.000892498181202 0.000892498181202 0.000892498181202
         0.000947821361478 0.000947821361478 0.000947821361478
         0.00100523780566 0.00100523780566 0.00100523780566
         0.00106480740942 0.00106480740942 0.00106480740942
         0.00112655467819 0.00112655467819 0.00112655467819
         0.00119050126523 0.00119050126523 0.00119050126523
         0.00125672901049 0.00125672901049 0.00125672901049
         0.00132523349021 0.00132523349021 0.00132523349021
         0.00139606476296 0.00139606476296 0.00139606476296
         0.00146926008165 0.00146926008165 0.00146926008165
         0.00154485960957 0.00154485960957 0.00154485960957
         0.00162291922607 0.00162291922607 0.00162291922607
         0.00170346570667 0.00170346570667 0.00170346570667
         0.00178654200863 0.00178654200863 0.00178654200863
         0.00187215185724 0.00187215185724 0.00187215185724
         0.00196040607989 0.00196040607989 0.00196040607989
         0.00205128756352 0.00205128756352 0.00205128756352
         0.00214486615732 0.00214486615732 0.00214486615732
         0.00224115233868 0.00224115233868 0.00224115233868
         0.00234022387303 0.00234022387303 0.00234022387303
         0.00244214013219 0.00244214013219 0.00244214013219
         0.00254691718146 0.00254691718146 0.00254691718146
         0.00265454920009 0.00265454920009 0.00265454920009
         0.00276517099701 0.00276517099701 0.00276517099701
         0.00287882075645 0.00287882075645 0.00287882075645
         0.00299544329755 0.00299544329755 0.00299544329755
         0.00311520067044 0.00311520067044 0.00311520067044
         0.00323804095387 0.00323804095387 0.00323804095387
         0.00336411222816 0.00336411222816 0.00336411222816
         0.00349339749664 0.00349339749664 0.00349339749664
         0.00362594565377 0.00362594565377 0.00362594565377
         0.00376180838794 0.00376180838794 0.00376180838794
         0.00390103063546 0.00390103063546 0.00390103063546
         0.00404374813661 0.00404374813661 0.00404374813661
         0.00418988335878 0.00418988335878 0.00418988335878
         0.00433949427679 0.00433949427679 0.00433949427679
         0.00449272291735 0.00449272291735 0.00449272291735
         0.00464956648648 0.00464956648648 0.00464956648648
         0.00481010554358 0.00481010554358 0.00481010554358
         0.0049743251875 0.0049743251875 0.0049743251875
         0.00514239165932 0.00514239165932 0.00514239165932
         0.00531423976645 0.00531423976645 0.00531423976645
         0.00549002969638 0.00549002969638 0.00549002969638
         0.00566968880594 0.00566968880594 0.00566968880594
         0.00585339544341 0.00585339544341 0.00585339544341
         0.0060411458835 0.0060411458835 0.0060411458835
         0.00623296294361 0.00623296294361 0.00623296294361
         0.00642893882468 0.00642893882468 0.00642893882468
         0.00662920624018 0.00662920624018 0.00662920624018
         0.00683374982327 0.00683374982327 0.00683374982327
         0.00704262172803 0.00704262172803 0.00704262172803
         0.00725577119738 0.00725577119738 0.00725577119738
         0.00747349252924 0.00747349252924 0.00747349252924
         0.00769578898326 0.00769578898326 0.00769578898326
         0.00792254228145 0.00792254228145 0.00792254228145
         0.00815388839692 0.00815388839692 0.00815388839692
         0.00839012116194 0.00839012116194 0.00839012116194
         0.00863097794354 0.00863097794354 0.00863097794354
         0.00887661240995 0.00887661240995 0.00887661240995
         0.00912735331804 0.00912735331804 0.00912735331804
         0.00938288774341 0.00938288774341 0.00938288774341
         0.00964341405779 0.00964341405779 0.00964341405779
         0.00990910083055 0.00990910083055 0.00990910083055
         0.0101799629629 0.0101799629629 0.0101799629629
         0.0104558560997 0.0104558560997 0.0104558560997
         0.0107373436913 0.0107373436913 0.0107373436913
         0.0110238762572 0.0110238762572 0.0110238762572
         0.0113160330802 0.0113160330802 0.0113160330802
         0.0116134863347 0.0116134863347 0.0116134863347
         0.0119166299701 0.0119166299701 0.0119166299701
         0.0122254919261 0.0122254919261 0.0122254919261
         0.0125398989767 0.0125398989767 0.0125398989767
         0.0128600811586 0.0128600811586 0.0128600811586
         0.0131863141432 0.0131863141432 0.0131863141432
         0.0135183902457 0.0135183902457 0.0135183902457
         0.0138562805951 0.0138562805951 0.0138562805951
         0.0142003493384 0.0142003493384 0.0142003493384
         0.0145507948473 0.0145507948473 0.0145507948473
         0.0149071682245 0.0149071682245 0.0149071682245
         0.0152697423473 0.0152697423473 0.0152697423473
         0.0156391561031 0.0156391561031 0.0156391561031
         0.0160145293921 0.0160145293921 0.0160145293921
         0.0163964666426 0.0163964666426 0.0163964666426
         0.0167853366584 0.0167853366584 0.0167853366584
         0.017180884257 0.017180884257 0.017180884257
         0.0175831262022 0.0175831262022 0.0175831262022
         0.0179921295494 0.0179921295494 0.0179921295494
         0.0184081383049 0.0184081383049 0.0184081383049
         0.0188313387334 0.0188313387334 0.0188313387334
         0.0192617066205 0.0192617066205 0.0192617066205
         0.0196989290416 0.0196989290416 0.0196989290416
         0.0201433636248 0.0201433636248 0.0201433636248
         0.020595472306 0.020595472306 0.020595472306
         0.0210549104959 0.0210549104959 0.0210549104959
         0.0215221047401 0.0215221047401 0.0215221047401
         0.0219967458397 0.0219967458397 0.0219967458397
         0.0224792081863 0.0224792081863 0.0224792081863
         0.0229695308954 0.0229695308954 0.0229695308954
         0.0234678778797 0.0234678778797 0.0234678778797
         0.0239742230624 0.0239742230624 0.0239742230624
         0.0244886055589 0.0244886055589 0.0244886055589
         0.025011042133 0.025011042133 0.025011042133
         0.025541651994 0.025541651994 0.025541651994
         0.026080859825 0.026080859825 0.026080859825
         0.0266283620149 0.0266283620149 0.0266283620149
         0.0271846391261 0.0271846391261 0.0271846391261
         0.0277497339994 0.0277497339994 0.0277497339994
         0.0283236894757 0.0283236894757 0.0283236894757
         0.0289061032236 0.0289061032236 0.0289061032236
         0.0294974520802 0.0294974520802 0.0294974520802
         0.0300985258073 0.0300985258073 0.0300985258073
         0.0307086333632 0.0307086333632 0.0307086333632
         0.0313280113041 0.0313280113041 0.0313280113041
         0.0319564975798 0.0319564975798 0.0319564975798
         0.032595038414 0.032595038414 0.032595038414
         0.0332421548665 0.0332421548665 0.0332421548665
         0.0338999629021 0.0338999629021 0.0338999629021
         0.034567348659 0.034567348659 0.034567348659
         0.035244744271 0.035244744271 0.035244744271
         0.0359317697585 0.0359317697585 0.0359317697585
         0.0366298258305 0.0366298258305 0.0366298258305
         0.037337616086 0.037337616086 0.037337616086
         0.0380557179451 0.0380557179451 0.0380557179451
         0.0387852676213 0.0387852676213 0.0387852676213
         0.0395244881511 0.0395244881511 0.0395244881511
         0.0402753129601 0.0402753129601 0.0402753129601
         0.0410367920995 0.0410367920995 0.0410367920995
         0.0418082438409 0.0418082438409 0.0418082438409
         0.042592253536 0.042592253536 0.042592253536
         0.043386336416 0.043386336416 0.043386336416
         0.0441922731698 0.0441922731698 0.0441922731698
         0.0450102463365 0.0450102463365 0.0450102463365
         0.0458393543959 0.0458393543959 0.0458393543959
         0.0466805435717 0.0466805435717 0.0466805435717
         0.0475330539048 0.0475330539048 0.0475330539048
         0.0483979396522 0.0483979396522 0.0483979396522
         0.0492751300335 0.0492751300335 0.0492751300335
         0.0501648485661 0.0501648485661 0.0501648485661
         0.0510661303997 0.0510661303997 0.0510661303997
         0.0519800744951 0.0519800744951 0.0519800744951
         0.0529078133404 0.0529078133404 0.0529078133404
         0.0538473278284 0.0538473278284 0.0538473278284
         0.0548009946942 0.0548009946942 0.0548009946942
         0.0557663701475 0.0557663701475 0.0557663701475
         0.0567449405789 0.0567449405789 0.0567449405789
         0.057737942785 0.057737942785 0.057737942785
         0.058744199574 0.058744199574 0.058744199574
         0.0597637072206 0.0597637072206 0.0597637072206
         0.0607981793582 0.0607981793582 0.0607981793582
         0.0618460737169 0.0618460737169 0.0618460737169
         0.0629062205553 0.0629062205553 0.0629062205553
         0.0639828518033 0.0639828518033 0.0639828518033
         0.0650747418404 0.0650747418404 0.0650747418404
         0.0661789998412 0.0661789998412 0.0661789998412
         0.0672988295555 0.0672988295555 0.0672988295555
         0.0684325397015 0.0684325397015 0.0684325397015
         0.0695835053921 0.0695835053921 0.0695835053921
         0.0707471892238 0.0707471892238 0.0707471892238
         0.0719284042716 0.0719284042716 0.0719284042716
         0.073125526309 0.073125526309 0.073125526309
         0.0743372142315 0.0743372142315 0.0743372142315
         0.0755635648966 0.0755635648966 0.0755635648966
         0.0768077671528 0.0768077671528 0.0768077671528
         0.0780669152737 0.0780669152737 0.0780669152737
         0.079342469573 0.079342469573 0.079342469573
         0.0806365460157 0.0806365460157 0.0806365460157
         0.0819458216429 0.0819458216429 0.0819458216429
         0.0832720324397 0.0832720324397 0.0832720324397
         0.0846153572202 0.0846153572202 0.0846153572202
         0.0859757736325 0.0859757736325 0.0859757736325
         0.0873555764556 0.0873555764556 0.0873555764556
         0.0887506976724 0.0887506976724 0.0887506976724
         0.0901636332273 0.0901636332273 0.0901636332273
         0.0915959626436 0.0915959626436 0.0915959626436
         0.0930443108082 0.0930443108082 0.0930443108082
         0.0945126637816 0.0945126637816 0.0945126637816
         0.0959990024567 0.0959990024567 0.0959990024567
         0.0975058227777 0.0975058227777 0.0975058227777
         0.0990285128355 0.0990285128355 0.0990285128355
         0.100572325289 0.100572325289 0.100572325289
         0.102134294808 0.102134294808 0.102134294808
         0.103717394173 0.103717394173 0.103717394173
         0.105319567025 0.105319567025 0.105319567025
         0.106940463185 0.106940463185 0.106940463185
         0.108583085239 0.108583085239 0.108583085239
         0.110244721174 0.110244721174 0.110244721174
         0.111928276718 0.111928276718 0.111928276718
         0.113631494343 0.113631494343 0.113631494343
         0.115356609225 0.115356609225 0.115356609225
         0.117101624608 0.117101624608 0.117101624608
         0.118869222701 0.118869222701 0.118869222701
         0.120656907558 0.120656907558 0.120656907558
         0.12246748805 0.12246748805 0.12246748805
         0.124301195145 0.124301195145 0.124301195145
         0.126155078411 0.126155078411 0.126155078411
         0.128032669425 0.128032669425 0.128032669425
         0.129933968186 0.129933968186 0.129933968186
         0.131856068969 0.131856068969 0.131856068969
         0.133802115917 0.133802115917 0.133802115917
         0.13577234745 0.13577234745 0.13577234745
         0.137766942382 0.137766942382 0.137766942382
         0.13978280127 0.13978280127 0.13978280127
         0.141823679209 0.141823679209 0.141823679209
         0.143889382482 0.143889382482 0.143889382482
         0.145980224013 0.145980224013 0.145980224013
         0.148092702031 0.148092702031 0.148092702031
         0.150230944157 0.150230944157 0.150230944157
         0.152398750186 0.152398750186 0.152398750186
         0.154588282108 0.154588282108 0.154588282108
         0.156804099679 0.156804099679 0.156804099679
         0.159050166607 0.159050166607 0.159050166607
         0.161318868399 0.161318868399 0.161318868399
         0.163614422083 0.163614422083 0.163614422083
         0.165936619043 0.165936619043 0.165936619043
         0.168286174536 0.168286174536 0.168286174536
         0.170662641525 0.170662641525 0.170662641525
         0.173066854477 0.173066854477 0.173066854477
         0.175503134727 0.175503134727 0.175503134727
         0.177962779999 0.177962779999 0.177962779999
         0.180455476046 0.180455476046 0.180455476046
         0.182971820235 0.182971820235 0.182971820235
         0.185516297817 0.185516297817 0.185516297817
         0.188094601035 0.188094601035 0.188094601035
         0.190701439977 0.190701439977 0.190701439977
         0.193337619305 0.193337619305 0.193337619305
         0.196003139019 0.196003139019 0.196003139019
         0.198703214526 0.198703214526 0.198703214526
         0.201428368688 0.201428368688 0.201428368688
         0.204188421369 0.204188421369 0.204188421369
         0.206978827715 0.206978827715 0.206978827715
         0.209799125791 0.209799125791 0.209799125791
         0.212655857205 0.212655857205 0.212655857205
         0.21554350853 0.21554350853 0.21554350853
         0.218462347984 0.218462347984 0.218462347984
         0.221417963505 0.221417963505 0.221417963505
         0.224399521947 0.224399521947 0.224399521947
         0.227418467402 0.227418467402 0.227418467402
         0.230469420552 0.230469420552 0.230469420552
         0.233558788896 0.233558788896 0.233558788896
         0.236686483026 0.236686483026 0.236686483026
         0.239840373397 0.239840373397 0.239840373397
         0.243034347892 0.243034347892 0.243034347892
         0.246260747313 0.246260747313 0.246260747313
         0.249527126551 0.249527126551 0.249527126551
         0.25282022357 0.25282022357 0.25282022357
         0.256160885096 0.256160885096 0.256160885096
         0.259535044432 0.259535044432 0.259535044432
         0.262943863869 0.262943863869 0.262943863869
         0.266393870115 0.266393870115 0.266393870115
         0.269879132509 0.269879132509 0.269879132509
         0.27340605855 0.27340605855 0.27340605855
         0.276968896389 0.276968896389 0.276968896389
         0.280573964119 0.280573964119 0.280573964119
         0.284214764833 0.284214764833 0.284214764833
         0.287899076939 0.287899076939 0.287899076939
         0.291619539261 0.291619539261 0.291619539261
         0.29538449645 0.29538449645 0.29538449645
         0.299193501472 0.299193501472 0.299193501472
         0.303040057421 0.303040057421 0.303040057421
         0.306932210922 0.306932210922 0.306932210922
         0.310861617327 0.310861617327 0.310861617327
         0.314828157425 0.314828157425 0.314828157425
         0.31884136796 0.31884136796 0.31884136796
         0.322901427746 0.322901427746 0.322901427746
         0.327008992434 0.327008992434 0.327008992434
         0.331155061722 0.331155061722 0.331155061722
         0.335349082947 0.335349082947 0.335349082947
         0.339581906796 0.339581906796 0.339581906796
         0.343863457441 0.343863457441 0.343863457441
         0.348194420338 0.348194420338 0.348194420338
         0.352575004101 0.352575004101 0.352575004101
         0.356995522976 0.356995522976 0.356995522976
         0.361467480659 0.361467480659 0.361467480659
         0.365989357233 0.365989357233 0.365989357233
         0.370551764965 0.370551764965 0.370551764965
         0.37516656518 0.37516656518 0.37516656518
         0.379832744598 0.379832744598 0.379832744598
         0.384540975094 0.384540975094 0.384540975094
         0.3893019557 0.3893019557 0.3893019557
         0.394116222858 0.394116222858 0.394116222858
         0.398984074593 0.398984074593 0.398984074593
         0.40390637517 0.40390637517 0.40390637517
         0.408871054649 0.408871054649 0.408871054649
         0.41389170289 0.41389170289 0.41389170289
         0.418966889381 0.418966889381 0.418966889381
         0.42408618331 0.42408618331 0.42408618331
         0.429274350405 0.429274350405 0.429274350405
         0.434506297112 0.434506297112 0.434506297112
         0.439795404673 0.439795404673 0.439795404673
         0.445142120123 0.445142120123 0.445142120123
         0.450547814369 0.450547814369 0.450547814369
         0.455998510122 0.455998510122 0.455998510122
         0.461520463228 0.461520463228 0.461520463228
         0.467089265585 0.467089265585 0.467089265585
         0.472718715668 0.472718715668 0.472718715668
         0.478407174349 0.478407174349 0.478407174349
         0.484157562256 0.484157562256 0.484157562256
         0.489954590797 0.489954590797 0.489954590797
         0.495827704668 0.495827704668 0.495827704668
         0.501763045788 0.501763045788 0.501763045788
         0.507746994495 0.507746994495 0.507746994495
         0.513808310032 0.513808310032 0.513808310032
         0.519918739796 0.519918739796 0.519918739796
         0.526093184948 0.526093184948 0.526093184948
         0.532333433628 0.532333433628 0.532333433628
         0.538636922836 0.538636922836 0.538636922836
         0.545007705688 0.545007705688 0.545007705688
         0.551443994045 0.551443994045 0.551443994045
         0.55794852972 0.55794852972 0.55794852972
         0.564518272877 0.564518272877 0.564518272877
         0.571157515049 0.571157515049 0.571157515049
         0.577864289284 0.577864289284 0.577864289284
         0.584623157978 0.584623157978 0.584623157978
         0.591469347477 0.591469347477 0.591469347477
         0.598383426666 0.598383426666 0.598383426666
         0.605351805687 0.605351805687 0.605351805687
         0.61242711544 0.61242711544 0.61242711544
         0.619536995888 0.619536995888 0.619536995888
         0.626738011837 0.626738011837 0.626738011837
         0.633992552757 0.633992552757 0.633992552757
         0.641340017319 0.641340017319 0.641340017319
         0.648760557175 0.648760557175 0.648760557175
         0.656255245209 0.656255245209 0.656255245209
         0.663825571537 0.663825571537 0.663825571537
         0.671471297741 0.671471297741 0.671471297741
         0.679192304611 0.679192304611 0.679192304611
         0.686991333961 0.686991333961 0.686991333961
         0.694866895676 0.694866895676 0.694866895676
         0.702819287777 0.702819287777 0.702819287777
         0.710851311684 0.710851311684 0.710851311684
         0.718984425068 0.718984425068 0.718984425068
         0.727173507214 0.727173507214 0.727173507214
         0.735467195511 0.735467195511 0.735467195511
         0.743817448616 0.743817448616 0.743817448616
         0.752272248268 0.752272248268 0.752272248268
         0.760810315609 0.760810315609 0.760810315609
         0.769430100918 0.769430100918 0.769430100918
         0.778109669685 0.778109669685 0.778109669685
         0.786920487881 0.786920487881 0.786920487881
         0.795793652534 0.795793652534 0.795793652534
         0.804751098156 0.804751098156 0.804751098156
         0.813817799091 0.813817799091 0.813817799091
         0.822947502136 0.822947502136 0.822947502136
         0.832190275192 0.832190275192 0.832190275192
         0.841519713402 0.841519713402 0.841519713402
         0.850937008858 0.850937008858 0.850937008858
         0.860472142696 0.860472142696 0.860472142696
         0.87004250288 0.87004250288 0.87004250288
         0.87975859642 0.87975859642 0.87975859642
         0.889562666416 0.889562666416 0.889562666416
         0.899462401867 0.899462401867 0.899462401867
         0.909453213215 0.909453213215 0.909453213215
         0.919536232948 0.919536232948 0.919536232948
         0.929745197296 0.929745197296 0.929745197296
         0.940016508102 0.940016508102 0.940016508102
         0.950415670872 0.950415670872 0.950415670872
         0.960909545422 0.960909545422 0.960909545422
         0.971500992775 0.971500992775 0.971500992775
         0.982189178467 0.982189178467 0.982189178467
         0.993006467819 0.993006467819 0.993006467819
         1.00389111042 1.00389111042 1.00389111042
         1.01494038105 1.01494038105 1.01494038105
         1.02605843544 1.02605843544 1.02605843544
         1.03727567196 1.03727567196 1.03727567196
         1.04862785339 1.04862785339 1.04862785339
         1.0600515604 1.0600515604 1.0600515604
         1.07164573669 1.07164573669 1.07164573669
         1.08330893517 1.08330893517 1.08330893517
         1.0951128006 1.0951128006 1.0951128006
         1.10702359676 1.10702359676 1.10702359676
         1.11904203892 1.11904203892 1.11904203892
         1.13116562366 1.13116562366 1.13116562366
         1.14343452454 1.14343452454 1.14343452454
         1.15577495098 1.15577495098 1.15577495098
         1.16830098629 1.16830098629 1.16830098629
         1.1809002161 1.1809002161 1.1809002161
         1.19364833832 1.19364833832 1.19364833832
         1.20650756359 1.20650756359 1.20650756359
         1.21948373318 1.21948373318 1.21948373318
         1.23261058331 1.23261058331 1.23261058331
         1.24581408501 1.24581408501 1.24581408501
         1.25921356678 1.25921356678 1.25921356678
         1.27268767357 1.27268767357 1.27268767357
         1.28627991676 1.28627991676 1.28627991676
         1.30003201962 1.30003201962 1.30003201962
         1.31394636631 1.31394636631 1.31394636631
         1.32793939114 1.32793939114 1.32793939114
         1.34209680557 1.34209680557 1.34209680557
         1.35637390614 1.35637390614 1.35637390614
         1.37081801891 1.37081801891 1.37081801891
         1.38538742065 1.38538742065 1.38538742065
         1.40008234978 1.40008234978 1.40008234978
         1.41494870186 1.41494870186 1.41494870186
         1.42989349365 1.42989349365 1.42989349365
         1.44506239891 1.44506239891 1.44506239891
