aces_1.0.0/luts/Dolby_PQ_Scaled_to_linear.spi1d
Version 1
From 0.000000 1.000000
Length 1024
Components 3
{
         0.00281250011176 0.00281250011176 0.00281250011176
         0.00281256600283 0.00281256600283 0.00281256600283
         0.00281271361746 0.00281271361746 0.00281271361746
         0.00281292758882 0.00281292758882 0.00281292758882
         0.00281320302747 0.00281320302747 0.00281320302747
         0.00281353853643 0.00281353853643 0.00281353853643
         0.00281393318437 0.00281393318437 0.00281393318437
         0.00281438720413 0.00281438720413 0.00281438720413
         0.00281490082853 0.00281490082853 0.00281490082853
         0.0028154742904 0.0028154742904 0.0028154742904
         0.00281610852107 0.00281610852107 0.00281610852107
         0.00281680421904 0.00281680421904 0.00281680421904
         0.00281756254844 0.00281756254844 0.00281756254844
         0.00281838420779 0.00281838420779 0.00281838420779
         0.00281927036121 0.00281927036121 0.00281927036121
         0.00282022194006 0.00282022194006 0.00282022194006
         0.00282124010846 0.00282124010846 0.00282124010846
         0.00282232626341 0.00282232626341 0.00282232626341
         0.00282348156907 0.00282348156907 0.00282348156907
         0.00282470718957 0.00282470718957 0.00282470718957
         0.00282600428909 0.00282600428909 0.00282600428909
         0.00282737403177 0.00282737403177 0.00282737403177
         0.00282881804742 0.00282881804742 0.00282881804742
         0.00283033773303 0.00283033773303 0.00283033773303
         0.00283193401992 0.00283193401992 0.00283193401992
         0.00283360853791 0.00283360853791 0.00283360853791
         0.00283536291681 0.00283536291681 0.00283536291681
         0.00283719855361 0.00283719855361 0.00283719855361
         0.00283911614679 0.00283911614679 0.00283911614679
         0.00284111779183 0.00284111779183 0.00284111779183
         0.00284320535138 0.00284320535138 0.00284320535138
         0.00284537952393 0.00284537952393 0.00284537952393
         0.00284764217213 0.00284764217213 0.00284764217213
         0.00284999469295 0.00284999469295 0.00284999469295
         0.00285243918188 0.00285243918188 0.00285243918188
         0.0028549763374 0.0028549763374 0.0028549763374
         0.00285760848783 0.00285760848783 0.00285760848783
         0.00286033679731 0.00286033679731 0.00286033679731
         0.00286316243 0.00286316243 0.00286316243
         0.00286608887836 0.00286608887836 0.00286608887836
         0.00286911590956 0.00286911590956 0.00286911590956
         0.00287224561907 0.00287224561907 0.00287224561907
         0.00287547986954 0.00287547986954 0.00287547986954
         0.00287882029079 0.00287882029079 0.00287882029079
         0.00288226944394 0.00288226944394 0.00288226944394
         0.00288582849316 0.00288582849316 0.00288582849316
         0.00288949953392 0.00288949953392 0.00288949953392
         0.00289328233339 0.00289328233339 0.00289328233339
         0.00289718201384 0.00289718201384 0.00289718201384
         0.00290119764395 0.00290119764395 0.00290119764395
         0.00290533248335 0.00290533248335 0.00290533248335
         0.0029095869977 0.0029095869977 0.0029095869977
         0.00291396467946 0.00291396467946 0.00291396467946
         0.00291846808977 0.00291846808977 0.00291846808977
         0.00292309769429 0.00292309769429 0.00292309769429
         0.00292785372585 0.00292785372585 0.00292785372585
         0.00293274177238 0.00293274177238 0.00293274177238
         0.00293776346371 0.00293776346371 0.00293776346371
         0.00294291670434 0.00294291670434 0.00294291670434
         0.00294820824638 0.00294820824638 0.00294820824638
         0.00295363622718 0.00295363622718 0.00295363622718
         0.00295920670033 0.00295920670033 0.00295920670033
         0.002964919433 0.002964919433 0.002964919433
         0.00297077628784 0.00297077628784 0.00297077628784
         0.00297677959315 0.00297677959315 0.00297677959315
         0.00298293144442 0.00298293144442 0.00298293144442
         0.0029892376624 0.0029892376624 0.0029892376624
         0.00299569475465 0.00299569475465 0.00299569475465
         0.00300230551511 0.00300230551511 0.00300230551511
         0.00300907623023 0.00300907623023 0.00300907623023
         0.00301600666717 0.00301600666717 0.00301600666717
         0.00302310031839 0.00302310031839 0.00302310031839
         0.0030303564854 0.0030303564854 0.0030303564854
         0.00303778285161 0.00303778285161 0.00303778285161
         0.00304537615739 0.00304537615739 0.00304537615739
         0.00305314385332 0.00305314385332 0.00305314385332
         0.00306108221412 0.00306108221412 0.00306108221412
         0.00306919962168 0.00306919962168 0.00306919962168
         0.00307749561034 0.00307749561034 0.00307749561034
         0.00308597134426 0.00308597134426 0.00308597134426
         0.00309463101439 0.00309463101439 0.00309463101439
         0.00310347997583 0.00310347997583 0.00310347997583
         0.00311251822859 0.00311251822859 0.00311251822859
         0.00312174740247 0.00312174740247 0.00312174740247
         0.00313116586767 0.00313116586767 0.00313116586767
         0.00314078619704 0.00314078619704 0.00314078619704
         0.0031506086234 0.0031506086234 0.0031506086234
         0.00316062802449 0.00316062802449 0.00316062802449
         0.0031708504539 0.0031708504539 0.0031708504539
         0.00318128871731 0.00318128871731 0.00318128871731
         0.00319193140604 0.00319193140604 0.00319193140604
         0.00320278527215 0.00320278527215 0.00320278527215
         0.00321386451833 0.00321386451833 0.00321386451833
         0.00322515564039 0.00322515564039 0.00322515564039
         0.00323666748591 0.00323666748591 0.00323666748591
         0.00324840727262 0.00324840727262 0.00324840727262
         0.00326037569903 0.00326037569903 0.00326037569903
         0.0032725664787 0.0032725664787 0.0032725664787
         0.00328500452451 0.00328500452451 0.00328500452451
         0.00329766538925 0.00329766538925 0.00329766538925
         0.00331057468429 0.00331057468429 0.00331057468429
         0.00332371820696 0.00332371820696 0.00332371820696
         0.00333711295389 0.00333711295389 0.00333711295389
         0.00335076055489 0.00335076055489 0.00335076055489
         0.00336465309374 0.00336465309374 0.00336465309374
         0.00337880081497 0.00337880081497 0.00337880081497
         0.00339321605861 0.00339321605861 0.00339321605861
         0.00340788927861 0.00340788927861 0.00340788927861
         0.00342281954363 0.00342281954363 0.00342281954363
         0.00343802268617 0.00343802268617 0.00343802268617
         0.00345350778662 0.00345350778662 0.00345350778662
         0.00346925458871 0.00346925458871 0.00346925458871
         0.00348527543247 0.00348527543247 0.00348527543247
         0.00350159872323 0.00350159872323 0.00350159872323
         0.00351818511263 0.00351818511263 0.00351818511263
         0.003535061609 0.003535061609 0.003535061609
         0.00355224427767 0.00355224427767 0.00355224427767
         0.0035697221756 0.0035697221756 0.0035697221756
         0.00358749600127 0.00358749600127 0.00358749600127
         0.00360556831583 0.00360556831583 0.00360556831583
         0.00362395029515 0.00362395029515 0.00362395029515
         0.0036426500883 0.0036426500883 0.0036426500883
         0.00366166653112 0.00366166653112 0.00366166653112
         0.0036809858866 0.0036809858866 0.0036809858866
         0.00370062398724 0.00370062398724 0.00370062398724
         0.0037206010893 0.0037206010893 0.0037206010893
         0.00374090205878 0.00374090205878 0.00374090205878
         0.00376154575497 0.00376154575497 0.00376154575497
         0.00378251867369 0.00378251867369 0.00378251867369
         0.00380383688025 0.00380383688025 0.00380383688025
         0.00382550247014 0.00382550247014 0.00382550247014
         0.00384752266109 0.00384752266109 0.00384752266109
         0.00386989628896 0.00386989628896 0.00386989628896
         0.00389262521639 0.00389262521639 0.00389262521639
         0.00391570990905 0.00391570990905 0.00391570990905
         0.00393915548921 0.00393915548921 0.00393915548921
         0.00396298151463 0.00396298151463 0.00396298151463
         0.00398717354983 0.00398717354983 0.00398717354983
         0.00401175348088 0.00401175348088 0.00401175348088
         0.00403672317043 0.00403672317043 0.00403672317043
         0.00406208448112 0.00406208448112 0.00406208448112
         0.00408781925216 0.00408781925216 0.00408781925216
         0.00411394890398 0.00411394890398 0.00411394890398
         0.00414050836116 0.00414050836116 0.00414050836116
         0.00416746689007 0.00416746689007 0.00416746689007
         0.00419483520091 0.00419483520091 0.00419483520091
         0.00422260537744 0.00422260537744 0.00422260537744
         0.00425082072616 0.00425082072616 0.00425082072616
         0.00427941419184 0.00427941419184 0.00427941419184
         0.0043084807694 0.0043084807694 0.0043084807694
         0.0043379701674 0.0043379701674 0.0043379701674
         0.00436790194362 0.00436790194362 0.00436790194362
         0.00439825933427 0.00439825933427 0.00439825933427
         0.00442910380661 0.00442910380661 0.00442910380661
         0.00446037854999 0.00446037854999 0.00446037854999
         0.00449210917577 0.00449210917577 0.00449210917577
         0.00452434550971 0.00452434550971 0.00452434550971
         0.00455700885504 0.00455700885504 0.00455700885504
         0.00459018535912 0.00459018535912 0.00459018535912
         0.00462383264676 0.00462383264676 0.00462383264676
         0.00465792044997 0.00465792044997 0.00465792044997
         0.00469256285578 0.00469256285578 0.00469256285578
         0.00472765089944 0.00472765089944 0.00472765089944
         0.00476326234639 0.00476326234639 0.00476326234639
         0.00479940604419 0.00479940604419 0.00479940604419
         0.0048360414803 0.0048360414803 0.0048360414803
         0.00487321056426 0.00487321056426 0.00487321056426
         0.00491087976843 0.00491087976843 0.00491087976843
         0.00494909612462 0.00494909612462 0.00494909612462
         0.00498785637319 0.00498785637319 0.00498785637319
         0.00502716982737 0.00502716982737 0.00502716982737
         0.00506699457765 0.00506699457765 0.00506699457765
         0.00510737858713 0.00510737858713 0.00510737858713
         0.00514837168157 0.00514837168157 0.00514837168157
         0.005189885851 0.005189885851 0.005189885851
         0.00523202493787 0.00523202493787 0.00523202493787
         0.00527468184009 0.00527468184009 0.00527468184009
         0.00531792128459 0.00531792128459 0.00531792128459
         0.00536179868504 0.00536179868504 0.00536179868504
         0.00540626142174 0.00540626142174 0.00540626142174
         0.005451310426 0.005451310426 0.005451310426
         0.00549701973796 0.00549701973796 0.00549701973796
         0.00554332276806 0.00554332276806 0.00554332276806
         0.00559016689658 0.00559016689658 0.00559016689658
         0.00563773978502 0.00563773978502 0.00563773978502
         0.00568598648533 0.00568598648533 0.00568598648533
         0.005734779872 0.005734779872 0.005734779872
         0.00578426104039 0.00578426104039 0.00578426104039
         0.00583435595036 0.00583435595036 0.00583435595036
         0.00588521314785 0.00588521314785 0.00588521314785
         0.00593663193285 0.00593663193285 0.00593663193285
         0.0059888260439 0.0059888260439 0.0059888260439
         0.0060417233035 0.0060417233035 0.0060417233035
         0.00609526317567 0.00609526317567 0.00609526317567
         0.00614945124835 0.00614945124835 0.00614945124835
         0.00620442815125 0.00620442815125 0.00620442815125
         0.00626006582752 0.00626006582752 0.00626006582752
         0.00631642807275 0.00631642807275 0.00631642807275
         0.00637360895053 0.00637360895053 0.00637360895053
         0.00643146131188 0.00643146131188 0.00643146131188
         0.00649006199092 0.00649006199092 0.00649006199092
         0.00654941890389 0.00654941890389 0.00654941890389
         0.0066095306538 0.0066095306538 0.0066095306538
         0.00667049922049 0.00667049922049 0.00667049922049
         0.00673214532435 0.00673214532435 0.00673214532435
         0.00679457793012 0.00679457793012 0.00679457793012
         0.00685786781833 0.00685786781833 0.00685786781833
         0.00692186504602 0.00692186504602 0.00692186504602
         0.00698674656451 0.00698674656451 0.00698674656451
         0.00705242250115 0.00705242250115 0.00705242250115
         0.00711900414899 0.00711900414899 0.00711900414899
         0.00718628615141 0.00718628615141 0.00718628615141
         0.00725450227037 0.00725450227037 0.00725450227037
         0.00732352025807 0.00732352025807 0.00732352025807
         0.00739347189665 0.00739347189665 0.00739347189665
         0.00746426638216 0.00746426638216 0.00746426638216
         0.00753588788211 0.00753588788211 0.00753588788211
         0.0076084700413 0.0076084700413 0.0076084700413
         0.0076818917878 0.0076818917878 0.0076818917878
         0.00775628257543 0.00775628257543 0.00775628257543
         0.00783154182136 0.00783154182136 0.00783154182136
         0.00790776871145 0.00790776871145 0.00790776871145
         0.00798487477005 0.00798487477005 0.00798487477005
         0.00806297920644 0.00806297920644 0.00806297920644
         0.00814197026193 0.00814197026193 0.00814197026193
         0.00822197366506 0.00822197366506 0.00822197366506
         0.00830299872905 0.00830299872905 0.00830299872905
         0.00838491506875 0.00838491506875 0.00838491506875
         0.00846788007766 0.00846788007766 0.00846788007766
         0.00855189189315 0.00855189189315 0.00855189189315
         0.00863682292402 0.00863682292402 0.00863682292402
         0.00872281193733 0.00872281193733 0.00872281193733
         0.00880987010896 0.00880987010896 0.00880987010896
         0.00889800302684 0.00889800302684 0.00889800302684
         0.00898707751185 0.00898707751185 0.00898707751185
         0.00907725654542 0.00907725654542 0.00907725654542
         0.00916853360832 0.00916853360832 0.00916853360832
         0.00926092080772 0.00926092080772 0.00926092080772
         0.00935426354408 0.00935426354408 0.00935426354408
         0.00944874435663 0.00944874435663 0.00944874435663
         0.00954453274608 0.00954453274608 0.00954453274608
         0.00964128039777 0.00964128039777 0.00964128039777
         0.00973919034004 0.00973919034004 0.00973919034004
         0.00983843579888 0.00983843579888 0.00983843579888
         0.00993868149817 0.00993868149817 0.00993868149817
         0.0100401137024 0.0100401137024 0.0100401137024
         0.010142724961 0.010142724961 0.010142724961
         0.0102465432137 0.0102465432137 0.0102465432137
         0.0103515516967 0.0103515516967 0.0103515516967
         0.0104577848688 0.0104577848688 0.0104577848688
         0.0105654355139 0.0105654355139 0.0105654355139
         0.0106741189957 0.0106741189957 0.0106741189957
         0.0107842627913 0.0107842627913 0.0107842627913
         0.0108954505995 0.0108954505995 0.0108954505995
         0.0110078826547 0.0110078826547 0.0110078826547
         0.0111218094826 0.0111218094826 0.0111218094826
         0.0112369963899 0.0112369963899 0.0112369963899
         0.0113534796983 0.0113534796983 0.0113534796983
         0.011471260339 0.011471260339 0.011471260339
         0.0115905674174 0.0115905674174 0.0115905674174
         0.0117109827697 0.0117109827697 0.0117109827697
         0.0118329394609 0.0118329394609 0.0118329394609
         0.0119562372565 0.0119562372565 0.0119562372565
         0.0120808575302 0.0120808575302 0.0120808575302
         0.012207086198 0.012207086198 0.012207086198
         0.0123346820474 0.0123346820474 0.0123346820474
         0.0124636553228 0.0124636553228 0.0124636553228
         0.0125942537561 0.0125942537561 0.0125942537561
         0.0127259977162 0.0127259977162 0.0127259977162
         0.0128593947738 0.0128593947738 0.0128593947738
         0.0129942055792 0.0129942055792 0.0129942055792
         0.0131307141855 0.0131307141855 0.0131307141855
         0.0132689168677 0.0132689168677 0.0132689168677
         0.0134082762524 0.0134082762524 0.0134082762524
         0.0135494070128 0.0135494070128 0.0135494070128
         0.0136919701472 0.0136919701472 0.0136919701472
         0.0138363000005 0.0138363000005 0.0138363000005
         0.0139818098396 0.0139818098396 0.0139818098396
         0.014129422605 0.014129422605 0.014129422605
         0.014278515242 0.014278515242 0.014278515242
         0.0144291389734 0.0144291389734 0.0144291389734
         0.014581582509 0.014581582509 0.014581582509
         0.0147355850786 0.0147355850786 0.0147355850786
         0.0148914279416 0.0148914279416 0.0148914279416
         0.015048856847 0.015048856847 0.015048856847
         0.0152081530541 0.0152081530541 0.0152081530541
         0.0153690259904 0.0153690259904 0.0153690259904
         0.0155318239704 0.0155318239704 0.0155318239704
         0.0156962182373 0.0156962182373 0.0156962182373
         0.0158625785261 0.0158625785261 0.0158625785261
         0.0160308852792 0.0160308852792 0.0160308852792
         0.016200851649 0.016200851649 0.016200851649
         0.0163728315383 0.0163728315383 0.0163728315383
         0.0165464580059 0.0165464580059 0.0165464580059
         0.0167217254639 0.0167217254639 0.0167217254639
         0.0168990567327 0.0168990567327 0.0168990567327
         0.0170784555376 0.0170784555376 0.0170784555376
         0.0172599554062 0.0172599554062 0.0172599554062
         0.0174431558698 0.0174431558698 0.0174431558698
         0.0176284760237 0.0176284760237 0.0176284760237
         0.017815509811 0.017815509811 0.017815509811
         0.0180046968162 0.0180046968162 0.0180046968162
         0.0181960649788 0.0181960649788 0.0181960649788
         0.0183896292001 0.0183896292001 0.0183896292001
         0.018584959209 0.018584959209 0.018584959209
         0.018782556057 0.018782556057 0.018782556057
         0.0189823620021 0.0189823620021 0.0189823620021
         0.0191839598119 0.0191839598119 0.0191839598119
         0.019387871027 0.019387871027 0.019387871027
         0.0195940546691 0.0195940546691 0.0195940546691
         0.0198020972311 0.0198020972311 0.0198020972311
         0.0200124680996 0.0200124680996 0.0200124680996
         0.0202251933515 0.0202251933515 0.0202251933515
         0.0204402878881 0.0204402878881 0.0204402878881
         0.0206577852368 0.0206577852368 0.0206577852368
         0.0208771564066 0.0208771564066 0.0208771564066
         0.0210990011692 0.0210990011692 0.0210990011692
         0.0213232561946 0.0213232561946 0.0213232561946
         0.0215494595468 0.0215494595468 0.0215494595468
         0.0217787101865 0.0217787101865 0.0217787101865
         0.0220098905265 0.0220098905265 0.0220098905265
         0.0222435966134 0.0222435966134 0.0222435966134
         0.0224798507988 0.0224798507988 0.0224798507988
         0.0227187089622 0.0227187089622 0.0227187089622
         0.0229595564306 0.0229595564306 0.0229595564306
         0.0232035517693 0.0232035517693 0.0232035517693
         0.0234496183693 0.0234496183693 0.0234496183693
         0.0236983671784 0.0236983671784 0.0236983671784
         0.0239497199655 0.0239497199655 0.0239497199655
         0.0242038071156 0.0242038071156 0.0242038071156
         0.0244599580765 0.0244599580765 0.0244599580765
         0.0247194729745 0.0247194729745 0.0247194729745
         0.0249817371368 0.0249817371368 0.0249817371368
         0.0252461433411 0.0252461433411 0.0252461433411
         0.0255139730871 0.0255139730871 0.0255139730871
         0.025783970952 0.025783970952 0.025783970952
         0.0260568000376 0.0260568000376 0.0260568000376
         0.0263325348496 0.0263325348496 0.0263325348496
         0.0266110636294 0.0266110636294 0.0266110636294
         0.0268925689161 0.0268925689161 0.0268925689161
         0.027176965028 0.027176965028 0.027176965028
         0.0274643748999 0.0274643748999 0.0274643748999
         0.0277546718717 0.0277546718717 0.0277546718717
         0.0280480347574 0.0280480347574 0.0280480347574
         0.0283443890512 0.0283443890512 0.0283443890512
         0.0286430381238 0.0286430381238 0.0286430381238
         0.0289455465972 0.0289455465972 0.0289455465972
         0.0292510576546 0.0292510576546 0.0292510576546
         0.0295589640737 0.0295589640737 0.0295589640737
         0.0298715978861 0.0298715978861 0.0298715978861
         0.0301857590675 0.0301857590675 0.0301857590675
         0.0305039472878 0.0305039472878 0.0305039472878
         0.0308245010674 0.0308245010674 0.0308245010674
         0.0311491601169 0.0311491601169 0.0311491601169
         0.0314770489931 0.0314770489931 0.0314770489931
         0.0318082123995 0.0318082123995 0.0318082123995
         0.0321427211165 0.0321427211165 0.0321427211165
         0.0324805565178 0.0324805565178 0.0324805565178
         0.0328217223287 0.0328217223287 0.0328217223287
         0.033166334033 0.033166334033 0.033166334033
         0.0335143245757 0.0335143245757 0.0335143245757
         0.0338657163084 0.0338657163084 0.0338657163084
         0.0342206247151 0.0342206247151 0.0342206247151
         0.0345799997449 0.0345799997449 0.0345799997449
         0.0349418446422 0.0349418446422 0.0349418446422
         0.03530831635 0.03530831635 0.03530831635
         0.0356772840023 0.0356772840023 0.0356772840023
         0.0360508710146 0.0360508710146 0.0360508710146
         0.0364281386137 0.0364281386137 0.0364281386137
         0.0368090197444 0.0368090197444 0.0368090197444
         0.0371925383806 0.0371925383806 0.0371925383806
         0.0375818572938 0.0375818572938 0.0375818572938
         0.0379739329219 0.0379739329219 0.0379739329219
         0.0383697301149 0.0383697301149 0.0383697301149
         0.0387703590095 0.0387703590095 0.0387703590095
         0.0391737669706 0.0391737669706 0.0391737669706
         0.0395821742713 0.0395821742713 0.0395821742713
         0.0399944074452 0.0399944074452 0.0399944074452
         0.0404105260968 0.0404105260968 0.0404105260968
         0.0408318527043 0.0408318527043 0.0408318527043
         0.0412547327578 0.0412547327578 0.0412547327578
         0.0416840538383 0.0416840538383 0.0416840538383
         0.0421172603965 0.0421172603965 0.0421172603965
         0.0425546951592 0.0425546951592 0.0425546951592
         0.0429961569607 0.0429961569607 0.0429961569607
         0.0434416905046 0.0434416905046 0.0434416905046
         0.0438927896321 0.0438927896321 0.0438927896321
         0.0443466417491 0.0443466417491 0.0443466417491
         0.0448061451316 0.0448061451316 0.0448061451316
         0.045269832015 0.045269832015 0.045269832015
         0.0457378327847 0.0457378327847 0.0457378327847
         0.0462101064622 0.0462101064622 0.0462101064622
         0.0466880872846 0.0466880872846 0.0466880872846
         0.0471690371633 0.0471690371633 0.0471690371633
         0.0476572662592 0.0476572662592 0.0476572662592
         0.048148535192 0.048148535192 0.048148535192
         0.0486441887915 0.0486441887915 0.0486441887915
         0.0491457991302 0.0491457991302 0.0491457991302
         0.0496505722404 0.0496505722404 0.0496505722404
         0.0501628816128 0.0501628816128 0.0501628816128
         0.0506782382727 0.0506782382727 0.0506782382727
         0.0511998087168 0.0511998087168 0.0511998087168
         0.0517261065543 0.0517261065543 0.0517261065543
         0.0522571615875 0.0522571615875 0.0522571615875
         0.0527928620577 0.0527928620577 0.0527928620577
         0.0533349812031 0.0533349812031 0.0533349812031
         0.0538802631199 0.0538802631199 0.0538802631199
         0.0544337444007 0.0544337444007 0.0544337444007
         0.0549904555082 0.0549904555082 0.0549904555082
