aces_1.0.0/luts/Dolby_PQ_4000_nits_Shaper_to_linear.spi1d
Version 1
From 0.000000 1.000000
Length 1024
Components 3
{
         4.39453142462e-05 4.39453142462e-05 4.39453142462e-05
         4.69255792268e-05 4.69255792268e-05 4.69255792268e-05
         5.36120678589e-05 5.36120678589e-05 5.36120678589e-05
         6.32893279544e-05 6.32893279544e-05 6.32893279544e-05
         7.57599627832e-05 7.57599627832e-05 7.57599627832e-05
         9.09444352146e-05 9.09444352146e-05 9.09444352146e-05
         0.000108813233965 0.000108813233965 0.000108813233965
         0.000129362480948 0.000129362480948 0.000129362480948
         0.000152604930918 0.000152604930918 0.000152604930918
         0.000178564179805 0.000178564179805 0.000178564179805
         0.000207271747058 0.000207271747058 0.000207271747058
         0.000238764259848 0.000238764259848 0.000238764259848
         0.000273082405329 0.000273082405329 0.000273082405329
         0.000310271454509 0.000310271454509 0.000310271454509
         0.000350380199961 0.000350380199961 0.000350380199961
         0.000393454567529 0.000393454567529 0.000393454567529
         0.000439541938249 0.000439541938249 0.000439541938249
         0.000488706398755 0.000488706398755 0.000488706398755
         0.000540990673471 0.000540990673471 0.000540990673471
         0.000596465659328 0.000596465659328 0.000596465659328
         0.000655175419524 0.000655175419524 0.000655175419524
         0.000717175018508 0.000717175018508 0.000717175018508
         0.000782541756053 0.000782541756053 0.000782541756053
         0.000851323653478 0.000851323653478 0.000851323653478
         0.000923576473724 0.000923576473724 0.000923576473724
         0.000999372685328 0.000999372685328 0.000999372685328
         0.00107877852861 0.00107877852861 0.00107877852861
         0.00116185774095 0.00116185774095 0.00116185774095
         0.00124865665566 0.00124865665566 0.00124865665566
         0.00133926083799 0.00133926083799 0.00133926083799
         0.00143374479376 0.00143374479376 0.00143374479376
         0.00153215124737 0.00153215124737 0.00153215124737
         0.00163456634618 0.00163456634618 0.00163456634618
         0.0017410509754 0.0017410509754 0.0017410509754
         0.00185169733595 0.00185169733595 0.00185169733595
         0.00196653045714 0.00196653045714 0.00196653045714
         0.00208566966467 0.00208566966467 0.00208566966467
         0.00220916420221 0.00220916420221 0.00220916420221
         0.00233705737628 0.00233705737628 0.00233705737628
         0.00246951286681 0.00246951286681 0.00246951286681
         0.00260652182624 0.00260652182624 0.00260652182624
         0.00274818437174 0.00274818437174 0.00274818437174
         0.00289457500912 0.00289457500912 0.00289457500912
         0.00304577406496 0.00304577406496 0.00304577406496
         0.00320189329796 0.00320189329796 0.00320189329796
         0.00336298625916 0.00336298625916 0.00336298625916
         0.00352913886309 0.00352913886309 0.00352913886309
         0.00370035856031 0.00370035856031 0.00370035856031
         0.0038768670056 0.0038768670056 0.0038768670056
         0.00405862974003 0.00405862974003 0.00405862974003
         0.00424578692764 0.00424578692764 0.00424578692764
         0.00443835929036 0.00443835929036 0.00443835929036
         0.00463650235906 0.00463650235906 0.00463650235906
         0.00484033487737 0.00484033487737 0.00484033487737
         0.00504988897592 0.00504988897592 0.00504988897592
         0.00526515301317 0.00526515301317 0.00526515301317
         0.00548639660701 0.00548639660701 0.00548639660701
         0.00571369612589 0.00571369612589 0.00571369612589
         0.00594694120809 0.00594694120809 0.00594694120809
         0.00618645595387 0.00618645595387 0.00618645595387
         0.00643213652074 0.00643213652074 0.00643213652074
         0.0066842790693 0.0066842790693 0.0066842790693
         0.00694284960628 0.00694284960628 0.00694284960628
         0.00720794592053 0.00720794592053 0.00720794592053
         0.00747967138886 0.00747967138886 0.00747967138886
         0.00775811588392 0.00775811588392 0.00775811588392
         0.00804355088621 0.00804355088621 0.00804355088621
         0.00833582133055 0.00833582133055 0.00833582133055
         0.00863504316658 0.00863504316658 0.00863504316658
         0.00894150044769 0.00894150044769 0.00894150044769
         0.00925518758595 0.00925518758595 0.00925518758595
         0.00957626570016 0.00957626570016 0.00957626570016
         0.009904704988 0.009904704988 0.009904704988
         0.0102408379316 0.0102408379316 0.0102408379316
         0.0105845341459 0.0105845341459 0.0105845341459
         0.0109361140057 0.0109361140057 0.0109361140057
         0.0112954322249 0.0112954322249 0.0112954322249
         0.0116628454998 0.0116628454998 0.0116628454998
         0.01203834638 0.01203834638 0.01203834638
         0.0124219805002 0.0124219805002 0.0124219805002
         0.0128139322624 0.0128139322624 0.0128139322624
         0.0132144670933 0.0132144670933 0.0132144670933
         0.0136235542595 0.0136235542595 0.0136235542595
         0.0140412980691 0.0140412980691 0.0140412980691
         0.0144675970078 0.0144675970078 0.0144675970078
         0.0149030396715 0.0149030396715 0.0149030396715
         0.0153476325795 0.0153476325795 0.0153476325795
         0.0158011391759 0.0158011391759 0.0158011391759
         0.0162638314068 0.0162638314068 0.0162638314068
         0.0167362969369 0.0167362969369 0.0167362969369
         0.0172180105001 0.0172180105001 0.0172180105001
         0.0177092794329 0.0177092794329 0.0177092794329
         0.0182107612491 0.0182107612491 0.0182107612491
         0.0187218300998 0.0187218300998 0.0187218300998
         0.0192428827286 0.0192428827286 0.0192428827286
         0.0197742562741 0.0197742562741 0.0197742562741
         0.0203159805387 0.0203159805387 0.0203159805387
         0.0208677668124 0.0208677668124 0.0208677668124
         0.0214307419956 0.0214307419956 0.0214307419956
         0.0220038071275 0.0220038071275 0.0220038071275
         0.0225881207734 0.0225881207734 0.0225881207734
         0.0231830272824 0.0231830272824 0.0231830272824
         0.0237893145531 0.0237893145531 0.0237893145531
         0.0244070384651 0.0244070384651 0.0244070384651
         0.0250358525664 0.0250358525664 0.0250358525664
         0.0256762169302 0.0256762169302 0.0256762169302
         0.0263286828995 0.0263286828995 0.0263286828995
         0.0269928351045 0.0269928351045 0.0269928351045
         0.0276686158031 0.0276686158031 0.0276686158031
         0.0283567532897 0.0283567532897 0.0283567532897
         0.0290576443076 0.0290576443076 0.0290576443076
         0.0297703910619 0.0297703910619 0.0297703910619
         0.0304955393076 0.0304955393076 0.0304955393076
         0.0312343686819 0.0312343686819 0.0312343686819
         0.0319851115346 0.0319851115346 0.0319851115346
         0.0327489860356 0.0327489860356 0.0327489860356
         0.0335267260671 0.0335267260671 0.0335267260671
         0.0343178212643 0.0343178212643 0.0343178212643
         0.0351223051548 0.0351223051548 0.0351223051548
         0.0359403118491 0.0359403118491 0.0359403118491
         0.0367723293602 0.0367723293602 0.0367723293602
         0.0376187302172 0.0376187302172 0.0376187302172
         0.0384794659913 0.0384794659913 0.0384794659913
         0.0393539108336 0.0393539108336 0.0393539108336
         0.04024278 0.04024278 0.04024278
         0.0411469973624 0.0411469973624 0.0411469973624
         0.0420658737421 0.0420658737421 0.0420658737421
         0.0430002622306 0.0430002622306 0.0430002622306
         0.0439495444298 0.0439495444298 0.0439495444298
         0.0449144691229 0.0449144691229 0.0449144691229
         0.0458951145411 0.0458951145411 0.0458951145411
         0.0468918085098 0.0468918085098 0.0468918085098
         0.0479044988751 0.0479044988751 0.0479044988751
         0.0489332638681 0.0489332638681 0.0489332638681
         0.0499781370163 0.0499781370163 0.0499781370163
         0.0510393567383 0.0510393567383 0.0510393567383
         0.0521177724004 0.0521177724004 0.0521177724004
         0.0532127767801 0.0532127767801 0.0532127767801
         0.0543253310025 0.0543253310025 0.0543253310025
         0.0554555207491 0.0554555207491 0.0554555207491
         0.0566034317017 0.0566034317017 0.0566034317017
         0.0577682591975 0.0577682591975 0.0577682591975
         0.0589509569108 0.0589509569108 0.0589509569108
         0.0601531043649 0.0601531043649 0.0601531043649
         0.0613733194768 0.0613733194768 0.0613733194768
         0.0626120790839 0.0626120790839 0.0626120790839
         0.0638690516353 0.0638690516353 0.0638690516353
         0.0651461333036 0.0651461333036 0.0651461333036
         0.0664403662086 0.0664403662086 0.0664403662086
         0.0677559822798 0.0677559822798 0.0677559822798
         0.0690907537937 0.0690907537937 0.0690907537937
         0.0704455450177 0.0704455450177 0.0704455450177
         0.0718195959926 0.0718195959926 0.0718195959926
         0.0732157081366 0.0732157081366 0.0732157081366
         0.0746312886477 0.0746312886477 0.0746312886477
         0.0760674923658 0.0760674923658 0.0760674923658
         0.0775265917182 0.0775265917182 0.0775265917182
         0.0790050327778 0.0790050327778 0.0790050327778
         0.0805066823959 0.0805066823959 0.0805066823959
         0.0820296406746 0.0820296406746 0.0820296406746
         0.0835725441575 0.0835725441575 0.0835725441575
         0.0851405635476 0.0851405635476 0.0851405635476
         0.0867287293077 0.0867287293077 0.0867287293077
         0.0883406028152 0.0883406028152 0.0883406028152
         0.0899765491486 0.0899765491486 0.0899765491486
         0.0916347652674 0.0916347652674 0.0916347652674
         0.0933171436191 0.0933171436191 0.0933171436191
         0.0950221642852 0.0950221642852 0.0950221642852
         0.09675193578 0.09675193578 0.09675193578
         0.0985063165426 0.0985063165426 0.0985063165426
         0.100285753608 0.100285753608 0.100285753608
         0.102088317275 0.102088317275 0.102088317275
         0.103916205466 0.103916205466 0.103916205466
         0.105771683156 0.105771683156 0.105771683156
         0.107650712132 0.107650712132 0.107650712132
         0.109558045864 0.109558045864 0.109558045864
         0.111488796771 0.111488796771 0.111488796771
         0.113445937634 0.113445937634 0.113445937634
         0.115431942046 0.115431942046 0.115431942046
         0.117444455624 0.117444455624 0.117444455624
         0.119483470917 0.119483470917 0.119483470917
         0.121552415192 0.121552415192 0.121552415192
         0.123648203909 0.123648203909 0.123648203909
         0.125768497586 0.125768497586 0.125768497586
         0.127921760082 0.127921760082 0.127921760082
         0.130105540156 0.130105540156 0.130105540156
         0.132314056158 0.132314056158 0.132314056158
         0.134553715587 0.134553715587 0.134553715587
         0.136821135879 0.136821135879 0.136821135879
         0.13912306726 0.13912306726 0.13912306726
         0.141450434923 0.141450434923 0.141450434923
         0.143812865019 0.143812865019 0.143812865019
         0.146207109094 0.146207109094 0.146207109094
         0.148630484939 0.148630484939 0.148630484939
         0.151083186269 0.151083186269 0.151083186269
         0.153571590781 0.153571590781 0.153571590781
         0.156089887023 0.156089887023 0.156089887023
         0.158640995622 0.158640995622 0.158640995622
         0.161229148507 0.161229148507 0.161229148507
         0.163847699761 0.163847699761 0.163847699761
         0.166500121355 0.166500121355 0.166500121355
         0.169186770916 0.169186770916 0.169186770916
         0.171907603741 0.171907603741 0.171907603741
         0.174667209387 0.174667209387 0.174667209387
         0.17745745182 0.17745745182 0.17745745182
         0.18028332293 0.18028332293 0.18028332293
         0.183147981763 0.183147981763 0.183147981763
         0.186044678092 0.186044678092 0.186044678092
         0.188981384039 0.188981384039 0.188981384039
         0.191954061389 0.191954061389 0.191954061389
         0.194967702031 0.194967702031 0.194967702031
         0.198013082147 0.198013082147 0.198013082147
         0.201100707054 0.201100707054 0.201100707054
         0.204224646091 0.204224646091 0.204224646091
         0.207390844822 0.207390844822 0.207390844822
         0.210595190525 0.210595190525 0.210595190525
         0.213836982846 0.213836982846 0.213836982846
         0.217122226954 0.217122226954 0.217122226954
         0.220445498824 0.220445498824 0.220445498824
         0.223812609911 0.223812609911 0.223812609911
         0.227219045162 0.227219045162 0.227219045162
         0.230669274926 0.230669274926 0.230669274926
         0.234159305692 0.234159305692 0.234159305692
         0.237694501877 0.237694501877 0.237694501877
         0.241269871593 0.241269871593 0.241269871593
         0.244891032577 0.244891032577 0.244891032577
         0.248558446765 0.248558446765 0.248558446765
         0.252266228199 0.252266228199 0.252266228199
         0.256021410227 0.256021410227 0.256021410227
         0.25982400775 0.25982400775 0.25982400775
         0.263668209314 0.263668209314 0.263668209314
         0.267560303211 0.267560303211 0.267560303211
         0.271500766277 0.271500766277 0.271500766277
         0.275489956141 0.275489956141 0.275489956141
         0.279521673918 0.279521673918 0.279521673918
         0.283603429794 0.283603429794 0.283603429794
         0.28773483634 0.28773483634 0.28773483634
         0.291916519403 0.291916519403 0.291916519403
         0.296141475439 0.296141475439 0.296141475439
         0.30041795969 0.30041795969 0.30041795969
         0.304753571749 0.304753571749 0.304753571749
         0.309132635593 0.309132635593 0.309132635593
         0.313564270735 0.313564270735 0.313564270735
         0.318056404591 0.318056404591 0.318056404591
         0.322593808174 0.322593808174 0.322593808174
         0.327184915543 0.327184915543 0.327184915543
         0.331829309464 0.331829309464 0.331829309464
         0.336528420448 0.336528420448 0.336528420448
         0.341281354427 0.341281354427 0.341281354427
         0.346089780331 0.346089780331 0.346089780331
         0.350962340832 0.350962340832 0.350962340832
         0.355881631374 0.355881631374 0.355881631374
         0.360867023468 0.360867023468 0.360867023468
         0.365899711847 0.365899711847 0.365899711847
         0.370988667011 0.370988667011 0.370988667011
         0.376145273447 0.376145273447 0.376145273447
         0.38135895133 0.38135895133 0.38135895133
         0.386631309986 0.386631309986 0.386631309986
         0.391962349415 0.391962349415 0.391962349415
         0.397362500429 0.397362500429 0.397362500429
         0.402812808752 0.402812808752 0.402812808752
         0.408332914114 0.408332914114 0.408332914114
         0.413913726807 0.413913726807 0.413913726807
         0.419554322958 0.419554322958 0.419554322958
         0.425267785788 0.425267785788 0.425267785788
         0.431043088436 0.431043088436 0.431043088436
         0.436880767345 0.436880767345 0.436880767345
         0.442791998386 0.442791998386 0.442791998386
         0.448755115271 0.448755115271 0.448755115271
         0.454793006182 0.454793006182 0.454793006182
         0.460894912481 0.460894912481 0.460894912481
         0.467073649168 0.467073649168 0.467073649168
         0.473329037428 0.473329037428 0.473329037428
         0.479636818171 0.479636818171 0.479636818171
         0.48602476716 0.48602476716 0.48602476716
         0.492477566004 0.492477566004 0.492477566004
         0.499010324478 0.499010324478 0.499010324478
         0.505596458912 0.505596458912 0.505596458912
         0.512277781963 0.512277781963 0.512277781963
         0.519026100636 0.519026100636 0.519026100636
         0.52584373951 0.52584373951 0.52584373951
         0.532743752003 0.532743752003 0.532743752003
         0.539714276791 0.539714276791 0.539714276791
         0.546768128872 0.546768128872 0.546768128872
         0.55389380455 0.55389380455 0.55389380455
         0.56110394001 0.56110394001 0.56110394001
         0.568385541439 0.568385541439 0.568385541439
         0.575754165649 0.575754165649 0.575754165649
         0.583195090294 0.583195090294 0.583195090294
         0.590725004673 0.590725004673 0.590725004673
         0.598343014717 0.598343014717 0.598343014717
         0.606036126614 0.606036126614 0.606036126614
         0.613820433617 0.613820433617 0.613820433617
         0.621679246426 0.621679246426 0.621679246426
         0.629612326622 0.629612326622 0.629612326622
         0.637638747692 0.637638747692 0.637638747692
         0.645758867264 0.645758867264 0.645758867264
         0.653973996639 0.653973996639 0.653973996639
         0.662266135216 0.662266135216 0.662266135216
         0.670654177666 0.670654177666 0.670654177666
         0.679119825363 0.679119825363 0.679119825363
         0.687682926655 0.687682926655 0.687682926655
         0.696344852448 0.696344852448 0.696344852448
         0.705106019974 0.705106019974 0.705106019974
         0.713947057724 0.713947057724 0.713947057724
         0.722890973091 0.722890973091 0.722890973091
         0.731934726238 0.731934726238 0.731934726238
         0.741059541702 0.741059541702 0.741059541702
         0.750289142132 0.750289142132 0.750289142132
         0.759621500969 0.759621500969 0.759621500969
         0.76903796196 0.76903796196 0.76903796196
         0.778559923172 0.778559923172 0.778559923172
         0.788188457489 0.788188457489 0.788188457489
         0.797924160957 0.797924160957 0.797924160957
         0.807768762112 0.807768762112 0.807768762112
         0.817698121071 0.817698121071 0.817698121071
         0.827739417553 0.827739417553 0.827739417553
         0.837889790535 0.837889790535 0.837889790535
         0.848128378391 0.848128378391 0.848128378391
         0.858504712582 0.858504712582 0.858504712582
         0.868968605995 0.868968605995 0.868968605995
         0.879546821117 0.879546821117 0.879546821117
         0.890240252018 0.890240252018 0.890240252018
         0.901051640511 0.901051640511 0.901051640511
         0.911953032017 0.911953032017 0.911953032017
         0.922996938229 0.922996938229 0.922996938229
         0.934134542942 0.934134542942 0.934134542942
         0.945393443108 0.945393443108 0.945393443108
         0.95677036047 0.95677036047 0.95677036047
         0.968271136284 0.968271136284 0.968271136284
         0.979865193367 0.979865193367 0.979865193367
         0.991611421108 0.991611421108 0.991611421108
         1.00348222256 1.00348222256 1.00348222256
         1.01545011997 1.01545011997 1.01545011997
         1.02757275105 1.02757275105 1.02757275105
         1.03979361057 1.03979361057 1.03979361057
         1.05214250088 1.05214250088 1.05214250088
         1.06462299824 1.06462299824 1.06462299824
         1.07722997665 1.07722997665 1.07722997665
         1.08997154236 1.08997154236 1.08997154236
         1.10284411907 1.10284411907 1.10284411907
         1.11585319042 1.11585319042 1.11585319042
         1.12899267673 1.12899267673 1.12899267673
         1.14227116108 1.14227116108 1.14227116108
         1.15568470955 1.15568470955 1.15568470955
         1.16920244694 1.16920244694 1.16920244694
         1.18289482594 1.18289482594 1.18289482594
         1.19672298431 1.19672298431 1.19672298431
         1.21065974236 1.21065974236 1.21065974236
         1.22481036186 1.22481036186 1.22481036186
         1.23903012276 1.23903012276 1.23903012276
         1.25343215466 1.25343215466 1.25343215466
         1.2679412365 1.2679412365 1.2679412365
         1.28263616562 1.28263616562 1.28263616562
         1.29747724533 1.29747724533 1.29747724533
         1.3124666214 1.3124666214 1.3124666214
         1.32760727406 1.32760727406 1.32760727406
         1.34289872646 1.34289872646 1.34289872646
         1.3583407402 1.3583407402 1.3583407402
         1.3739387989 1.3739387989 1.3739387989
         1.38968992233 1.38968992233 1.38968992233
         1.40559470654 1.40559470654 1.40559470654
         1.42165875435 1.42165875435 1.42165875435
         1.43792498112 1.43792498112 1.43792498112
         1.45430314541 1.45430314541 1.45430314541
         1.470890522 1.470890522 1.470890522
         1.48759102821 1.48759102821 1.48759102821
         1.50450062752 1.50450062752 1.50450062752
         1.5215767622 1.5215767622 1.5215767622
         1.53881633282 1.53881633282 1.53881633282
         1.55617547035 1.55617547035 1.55617547035
         1.57379710674 1.57379710674 1.57379710674
         1.59154343605 1.59154343605 1.59154343605
         1.60945832729 1.60945832729 1.60945832729
         1.62759172916 1.62759172916 1.62759172916
         1.64585113525 1.64585113525 1.64585113525
         1.66433668137 1.66433668137 1.66433668137
         1.68299555779 1.68299555779 1.68299555779
         1.7018301487 1.7018301487 1.7018301487
         1.72090041637 1.72090041637 1.72090041637
         1.74004113674 1.74004113674 1.74004113674
         1.75947332382 1.75947332382 1.75947332382
         1.77908146381 1.77908146381 1.77908146381
         1.79888093472 1.79888093472 1.79888093472
         1.81886255741 1.81886255741 1.81886255741
         1.83902859688 1.83902859688 1.83902859688
         1.85944652557 1.85944652557 1.85944652557
         1.87998914719 1.87998914719 1.87998914719
         1.90078747272 1.90078747272 1.90078747272
         1.92177522182 1.92177522182 1.92177522182
         1.94295811653 1.94295811653 1.94295811653
         1.96433448792 1.96433448792 1.96433448792
         1.98596906662 1.98596906662 1.98596906662
         2.0077381134 2.0077381134 2.0077381134
         2.02983665466 2.02983665466 2.02983665466
         2.05207276344 2.05207276344 2.05207276344
         2.07450723648 2.07450723648 2.07450723648
         2.09721159935 2.09721159935 2.09721159935
         2.12005901337 2.12005901337 2.12005901337
         2.14324736595 2.14324736595 2.14324736595
         2.16657376289 2.16657376289 2.16657376289
         2.19018149376 2.19018149376 2.19018149376
         2.21400308609 2.21400308609 2.21400308609
         2.2380399704 2.2380399704 2.2380399704
         2.26228713989 2.26228713989 2.26228713989
         2.28682494164 2.28682494164 2.28682494164
         2.31150579453 2.31150579453 2.31150579453
         2.33655786514 2.33655786514 2.33655786514
         2.36175632477 2.36175632477 2.36175632477
         2.3872525692 2.3872525692 2.3872525692
         2.41297101974 2.41297101974 2.41297101974
         2.43892335892 2.43892335892 2.43892335892
         2.46517705917 2.46517705917 2.46517705917
         2.49158406258 2.49158406258 2.49158406258
         2.51838302612 2.51838302612 2.51838302612
         2.5453312397 2.5453312397 2.5453312397
         2.57251572609 2.57251572609 2.57251572609
         2.60001993179 2.60001993179 2.60001993179
         2.62784862518 2.62784862518 2.62784862518
         2.65583467484 2.65583467484 2.65583467484
         2.68414950371 2.68414950371 2.68414950371
         2.71270370483 2.71270370483 2.71270370483
         2.74159193039 2.74159193039 2.74159193039
         2.77073073387 2.77073073387 2.77073073387
         2.80012059212 2.80012059212 2.80012059212
         2.82985329628 2.82985329628 2.82985329628
         2.85974287987 2.85974287987 2.85974287987
         2.89008069038 2.89008069038 2.89008069038
         2.92057657242 2.92057657242 2.92057657242
         2.95142769814 2.95142769814 2.95142769814
         2.9825398922 2.9825398922 2.9825398922
         3.01391553879 3.01391553879 3.01391553879
         3.04565572739 3.04565572739 3.04565572739
         3.0777630806 3.0777630806 3.0777630806
         3.11003351212 3.11003351212 3.11003351212
         3.1426846981 3.1426846981 3.1426846981
