aces_1.0.0/luts/Dolby_PQ_48_nits_Shaper_to_linear.spi1d
Version 1
From 0.000000 1.000000
Length 1024
Components 3
{
         0.00198873784393 0.00198873784393 0.00198873784393
         0.001988803735 0.001988803735 0.001988803735
         0.00198895134963 0.00198895134963 0.00198895134963
         0.00198916532099 0.00198916532099 0.00198916532099
         0.00198944075964 0.00198944075964 0.00198944075964
         0.0019897762686 0.0019897762686 0.0019897762686
         0.00199017114937 0.00199017114937 0.00199017114937
         0.00199062516913 0.00199062516913 0.00199062516913
         0.0019911385607 0.0019911385607 0.0019911385607
         0.0019917122554 0.0019917122554 0.0019917122554
         0.00199234648608 0.00199234648608 0.00199234648608
         0.00199304218404 0.00199304218404 0.00199304218404
         0.00199380051345 0.00199380051345 0.00199380051345
         0.00199462217279 0.00199462217279 0.00199462217279
         0.00199550832622 0.00199550832622 0.00199550832622
         0.00199646013789 0.00199646013789 0.00199646013789
         0.00199747830629 0.00199747830629 0.00199747830629
         0.00199856446125 0.00199856446125 0.00199856446125
         0.0019997197669 0.0019997197669 0.0019997197669
         0.00200094538741 0.00200094538741 0.00200094538741
         0.00200224248692 0.00200224248692 0.00200224248692
         0.00200361246243 0.00200361246243 0.00200361246243
         0.00200505671091 0.00200505671091 0.00200505671091
         0.00200657639652 0.00200657639652 0.00200657639652
         0.00200817268342 0.00200817268342 0.00200817268342
         0.00200984743424 0.00200984743424 0.00200984743424
         0.00201160181314 0.00201160181314 0.00201160181314
         0.00201343744993 0.00201343744993 0.00201343744993
         0.00201535527594 0.00201535527594 0.00201535527594
         0.00201735715382 0.00201735715382 0.00201735715382
         0.00201944471337 0.00201944471337 0.00201944471337
         0.00202161888592 0.00202161888592 0.00202161888592
         0.00202388153411 0.00202388153411 0.00202388153411
         0.00202623428777 0.00202623428777 0.00202623428777
         0.00202867900953 0.00202867900953 0.00202867900953
         0.00203121616505 0.00203121616505 0.00203121616505
         0.00203384854831 0.00203384854831 0.00203384854831
         0.00203657709062 0.00203657709062 0.00203657709062
         0.00203940272331 0.00203940272331 0.00203940272331
         0.00204232917167 0.00204232917167 0.00204232917167
         0.0020453564357 0.0020453564357 0.0020453564357
         0.00204848637804 0.00204848637804 0.00204848637804
         0.00205172086135 0.00205172086135 0.00205172086135
         0.00205506151542 0.00205506151542 0.00205506151542
         0.00205851066858 0.00205851066858 0.00205851066858
         0.00206206995063 0.00206206995063 0.00206206995063
         0.00206574099138 0.00206574099138 0.00206574099138
         0.00206952402368 0.00206952402368 0.00206952402368
         0.00207342393696 0.00207342393696 0.00207342393696
         0.0020774397999 0.0020774397999 0.0020774397999
         0.00208157487214 0.00208157487214 0.00208157487214
         0.00208582985215 0.00208582985215 0.00208582985215
         0.00209020753391 0.00209020753391 0.00209020753391
         0.00209471117705 0.00209471117705 0.00209471117705
         0.0020993410144 0.0020993410144 0.0020993410144
         0.00210409727879 0.00210409727879 0.00210409727879
         0.00210898555815 0.00210898555815 0.00210898555815
         0.00211400748231 0.00211400748231 0.00211400748231
         0.00211916095577 0.00211916095577 0.00211916095577
         0.00212445296347 0.00212445296347 0.00212445296347
         0.00212988094427 0.00212988094427 0.00212988094427
         0.00213545188308 0.00213545188308 0.00213545188308
         0.00214116484858 0.00214116484858 0.00214116484858
         0.00214702216908 0.00214702216908 0.00214702216908
         0.00215302570723 0.00215302570723 0.00215302570723
         0.00215917779133 0.00215917779133 0.00215917779133
         0.00216548424214 0.00216548424214 0.00216548424214
         0.00217194180004 0.00217194180004 0.00217194180004
         0.00217855302617 0.00217855302617 0.00217855302617
         0.00218532397412 0.00218532397412 0.00218532397412
         0.00219225464389 0.00219225464389 0.00219225464389
         0.00219934852794 0.00219934852794 0.00219934852794
         0.00220660539344 0.00220660539344 0.00220660539344
         0.00221403199248 0.00221403199248 0.00221403199248
         0.00222162576392 0.00222162576392 0.00222162576392
         0.00222939369269 0.00222939369269 0.00222939369269
         0.00223733251914 0.00223733251914 0.00223733251914
         0.00224545039237 0.00224545039237 0.00224545039237
         0.00225374684669 0.00225374684669 0.00225374684669
         0.00226222304627 0.00226222304627 0.00226222304627
         0.00227088294923 0.00227088294923 0.00227088294923
         0.00227973237634 0.00227973237634 0.00227973237634
         0.00228877109475 0.00228877109475 0.00228877109475
         0.0022980007343 0.0022980007343 0.0022980007343
         0.00230741966516 0.00230741966516 0.00230741966516
         0.00231704046018 0.00231704046018 0.00231704046018
         0.00232686358504 0.00232686358504 0.00232686358504
         0.00233688345179 0.00233688345179 0.00233688345179
         0.00234710634686 0.00234710634686 0.00234710634686
         0.00235754507594 0.00235754507594 0.00235754507594
         0.00236818846315 0.00236818846315 0.00236818846315
         0.0023790425621 0.0023790425621 0.0023790425621
         0.00239012250677 0.00239012250677 0.00239012250677
         0.00240141432732 0.00240141432732 0.00240141432732
         0.0024129266385 0.0024129266385 0.0024129266385
         0.00242466712371 0.00242466712371 0.00242466712371
         0.00243663601577 0.00243663601577 0.00243663601577
         0.00244882749394 0.00244882749394 0.00244882749394
         0.00246126600541 0.00246126600541 0.00246126600541
         0.00247392756864 0.00247392756864 0.00247392756864
         0.00248683756217 0.00248683756217 0.00248683756217
         0.00249998178333 0.00249998178333 0.00249998178333
         0.00251337722875 0.00251337722875 0.00251337722875
         0.00252702552825 0.00252702552825 0.00252702552825
         0.00254091876559 0.00254091876559 0.00254091876559
         0.00255506718531 0.00255506718531 0.00255506718531
         0.00256948312744 0.00256948312744 0.00256948312744
         0.00258415704593 0.00258415704593 0.00258415704593
         0.00259908800945 0.00259908800945 0.00259908800945
         0.00261429208331 0.00261429208331 0.00261429208331
         0.00262977788225 0.00262977788225 0.00262977788225
         0.00264552561566 0.00264552561566 0.00264552561566
         0.00266154715791 0.00266154715791 0.00266154715791
         0.00267787138 0.00267787138 0.00267787138
         0.00269445846789 0.00269445846789 0.00269445846789
         0.00271133589558 0.00271133589558 0.00271133589558
         0.00272851949558 0.00272851949558 0.00272851949558
         0.00274599832483 0.00274599832483 0.00274599832483
         0.00276377284899 0.00276377284899 0.00276377284899
         0.00278184609488 0.00278184609488 0.00278184609488
         0.00280022900552 0.00280022900552 0.00280022900552
         0.00281892996281 0.00281892996281 0.00281892996281
         0.00283794733696 0.00283794733696 0.00283794733696
         0.00285726762377 0.00285726762377 0.00285726762377
         0.00287690665573 0.00287690665573 0.00287690665573
         0.00289688492194 0.00289688492194 0.00289688492194
         0.00291718682274 0.00291718682274 0.00291718682274
         0.00293783145025 0.00293783145025 0.00293783145025
         0.0029588053003 0.0029588053003 0.0029588053003
         0.00298012467101 0.00298012467101 0.00298012467101
         0.00300179142505 0.00300179142505 0.00300179142505
         0.00302381301299 0.00302381301299 0.00302381301299
         0.00304618757218 0.00304618757218 0.00304618757218
         0.00306891743094 0.00306891743094 0.00306891743094
         0.00309200352058 0.00309200352058 0.00309200352058
         0.00311545049772 0.00311545049772 0.00311545049772
         0.00313927745447 0.00313927745447 0.00313927745447
         0.00316347088665 0.00316347088665 0.00316347088665
         0.00318805198185 0.00318805198185 0.00318805198185
         0.00321302283555 0.00321302283555 0.00321302283555
         0.0032383853104 0.0032383853104 0.0032383853104
         0.00326412147842 0.00326412147842 0.00326412147842
         0.00329025229439 0.00329025229439 0.00329025229439
         0.00331681314856 0.00331681314856 0.00331681314856
         0.00334377307445 0.00334377307445 0.00334377307445
         0.00337114278227 0.00337114278227 0.00337114278227
         0.00339891482145 0.00339891482145 0.00339891482145
         0.00342713110149 0.00342713110149 0.00342713110149
         0.00345572642982 0.00345572642982 0.00345572642982
         0.0034847939387 0.0034847939387 0.0034847939387
         0.00351428519934 0.00351428519934 0.00351428519934
         0.00354421837255 0.00354421837255 0.00354421837255
         0.00357457716018 0.00357457716018 0.00357457716018
         0.00360542349517 0.00360542349517 0.00360542349517
         0.00363669986837 0.00363669986837 0.00363669986837
         0.00366843189113 0.00366843189113 0.00366843189113
         0.00370066985488 0.00370066985488 0.00370066985488
         0.00373333506286 0.00373333506286 0.00373333506286
         0.00376651296392 0.00376651296392 0.00376651296392
         0.00380016188137 0.00380016188137 0.00380016188137
         0.0038342513144 0.0038342513144 0.0038342513144
         0.00386889581569 0.00386889581569 0.00386889581569
         0.00390398548916 0.00390398548916 0.00390398548916
         0.00393959879875 0.00393959879875 0.00393959879875
         0.0039757443592 0.0039757443592 0.0039757443592
         0.0040123811923 0.0040123811923 0.0040123811923
         0.00404955260456 0.00404955260456 0.00404955260456
         0.00408722367138 0.00408722367138 0.00408722367138
         0.00412544189021 0.00412544189021 0.00412544189021
         0.00416420400143 0.00416420400143 0.00416420400143
         0.00420351978391 0.00420351978391 0.00420351978391
         0.00424334593117 0.00424334593117 0.00424334593117
         0.00428373226896 0.00428373226896 0.00428373226896
         0.00432472769171 0.00432472769171 0.00432472769171
         0.00436624418944 0.00436624418944 0.00436624418944
         0.00440838513896 0.00440838513896 0.00440838513896
         0.00445104390383 0.00445104390383 0.00445104390383
         0.00449428614229 0.00449428614229 0.00449428614229
         0.00453816540539 0.00453816540539 0.00453816540539
         0.0045826304704 0.0045826304704 0.0045826304704
         0.0046276813373 0.0046276813373 0.0046276813373
         0.00467339344323 0.00467339344323 0.00467339344323
         0.00471969880164 0.00471969880164 0.00471969880164
         0.00476654525846 0.00476654525846 0.00476654525846
         0.0048141204752 0.0048141204752 0.0048141204752
         0.00486236996949 0.00486236996949 0.00486236996949
         0.00491116568446 0.00491116568446 0.00491116568446
         0.00496064964682 0.00496064964682 0.00496064964682
         0.00501074641943 0.00501074641943 0.00501074641943
         0.00506160594523 0.00506160594523 0.00506160594523
         0.00511302798986 0.00511302798986 0.00511302798986
         0.00516522489488 0.00516522489488 0.00516522489488
         0.00521812401712 0.00521812401712 0.00521812401712
         0.00527166714892 0.00527166714892 0.00527166714892
         0.00532585754991 0.00532585754991 0.00532585754991
         0.00538083771244 0.00538083771244 0.00538083771244
         0.00543647818267 0.00543647818267 0.00543647818267
         0.00549284322187 0.00549284322187 0.00549284322187
         0.00555002689362 0.00555002689362 0.00555002689362
         0.00560788204893 0.00560788204893 0.00560788204893
         0.0056664859876 0.0056664859876 0.0056664859876
         0.00572584569454 0.00572584569454 0.00572584569454
         0.00578596070409 0.00578596070409 0.00578596070409
         0.0058469325304 0.0058469325304 0.0058469325304
         0.00590858142823 0.00590858142823 0.00590858142823
         0.00597101729363 0.00597101729363 0.00597101729363
         0.0060343099758 0.0060343099758 0.0060343099758
         0.00609831092879 0.00609831092879 0.00609831092879
         0.0061631957069 0.0061631957069 0.0061631957069
         0.00622887490317 0.00622887490317 0.00622887490317
         0.00629545981064 0.00629545981064 0.00629545981064
         0.00636274553835 0.00636274553835 0.00636274553835
         0.00643096491694 0.00643096491694 0.00643096491694
         0.00649998616427 0.00649998616427 0.00649998616427
         0.00656994152814 0.00656994152814 0.00656994152814
         0.00664073927328 0.00664073927328 0.00664073927328
         0.00671236496419 0.00671236496419 0.00671236496419
         0.00678495038301 0.00678495038301 0.00678495038301
         0.00685837585479 0.00685837585479 0.00685837585479
         0.00693277036771 0.00693277036771 0.00693277036771
         0.00700803333893 0.00700803333893 0.00700803333893
         0.00708426441997 0.00708426441997 0.00708426441997
         0.00716137420386 0.00716137420386 0.00716137420386
         0.00723948236555 0.00723948236555 0.00723948236555
         0.00731847761199 0.00731847761199 0.00731847761199
         0.00739848520607 0.00739848520607 0.00739848520607
         0.00747951446101 0.00747951446101 0.00747951446101
         0.00756143499166 0.00756143499166 0.00756143499166
         0.00764440372586 0.00764440372586 0.00764440372586
         0.0077284197323 0.0077284197323 0.0077284197323
         0.00781335495412 0.00781335495412 0.00781335495412
         0.00789934769273 0.00789934769273 0.00789934769273
         0.00798641145229 0.00798641145229 0.00798641145229
         0.00807454902679 0.00807454902679 0.00807454902679
         0.00816362723708 0.00816362723708 0.00816362723708
         0.00825381092727 0.00825381092727 0.00825381092727
         0.00834509171546 0.00834509171546 0.00834509171546
         0.00843748450279 0.00843748450279 0.00843748450279
         0.00853083282709 0.00853083282709 0.00853083282709
         0.00862531829625 0.00862531829625 0.00862531829625
         0.00872111134231 0.00872111134231 0.00872111134231
         0.00881786365062 0.00881786365062 0.00881786365062
         0.0089157782495 0.0089157782495 0.0089157782495
         0.00901502929628 0.00901502929628 0.00901502929628
         0.0091152805835 0.0091152805835 0.0091152805835
         0.00921671837568 0.00921671837568 0.00921671837568
         0.0093193333596 0.0093193333596 0.0093193333596
         0.00942315720022 0.00942315720022 0.00942315720022
         0.00952817033976 0.00952817033976 0.00952817033976
         0.00963440909982 0.00963440909982 0.00963440909982
         0.00974206626415 0.00974206626415 0.00974206626415
         0.00985075440258 0.00985075440258 0.00985075440258
         0.00996090378612 0.00996090378612 0.00996090378612
         0.0100720971823 0.0100720971823 0.0100720971823
         0.0101845357567 0.0101845357567 0.0101845357567
         0.0102984672412 0.0102984672412 0.0102984672412
         0.0104136606678 0.0104136606678 0.0104136606678
         0.0105301495641 0.0105301495641 0.0105301495641
         0.0106479367241 0.0106479367241 0.0106479367241
         0.0107672493905 0.0107672493905 0.0107672493905
         0.0108876703307 0.0108876703307 0.0108876703307
         0.0110096335411 0.0110096335411 0.0110096335411
         0.011132937856 0.011132937856 0.011132937856
         0.0112575637177 0.0112575637177 0.0112575637177
         0.0113837989047 0.0113837989047 0.0113837989047
         0.0115114012733 0.0115114012733 0.0115114012733
         0.011640381068 0.011640381068 0.011640381068
         0.0117709860206 0.0117709860206 0.0117709860206
         0.0119027374312 0.0119027374312 0.0119027374312
         0.0120361410081 0.0120361410081 0.0120361410081
         0.012170959264 0.012170959264 0.012170959264
         0.0123074743897 0.0123074743897 0.0123074743897
         0.0124456835911 0.0124456835911 0.0124456835911
         0.0125850494951 0.0125850494951 0.0125850494951
         0.012726187706 0.012726187706 0.012726187706
         0.012868758291 0.012868758291 0.012868758291
         0.0130130955949 0.0130130955949 0.0130130955949
         0.0131586128846 0.0131586128846 0.0131586128846
         0.0133062331006 0.0133062331006 0.0133062331006
         0.0134553331882 0.0134553331882 0.0134553331882
         0.0136059653014 0.0136059653014 0.0136059653014
         0.0137584153563 0.0137584153563 0.0137584153563
         0.0139124263078 0.0139124263078 0.0139124263078
         0.0140682766214 0.0140682766214 0.0140682766214
         0.0142257139087 0.0142257139087 0.0142257139087
         0.0143850175664 0.0143850175664 0.0143850175664
         0.0145458988845 0.0145458988845 0.0145458988845
         0.0147087052464 0.0147087052464 0.0147087052464
         0.0148731078953 0.0148731078953 0.0148731078953
         0.015039476566 0.015039476566 0.015039476566
         0.015207791701 0.015207791701 0.015207791701
         0.0153777655214 0.0153777655214 0.0153777655214
         0.0155497556552 0.0155497556552 0.0155497556552
         0.0157233923674 0.0157233923674 0.0157233923674
         0.0158986672759 0.0158986672759 0.0158986672759
         0.0160760059953 0.0160760059953 0.0160760059953
         0.016255415976 0.016255415976 0.016255415976
         0.0164369232953 0.0164369232953 0.0164369232953
         0.0166201330721 0.0166201330721 0.0166201330721
         0.0168054625392 0.0168054625392 0.0168054625392
         0.0169925056398 0.0169925056398 0.0169925056398
         0.0171817019582 0.0171817019582 0.0171817019582
         0.0173730812967 0.0173730812967 0.0173730812967
         0.0175666548312 0.0175666548312 0.0175666548312
         0.0177619941533 0.0177619941533 0.0177619941533
         0.0179596021771 0.0179596021771 0.0179596021771
         0.0181594192982 0.0181594192982 0.0181594192982
         0.0183610245585 0.0183610245585 0.0183610245585
         0.0185649506748 0.0185649506748 0.0185649506748
         0.0187711417675 0.0187711417675 0.0187711417675
         0.0189791917801 0.0189791917801 0.0189791917801
         0.0191895738244 0.0191895738244 0.0191895738244
         0.0194023102522 0.0194023102522 0.0194023102522
         0.0196174159646 0.0196174159646 0.0196174159646
         0.0198349282146 0.0198349282146 0.0198349282146
         0.0200543068349 0.0200543068349 0.0200543068349
         0.0202761664987 0.0202761664987 0.0202761664987
         0.0205004326999 0.0205004326999 0.0205004326999
         0.020726647228 0.020726647228 0.020726647228
         0.0209559053183 0.0209559053183 0.0209559053183
         0.0211871005595 0.0211871005595 0.0211871005595
         0.0214208178222 0.0214208178222 0.0214208178222
         0.0216570831835 0.0216570831835 0.0216570831835
         0.021895956248 0.021895956248 0.021895956248
         0.0221368148923 0.0221368148923 0.0221368148923
         0.0223808214068 0.0223808214068 0.0223808214068
         0.0226268991828 0.0226268991828 0.0226268991828
         0.0228756591678 0.0228756591678 0.0228756591678
         0.0231270268559 0.0231270268559 0.0231270268559
         0.0233811289072 0.0233811289072 0.0233811289072
         0.023637291044 0.023637291044 0.023637291044
         0.0238968171179 0.0238968171179 0.0238968171179
         0.0241590961814 0.0241590961814 0.0241590961814
         0.0244235172868 0.0244235172868 0.0244235172868
         0.0246913582087 0.0246913582087 0.0246913582087
         0.0249613709748 0.0249613709748 0.0249613709748
         0.0252342149615 0.0252342149615 0.0252342149615
         0.0255099646747 0.0255099646747 0.0255099646747
         0.0257885083556 0.0257885083556 0.0257885083556
         0.0260700248182 0.0260700248182 0.0260700248182
         0.0263544358313 0.0263544358313 0.0263544358313
         0.0266418606043 0.0266418606043 0.0266418606043
         0.0269321724772 0.0269321724772 0.0269321724772
         0.0272255502641 0.0272255502641 0.0272255502641
         0.0275219157338 0.0275219157338 0.0275219157338
         0.0278205834329 0.0278205834329 0.0278205834329
         0.0281231068075 0.0281231068075 0.0281231068075
         0.028428632766 0.028428632766 0.028428632766
         0.0287365578115 0.0287365578115 0.0287365578115
         0.0290492027998 0.0290492027998 0.0290492027998
         0.0293633826077 0.0293633826077 0.0293633826077
         0.0296815857291 0.0296815857291 0.0296815857291
         0.0300021544099 0.0300021544099 0.0300021544099
         0.0303268320858 0.0303268320858 0.0303268320858
         0.0306547358632 0.0306547358632 0.0306547358632
         0.030985917896 0.030985917896 0.030985917896
         0.0313204415143 0.0313204415143 0.0313204415143
         0.031658295542 0.031658295542 0.031658295542
         0.031999476254 0.031999476254 0.031999476254
         0.0323441065848 0.0323441065848 0.0323441065848
         0.0326921157539 0.0326921157539 0.0326921157539
         0.033043526113 0.033043526113 0.033043526113
         0.0333984494209 0.0333984494209 0.0333984494209
         0.0337578430772 0.0337578430772 0.0337578430772
         0.0341197103262 0.0341197103262 0.0341197103262
         0.0344861969352 0.0344861969352 0.0344861969352
         0.0348551832139 0.0348551832139 0.0348551832139
         0.035228792578 0.035228792578 0.035228792578
         0.0356060788035 0.0356060788035 0.0356060788035
         0.0359869785607 0.0359869785607 0.0359869785607
         0.0363705158234 0.0363705158234 0.0363705158234
         0.0367598570883 0.0367598570883 0.0367598570883
         0.0371519476175 0.0371519476175 0.0371519476175
         0.0375477671623 0.0375477671623 0.0375477671623
         0.0379484146833 0.0379484146833 0.0379484146833
         0.0383518449962 0.0383518449962 0.0383518449962
         0.0387602709234 0.0387602709234 0.0387602709234
         0.039172526449 0.039172526449 0.039172526449
         0.0395886674523 0.0395886674523 0.0395886674523
         0.0400100126863 0.0400100126863 0.0400100126863
         0.0404329150915 0.0404329150915 0.0404329150915
         0.0408622585237 0.0408622585237 0.0408622585237
         0.0412954874337 0.0412954874337 0.0412954874337
         0.0417329445481 0.0417329445481 0.0417329445481
         0.0421744287014 0.0421744287014 0.0421744287014
         0.042619984597 0.042619984597 0.042619984597
         0.0430711060762 0.0430711060762 0.0430711060762
         0.0435249842703 0.0435249842703 0.0435249842703
         0.0439845100045 0.0439845100045 0.0439845100045
         0.0444482192397 0.0444482192397 0.0444482192397
         0.0449162423611 0.0449162423611 0.0449162423611
         0.0453885421157 0.0453885421157 0.0453885421157
         0.0458665452898 0.0458665452898 0.0458665452898
         0.0463475175202 0.0463475175202 0.0463475175202
         0.0468357726932 0.0468357726932 0.0468357726932
         0.047327067703 0.047327067703 0.047327067703
         0.0478227436543 0.0478227436543 0.0478227436543
         0.04832438007 0.04832438007 0.04832438007
         0.0488291829824 0.0488291829824 0.0488291829824
         0.0493415147066 0.0493415147066 0.0493415147066
         0.0498568974435 0.0498568974435 0.0498568974435
         0.0503784939647 0.0503784939647 0.0503784939647
         0.0509048178792 0.0509048178792 0.0509048178792
         0.0514358989894 0.0514358989894 0.0514358989894
         0.051971629262 0.051971629262 0.051971629262
         0.0525137744844 0.0525137744844 0.0525137744844
         0.0530590824783 0.0530590824783 0.0530590824783
         0.0536125935614 0.0536125935614 0.0536125935614
         0.0541693344712 0.0541693344712 0.0541693344712
