aces_1.0.0/luts/LMT_Shaper_to_linear.spi1d
Version 1
From 0.000000 1.000000
Length 4096
Components 3
{
         0.000175781256985 0.000175781256985 0.000175781256985
         0.000176272878889 0.000176272878889 0.000176272878889
         0.000176765883225 0.000176765883225 0.000176765883225
         0.000177260240889 0.000177260240889 0.000177260240889
         0.000177756010089 0.000177756010089 0.000177756010089
         0.000178253161721 0.000178253161721 0.000178253161721
         0.000178751695785 0.000178751695785 0.000178751695785
         0.00017925161228 0.00017925161228 0.00017925161228
         0.000179752954864 0.000179752954864 0.000179752954864
         0.000180255679879 0.000180255679879 0.000180255679879
         0.000180759816431 0.000180759816431 0.000180759816431
         0.000181265364517 0.000181265364517 0.000181265364517
         0.00018177232414 0.00018177232414 0.00018177232414
         0.000182280695299 0.000182280695299 0.000182280695299
         0.000182790492545 0.000182790492545 0.000182790492545
         0.000183301730431 0.000183301730431 0.000183301730431
         0.000183814496268 0.000183814496268 0.000183814496268
         0.000184328600881 0.000184328600881 0.000184328600881
         0.000184844131581 0.000184844131581 0.000184844131581
         0.00018536108837 0.00018536108837 0.00018536108837
         0.00018587950035 0.00018587950035 0.00018587950035
         0.000186399367522 0.000186399367522 0.000186399367522
         0.000186920675333 0.000186920675333 0.000186920675333
         0.000187443467439 0.000187443467439 0.000187443467439
         0.000187967700185 0.000187967700185 0.000187967700185
         0.000188493402675 0.000188493402675 0.000188493402675
         0.000189020574908 0.000189020574908 0.000189020574908
         0.000189549231436 0.000189549231436 0.000189549231436
         0.000190079357708 0.000190079357708 0.000190079357708
         0.000190610953723 0.000190610953723 0.000190610953723
         0.000191144077689 0.000191144077689 0.000191144077689
         0.000191678642295 0.000191678642295 0.000191678642295
         0.000192214734852 0.000192214734852 0.000192214734852
         0.000192752326257 0.000192752326257 0.000192752326257
         0.000193291416508 0.000193291416508 0.000193291416508
         0.000193832005607 0.000193832005607 0.000193832005607
         0.000194374093553 0.000194374093553 0.000194374093553
         0.000194917724002 0.000194917724002 0.000194917724002
         0.00019546286785 0.00019546286785 0.00019546286785
         0.00019600953965 0.00019600953965 0.00019600953965
         0.0001965577394 0.0001965577394 0.0001965577394
         0.00019710745255 0.00019710745255 0.00019710745255
         0.000197658737306 0.000197658737306 0.000197658737306
         0.000198211550014 0.000198211550014 0.000198211550014
         0.000198765905225 0.000198765905225 0.000198765905225
         0.00019932181749 0.00019932181749 0.00019932181749
         0.000199879272259 0.000199879272259 0.000199879272259
         0.000200438284082 0.000200438284082 0.000200438284082
         0.000200998983928 0.000200998983928 0.000200998983928
         0.000201561138965 0.000201561138965 0.000201561138965
         0.000202124865609 0.000202124865609 0.000202124865609
         0.00020269016386 0.00020269016386 0.00020269016386
         0.00020325704827 0.00020325704827 0.00020325704827
         0.000203825518838 0.000203825518838 0.000203825518838
         0.000204395561013 0.000204395561013 0.000204395561013
         0.000204967233003 0.000204967233003 0.000204967233003
         0.0002055404766 0.0002055404766 0.0002055404766
         0.000206115320907 0.000206115320907 0.000206115320907
         0.000206691795029 0.000206691795029 0.000206691795029
         0.000207269840757 0.000207269840757 0.000207269840757
         0.000207849545404 0.000207849545404 0.000207849545404
         0.000208430850762 0.000208430850762 0.000208430850762
         0.000209013785934 0.000209013785934 0.000209013785934
         0.000209598365473 0.000209598365473 0.000209598365473
         0.000210184545722 0.000210184545722 0.000210184545722
         0.000210772399441 0.000210772399441 0.000210772399441
         0.000211361897527 0.000211361897527 0.000211361897527
         0.000211953025428 0.000211953025428 0.000211953025428
         0.000212545812246 0.000212545812246 0.000212545812246
         0.000213140257983 0.000213140257983 0.000213140257983
         0.000213736362639 0.000213736362639 0.000213736362639
         0.000214334140765 0.000214334140765 0.000214334140765
         0.000214933563257 0.000214933563257 0.000214933563257
         0.000215534702875 0.000215534702875 0.000215534702875
         0.000216137501411 0.000216137501411 0.000216137501411
         0.00021674198797 0.00021674198797 0.00021674198797
         0.00021734816255 0.00021734816255 0.00021734816255
         0.000217956039705 0.000217956039705 0.000217956039705
         0.000218565633986 0.000218565633986 0.000218565633986
         0.000219177047256 0.000219177047256 0.000219177047256
         0.000219790046685 0.000219790046685 0.000219790046685
         0.000220404748688 0.000220404748688 0.000220404748688
         0.000221021182369 0.000221021182369 0.000221021182369
         0.000221639318625 0.000221639318625 0.000221639318625
         0.000222259201109 0.000222259201109 0.000222259201109
         0.00022288080072 0.00022288080072 0.00022288080072
         0.000223504146561 0.000223504146561 0.000223504146561
         0.000224129253183 0.000224129253183 0.000224129253183
         0.000224756091484 0.000224756091484 0.000224756091484
         0.000225384690566 0.000225384690566 0.000225384690566
         0.000226015035878 0.000226015035878 0.000226015035878
         0.000226647156524 0.000226647156524 0.000226647156524
         0.000227281037951 0.000227281037951 0.000227281037951
         0.000227916694712 0.000227916694712 0.000227916694712
         0.000228554126807 0.000228554126807 0.000228554126807
         0.000229193348787 0.000229193348787 0.000229193348787
         0.000229834346101 0.000229834346101 0.000229834346101
         0.0002304771333 0.0002304771333 0.0002304771333
         0.000231121754041 0.000231121754041 0.000231121754041
         0.000231768135563 0.000231768135563 0.000231768135563
         0.000232416336075 0.000232416336075 0.000232416336075
         0.000233066355577 0.000233066355577 0.000233066355577
         0.000233718194067 0.000233718194067 0.000233718194067
         0.000234371851548 0.000234371851548 0.000234371851548
         0.000235027342569 0.000235027342569 0.000235027342569
         0.000235684667132 0.000235684667132 0.000235684667132
         0.000236343825236 0.000236343825236 0.000236343825236
         0.000237004816881 0.000237004816881 0.000237004816881
         0.000237667685724 0.000237667685724 0.000237667685724
         0.000238332388108 0.000238332388108 0.000238332388108
         0.000238998938585 0.000238998938585 0.000238998938585
         0.000239667366259 0.000239667366259 0.000239667366259
         0.000240337845753 0.000240337845753 0.000240337845753
         0.000241009998717 0.000241009998717 0.000241009998717
         0.000241684057983 0.000241684057983 0.000241684057983
         0.000242359994445 0.000242359994445 0.000242359994445
         0.000243037822656 0.000243037822656 0.000243037822656
         0.000243717542617 0.000243717542617 0.000243717542617
         0.000244399154326 0.000244399154326 0.000244399154326
         0.000245082715992 0.000245082715992 0.000245082715992
         0.000245768140303 0.000245768140303 0.000245768140303
         0.000246455485467 0.000246455485467 0.000246455485467
         0.000247144780587 0.000247144780587 0.000247144780587
         0.000247835996561 0.000247835996561 0.000247835996561
         0.000248529133387 0.000248529133387 0.000248529133387
         0.00024922422017 0.00024922422017 0.00024922422017
         0.000249921256909 0.000249921256909 0.000249921256909
         0.000250620243605 0.000250620243605 0.000250620243605
         0.000251321151154 0.000251321151154 0.000251321151154
         0.000252024066867 0.000252024066867 0.000252024066867
         0.000252728903433 0.000252728903433 0.000252728903433
         0.000253435748164 0.000253435748164 0.000253435748164
         0.000254144542851 0.000254144542851 0.000254144542851
         0.000254855316598 0.000254855316598 0.000254855316598
         0.00025556809851 0.00025556809851 0.00025556809851
         0.000256282859482 0.000256282859482 0.000256282859482
         0.000256999628618 0.000256999628618 0.000256999628618
         0.000257718405919 0.000257718405919 0.000257718405919
         0.000258439191384 0.000258439191384 0.000258439191384
         0.000259161985014 0.000259161985014 0.000259161985014
         0.000259886815911 0.000259886815911 0.000259886815911
         0.000260613829596 0.000260613829596 0.000260613829596
         0.000261342531303 0.000261342531303 0.000261342531303
         0.000262073619524 0.000262073619524 0.000262073619524
         0.000262806599494 0.000262806599494 0.000262806599494
         0.000263541616732 0.000263541616732 0.000263541616732
         0.000264278671239 0.000264278671239 0.000264278671239
         0.000265017821221 0.000265017821221 0.000265017821221
         0.000265759008471 0.000265759008471 0.000265759008471
         0.000266502262093 0.000266502262093 0.000266502262093
         0.000267247640295 0.000267247640295 0.000267247640295
         0.000267995055765 0.000267995055765 0.000267995055765
         0.000268744566711 0.000268744566711 0.000268744566711
         0.000269496202236 0.000269496202236 0.000269496202236
         0.000270249933237 0.000270249933237 0.000270249933237
         0.000271005759714 0.000271005759714 0.000271005759714
         0.000271763681667 0.000271763681667 0.000271763681667
         0.000272523757303 0.000272523757303 0.000272523757303
         0.000273285957519 0.000273285957519 0.000273285957519
         0.000274050282314 0.000274050282314 0.000274050282314
         0.000274816731689 0.000274816731689 0.000274816731689
         0.000275585334748 0.000275585334748 0.000275585334748
         0.00027635609149 0.00027635609149 0.00027635609149
         0.000277129001915 0.000277129001915 0.000277129001915
         0.000277904066024 0.000277904066024 0.000277904066024
         0.000278681283817 0.000278681283817 0.000278681283817
         0.0002794607135 0.0002794607135 0.0002794607135
         0.000280242296867 0.000280242296867 0.000280242296867
         0.000281026092125 0.000281026092125 0.000281026092125
         0.00028181207017 0.00028181207017 0.00028181207017
         0.000282600201899 0.000282600201899 0.000282600201899
         0.000283390574623 0.000283390574623 0.000283390574623
         0.000284183188342 0.000284183188342 0.000284183188342
         0.000284977984848 0.000284977984848 0.000284977984848
         0.000285775167868 0.000285775167868 0.000285775167868
         0.00028657441726 0.00028657441726 0.00028657441726
         0.00028737593675 0.00028737593675 0.00028737593675
         0.000288179639028 0.000288179639028 0.000288179639028
         0.000288985640509 0.000288985640509 0.000288985640509
         0.000289793853881 0.000289793853881 0.000289793853881
         0.000290604337351 0.000290604337351 0.000290604337351
         0.000291417090921 0.000291417090921 0.000291417090921
         0.000292232143693 0.000292232143693 0.000292232143693
         0.00029304943746 0.00029304943746 0.00029304943746
         0.000293869030429 0.000293869030429 0.000293869030429
         0.000294690922601 0.000294690922601 0.000294690922601
         0.000295515113976 0.000295515113976 0.000295515113976
         0.000296341604553 0.000296341604553 0.000296341604553
         0.000297170423437 0.000297170423437 0.000297170423437
         0.000298001541523 0.000298001541523 0.000298001541523
         0.000298834987916 0.000298834987916 0.000298834987916
         0.000299670762615 0.000299670762615 0.000299670762615
         0.000300508865621 0.000300508865621 0.000300508865621
         0.000301349326037 0.000301349326037 0.000301349326037
         0.000302192143863 0.000302192143863 0.000302192143863
         0.0003030373191 0.0003030373191 0.0003030373191
         0.000303884851746 0.000303884851746 0.000303884851746
         0.000304734712699 0.000304734712699 0.000304734712699
         0.000305587018374 0.000305587018374 0.000305587018374
         0.00030644168146 0.00030644168146 0.00030644168146
         0.000307298731059 0.000307298731059 0.000307298731059
         0.000308158167172 0.000308158167172 0.000308158167172
         0.000309020018904 0.000309020018904 0.000309020018904
         0.000309884286253 0.000309884286253 0.000309884286253
         0.00031075096922 0.00031075096922 0.00031075096922
         0.000311620271532 0.000311620271532 0.000311620271532
         0.000312491582008 0.000312491582008 0.000312491582008
         0.000313365773764 0.000313365773764 0.000313365773764
         0.000314242206514 0.000314242206514 0.000314242206514
         0.000315121054882 0.000315121054882 0.000315121054882
         0.00031600240618 0.00031600240618 0.00031600240618
         0.000316886173096 0.000316886173096 0.000316886173096
         0.000317772442941 0.000317772442941 0.000317772442941
         0.000318661186611 0.000318661186611 0.000318661186611
         0.000319552404108 0.000319552404108 0.000319552404108
         0.000320446124533 0.000320446124533 0.000320446124533
         0.000321342347888 0.000321342347888 0.000321342347888
         0.000322241074173 0.000322241074173 0.000322241074173
         0.000323142303387 0.000323142303387 0.000323142303387
         0.000324046064634 0.000324046064634 0.000324046064634
         0.000324952357914 0.000324952357914 0.000324952357914
         0.000325861154124 0.000325861154124 0.000325861154124
         0.000326772540575 0.000326772540575 0.000326772540575
         0.000327686459059 0.000327686459059 0.000327686459059
         0.00032860293868 0.00032860293868 0.00032860293868
         0.000329521950334 0.000329521950334 0.000329521950334
         0.00033044355223 0.00033044355223 0.00033044355223
         0.000331367715262 0.000331367715262 0.000331367715262
         0.000332294497639 0.000332294497639 0.000332294497639
         0.000333223841153 0.000333223841153 0.000333223841153
         0.000334155804012 0.000334155804012 0.000334155804012
         0.000335090386216 0.000335090386216 0.000335090386216
         0.000336027529556 0.000336027529556 0.000336027529556
         0.000336967350449 0.000336967350449 0.000336967350449
         0.000337909761583 0.000337909761583 0.000337909761583
         0.000338854821166 0.000338854821166 0.000338854821166
         0.000339802529197 0.000339802529197 0.000339802529197
         0.000340752885677 0.000340752885677 0.000340752885677
         0.000341706123436 0.000341706123436 0.000341706123436
         0.000342661805917 0.000342661805917 0.000342661805917
         0.00034362016595 0.00034362016595 0.00034362016595
         0.000344581174431 0.000344581174431 0.000344581174431
         0.000345544889569 0.000345544889569 0.000345544889569
         0.000346511311363 0.000346511311363 0.000346511311363
         0.00034748041071 0.00034748041071 0.00034748041071
         0.00034845227492 0.00034845227492 0.00034845227492
         0.000349426816683 0.000349426816683 0.000349426816683
         0.000350404065102 0.000350404065102 0.000350404065102
         0.000351384078385 0.000351384078385 0.000351384078385
         0.000352366827428 0.000352366827428 0.000352366827428
         0.000353352312231 0.000353352312231 0.000353352312231
         0.000354340561898 0.000354340561898 0.000354340561898
         0.000355331576429 0.000355331576429 0.000355331576429
         0.000356325355824 0.000356325355824 0.000356325355824
         0.000357321929187 0.000357321929187 0.000357321929187
         0.000358321296517 0.000358321296517 0.000358321296517
         0.000359323457815 0.000359323457815 0.000359323457815
         0.000360328383977 0.000360328383977 0.000360328383977
         0.000361336162314 0.000361336162314 0.000361336162314
         0.000362346705515 0.000362346705515 0.000362346705515
         0.000363360129995 0.000363360129995 0.000363360129995
         0.000364376348443 0.000364376348443 0.000364376348443
         0.000365395448171 0.000365395448171 0.000365395448171
         0.000366417370969 0.000366417370969 0.000366417370969
         0.000367442145944 0.000367442145944 0.000367442145944
         0.000368469831301 0.000368469831301 0.000368469831301
         0.000369500368834 0.000369500368834 0.000369500368834
         0.000370534020476 0.000370534020476 0.000370534020476
         0.000371570087736 0.000371570087736 0.000371570087736
         0.000372609501937 0.000372609501937 0.000372609501937
         0.000373651651898 0.000373651651898 0.000373651651898
         0.000374696654035 0.000374696654035 0.000374696654035
         0.000375744595658 0.000375744595658 0.000375744595658
         0.000376795476768 0.000376795476768 0.000376795476768
         0.000377849297365 0.000377849297365 0.000377849297365
         0.000378906057449 0.000378906057449 0.000378906057449
         0.00037996575702 0.00037996575702 0.00037996575702
         0.000381028454285 0.000381028454285 0.000381028454285
         0.000382094091037 0.000382094091037 0.000382094091037
         0.000383162754588 0.000383162754588 0.000383162754588
         0.000384234386729 0.000384234386729 0.000384234386729
         0.000385308987461 0.000385308987461 0.000385308987461
         0.000386386585888 0.000386386585888 0.000386386585888
         0.000387467240216 0.000387467240216 0.000387467240216
         0.000388550892239 0.000388550892239 0.000388550892239
         0.000389637600165 0.000389637600165 0.000389637600165
         0.000390727334889 0.000390727334889 0.000390727334889
         0.000391820125515 0.000391820125515 0.000391820125515
         0.000392915942939 0.000392915942939 0.000392915942939
         0.000394014845369 0.000394014845369 0.000394014845369
         0.000395116803702 0.000395116803702 0.000395116803702
         0.000396221876144 0.000396221876144 0.000396221876144
         0.000397330004489 0.000397330004489 0.000397330004489
         0.000398441276047 0.000398441276047 0.000398441276047
         0.000399555603508 0.000399555603508 0.000399555603508
         0.000400673103286 0.000400673103286 0.000400673103286
         0.000401793717174 0.000401793717174 0.000401793717174
         0.000402917445172 0.000402917445172 0.000402917445172
         0.000404044578318 0.000404044578318 0.000404044578318
         0.000405174330808 0.000405174330808 0.000405174330808
         0.000406307779485 0.000406307779485 0.000406307779485
         0.000407443876611 0.000407443876611 0.000407443876611
         0.000408583669923 0.000408583669923 0.000408583669923
         0.000409726373618 0.000409726373618 0.000409726373618
         0.000410872307839 0.000410872307839 0.000410872307839
         0.000412021443481 0.000412021443481 0.000412021443481
         0.00041317375144 0.00041317375144 0.00041317375144
         0.000414329319028 0.000414329319028 0.000414329319028
         0.000415488117142 0.000415488117142 0.000415488117142
         0.00041665014578 0.00041665014578 0.00041665014578
         0.000417815434048 0.000417815434048 0.000417815434048
         0.000418983952841 0.000418983952841 0.000418983952841
         0.00042015578947 0.00042015578947 0.00042015578947
         0.000421330827521 0.000421330827521 0.000421330827521
         0.000422509212513 0.000422509212513 0.000422509212513
         0.000423690886237 0.000423690886237 0.000423690886237
         0.000424875848694 0.000424875848694 0.000424875848694
         0.000426064128987 0.000426064128987 0.000426064128987
         0.000427255756222 0.000427255756222 0.000427255756222
         0.000428450672189 0.000428450672189 0.000428450672189
         0.000429648993304 0.000429648993304 0.000429648993304
         0.000430850632256 0.000430850632256 0.000430850632256
         0.000432055618148 0.000432055618148 0.000432055618148
         0.000433263980085 0.000433263980085 0.000433263980085
         0.000434475718066 0.000434475718066 0.000434475718066
         0.000435690832091 0.000435690832091 0.000435690832091
         0.000436909409473 0.000436909409473 0.000436909409473
         0.000438131304691 0.000438131304691 0.000438131304691
         0.000439356663264 0.000439356663264 0.000439356663264
         0.00044058545609 0.00044058545609 0.00044058545609
         0.000441817683168 0.000441817683168 0.000441817683168
         0.00044305366464 0.00044305366464 0.00044305366464
         0.000444292469183 0.000444292469183 0.000444292469183
         0.000445535377366 0.000445535377366 0.000445535377366
         0.000446781428764 0.000446781428764 0.000446781428764
         0.00044803097262 0.00044803097262 0.00044803097262
         0.000449284038041 0.000449284038041 0.000449284038041
         0.000450540595921 0.000450540595921 0.000450540595921
         0.00045180064626 0.00045180064626 0.00045180064626
         0.000453064218163 0.000453064218163 0.000453064218163
         0.000454331369838 0.000454331369838 0.000454331369838
         0.000455602013972 0.000455602013972 0.000455602013972
         0.000456876237877 0.000456876237877 0.000456876237877
         0.000458154041553 0.000458154041553 0.000458154041553
         0.000459435395896 0.000459435395896 0.000459435395896
         0.000460720330011 0.000460720330011 0.000460720330011
         0.000462008873001 0.000462008873001 0.000462008873001
         0.000463300995762 0.000463300995762 0.000463300995762
         0.000464596756501 0.000464596756501 0.000464596756501
         0.000465896126116 0.000465896126116 0.000465896126116
         0.000467199133709 0.000467199133709 0.000467199133709
         0.000468505779281 0.000468505779281 0.000468505779281
         0.00046981612104 0.00046981612104 0.00046981612104
         0.000471130071674 0.000471130071674 0.000471130071674
         0.000472447747597 0.000472447747597 0.000472447747597
         0.0004737690615 0.0004737690615 0.0004737690615
         0.000475094071589 0.000475094071589 0.000475094071589
         0.000476422836073 0.000476422836073 0.000476422836073
         0.000477755296743 0.000477755296743 0.000477755296743
         0.000479091453599 0.000479091453599 0.000479091453599
         0.000480431393953 0.000480431393953 0.000480431393953
         0.000481775059598 0.000481775059598 0.000481775059598
         0.000483122770675 0.000483122770675 0.000483122770675
         0.000484473654069 0.000484473654069 0.000484473654069
         0.000485828961246 0.000485828961246 0.000485828961246
         0.000487187382532 0.000487187382532 0.000487187382532
         0.000488550285809 0.000488550285809 0.000488550285809
         0.000489916652441 0.000489916652441 0.000489916652441
         0.000491286860779 0.000491286860779 0.000491286860779
         0.000492660852615 0.000492660852615 0.000492660852615
         0.000494038686156 0.000494038686156 0.000494038686156
         0.000495420419611 0.000495420419611 0.000495420419611
         0.000496805994771 0.000496805994771 0.000496805994771
         0.000498195469845 0.000498195469845 0.000498195469845
         0.000499588844832 0.000499588844832 0.000499588844832
         0.000500986061525 0.000500986061525 0.000500986061525
         0.00050238717813 0.00050238717813 0.00050238717813
         0.000503792252857 0.000503792252857 0.000503792252857
         0.000505201227497 0.000505201227497 0.000505201227497
         0.000506614218466 0.000506614218466 0.000506614218466
         0.000508031109348 0.000508031109348 0.000508031109348
         0.000509451958351 0.000509451958351 0.000509451958351
