aces_1.0.0/luts/Log2_48_nits_Shaper_to_linear.spi1d
Version 1
From 0.000000 1.000000
Length 1024
Components 1
{
         0.00198873784393
         0.00200633262284
         0.00202408316545
         0.00204199063592
         0.00206005666405
         0.002078282414
         0.00209666951559
         0.00211521913297
         0.00213393289596
         0.00215281220153
         0.0021718586795
         0.00219107372686
         0.00221045850776
         0.00223001488484
         0.00224974448793
         0.00226964824833
         0.00228972849436
         0.00230998615734
         0.00233042309992
         0.00235104095191
         0.00237184111029
         0.0023928261362
         0.00241399602965
         0.00243535311893
         0.00245689926669
         0.00247863610275
         0.00250056502409
         0.00252268812619
         0.00254500680603
         0.00256752315909
         0.00259023858234
         0.00261315493844
         0.00263627409004
         0.00265959766693
         0.00268312776461
         0.00270686601289
         0.0027308142744
         0.0027549744118
         0.00277934828773
         0.00280393776484
         0.0028287449386
         0.00285377120599
         0.00287901912816
         0.00290449056774
         0.00293018738739
         0.00295611121692
         0.00298226485029
         0.00300864945166
         0.00303526758216
         0.00306212133728
         0.00308921257965
         0.00311654363759
         0.00314411637373
         0.00317193288356
         0.00319999596104
         0.00322830700316
         0.00325686833821
         0.00328568276018
         0.00331475283019
         0.00334407901391
         0.0033736648038
         0.00340351252817
         0.00343362428248
         0.00346400239505
         0.00349464896135
         0.00352556700818
         0.00355675839819
         0.00358822592534
         0.00361997168511
         0.00365199847147
         0.00368430837989
         0.00371690420434
         0.00374978873879
         0.00378296361305
         0.00381643255241
         0.00385019718669
         0.00388426100835
         0.00391862588003
         0.00395329482853
         0.00398827018216
         0.00402355520055
         0.00405915267766
         0.00409506494179
         0.00413129525259
         0.00416784547269
         0.00420471932739
         0.00424191961065
         0.00427944865078
         0.0043173097074
         0.00435550604016
         0.004394040443
         0.00443291524425
         0.00447213416919
         0.00451170001179
         0.00455161603168
         0.00459188548848
         0.00463251071051
         0.00467349542305
         0.00471484288573
         0.00475655635819
         0.00479864003137
         0.00484109483659
         0.00488392496482
         0.00492713414133
         0.00497072562575
         0.00501470267773
         0.00505906902254
         0.00510382745415
         0.00514898216352
         0.00519453641027
         0.00524049345404
         0.00528685748577
         0.00533363129944
         0.00538081908599
         0.00542842457071
         0.00547645101324
         0.00552490260452
         0.00557378260419
         0.00562309473753
         0.00567284366116
         0.00572303216904
         0.00577366584912
         0.00582474656403
         0.00587627897039
         0.00592826819047
         0.00598071701825
         0.00603362964466
         0.00608701026067
         0.00614086352289
         0.0061951931566
         0.00625000335276
         0.00630529830232
         0.00636108312756
         0.00641736015677
         0.00647413684055
         0.00653141457587
         0.00658920127898
         0.0066474978812
         0.00670630950481
         0.00676564173773
         0.00682549877092
         0.006885885261
         0.00694680633023
         0.00700826663524
         0.00707027036697
         0.00713282218203
         0.00719592766836
         0.00725959194824
         0.00732381874695
         0.00738861458376
         0.00745398318395
         0.00751993060112
         0.00758646102622
         0.00765357958153
         0.0077212927863
         0.00778960483149
         0.00785852130502
         0.00792804732919
         0.00799818895757
         0.00806894991547
         0.00814033765346
         0.00821235775948
         0.00828501395881
         0.00835831370205
         0.00843226164579
         0.00850686337799
         0.00858212541789
         0.00865805335343
         0.00873465277255
         0.00881193112582
         0.00888989213854
         0.00896854232997
         0.00904788821936
         0.00912793818861
         0.00920869410038
         0.00929016619921
         0.00937235821038
         0.00945527758449
         0.00953892990947
         0.00962332263589
         0.00970846321434
         0.00979435630143
         0.00988100934774
         0.0099684279412
         0.010056624189
         0.0101455971599
         0.0102353580296
         0.0103259123862
         0.0104172676802
         0.0105094313622
         0.0106024108827
         0.0106962127611
         0.0107908444479
         0.0108863133937
         0.0109826270491
         0.0110797928646
         0.0111778182909
         0.0112767107785
         0.0113764787093
         0.0114771286026
         0.0115786716342
         0.0116811105981
         0.011784455739
         0.0118887163699
         0.0119938980788
         0.012100010179
         0.0122070619836
         0.012315060012
         0.0124240145087
         0.0125339319929
         0.0126448227093
         0.0127566941082
         0.0128695555031
         0.0129834152758
         0.0130982827395
         0.0132141662762
         0.0133310742676
         0.0134490178898
         0.0135680045933
         0.0136880427599
         0.0138091444969
         0.0139313163236
         0.0140545703471
         0.014178914018
         0.0143043575808
         0.0144309131429
         0.014558586292
         0.014687388204
         0.0148173309863
         0.0149484239519
         0.0150806754827
         0.0152140976861
         0.0153487026691
         0.0154844950885
         0.0156214907765
         0.015759697184
         0.0158991273493
         0.0160397905856
         0.016181698069
         0.0163248609751
         0.01646929048
         0.0166149977595
         0.0167619939893
         0.0169102922082
         0.0170598998666
         0.0172108337283
         0.017363101244
         0.0175167173147
         0.0176716931164
         0.017828039825
         0.0179857686162
         0.018144890666
         0.0183054227382
         0.0184673760086
         0.0186307597905
         0.0187955908477
         0.0189618803561
         0.0191296394914
         0.019298883155
         0.0194696243852
         0.0196418780833
         0.0198156535625
         0.0199909675866
         0.0201678313315
         0.0203462615609
         0.0205262675881
         0.0207078699023
         0.0208910759538
         0.0210759025067
         0.0212623663247
         0.0214504804462
         0.0216402579099
         0.0218317210674
         0.0220248699188
         0.0222197286785
         0.0224163122475
         0.0226146336645
         0.0228147096932
         0.0230165570974
         0.0232201907784
         0.0234256237745
         0.0236328784376
         0.0238419603556
         0.0240528956056
         0.0242656990886
         0.0244803838432
         0.0246969666332
         0.0249154642224
         0.0251358971
         0.025358280167
         0.0255826320499
         0.0258089639246
         0.0260373037308
         0.0262676589191
         0.0265000574291
         0.026734508574
         0.0269710347056
         0.0272096544504
         0.0274503827095
         0.0276932436973
         0.0279382523149
         0.0281854253262
         0.0284347906709
         0.0286863576621
         0.0289401561022
         0.029196197167
         0.0294545032084
         0.0297150928527
         0.0299779884517
         0.0302432104945
         0.0305107813329
         0.0307807158679
         0.0310530401766
         0.0313277728856
         0.0316049382091
         0.0318845510483
         0.0321666412055
         0.0324512273073
         0.0327383317053
         0.033027973026
         0.0333201810718
         0.0336149707437
         0.0339123681188
         0.0342123992741
         0.0345150865614
         0.0348204486072
         0.0351285114884
         0.0354393012822
         0.0357528403401
         0.0360691510141
         0.0363882668316
         0.0367101989686
         0.037034984678
         0.0373626388609
         0.037693195045
         0.0380266755819
         0.0383631177247
         0.0387025251985
         0.0390449352562
         0.039390373975
         0.0397388711572
         0.0400904491544
         0.040445137769
         0.040802963078
         0.0411639586091
         0.041528146714
         0.0418955497444
         0.0422662124038
         0.0426401495934
         0.0430173948407
         0.0433979816735
         0.0437819324434
         0.044169280678
         0.0445600561798
         0.0449542887509
         0.0453520081937
         0.0457532517612
         0.046158041805
         0.0465664081275
         0.0469783954322
         0.0473940186203
         0.0478133298457
         0.0482363402843
         0.0486630983651
         0.0490936338902
         0.0495279729366
         0.049966160208
         0.0504082217813
         0.0508542060852
         0.051304128021
         0.0517580248415
         0.0522159449756
         0.0526779070497
         0.0531439594924
         0.0536141358316
         0.05408847332
         0.0545670054853
         0.0550497733057
         0.0555368065834
         0.0560281574726
         0.0565238520503
         0.0570239275694
         0.0575284324586
         0.0580374002457
         0.0585508719087
         0.0590688809752
         0.0595914758742
         0.0601186975837
         0.0606505796313
         0.0611871667206
         0.0617285072803
         0.0622746311128
         0.0628255903721
         0.0633814185858
         0.0639421716332
         0.0645078793168
         0.0650785937905
         0.0656543597579
         0.0662352144718
         0.0668212175369
         0.0674124211073
         0.0680088326335
         0.0686105266213
         0.0692175328732
         0.0698299109936
         0.0704477205873
         0.0710709840059
         0.0716997608542
         0.0723341107368
         0.0729740634561
         0.0736196860671
         0.0742710083723
         0.0749281048775
         0.0755910128355
         0.0762597844005
         0.0769344642758
         0.0776151195168
         0.0783018022776
         0.0789945572615
         0.0796934366226
         0.0803984999657
         0.0811098068953
         0.0818274021149
         0.0825513452291
         0.0832816958427
         0.0840185061097
         0.0847618356347
         0.0855117440224
         0.0862682908773
         0.0870315209031
         0.0878015086055
         0.0885783061385
         0.0893619805574
         0.0901525914669
         0.0909501835704
         0.0917548462749
         0.0925666168332
         0.0933855772018
         0.0942117795348
         0.0950452908874
         0.0958861783147
         0.0967345014215
         0.0975903347135
         0.0984537377954
         0.0993247777224
         0.10020352155
         0.101090051234
         0.101984411478
         0.10288669914
         0.103796951473
         0.104715265334
         0.105641715229
         0.106576345861
         0.107519246638
         0.108470499516
         0.109430164099
         0.110398314893
         0.111375033855
         0.112360388041
         0.113354466856
         0.114357337356
         0.115369074047
         0.116389773786
         0.11741951108
         0.118458382785
         0.119506403804
         0.120563700795
         0.121630363166
         0.122706450522
         0.12379205972
         0.124887272716
         0.125992178917
         0.12710686028
         0.128231406212
         0.129365891218
         0.130510434508
         0.131665080786
         0.13282994926
         0.134005129337
         0.135190695524
         0.13638676703
         0.137593403459
         0.13881072402
         0.140038818121
         0.141277775168
         0.142527684569
         0.143788665533
         0.145060792565
         0.146344169974
         0.147638902068
         0.148945093155
         0.150262862444
         0.15159226954
         0.152933433652
         0.154286473989
         0.155651479959
         0.157028615475
         0.158417880535
         0.159819439054
         0.161233395338
         0.162659853697
         0.16409894824
         0.165550768375
         0.167015433311
         0.168493047357
         0.169983744621
         0.171487629414
         0.173004820943
         0.174535438418
         0.176079601049
         0.177637398243
         0.179209008813
         0.180794492364
         0.182394042611
         0.184007719159
         0.18563567102
         0.187278017402
         0.188934922218
         0.190606474876
         0.192292809486
         0.193994060159
         0.195710375905
         0.197441861033
         0.199188679457
         0.200950935483
         0.202728793025
         0.204522401094
         0.206331834197
         0.208157300949
         0.209998935461
         0.211856812239
         0.213731169701
         0.215622097254
         0.217529758811
         0.219454288483
         0.221395850182
         0.223354592919
         0.225330650806
         0.227324202657
         0.229335382581
         0.231364369392
         0.233411312103
         0.235476359725
         0.237559661269
         0.239661559463
         0.241781890392
         0.243920996785
         0.246079012752
         0.248256132007
         0.250452488661
         0.25266829133
         0.25490373373
         0.25715893507
         0.259434074163
         0.261729329824
         0.264044910669
         0.266380995512
         0.268737703562
         0.271115273237
         0.273513883352
         0.275933742523
         0.278374969959
         0.280837833881
         0.283322453499
         0.28582906723
         0.288357853889
         0.290909022093
         0.293482780457
         0.296079277992
         0.298698782921
         0.301341414452
         0.304007440805
         0.306697070599
         0.309410482645
         0.312147915363
         0.314909547567
         0.317695647478
         0.320506364107
         0.323341935873
         0.326202601194
         0.32908859849
         0.332000136375
         0.334937423468
         0.337900668383
         0.340890139341
         0.343906074762
         0.346948683262
         0.350018233061
         0.353114902973
         0.356238991022
         0.359390735626
         0.362570345402
         0.36577808857
         0.369014203548
         0.372278958559
         0.37557259202
         0.37889534235
         0.382247507572
         0.385629355907
         0.389041095972
         0.392483025789
         0.395955443382
         0.399458527565
         0.402992606163
         0.4065579772
         0.410154879093
         0.413783639669
         0.417444437742
         0.421137809753
         0.424863725901
         0.428622603416
         0.432414680719
         0.436240375042
         0.440099865198
         0.443993538618
         0.447921663523
         0.451884508133
         0.455882430077
         0.459915727377
         0.463984698057
         0.468089699745
         0.47223097086
         0.476408928633
         0.480623811483
         0.484875977039
         0.489165812731
         0.493493556976
         0.497859597206
         0.502264261246
         0.506707906723
         0.511190891266
         0.515713512897
         0.520276129246
         0.524879097939
         0.529522836208
         0.534207642078
         0.538933873177
         0.543701946735
         0.548512220383
         0.553364992142
         0.55826073885
         0.563199818134
         0.568182587624
         0.573209404945
         0.578280746937
         0.583396852016
         0.588558375835
         0.593765437603
         0.599018633366
         0.604318261147
         0.609664797783
         0.615058660507
         0.620500206947
         0.62598991394
         0.631528198719
         0.637115418911
         0.642752170563
         0.648438751698
         0.654175639153
         0.659963190556
         0.665802061558
         0.671692609787
         0.677635192871
         0.683630406857
         0.689678609371
         0.695780336857
         0.701936066151
         0.70814627409
         0.714411377907
         0.720731914043
         0.727108418941
         0.733541250229
         0.740031599998
         0.746578812599
         0.753183960915
         0.759847521782
         0.766570031643
         0.773352146149
         0.780194103718
         0.787096619606
         0.794060230255
         0.801085472107
         0.808172881603
         0.815322995186
         0.822536289692
         0.829813420773
         0.837154984474
         0.844561457634
         0.852033555508
         0.859571635723
         0.867176473141
         0.874848544598
         0.88258856535
         0.890397012234
         0.898274600506
         0.906221807003
         0.914239346981
         0.922327756882
         0.93048787117
         0.938720047474
         0.947025120258
         0.95540368557
         0.963856339455
         0.972383797169
         0.980986714363
         0.989665746689
         0.998421490192
         1.00725471973
         1.01616609097
         1.02515637875
         1.03422617912
         1.04337620735
         1.05260717869
         1.06191980839
         1.07131493092
         1.08079302311
         1.09035503864
         1.10000169277
         1.10973358154
         1.11955165863
         1.12945663929
         1.13944911957
         1.14953017235
         1.15970027447
         1.1699603796
         1.18031132221
         1.19075369835
         1.20128858089
         1.2119166851
         1.22263884544
         1.23345565796
         1.24436843395
         1.25537765026
         1.26648426056
         1.27768909931
         1.28899300098
         1.30039787292
         1.31190276146
         1.32350957394
         1.3352189064
         1.34703183174
         1.35894930363
         1.37097227573
         1.38310158253
         1.39533817768
         1.40768313408
         1.42013716698
         1.43270146847
         1.44537687302
         1.45816445351
         1.4710650444
         1.48407995701
         1.49721002579
         1.51045608521
         1.52381944656
         1.53730094433
         1.5509018898
         1.56462299824
         1.57846558094
         1.59243059158
         1.60651910305
         1.62073242664
         1.63507139683
         1.6495372057
         1.66413116455
         1.67885398865
         1.69370722771
         1.7086918354
         1.72380900383
         1.73905992508
         1.75444579124
         1.76996779442
         1.78562700748
         1.80142486095
         1.81736242771
         1.83344113827
         1.84966182709
         1.8660261631
         1.8825353384
         1.89919066429
         1.91599321365
         1.932944417
         1.95004546642
         1.96729803085
         1.98470306396
         2.0022623539
         2.01997685432
         2.03784799576
         2.05587720871
         2.07406616211
         2.09241580963
         2.11092782021
         2.12960362434
         2.14844465256
         2.16745233536
         2.18662834167
         2.2059738636
         2.22549080849
         2.24518013
         2.2650437355
         2.28508448601
         2.30530142784
         2.32569670677
         2.34627270699
         2.36703085899
         2.38797235489
         2.40909934044
         2.43041300774
         2.45191550255
         2.47360801697
         2.49549269676
         2.51757097244
         2.53984427452
         2.56231498718
         2.58498430252
         2.60785412788
         2.63092637062
         2.65420293808
         2.67768526077
         2.70137524605
         2.72527480125
         2.74938607216
         2.77371048927
         2.79825019836
         2.82300686836
         2.84798240662
         2.87317943573
         2.89859890938
         2.92424345016
         2.95011496544
         2.97621536255
         3.00254654884
         3.02911067009
         3.05590987206
         3.08294606209
         3.11022162437
         3.13773870468
         3.16549873352
         3.19350457191
         3.22175836563
         3.25026202202
         3.27901768684
         3.30802774429
         3.33729481697
         3.36682057381
         3.39660739899
         3.42665815353
         3.45697450638
         3.48755908012
         3.51841425896
         3.54954242706
         3.58094596863
         3.61262750626
         3.64458918571
         3.67683362961
         3.70936346054
         3.7421810627
         3.77528905869
         3.80868959427
         3.84238600731
         3.87638044357
         3.91067576408
         3.94527435303
         3.98017907143
         4.01539230347
         4.05091762543
         4.08675718307
         4.1229133606
         4.15938949585
         4.1961889267
         4.23331308365
         4.27076625824
         4.30855083466
         4.34666967392
         4.38512563705
         4.42392158508
         4.46306085587
         4.50254678726
         4.54238176346
         4.58256912231
         4.62311220169
         4.66401386261
         4.70527744293
         4.74690628052
         4.78890323639
         4.83127164841
         4.87401485443
         4.91713619232
         4.96063947678
         5.00452709198
         5.04880332947
         5.0934715271
         5.13853406906
         5.18399572372
         5.22986030579
         5.2761297226
         5.32280874252
         5.36990070343
         5.41740989685
         5.46533870697
         5.51369142532
         5.56247234344
         5.61168479919
         5.66133260727
         5.71141958237
         5.76195049286
         5.81292772293
         5.86435508728
         5.91623878479
         5.96858119965
         6.02138614655
         6.0746588707
         6.12840270996
         6.18262243271
         6.2373213768
         6.29250431061
         6.34817552567
         6.40433883667
         6.46099948883
         6.51816129684
         6.57582902908
         6.63400650024
         6.69269990921
         6.75191116333
         6.81164646149
         6.87191057205
         6.9327082634
         6.99404382706
         7.05592632294
         7.1183514595
         7.18132925034
         7.24486351013
         7.30896043777
         7.37362480164
         7.43886089325
         7.50467395782
         7.57106971741
         7.63805246353
         7.70562839508
         7.77380132675
         7.8425784111
         7.91196298599
         7.98196172714
         8.05257987976
         8.12382316589
         8.19569587708
         8.26820468903
         8.34135627747
         8.41515445709
         8.48960399628
         8.56471347809
         8.6404876709
         8.71693229675
         8.7940530777
         8.87185573578
         8.95034694672
         9.02953338623
         9.10941886902
         9.19001197815
         9.27131843567
         9.35334300995
         9.43609428406
         9.51957702637
         9.60379981995
         9.68876647949
         9.7744846344
         9.86096286774
         9.94820404053
         10.0362186432
         10.1250104904
         10.214589119
         10.3049602509
         10.3961296082
         10.4881067276
         10.5808973312
         10.6745090485
         10.768948555
         10.8642244339
         10.9603424072
         11.057311058
         11.1551380157
         11.2538290024
         11.3533945084
         11.4538402557
         11.5551748276
         11.6574068069
         11.7605419159
