aces_1.0.0/luts/Log2_2000_nits_Shaper_to_linear.spi1d
Version 1
From 0.000000 1.000000
Length 1024
Components 1
{
         4.39453142462e-05
         4.46355152235e-05
         4.53365646536e-05
         4.60486226075e-05
         4.67718600703e-05
         4.75064589409e-05
         4.82525974803e-05
         4.90104503115e-05
         4.97802102473e-05
         5.05620555487e-05
         5.13561863045e-05
         5.21627844137e-05
         5.2982053603e-05
         5.38141939614e-05
         5.46593983017e-05
         5.55178776267e-05
         5.63898429391e-05
         5.72755016037e-05
         5.81750682613e-05
         5.90887684666e-05
         6.00168168603e-05
         6.09594790149e-05
         6.19168713456e-05
         6.28893758403e-05
         6.38771161903e-05
         6.48803688819e-05
         6.58993812976e-05
         6.69344008202e-05
         6.7985674832e-05
         6.90534507157e-05
         7.01380049577e-05
         7.12395922164e-05
         7.23584817024e-05
         7.3494942626e-05
         7.46492587496e-05
         7.58216992836e-05
         7.70125552663e-05
         7.8222117736e-05
         7.94506777311e-05
         8.06985262898e-05
         8.19659762783e-05
         8.32533332868e-05
         8.45609101816e-05
         8.58890271047e-05
         8.72379969223e-05
         8.86081616045e-05
         8.99998412933e-05
         9.14133779588e-05
         9.2849113571e-05
         9.43074046518e-05
         9.57885931712e-05
         9.7293050203e-05
         9.88211322692e-05
         0.00010037321772
         0.000101949677628
         0.000103550904896
         0.000105177277874
         0.000106829196739
         0.000108507054392
         0.000110211258288
         0.000111942237709
         0.000113700407383
         0.000115486262075
         0.000117300012789
         0.000119142401672
         0.000121013574244
         0.000122914294479
         0.000124844707898
         0.000126805593027
         0.000128797211801
         0.00013082010264
         0.000132874760311
         0.00013496169413
         0.000137081398861
         0.000139234398375
         0.00014142121654
         0.000143642377225
         0.00014589841885
         0.000148189908941
         0.000150517371367
         0.000152881402755
         0.000155282556079
         0.000157721427968
         0.000160198600497
         0.000162714670296
         0.000165270277648
         0.000167866019183
         0.00017050250608
         0.00017318042228
         0.000175900408067
         0.000178663103725
         0.000181469178642
         0.000184319331311
         0.000187214260222
         0.000190154634765
         0.000193141211639
         0.000196174674784
         0.000199255810003
         0.000202385315788
         0.000205563977943
         0.000208792567719
         0.000212071856367
         0.000215402658796
         0.000218785789912
         0.000222222035518
         0.000225712254178
         0.00022925727535
         0.000232858001254
         0.000236515275901
         0.000240230132476
         0.000244003036642
         0.000247835501796
         0.000251727848081
         0.000255681661656
         0.00025969723356
         0.000263776193606
         0.000267919065664
         0.000272127013886
         0.000276401027804
         0.000280742184259
         0.000285151530989
         0.000289630115731
         0.000294179044431
         0.000298799423035
         0.000303492357489
         0.000308259011945
         0.000313100550557
         0.000318018108374
         0.000323012878653
         0.000328086112859
         0.000333239033353
         0.000338472891599
         0.000343788968166
         0.000349188514519
         0.000354672869435
         0.000360243371688
         0.000365901360055
         0.000371648202417
         0.000377485324861
         0.000383414095268
         0.000389435968827
         0.00039555245894
         0.000401764991693
         0.000408075138694
         0.000414484384237
         0.000420994270826
         0.000427606399171
         0.000434322369983
         0.000441143842181
         0.000448072474683
         0.000455109868199
         0.000462257827166
         0.000469518359751
         0.000476892309962
         0.000484382704599
         0.00049199006753
         0.000499717600178
         0.000507565855514
         0.000515538034961
         0.000523634720594
         0.000531859288458
         0.00054021232063
         0.000548697251361
         0.000557314720936
         0.000566068280023
         0.000574958568905
         0.000583989254665
         0.000593160977587
         0.000602477579378
         0.000611940107774
         0.000621551240329
         0.000631313305348
         0.000641228747554
         0.000651299837045
         0.000661529134959
         0.000671919144224
         0.000682472309563
         0.000693191192113
         0.000704078469425
         0.000715136702638
         0.000726368743926
         0.000737777096219
         0.000749364553485
         0.000761134084314
         0.000773088715505
         0.000785230891779
         0.000797563698143
         0.00081009027781
         0.000822813482955
         0.000835736631416
         0.000848862691782
         0.000862194923684
         0.00087573658675
         0.0008894908824
         0.000903461244889
         0.000917650992051
         0.000932063674554
         0.000946702668443
         0.000961571524385
         0.000976674025878
         0.000992013607174
         0.0010075942846
         0.0010234194342
         0.00103949336335
         0.0010558195645
         0.0010724022286
         0.00108924543019
         0.0011063531274
         0.00112372951116
         0.00114137877245
         0.00115930533502
         0.00117751338985
         0.0011960073607
         0.0012147919042
         0.00123387144413
         0.00125325052068
         0.00127293448895
         0.00129292730708
         0.00131323398091
         0.00133385963272
         0.00135480926838
         0.00137608789373
         0.00139770074748
         0.0014196530683
         0.00144195009489
         0.00146459729876
         0.00148760026786
         0.00151096470654
         0.00153469585348
         0.00155879964586
         0.0015832822537
         0.00160814938135
         0.00163340754807
         0.00165906164329
         0.00168511900119
         0.00171158555895
         0.00173846760299
         0.00176577200182
         0.00179350527469
         0.00182167394087
         0.0018502852181
         0.00187934585847
         0.0019088628469
         0.00193884340115
         0.00196929485537
         0.00200022454374
         0.00203164014965
         0.0020635491237
         0.00209595984779
         0.00212887907401
         0.00216231518425
         0.00219627656043
         0.00223077135161
         0.00226580793969
         0.00230139470659
         0.00233754026704
         0.00237425370142
         0.00241154362448
         0.00244941958226
         0.00248789018951
         0.00252696475945
         0.0025666533038
         0.00260696536861
         0.00264791026711
         0.00268949824385
         0.00273173954338
         0.00277464417741
         0.00281822285615
         0.00286248582415
         0.00290744402446
         0.00295310863294
         0.00299948989414
         0.0030466010794
         0.00309445080347
         0.00314305210486
         0.00319241685793
         0.00324255716987
         0.00329348491505
         0.00334521243349
         0.00339775206521
         0.0034511173144
         0.00350532052107
         0.00356037518941
         0.00361629459076
         0.00367309199646
         0.00373078160919
         0.00378937716596
         0.00384889333509
         0.00390934385359
         0.00397074408829
         0.00403310824186
         0.00409645261243
         0.00416079116985
         0.00422614114359
         0.00429251650348
         0.00435993494466
         0.0044284122996
         0.00449796486646
         0.0045686098747
         0.00464036408812
         0.00471324613318
         0.00478727230802
         0.00486246077344
         0.00493883062154
         0.00501640187576
         0.00509518943727
         0.00517521472648
         0.00525649636984
         0.00533905485645
         0.00542291020975
         0.00550808245316
         0.00559459254146
         0.00568246096373
         0.00577170960605
         0.00586236035451
         0.00595443462953
         0.0060479552485
         0.00614294409752
         0.00623942539096
         0.00633742194623
         0.00643695704639
         0.00653805583715
         0.00664074253291
         0.00674504227936
         0.00685097975656
         0.00695858104154
         0.00706787314266
         0.00717888120562
         0.00729163223878
         0.00740615464747
         0.00752247590572
         0.00764062395319
         0.0077606276609
         0.00788251683116
         0.00800631940365
         0.00813206657767
         0.00825979374349
         0.00838952232152
         0.00852128770202
         0.00865512341261
         0.00879106111825
         0.00892913341522
         0.00906937476248
         0.0092118177563
         0.00935649871826
         0.00950345210731
         0.0096527133137
         0.00980431865901
         0.00995830539614
         0.010114710778
         0.0102735720575
         0.0104349283502
         0.0105988197029
         0.0107652852312
         0.0109343649819
         0.0111060999334
         0.011280531995
         0.0114577040076
         0.0116376588121
         0.0118204401806
         0.0120060928166
         0.0121946595609
         0.012386187911
         0.0125807262957
         0.0127783194184
         0.012979015708
         0.0131828645244
         0.0133899133652
         0.0136002255604
         0.0138138299808
         0.0140307899565
         0.0142511576414
         0.0144749870524
         0.0147023312747
         0.0149332461879
         0.0151677876711
         0.0154060125351
         0.0156479794532
         0.0158937461674
         0.016143374145
         0.0163969229907
         0.016654452309
         0.0169160272926
         0.0171817094088
         0.0174515657127
         0.017725661397
         0.0180040597916
         0.018286831677
         0.0185740441084
         0.0188657678664
         0.0191620737314
         0.0194630324841
         0.0197687204927
         0.0200792085379
         0.0203945711255
         0.0207148883492
         0.0210402365774
         0.0213706959039
         0.0217063426971
         0.0220472626388
         0.0223935376853
         0.0227452516556
         0.0231024865061
         0.0234653353691
         0.0238338820636
         0.0242082159966
         0.0245884303004
         0.0249746181071
         0.0253668688238
         0.025765279308
         0.0261699501425
         0.0265809744596
         0.0269984565675
         0.0274224933237
         0.0278531908989
         0.0282906536013
         0.028734985739
         0.0291862972081
         0.0296446979046
         0.0301102995872
         0.0305832102895
         0.0310635510832
         0.0315514355898
         0.0320469811559
         0.0325503125787
         0.0330615490675
         0.0335808135569
         0.0341082327068
         0.0346439369023
         0.0351880528033
         0.0357407182455
         0.0363020598888
         0.0368722453713
         0.0374513603747
         0.0380395725369
         0.0386370196939
         0.0392438545823
         0.0398602187634
         0.0404862649739
         0.0411221422255
         0.0417680069804
         0.0424240119755
         0.0430903248489
         0.0437671020627
         0.044454511255
         0.0451527088881
         0.0458618812263
         0.0465821884573
         0.0473138093948
         0.0480569154024
         0.0488117001951
         0.0495783351362
         0.0503570102155
         0.0511479191482
         0.051951251924
         0.0527671948075
         0.0535959601402
         0.0544377341866
         0.0552927367389
         0.0561611615121
         0.0570432320237
         0.0579391494393
         0.058849144727
         0.0597734339535
         0.0607122704387
         0.0616658180952
         0.0626343414187
         0.0636180788279
         0.0646172612906
         0.0656321421266
         0.0666629597545
         0.0677099749446
         0.0687734261155
         0.0698535740376
         0.0709506943822
         0.0720650479198
         0.0731969028711
         0.0743465349078
         0.0755142271519
         0.0767002478242
         0.0779049023986
         0.0791284814477
         0.0803712680936
         0.0816335827112
         0.0829157158732
         0.0842179954052
         0.0855407193303
         0.0868842229247
         0.0882488265634
         0.0896348655224
         0.0910426676273
         0.0924725830555
         0.0939249545336
         0.09540014714
         0.096898496151
         0.0984203889966
         0.0999662429094
         0.101536251605
         0.103131048381
         0.104750744998
         0.10639603436
         0.108067020774
         0.109764397144
         0.111488282681
         0.113239392638
         0.115017861128
         0.116824403405
         0.118659168482
         0.120522908866
         0.122415758669
         0.124338500202
         0.126291275024
         0.128274902701
         0.130289494991
         0.132335916162
         0.134414300323
         0.13652549684
         0.138669669628
         0.140847712755
         0.143059760332
         0.145306766033
         0.147588863969
         0.149906978011
         0.152261316776
         0.154652833939
         0.157081708312
         0.159548953176
         0.162054717541
         0.16460005939
         0.167185157537
         0.169811084867
         0.172478020191
         0.175187066197
         0.177938446403
         0.180733263493
         0.183571740985
         0.186455026269
         0.189383387566
         0.192357957363
         0.195379003882
         0.19844776392
         0.201564446092
         0.2047303617
         0.20794570446
         0.21121199429
         0.214529290795
         0.21789868176
         0.221321001649
         0.224797055125
         0.228327736259
         0.231913849711
         0.235556289554
         0.239255934954
         0.243013679981
         0.246830463409
         0.250707179308
         0.254644781351
         0.258644253016
         0.262706518173
         0.266832590103
         0.271023452282
         0.275280147791
         0.279603689909
         0.28399515152
         0.288455575705
         0.292986065149
         0.29758772254
         0.30226162076
         0.307008951902
         0.311830818653
         0.316728442907
         0.321702986956
         0.326755642891
         0.331887662411
         0.337100297213
         0.342394798994
         0.347772449255
         0.353234559298
         0.358782470226
         0.364417493343
         0.370141029358
         0.375954478979
         0.381859213114
         0.387856721878
         0.393948376179
         0.400135725737
         0.406420260668
         0.412803530693
         0.419286996126
         0.425872325897
         0.432561069727
         0.439354866743
         0.446255385876
         0.453264296055
         0.460383266211
         0.467614024878
         0.474958389997
         0.482418060303
         0.489994943142
         0.497690826654
         0.505507528782
         0.513446986675
         0.521511256695
         0.52970212698
         0.538021564484
         0.546471714973
         0.555054664612
         0.563772320747
         0.572627305984
         0.58162099123
         0.590755939484
         0.600034356117
         0.609458506107
         0.61903065443
         0.628753185272
         0.638628363609
         0.648658633232
         0.658846497536
         0.669194281101
         0.679704725742
         0.69038015604
         0.701223254204
         0.712236702442
         0.723423063755
         0.734785139561
         0.746325671673
         0.75804746151
         0.769953429699
         0.78204625845
         0.794329047203
         0.806804835796
         0.819476485252
         0.832347154617
         0.845420062542
         0.858698248863
         0.872184872627
         0.885883450508
         0.899797141552
         0.913929343224
         0.928283572197
         0.942863225937
         0.957671761513
         0.972712993622
         0.987990379333
         1.00350785255
         1.01926887035
         1.03527748585
         1.05153751373
         1.06805300713
         1.08482789993
         1.10186612606
         1.11917209625
         1.13674986362
         1.1546036005
         1.17273783684
         1.19115686417
         1.20986509323
         1.2288672924
         1.24816787243
         1.26777160168
         1.28768324852
         1.30790758133
         1.3284496069
         1.3493142128
         1.37050652504
         1.39203178883
         1.41389501095
         1.43610167503
         1.45865702629
         1.48156666756
         1.50483620167
         1.52847123146
         1.55247950554
         1.57686257362
         1.60162889957
         1.62678396702
         1.65233433247
         1.67828583717
         1.70464503765
         1.73141825199
         1.75861179829
         1.78623270988
         1.81428706646
         1.8427823782
         1.87172520161
         1.90112233162
         1.93098151684
         1.96130943298
         1.99211382866
         2.02340197563
         2.0551815033
         2.08746027946
         2.12024593353
         2.15354657173
         2.18737006187
         2.22172498703
         2.25661945343
         2.29206180573
         2.3280608654
         2.36462545395
         2.40176415443
         2.43948626518
         2.4778008461
         2.51671719551
         2.55624485016
         2.59639310837
         2.63717222214
         2.67859148979
         2.72066164017
         2.76339221001
         2.80679416656
         2.85087752342
         2.89565348625
         2.94113087654
         2.98732614517
         3.03424310684
         3.08190107346
         3.13030338287
         3.17946982384
         3.22940444946
         3.28012776375
         3.33164334297
         3.38397216797
         3.43711853027
         3.4911043644
         3.54593324661
         3.60162806511
         3.65819263458
         3.71565079689
         3.77400636673
         3.83328342438
         3.89348649979
         3.95464015007
         4.01674890518
         4.07983922958
         4.14391422272
         4.20900678635
         4.27511072159
         4.34225845337
         4.4104552269
         4.47972869873
         4.55008411407
         4.62155103683
         4.69413375854
         4.76786279678
         4.8427438736
         4.91880702972
         4.99605894089
         5.07453012466
         5.15422725677
         5.23518323898
         5.31740379333
         5.40092229843
         5.48574542999
         5.57190847397
         5.6594171524
         5.74830770493
         5.83858680725
         5.93029165268
         6.02342844009
         6.11803627014
         6.21412229538
         6.31172561646
         6.41085386276
         6.51154661179
         6.61381244659
         6.71769380569
         6.82319736481
         6.93036699295
         7.03921079636
         7.14977359772
         7.26206254959
         7.37612533569
         7.49197006226
         7.60964393616
         7.7291560173
         7.85055494308
         7.97385120392
         8.09909343719
         8.22629261017
         8.35550022125
         8.48672580719
         8.62002468109
         8.75540447235
         8.89292240143
         9.03258895874
         9.17446136475
         9.31854915619
         9.46491241455
         9.61356163025
         9.76455974579
         9.91791534424
         10.0736923218
         10.2319030762
         10.3926124573
         10.5558309555
         10.7216291428
         10.8900156021
         11.0610609055
         11.2347793579
         11.411239624
         11.5904722214
         11.7725048065
         11.9574117661
         12.1452064514
         12.3359670639
         12.529706955
         12.7265081406
         12.9263820648
         13.1294126511
         13.3356132507
         13.5450716019
         13.7578020096
         13.9738912582
         14.1933555603
         14.4162864685
         14.6426992416
         14.8726873398
         15.1062679291
         15.343536377
         15.5845117569
         15.829293251
         16.0778980255
         16.3304271698
         16.5869026184
         16.8474273682
         17.1120204926
         17.3807945251
         17.6537647247
         17.9310474396
         18.2126598358
         18.4987201691
         18.7892494202
         19.0843658447
         19.3840923309
         19.6885528564
         19.9977664948
         20.3118667603
         20.6308708191
         20.9549121857
         21.2840156555
         21.6183185577
         21.9578399658
         22.3027248383
         22.6529960632
         23.0088005066
         23.3701629639
         23.7372283936
         24.1100273132
         24.4887180328
         24.8733196259
         25.263999939
         25.6607780457
         26.0638237
         26.4731655121
         26.8889713287
         27.3112678528
         27.7402381897
         28.1759090424
         28.6184577942
         29.0679187775
         29.5244808197
         29.9881725311
         30.459186554
         30.9375991821
         31.4235248566
         31.9170417786
         32.4183540344
         32.9274978638
         33.4446792603
         33.9699363708
         34.503490448
         35.0453796387
         35.5958251953
         36.1548690796
         36.722743988
         37.2994880676
         37.8853340149
         38.4803390503
         39.0847358704
         39.6985740662
         40.3221092224
         40.9553794861
         41.598651886
         42.2519721985
         42.9156112671
         43.5896148682
         44.2742614746
         44.9696044922
         45.6759262085
         46.393283844
         47.1219673157
         47.862033844
         48.61378479
         49.3772850037
         50.1528358459
         50.9405021667
         51.7406082153
         52.5532112122
         53.3786468506
         54.2169761658
         55.0685424805
         55.9334144592
         56.8119430542
         57.7041893005
         58.610534668
         59.5310325623
         60.4660644531
         61.4157066345
         62.3803405762
         63.3600463867
         64.3552246094
         65.3659439087
         66.3926239014
         67.4353408813
         68.4945220947
         69.5702590942
         70.6629714966
         71.7727584839
         72.9000701904
         74.0449905396
         75.2079925537
         76.3891601562
         77.588973999
         78.8075332642
         80.0453414917
         81.302482605
         82.5794677734
         83.8765182495
         85.1938247681
         86.5319366455
         87.890953064
         89.2714233398
         90.6734619141
         92.0976409912
         93.5440597534
         95.0133285522
         96.5055465698
         98.0213317871
         99.5607910156
         101.124549866
         102.712745667
         104.326019287
         105.964500427
         107.628852844
         109.319198608
         111.036239624
         112.780097961
         114.551490784
         116.350570679
         118.17804718
         120.034080505
         121.919410706
         123.834190369
         125.779212952
         127.754623413
         129.76121521
         131.799163818
         133.869293213
         135.971755981
         138.107406616
         140.276443481
         142.479721069
         144.717407227
         146.990432739
         149.298965454
         151.643966675
         154.02557373
         156.44480896
         158.901824951
         161.397644043
         163.932449341
