aces_1.0.0/luts/Output_Shaper_to_aces.spi1d
Version 1
From 0.000000 1.000000
Length 1024
Components 3
{
         0.00281250011176 0.00281250011176 0.00281250011176
         0.00283642183058 0.00283642183058 0.00283642183058
         0.00286054681055 0.00286054681055 0.00286054681055
         0.00288487761281 0.00288487761281 0.00288487761281
         0.00290941470303 0.00290941470303 0.00290941470303
         0.00293416087516 0.00293416087516 0.00293416087516
         0.00295911729336 0.00295911729336 0.00295911729336
         0.00298428582028 0.00298428582028 0.00298428582028
         0.00300966901705 0.00300966901705 0.00300966901705
         0.00303526758216 0.00303526758216 0.00303526758216
         0.00306108430959 0.00306108430959 0.00306108430959
         0.00308712013066 0.00308712013066 0.00308712013066
         0.0031133776065 0.0031133776065 0.0031133776065
         0.00313985836692 0.00313985836692 0.00313985836692
         0.00316656450741 0.00316656450741 0.00316656450741
         0.00319349789061 0.00319349789061 0.00319349789061
         0.0032206599135 0.0032206599135 0.0032206599135
         0.00324805337004 0.00324805337004 0.00324805337004
         0.00327567965724 0.00327567965724 0.00327567965724
         0.00330354226753 0.00330354226753 0.00330354226753
         0.00333163933828 0.00333163933828 0.00333163933828
         0.00335997762159 0.00335997762159 0.00335997762159
         0.00338855572045 0.00338855572045 0.00338855572045
         0.00341737712733 0.00341737712733 0.00341737712733
         0.00344644393772 0.00344644393772 0.00344644393772
         0.00347575754859 0.00347575754859 0.00347575754859
         0.00350532052107 0.00350532052107 0.00350532052107
         0.00353513518348 0.00353513518348 0.00353513518348
         0.00356520316564 0.00356520316564 0.00356520316564
         0.00359552702866 0.00359552702866 0.00359552702866
         0.00362610863522 0.00362610863522 0.00362610863522
         0.00365695077926 0.00365695077926 0.00365695077926
         0.00368805509061 0.00368805509061 0.00368805509061
         0.0037194234319 0.0037194234319 0.0037194234319
         0.00375105906278 0.00375105906278 0.00375105906278
         0.00378296361305 0.00378296361305 0.00378296361305
         0.00381513964385 0.00381513964385 0.00381513964385
         0.00384758948348 0.00384758948348 0.00384758948348
         0.0038803149946 0.0038803149946 0.0038803149946
         0.00391331873834 0.00391331873834 0.00391331873834
         0.0039466037415 0.0039466037415 0.0039466037415
         0.00398017186671 0.00398017186671 0.00398017186671
         0.00401402497664 0.00401402497664 0.00401402497664
         0.0040481663309 0.0040481663309 0.0040481663309
         0.00408259779215 0.00408259779215 0.00408259779215
         0.00411732262 0.00411732262 0.00411732262
         0.00415234221146 0.00415234221146 0.00415234221146
         0.00418766029179 0.00418766029179 0.00418766029179
         0.004223278258 0.004223278258 0.004223278258
         0.0042591993697 0.0042591993697 0.0042591993697
         0.00429542595521 0.00429542595521 0.00429542595521
         0.00433196080849 0.00433196080849 0.00433196080849
         0.00436880625784 0.00436880625784 0.00436880625784
         0.00440596556291 0.00440596556291 0.00440596556291
         0.00444344012067 0.00444344012067 0.00444344012067
         0.00448123365641 0.00448123365641 0.00448123365641
         0.0045193489641 0.0045193489641 0.0045193489641
         0.00455778790638 0.00455778790638 0.00455778790638
         0.00459655607119 0.00459655607119 0.00459655607119
         0.00463565066457 0.00463565066457 0.00463565066457
         0.00467508053407 0.00467508053407 0.00467508053407
         0.00471484288573 0.00471484288573 0.00471484288573
         0.00475494656712 0.00475494656712 0.00475494656712
         0.0047953883186 0.0047953883186 0.0047953883186
         0.00483617698774 0.00483617698774 0.00483617698774
         0.00487730978057 0.00487730978057 0.00487730978057
         0.00491879507899 0.00491879507899 0.00491879507899
         0.00496063008904 0.00496063008904 0.00496063008904
         0.00500282458961 0.00500282458961 0.00500282458961
         0.00504537625238 0.00504537625238 0.00504537625238
         0.00508828973398 0.00508828973398 0.00508828973398
         0.00513156782836 0.00513156782836 0.00513156782836
         0.00517521472648 0.00517521472648 0.00517521472648
         0.00521923229098 0.00521923229098 0.00521923229098
         0.00526362471282 0.00526362471282 0.00526362471282
         0.00530839432031 0.00530839432031 0.00530839432031
         0.00535354483873 0.00535354483873 0.00535354483873
         0.00539907952771 0.00539907952771 0.00539907952771
         0.00544500118122 0.00544500118122 0.00544500118122
         0.00549131352454 0.00549131352454 0.00549131352454
         0.00553802028298 0.00553802028298 0.00553802028298
         0.00558512378484 0.00558512378484 0.00558512378484
         0.0056326277554 0.0056326277554 0.0056326277554
         0.00568053591996 0.00568053591996 0.00568053591996
         0.00572885200381 0.00572885200381 0.00572885200381
         0.00577757880092 0.00577757880092 0.00577757880092
         0.0058267195709 0.0058267195709 0.0058267195709
         0.00587627897039 0.00587627897039 0.00587627897039
         0.00592625979334 0.00592625979334 0.00592625979334
         0.00597666623071 0.00597666623071 0.00597666623071
         0.0060275006108 0.0060275006108 0.0060275006108
         0.00607876712456 0.00607876712456 0.00607876712456
         0.00613046996295 0.00613046996295 0.00613046996295
         0.00618261285126 0.00618261285126 0.00618261285126
         0.00623519858345 0.00623519858345 0.00623519858345
         0.00628823274747 0.00628823274747 0.00628823274747
         0.00634171720594 0.00634171720594 0.00634171720594
         0.0063956566155 0.0063956566155 0.0063956566155
         0.00645005516708 0.00645005516708 0.00645005516708
         0.00650491565466 0.00650491565466 0.00650491565466
         0.00656024366617 0.00656024366617 0.00656024366617
         0.00661604385823 0.00661604385823 0.00661604385823
         0.00667231436819 0.00667231436819 0.00667231436819
         0.0067290677689 0.0067290677689 0.0067290677689
         0.00678629940376 0.00678629940376 0.00678629940376
         0.00684402277693 0.00684402277693 0.00684402277693
         0.00690223276615 0.00690223276615 0.00690223276615
         0.00696094147861 0.00696094147861 0.00696094147861
         0.00702014798298 0.00702014798298 0.00702014798298
         0.00707985786721 0.00707985786721 0.00707985786721
         0.00714007532224 0.00714007532224 0.00714007532224
         0.00720080547035 0.00720080547035 0.00720080547035
         0.00726205157116 0.00726205157116 0.00726205157116
         0.00732381874695 0.00732381874695 0.00732381874695
         0.00738611212 0.00738611212 0.00738611212
         0.00744893448427 0.00744893448427 0.00744893448427
         0.00751229189336 0.00751229189336 0.00751229189336
         0.00757618714124 0.00757618714124 0.00757618714124
         0.00764062674716 0.00764062674716 0.00764062674716
         0.00770561397076 0.00770561397076 0.00770561397076
         0.0077711539343 0.0077711539343 0.0077711539343
         0.00783725176007 0.00783725176007 0.00783725176007
         0.00790391117334 0.00790391117334 0.00790391117334
         0.00797113776207 0.00797113776207 0.00797113776207
         0.00803893711418 0.00803893711418 0.00803893711418
         0.00810731202364 0.00810731202364 0.00810731202364
         0.00817626900971 0.00817626900971 0.00817626900971
         0.00824581179768 0.00824581179768 0.00824581179768
         0.00831594690681 0.00831594690681 0.00831594690681
         0.00838667806238 0.00838667806238 0.00838667806238
         0.00845801085234 0.00845801085234 0.00845801085234
         0.00852994993329 0.00852994993329 0.00852994993329
         0.0086025018245 0.0086025018245 0.0086025018245
         0.00867567025125 0.00867567025125 0.00867567025125
         0.0087494617328 0.0087494617328 0.0087494617328
         0.00882387999445 0.00882387999445 0.00882387999445
         0.00889893434942 0.00889893434942 0.00889893434942
         0.00897462107241 0.00897462107241 0.00897462107241
         0.00905095785856 0.00905095785856 0.00905095785856
         0.00912793818861 0.00912793818861 0.00912793818861
         0.00920557882637 0.00920557882637 0.00920557882637
         0.00928387325257 0.00928387325257 0.00928387325257
         0.00936284009367 0.00936284009367 0.00936284009367
         0.00944247283041 0.00944247283041 0.00944247283041
         0.00952278915793 0.00952278915793 0.00952278915793
         0.00960378162563 0.00960378162563 0.00960378162563
         0.00968546979129 0.00968546979129 0.00968546979129
         0.00976784620434 0.00976784620434 0.00976784620434
         0.00985093042254 0.00985093042254 0.00985093042254
         0.009934714064 0.009934714064 0.009934714064
         0.0100192176178 0.0100192176178 0.0100192176178
         0.0101044327021 0.0101044327021 0.0101044327021
         0.0101903788745 0.0101903788745 0.0101903788745
         0.0102770533413 0.0102770533413 0.0102770533413
         0.0103644644842 0.0103644644842 0.0103644644842
         0.0104526197538 0.0104526197538 0.0104526197538
         0.0105415247381 0.0105415247381 0.0105415247381
         0.010631185025 0.010631185025 0.010631185025
         0.0107216089964 0.0107216089964 0.0107216089964
         0.0108128013089 0.0108128013089 0.0108128013089
         0.0109047703445 0.0109047703445 0.0109047703445
         0.0109975198284 0.0109975198284 0.0109975198284
         0.0110910590738 0.0110910590738 0.0110910590738
         0.0111853946 0.0111853946 0.0111853946
         0.011280531995 0.011280531995 0.011280531995
         0.0113764787093 0.0113764787093 0.0113764787093
         0.0114732403308 0.0114732403308 0.0114732403308
         0.0115708271042 0.0115708271042 0.0115708271042
         0.0116692446172 0.0116692446172 0.0116692446172
         0.0117684965953 0.0117684965953 0.0117684965953
         0.0118685942143 0.0118685942143 0.0118685942143
         0.0119695430622 0.0119695430622 0.0119695430622
         0.0120713496581 0.0120713496581 0.0120713496581
         0.012174022384 0.012174022384 0.012174022384
         0.0122775677592 0.0122775677592 0.0122775677592
         0.0123819960281 0.0123819960281 0.0123819960281
         0.0124873099849 0.0124873099849 0.0124873099849
         0.0125935217366 0.0125935217366 0.0125935217366
         0.0127006359398 0.0127006359398 0.0127006359398
         0.0128086600453 0.0128086600453 0.0128086600453
         0.0129176052287 0.0129176052287 0.0129176052287
         0.0130274752155 0.0130274752155 0.0130274752155
         0.0131382811815 0.0131382811815 0.0131382811815
         0.0132500287145 0.0132500287145 0.0132500287145
         0.013362727128 0.013362727128 0.013362727128
         0.013476382941 0.013476382941 0.013476382941
         0.0135910073295 0.0135910073295 0.0135910073295
         0.0137066049501 0.0137066049501 0.0137066049501
         0.0138231860474 0.0138231860474 0.0138231860474
         0.0139407590032 0.0139407590032 0.0139407590032
         0.0140593331307 0.0140593331307 0.0140593331307
         0.014178914018 0.014178914018 0.014178914018
         0.0142995128408 0.0142995128408 0.0142995128408
         0.0144211370498 0.0144211370498 0.0144211370498
         0.0145437959582 0.0145437959582 0.0145437959582
         0.0146674979478 0.0146674979478 0.0146674979478
         0.0147922532633 0.0147922532633 0.0147922532633
         0.0149180693552 0.0149180693552 0.0149180693552
         0.0150449546054 0.0150449546054 0.0150449546054
         0.0151729192585 0.0151729192585 0.0151729192585
         0.0153019744903 0.0153019744903 0.0153019744903
         0.0154321268201 0.0154321268201 0.0154321268201
         0.0155633846298 0.0155633846298 0.0155633846298
         0.0156957581639 0.0156957581639 0.0156957581639
         0.0158292576671 0.0158292576671 0.0158292576671
         0.0159638952464 0.0159638952464 0.0159638952464
         0.0160996764898 0.0160996764898 0.0160996764898
         0.0162366107106 0.0162366107106 0.0162366107106
         0.0163747109473 0.0163747109473 0.0163747109473
         0.016513986513 0.016513986513 0.016513986513
         0.0166544467211 0.0166544467211 0.0166544467211
         0.0167961008847 0.0167961008847 0.0167961008847
         0.0169389601797 0.0169389601797 0.0169389601797
         0.0170830339193 0.0170830339193 0.0170830339193
         0.0172283351421 0.0172283351421 0.0172283351421
         0.017374869436 0.017374869436 0.017374869436
         0.0175226554275 0.0175226554275 0.0175226554275
         0.0176716931164 0.0176716931164 0.0176716931164
         0.0178220011294 0.0178220011294 0.0178220011294
         0.0179735850543 0.0179735850543 0.0179735850543
         0.0181264597923 0.0181264597923 0.0181264597923
         0.0182806346565 0.0182806346565 0.0182806346565
         0.018436120823 0.018436120823 0.018436120823
         0.0185929294676 0.0185929294676 0.0185929294676
         0.0187510699034 0.0187510699034 0.0187510699034
         0.0189105570316 0.0189105570316 0.0189105570316
         0.0190714020282 0.0190714020282 0.0190714020282
         0.0192336142063 0.0192336142063 0.0192336142063
         0.0193972047418 0.0193972047418 0.0193972047418
         0.0195621885359 0.0195621885359 0.0195621885359
         0.0197285730392 0.0197285730392 0.0197285730392
         0.0198963750154 0.0198963750154 0.0198963750154
         0.0200656075031 0.0200656075031 0.0200656075031
         0.0202362760901 0.0202362760901 0.0202362760901
         0.0204083956778 0.0204083956778 0.0204083956778
         0.0205819793046 0.0205819793046 0.0205819793046
         0.0207570381463 0.0207570381463 0.0207570381463
         0.0209335889667 0.0209335889667 0.0209335889667
         0.0211116392165 0.0211116392165 0.0211116392165
         0.0212912037969 0.0212912037969 0.0212912037969
         0.0214722957462 0.0214722957462 0.0214722957462
         0.0216549281031 0.0216549281031 0.0216549281031
         0.021839113906 0.021839113906 0.021839113906
         0.0220248661935 0.0220248661935 0.0220248661935
         0.0222121998668 0.0222121998668 0.0222121998668
         0.0224011261016 0.0224011261016 0.0224011261016
         0.0225916579366 0.0225916579366 0.0225916579366
         0.0227838102728 0.0227838102728 0.0227838102728
         0.0229775998741 0.0229775998741 0.0229775998741
         0.0231730341911 0.0231730341911 0.0231730341911
         0.0233701337129 0.0233701337129 0.0233701337129
         0.0235689077526 0.0235689077526 0.0235689077526
         0.0237693730742 0.0237693730742 0.0237693730742
         0.0239715445787 0.0239715445787 0.0239715445787
         0.0241754353046 0.0241754353046 0.0241754353046
         0.0243810582906 0.0243810582906 0.0243810582906
         0.0245884303004 0.0245884303004 0.0245884303004
         0.0247975680977 0.0247975680977 0.0247975680977
         0.0250084828585 0.0250084828585 0.0250084828585
         0.0252211932093 0.0252211932093 0.0252211932093
         0.0254357103258 0.0254357103258 0.0254357103258
         0.0256520546973 0.0256520546973 0.0256520546973
         0.0258702393621 0.0258702393621 0.0258702393621
         0.0260902773589 0.0260902773589 0.0260902773589
         0.0263121891767 0.0263121891767 0.0263121891767
         0.026535987854 0.026535987854 0.026535987854
         0.0267616901547 0.0267616901547 0.0267616901547
         0.0269893109798 0.0269893109798 0.0269893109798
         0.0272188670933 0.0272188670933 0.0272188670933
         0.0274503808469 0.0274503808469 0.0274503808469
         0.0276838578284 0.0276838578284 0.0276838578284
         0.0279193241149 0.0279193241149 0.0279193241149
         0.0281568020582 0.0281568020582 0.0281568020582
         0.028396287933 0.028396287933 0.028396287933
         0.0286378134042 0.0286378134042 0.0286378134042
         0.0288813915104 0.0288813915104 0.0288813915104
         0.0291270427406 0.0291270427406 0.0291270427406
         0.029374781996 0.029374781996 0.029374781996
         0.0296246297657 0.0296246297657 0.0296246297657
         0.029876600951 0.029876600951 0.029876600951
         0.0301307160407 0.0301307160407 0.0301307160407
         0.0303869936615 0.0303869936615 0.0303869936615
         0.0306454524398 0.0306454524398 0.0306454524398
         0.030906105414 0.030906105414 0.030906105414
         0.0311689786613 0.0311689786613 0.0311689786613
         0.0314340852201 0.0314340852201 0.0314340852201
         0.0317014493048 0.0317014493048 0.0317014493048
         0.0319710858166 0.0319710858166 0.0319710858166
         0.0322430171072 0.0322430171072 0.0322430171072
         0.0325172580779 0.0325172580779 0.0325172580779
         0.0327938348055 0.0327938348055 0.0327938348055
         0.033072758466 0.033072758466 0.033072758466
         0.033354062587 0.033354062587 0.033354062587
         0.0336377546191 0.0336377546191 0.0336377546191
         0.0339238606393 0.0339238606393 0.0339238606393
         0.0342123992741 0.0342123992741 0.0342123992741
         0.0345033928752 0.0345033928752 0.0345033928752
         0.0347968637943 0.0347968637943 0.0347968637943
         0.0350928269327 0.0350928269327 0.0350928269327
         0.0353913083673 0.0353913083673 0.0353913083673
         0.0356923267245 0.0356923267245 0.0356923267245
         0.0359959118068 0.0359959118068 0.0359959118068
         0.0363020710647 0.0363020710647 0.0363020710647
         0.0366108417511 0.0366108417511 0.0366108417511
         0.0369222462177 0.0369222462177 0.0369222462177
         0.0372362881899 0.0372362881899 0.0372362881899
         0.0375530011952 0.0375530011952 0.0375530011952
         0.0378724075854 0.0378724075854 0.0378724075854
         0.0381945334375 0.0381945334375 0.0381945334375
         0.038519397378 0.038519397378 0.038519397378
         0.0388470217586 0.0388470217586 0.0388470217586
         0.0391774363816 0.0391774363816 0.0391774363816
         0.0395106598735 0.0395106598735 0.0395106598735
         0.0398467183113 0.0398467183113 0.0398467183113
         0.0401856340468 0.0401856340468 0.0401856340468
         0.040527433157 0.040527433157 0.040527433157
         0.0408721379936 0.0408721379936 0.0408721379936
         0.0412197783589 0.0412197783589 0.0412197783589
         0.0415703691542 0.0415703691542 0.0415703691542
         0.0419239476323 0.0419239476323 0.0419239476323
         0.0422805324197 0.0422805324197 0.0422805324197
         0.0426401495934 0.0426401495934 0.0426401495934
         0.0430028252304 0.0430028252304 0.0430028252304
         0.0433685854077 0.0433685854077 0.0433685854077
         0.0437374599278 0.0437374599278 0.0437374599278
         0.044109467417 0.044109467417 0.044109467417
         0.0444846376777 0.0444846376777 0.0444846376777
         0.0448630042374 0.0448630042374 0.0448630042374
         0.0452445857227 0.0452445857227 0.0452445857227
         0.0456294156611 0.0456294156611 0.0456294156611
         0.0460175126791 0.0460175126791 0.0460175126791
         0.0464089177549 0.0464089177549 0.0464089177549
         0.0468036495149 0.0468036495149 0.0468036495149
         0.0472017377615 0.0472017377615 0.0472017377615
         0.0476032085717 0.0476032085717 0.0476032085717
         0.0480080991983 0.0480080991983 0.0480080991983
         0.0484164506197 0.0484164506197 0.0484164506197
         0.0488282553852 0.0488282553852 0.0488282553852
         0.0492435619235 0.0492435619235 0.0492435619235
         0.0496624037623 0.0496624037623 0.0496624037623
         0.050084810704 0.050084810704 0.050084810704
         0.0505108051002 0.0505108051002 0.0505108051002
         0.0509404242039 0.0509404242039 0.0509404242039
         0.0513736978173 0.0513736978173 0.0513736978173
         0.0518106557429 0.0518106557429 0.0518106557429
         0.0522513315082 0.0522513315082 0.0522513315082
         0.0526957586408 0.0526957586408 0.0526957586408
         0.0531439594924 0.0531439594924 0.0531439594924
         0.0535959787667 0.0535959787667 0.0535959787667
         0.0540518350899 0.0540518350899 0.0540518350899
         0.0545115768909 0.0545115768909 0.0545115768909
         0.0549752227962 0.0549752227962 0.0549752227962
         0.0554428137839 0.0554428137839 0.0554428137839
         0.0559143833816 0.0559143833816 0.0559143833816
         0.056389965117 0.056389965117 0.056389965117
         0.0568695887923 0.0568695887923 0.0568695887923
         0.0573532916605 0.0573532916605 0.0573532916605
         0.0578411109746 0.0578411109746 0.0578411109746
         0.0583330802619 0.0583330802619 0.0583330802619
         0.0588292293251 0.0588292293251 0.0588292293251
         0.0593296028674 0.0593296028674 0.0593296028674
         0.0598342344165 0.0598342344165 0.0598342344165
         0.0603431500494 0.0603431500494 0.0603431500494
         0.0608564019203 0.0608564019203 0.0608564019203
         0.0613740123808 0.0613740123808 0.0613740123808
         0.0618960298598 0.0618960298598 0.0618960298598
         0.0624224878848 0.0624224878848 0.0624224878848
         0.0629534199834 0.0629534199834 0.0629534199834
         0.0634888708591 0.0634888708591 0.0634888708591
         0.0640288740396 0.0640288740396 0.0640288740396
         0.0645734742284 0.0645734742284 0.0645734742284
         0.0651227012277 0.0651227012277 0.0651227012277
         0.0656766071916 0.0656766071916 0.0656766071916
         0.0662352144718 0.0662352144718 0.0662352144718
         0.0667985826731 0.0667985826731 0.0667985826731
         0.0673667341471 0.0673667341471 0.0673667341471
         0.0679397210479 0.0679397210479 0.0679397210479
         0.068517588079 0.068517588079 0.068517588079
         0.0691003650427 0.0691003650427 0.0691003650427
         0.0696880966425 0.0696880966425 0.0696880966425
         0.0702808275819 0.0702808275819 0.0702808275819
         0.0708786025643 0.0708786025643 0.0708786025643
         0.0714814588428 0.0714814588428 0.0714814588428
         0.0720894485712 0.0720894485712 0.0720894485712
         0.072702601552 0.072702601552 0.072702601552
         0.0733209773898 0.0733209773898 0.0733209773898
         0.0739446058869 0.0739446058869 0.0739446058869
         0.0745735391974 0.0745735391974 0.0745735391974
         0.0752078220248 0.0752078220248 0.0752078220248
         0.0758475065231 0.0758475065231 0.0758475065231
         0.0764926299453 0.0764926299453 0.0764926299453
         0.0771432369947 0.0771432369947 0.0771432369947
         0.077799372375 0.077799372375 0.077799372375
         0.0784611031413 0.0784611031413 0.0784611031413
         0.0791284516454 0.0791284516454 0.0791284516454
         0.0798014774919 0.0798014774919 0.0798014774919
         0.0804802253842 0.0804802253842 0.0804802253842
         0.0811647549272 0.0811647549272 0.0811647549272
         0.0818551033735 0.0818551033735 0.0818551033735
         0.0825513228774 0.0825513228774 0.0825513228774
         0.0832534879446 0.0832534879446 0.0832534879446
         0.0839615985751 0.0839615985751 0.0839615985751
         0.0846757292747 0.0846757292747 0.0846757292747
         0.0853959396482 0.0853959396482 0.0853959396482
         0.0861222818494 0.0861222818494 0.0861222818494
         0.0868547931314 0.0868547931314 0.0868547931314
         0.0875935330987 0.0875935330987 0.0875935330987
         0.0883385613561 0.0883385613561 0.0883385613561
         0.0890899226069 0.0890899226069 0.0890899226069
         0.0898476839066 0.0898476839066 0.0898476839066
         0.0906118825078 0.0906118825078 0.0906118825078
         0.0913825780153 0.0913825780153 0.0913825780153
         0.0921598374844 0.0921598374844 0.0921598374844
         0.0929436981678 0.0929436981678 0.0929436981678
         0.0937342271209 0.0937342271209 0.0937342271209
