aces_1.0.0/luts/outputShaper_to_aces.spi1d
Version 1
From 0.000000 1.000000
Length 4096
Components 3
{
         0.00281250011176 0.00281250011176 0.00281250011176
         0.00281845754944 0.00281845754944 0.00281845754944
         0.00282442686148 0.00282442686148 0.00282442686148
         0.00283040944487 0.00283040944487 0.00283040944487
         0.00283640390262 0.00283640390262 0.00283640390262
         0.00284241209738 0.00284241209738 0.00284241209738
         0.00284843193367 0.00284843193367 0.00284843193367
         0.00285446550697 0.00285446550697 0.00285446550697
         0.00286051188596 0.00286051188596 0.00286051188596
         0.00286657037213 0.00286657037213 0.00286657037213
         0.00287264236249 0.00287264236249 0.00287264236249
         0.00287872622721 0.00287872622721 0.00287872622721
         0.00288482382894 0.00288482382894 0.00288482382894
         0.00289093353786 0.00289093353786 0.00289093353786
         0.00289705744945 0.00289705744945 0.00289705744945
         0.00290319300257 0.00290319300257 0.00290319300257
         0.00290934252553 0.00290934252553 0.00290934252553
         0.00291550531983 0.00291550531983 0.00291550531983
         0.0029216799885 0.0029216799885 0.0029216799885
         0.00292786862701 0.00292786862701 0.00292786862701
         0.00293406960554 0.00293406960554 0.00293406960554
         0.00294028455392 0.00294028455392 0.00294028455392
         0.00294651160948 0.00294651160948 0.00294651160948
         0.00295275310054 0.00295275310054 0.00295275310054
         0.00295900763012 0.00295900763012 0.00295900763012
         0.00296527473256 0.00296527473256 0.00296527473256
         0.00297155580483 0.00297155580483 0.00297155580483
         0.00297784921713 0.00297784921713 0.00297784921713
         0.0029841568321 0.0029841568321 0.0029841568321
         0.00299047701992 0.00299047701992 0.00299047701992
         0.00299681141041 0.00299681141041 0.00299681141041
         0.00300315814093 0.00300315814093 0.00300315814093
         0.0030095197726 0.0030095197726 0.0030095197726
         0.0030158944428 0.0030158944428 0.0030158944428
         0.00302228168584 0.00302228168584 0.00302228168584
         0.00302868383005 0.00302868383005 0.00302868383005
         0.00303509808145 0.00303509808145 0.00303509808145
         0.00304152723402 0.00304152723402 0.00304152723402
         0.00304796849377 0.00304796849377 0.00304796849377
         0.00305442488752 0.00305442488752 0.00305442488752
         0.00306089478545 0.00306089478545 0.00306089478545
         0.00306737725623 0.00306737725623 0.00306737725623
         0.00307387509383 0.00307387509383 0.00307387509383
         0.00308038503863 0.00308038503863 0.00308038503863
         0.00308690988459 0.00308690988459 0.00308690988459
         0.00309344776906 0.00309344776906 0.00309344776906
         0.00310000032187 0.00310000032187 0.00310000032187
         0.00310656568035 0.00310656568035 0.00310656568035
         0.00311314617284 0.00311314617284 0.00311314617284
         0.00311974040233 0.00311974040233 0.00311974040233
         0.00312634767033 0.00312634767033 0.00312634767033
         0.00313297007233 0.00313297007233 0.00313297007233
         0.00313960528001 0.00313960528001 0.00313960528001
         0.00314625585452 0.00314625585452 0.00314625585452
         0.00315291900188 0.00315291900188 0.00315291900188
         0.00315959774889 0.00315959774889 0.00315959774889
         0.00316629023291 0.00316629023291 0.00316629023291
         0.00317299598828 0.00317299598828 0.00317299598828
         0.0031797173433 0.0031797173433 0.0031797173433
         0.00318645173684 0.00318645173684 0.00318645173684
         0.00319320103154 0.00319320103154 0.00319320103154
         0.00319996406324 0.00319996406324 0.00319996406324
         0.00320674222894 0.00320674222894 0.00320674222894
         0.00321353366598 0.00321353366598 0.00321353366598
         0.00322034070268 0.00322034070268 0.00322034070268
         0.00322716217488 0.00322716217488 0.00322716217488
         0.00323399691842 0.00323399691842 0.00323399691842
         0.00324084726162 0.00324084726162 0.00324084726162
         0.003247711109 0.003247711109 0.003247711109
         0.00325459009036 0.00325459009036 0.00325459009036
         0.00326148304157 0.00326148304157 0.00326148304157
         0.00326839182526 0.00326839182526 0.00326839182526
         0.00327531504445 0.00327531504445 0.00327531504445
         0.00328225153498 0.00328225153498 0.00328225153498
         0.00328920409083 0.00328920409083 0.00328920409083
         0.00329617015086 0.00329617015086 0.00329617015086
         0.0033031522762 0.0033031522762 0.0033031522762
         0.00331014813855 0.00331014813855 0.00331014813855
         0.00331715983339 0.00331715983339 0.00331715983339
         0.00332418619655 0.00332418619655 0.00332418619655
         0.00333122629672 0.00333122629672 0.00333122629672
         0.00333828246221 0.00333828246221 0.00333828246221
         0.00334535283037 0.00334535283037 0.00334535283037
         0.00335243879817 0.00335243879817 0.00335243879817
         0.00335953896865 0.00335953896865 0.00335953896865
         0.00336665520445 0.00336665520445 0.00336665520445
         0.00337378564291 0.00337378564291 0.00337378564291
         0.00338093191385 0.00338093191385 0.00338093191385
         0.00338809355162 0.00338809355162 0.00338809355162
         0.00339526915923 0.00339526915923 0.00339526915923
         0.00340246106498 0.00340246106498 0.00340246106498
         0.00340966670774 0.00340966670774 0.00340966670774
         0.00341688934714 0.00341688934714 0.00341688934714
         0.00342412595637 0.00342412595637 0.00342412595637
         0.00343137886375 0.00343137886375 0.00343137886375
         0.00343864643946 0.00343864643946 0.00343864643946
         0.00344592984766 0.00344592984766 0.00344592984766
         0.00345322932117 0.00345322932117 0.00345322932117
         0.00346054299735 0.00346054299735 0.00346054299735
         0.0034678732045 0.0034678732045 0.0034678732045
         0.00347521761432 0.00347521761432 0.00347521761432
         0.00348257902078 0.00348257902078 0.00348257902078
         0.00348995462991 0.00348995462991 0.00348995462991
         0.00349734723568 0.00349734723568 0.00349734723568
         0.00350475520827 0.00350475520827 0.00350475520827
         0.00351217784919 0.00351217784919 0.00351217784919
         0.00351961771958 0.00351961771958 0.00351961771958
         0.0035270715598 0.0035270715598 0.0035270715598
         0.00353454286233 0.00353454286233 0.00353454286233
         0.00354202836752 0.00354202836752 0.00354202836752
         0.00354953133501 0.00354953133501 0.00354953133501
         0.00355704990216 0.00355704990216 0.00355704990216
         0.00356458360329 0.00356458360329 0.00356458360329
         0.00357213383541 0.00357213383541 0.00357213383541
         0.00357969943434 0.00357969943434 0.00357969943434
         0.00358728202991 0.00358728202991 0.00358728202991
         0.00359487929381 0.00359487929381 0.00359487929381
         0.00360249425285 0.00360249425285 0.00360249425285
         0.00361012364738 0.00361012364738 0.00361012364738
         0.00361777073704 0.00361777073704 0.00361777073704
         0.00362543412484 0.00362543412484 0.00362543412484
         0.00363311218098 0.00363311218098 0.00363311218098
         0.00364080816507 0.00364080816507 0.00364080816507
         0.0036485188175 0.0036485188175 0.0036485188175
         0.00365624739788 0.00365624739788 0.00365624739788
         0.00366399087943 0.00366399087943 0.00366399087943
         0.00367175182328 0.00367175182328 0.00367175182328
         0.00367952813394 0.00367952813394 0.00367952813394
         0.00368732237257 0.00368732237257 0.00368732237257
         0.00369513290934 0.00369513290934 0.00369513290934
         0.00370295858011 0.00370295858011 0.00370295858011
         0.00371080241166 0.00371080241166 0.00371080241166
         0.00371866137721 0.00371866137721 0.00371866137721
         0.00372653827071 0.00372653827071 0.00372653827071
         0.00373443216085 0.00373443216085 0.00373443216085
         0.00374234118499 0.00374234118499 0.00374234118499
         0.00375026813708 0.00375026813708 0.00375026813708
         0.00375821092166 0.00375821092166 0.00375821092166
         0.0037661716342 0.0037661716342 0.0037661716342
         0.00377414794639 0.00377414794639 0.00377414794639
         0.00378214241937 0.00378214241937 0.00378214241937
         0.003790152492 0.003790152492 0.003790152492
         0.00379818072543 0.00379818072543 0.00379818072543
         0.00380622642115 0.00380622642115 0.00380622642115
         0.00381428748369 0.00381428748369 0.00381428748369
         0.00382236693986 0.00382236693986 0.00382236693986
         0.00383046222851 0.00383046222851 0.00383046222851
         0.00383857614361 0.00383857614361 0.00383857614361
         0.00384670565836 0.00384670565836 0.00384670565836
         0.00385485379957 0.00385485379957 0.00385485379957
         0.00386301823892 0.00386301823892 0.00386301823892
         0.00387120060623 0.00387120060623 0.00387120060623
         0.00387940066867 0.00387940066867 0.00387940066867
         0.00388761702925 0.00388761702925 0.00388761702925
         0.00389585178345 0.00389585178345 0.00389585178345
         0.00390410260297 0.00390410260297 0.00390410260297
         0.00391237251461 0.00391237251461 0.00391237251461
         0.00392065849155 0.00392065849155 0.00392065849155
         0.00392896309495 0.00392896309495 0.00392896309495
         0.00393728539348 0.00393728539348 0.00393728539348
         0.00394562445581 0.00394562445581 0.00394562445581
         0.00395398214459 0.00395398214459 0.00395398214459
         0.00396235613152 0.00396235613152 0.00396235613152
         0.00397074921057 0.00397074921057 0.00397074921057
         0.00397915858775 0.00397915858775 0.00397915858775
         0.00398758752272 0.00398758752272 0.00398758752272
         0.00399603415281 0.00399603415281 0.00399603415281
         0.0040044975467 0.0040044975467 0.0040044975467
         0.00401298003271 0.00401298003271 0.00401298003271
         0.00402147881687 0.00402147881687 0.00402147881687
         0.0040299971588 0.0040299971588 0.0040299971588
         0.00403853226453 0.00403853226453 0.00403853226453
         0.00404708692804 0.00404708692804 0.00404708692804
         0.00405565788969 0.00405565788969 0.00405565788969
         0.00406424887478 0.00406424887478 0.00406424887478
         0.004072857555 0.004072857555 0.004072857555
         0.00408148393035 0.00408148393035 0.00408148393035
         0.00409012939781 0.00409012939781 0.00409012939781
         0.00409879116341 0.00409879116341 0.00409879116341
         0.00410747388378 0.00410747388378 0.00410747388378
         0.00411617290229 0.00411617290229 0.00411617290229
         0.00412489147857 0.00412489147857 0.00412489147857
         0.00413362774998 0.00413362774998 0.00413362774998
         0.00414238357916 0.00414238357916 0.00414238357916
         0.0041511580348 0.0041511580348 0.0041511580348
         0.00415994971991 0.00415994971991 0.00415994971991
         0.00416876142845 0.00416876142845 0.00416876142845
         0.00417759083211 0.00417759083211 0.00417759083211
         0.00418643979356 0.00418643979356 0.00418643979356
         0.00419530598447 0.00419530598447 0.00419530598447
         0.00420419266447 0.00420419266447 0.00420419266447
         0.00421309657395 0.00421309657395 0.00421309657395
         0.00422202097252 0.00422202097252 0.00422202097252
         0.00423096399754 0.00423096399754 0.00423096399754
         0.00423992471769 0.00423992471769 0.00423992471769
         0.00424890592694 0.00424890592694 0.00424890592694
         0.00425790436566 0.00425790436566 0.00425790436566
         0.00426692375913 0.00426692375913 0.00426692375913
         0.00427596224472 0.00427596224472 0.00427596224472
         0.00428501795977 0.00428501795977 0.00428501795977
         0.00429409462959 0.00429409462959 0.00429409462959
         0.00430318899453 0.00430318899453 0.00430318899453
         0.00431230384856 0.00431230384856 0.00431230384856
         0.00432143732905 0.00432143732905 0.00432143732905
         0.00433059083298 0.00433059083298 0.00433059083298
         0.00433976249769 0.00433976249769 0.00433976249769
         0.00434895511717 0.00434895511717 0.00434895511717
         0.00435816682875 0.00435816682875 0.00435816682875
         0.00436739716679 0.00436739716679 0.00436739716679
         0.00437664845958 0.00437664845958 0.00437664845958
         0.00438591744751 0.00438591744751 0.00438591744751
         0.00439520785585 0.00439520785585 0.00439520785585
         0.00440451642498 0.00440451642498 0.00440451642498
         0.00441384641454 0.00441384641454 0.00441384641454
         0.00442319409922 0.00442319409922 0.00442319409922
         0.00443256366998 0.00443256366998 0.00443256366998
         0.00444195233285 0.00444195233285 0.00444195233285
         0.00445136008784 0.00445136008784 0.00445136008784
         0.00446078926325 0.00446078926325 0.00446078926325
         0.00447023659945 0.00447023659945 0.00447023659945
         0.00447970582172 0.00447970582172 0.00447970582172
         0.00448919273913 0.00448919273913 0.00448919273913
         0.00449870200828 0.00449870200828 0.00449870200828
         0.00450822990388 0.00450822990388 0.00450822990388
         0.0045177792199 0.0045177792199 0.0045177792199
         0.00452734902501 0.00452734902501 0.00452734902501
         0.00453693745658 0.00453693745658 0.00453693745658
         0.00454654777423 0.00454654777423 0.00454654777423
         0.00455617671832 0.00455617671832 0.00455617671832
         0.0045658275485 0.0045658275485 0.0045658275485
         0.00457549886778 0.00457549886778 0.00457549886778
         0.00458518974483 0.00458518974483 0.00458518974483
         0.0045949020423 0.0045949020423 0.0045949020423
         0.00460463343188 0.00460463343188 0.00460463343188
         0.00461438717321 0.00461438717321 0.00461438717321
         0.00462415954098 0.00462415954098 0.00462415954098
         0.00463395472616 0.00463395472616 0.00463395472616
         0.00464376900345 0.00464376900345 0.00464376900345
         0.00465360516682 0.00465360516682 0.00465360516682
         0.00466346275061 0.00466346275061 0.00466346275061
         0.00467333942652 0.00467333942652 0.00467333942652
         0.00468323891982 0.00468323891982 0.00468323891982
         0.00469315703958 0.00469315703958 0.00469315703958
         0.00470309844241 0.00470309844241 0.00470309844241
         0.00471305893734 0.00471305893734 0.00471305893734
         0.00472304224968 0.00472304224968 0.00472304224968
         0.00473304511979 0.00473304511979 0.00473304511979
         0.00474307080731 0.00474307080731 0.00474307080731
         0.00475311744958 0.00475311744958 0.00475311744958
         0.00476318411529 0.00476318411529 0.00476318411529
         0.0047732735984 0.0047732735984 0.0047732735984
         0.00478338310495 0.00478338310495 0.00478338310495
         0.00479351496324 0.00479351496324 0.00479351496324
         0.00480366731063 0.00480366731063 0.00480366731063
         0.00481384247541 0.00481384247541 0.00481384247541
         0.00482403766364 0.00482403766364 0.00482403766364
         0.00483425613493 0.00483425613493 0.00483425613493
         0.00484449602664 0.00484449602664 0.00484449602664
         0.00485475640744 0.00485475640744 0.00485475640744
         0.00486503960565 0.00486503960565 0.00486503960565
         0.00487534329295 0.00487534329295 0.00487534329295
         0.00488567026332 0.00488567026332 0.00488567026332
         0.00489601911977 0.00489601911977 0.00489601911977
         0.00490638846532 0.00490638846532 0.00490638846532
         0.00491678155959 0.00491678155959 0.00491678155959
         0.00492719421163 0.00492719421163 0.00492719421163
         0.00493763107806 0.00493763107806 0.00493763107806
         0.00494808843359 0.00494808843359 0.00494808843359
         0.00495857000351 0.00495857000351 0.00495857000351
         0.0049690711312 0.0049690711312 0.0049690711312
         0.00497959693894 0.00497959693894 0.00497959693894
         0.00499014463276 0.00499014463276 0.00499014463276
         0.00500071328133 0.00500071328133 0.00500071328133
         0.0050113061443 0.0050113061443 0.0050113061443
         0.00502191949636 0.00502191949636 0.00502191949636
         0.0050325570628 0.0050325570628 0.0050325570628
         0.00504321698099 0.00504321698099 0.00504321698099
         0.00505389785394 0.00505389785394 0.00505389785394
         0.00506460340694 0.00506460340694 0.00506460340694
         0.00507532944903 0.00507532944903 0.00507532944903
         0.00508608017117 0.00508608017117 0.00508608017117
         0.00509685184807 0.00509685184807 0.00509685184807
         0.00510764820501 0.00510764820501 0.00510764820501
         0.00511846551672 0.00511846551672 0.00511846551672
         0.00512930750847 0.00512930750847 0.00512930750847
         0.00514017231762 0.00514017231762 0.00514017231762
         0.00515105901286 0.00515105901286 0.00515105901286
         0.00516196992248 0.00516196992248 0.00516196992248
         0.00517290225253 0.00517290225253 0.00517290225253
         0.00518385972828 0.00518385972828 0.00518385972828
         0.00519483862445 0.00519483862445 0.00519483862445
         0.00520584220067 0.00520584220067 0.00520584220067
         0.00521686812863 0.00521686812863 0.00521686812863
         0.00522791827098 0.00522791827098 0.00522791827098
         0.00523899216205 0.00523899216205 0.00523899216205
         0.0052500879392 0.0052500879392 0.0052500879392
         0.0052612083964 0.0052612083964 0.0052612083964
         0.00527235120535 0.00527235120535 0.00527235120535
         0.00528351916 0.00528351916 0.00528351916
         0.00529470900074 0.00529470900074 0.00529470900074
         0.00530592445284 0.00530592445284 0.00530592445284
         0.00531716179103 0.00531716179103 0.00531716179103
         0.00532842474058 0.00532842474058 0.00532842474058
         0.00533971143886 0.00533971143886 0.00533971143886
         0.00535102048889 0.00535102048889 0.00535102048889
         0.00536235515028 0.00536235515028 0.00536235515028
         0.00537371169776 0.00537371169776 0.00537371169776
         0.00538509478793 0.00538509478793 0.00538509478793
         0.00539650162682 0.00539650162682 0.00539650162682
         0.00540793081746 0.00540793081746 0.00540793081746
         0.00541938561946 0.00541938561946 0.00541938561946
         0.00543086323887 0.00543086323887 0.00543086323887
         0.00544236740097 0.00544236740097 0.00544236740097
         0.00545389344916 0.00545389344916 0.00545389344916
         0.00546544604003 0.00546544604003 0.00546544604003
         0.00547702098265 0.00547702098265 0.00547702098265
         0.00548862246796 0.00548862246796 0.00548862246796
         0.00550024909899 0.00550024909899 0.00550024909899
         0.00551189761609 0.00551189761609 0.00551189761609
         0.00552357314155 0.00552357314155 0.00552357314155
         0.0055352714844 0.0055352714844 0.0055352714844
         0.00554699636996 0.00554699636996 0.00554699636996
         0.00555874407291 0.00555874407291 0.00555874407291
         0.00557051878422 0.00557051878422 0.00557051878422
         0.0055823167786 0.0055823167786 0.0055823167786
         0.00559414085001 0.00559414085001 0.00559414085001
         0.00560599053279 0.00560599053279 0.00560599053279
         0.00561786349863 0.00561786349863 0.00561786349863
         0.00562976393849 0.00562976393849 0.00562976393849
         0.00564168673009 0.00564168673009 0.00564168673009
         0.0056536369957 0.0056536369957 0.0056536369957
         0.00566561287269 0.00566561287269 0.00566561287269
         0.00567761156708 0.00567761156708 0.00567761156708
         0.00568963587284 0.00568963587284 0.00568963587284
         0.00570168858394 0.00570168858394 0.00570168858394
         0.00571376597509 0.00571376597509 0.00571376597509
         0.0057258666493 0.0057258666493 0.0057258666493
         0.00573799572885 0.00573799572885 0.00573799572885
         0.00575014809147 0.00575014809147 0.00575014809147
         0.0057623279281 0.0057623279281 0.0057623279281
         0.00577453384176 0.00577453384176 0.00577453384176
         0.00578676350415 0.00578676350415 0.00578676350415
         0.00579901924357 0.00579901924357 0.00579901924357
         0.00581130292267 0.00581130292267 0.00581130292267
         0.00582361221313 0.00582361221313 0.00582361221313
         0.00583594664931 0.00583594664931 0.00583594664931
         0.00584830809385 0.00584830809385 0.00584830809385
         0.00586069421843 0.00586069421843 0.00586069421843
         0.00587310874835 0.00587310874835 0.00587310874835
         0.00588554888964 0.00588554888964 0.00588554888964
         0.00589801371098 0.00589801371098 0.00589801371098
         0.00591050740331 0.00591050740331 0.00591050740331
         0.00592302531004 0.00592302531004 0.00592302531004
         0.00593557115644 0.00593557115644 0.00593557115644
         0.00594814214855 0.00594814214855 0.00594814214855
         0.00596074154601 0.00596074154601 0.00596074154601
         0.0059733656235 0.0059733656235 0.0059733656235
         0.00598601903766 0.00598601903766 0.00598601903766
         0.00599869852886 0.00599869852886 0.00599869852886
         0.0060114027001 0.0060114027001 0.0060114027001
         0.006024136208 0.006024136208 0.006024136208
         0.00603689486161 0.00603689486161 0.00603689486161
         0.00604968238622 0.00604968238622 0.00604968238622
         0.00606249691918 0.00606249691918 0.00606249691918
         0.00607533659786 0.00607533659786 0.00607533659786
         0.00608820375055 0.00608820375055 0.00608820375055
         0.00610109977424 0.00610109977424 0.00610109977424
         0.00611402327195 0.00611402327195 0.00611402327195
         0.0061269714497 0.0061269714497 0.0061269714497
         0.0061399503611 0.0061399503611 0.0061399503611
         0.00615295348689 0.00615295348689 0.00615295348689
         0.00616598688066 0.00616598688066 0.00616598688066
         0.00617904821411 0.00617904821411 0.00617904821411
         0.00619213469326 0.00619213469326 0.00619213469326
         0.00620524864644 0.00620524864644 0.00620524864644
         0.00621839286759 0.00621839286759 0.00621839286759
         0.00623156502843 0.00623156502843 0.00623156502843
         0.00624476233497 0.00624476233497 0.00624476233497
         0.00625799037516 0.00625799037516 0.00625799037516
         0.00627124449238 0.00627124449238 0.00627124449238
         0.00628452794626 0.00628452794626 0.00628452794626
         0.00629783980548 0.00629783980548 0.00629783980548
         0.00631117774174 0.00631117774174 0.00631117774174
         0.00632454641163 0.00632454641163 0.00632454641163
         0.0063379406929 0.0063379406929 0.0063379406929
         0.00635136663914 0.00635136663914 0.00635136663914
         0.00636481773108 0.00636481773108 0.00636481773108
         0.00637830002233 0.00637830002233 0.00637830002233
         0.00639180839062 0.00639180839062 0.00639180839062
         0.00640534749255 0.00640534749255 0.00640534749255
         0.00641891546547 0.00641891546547 0.00641891546547
         0.0064325099811 0.0064325099811 0.0064325099811
         0.00644613569602 0.00644613569602 0.00644613569602
         0.00645978748798 0.00645978748798 0.00645978748798
         0.00647347094491 0.00647347094491 0.00647347094491
         0.00648718280718 0.00648718280718 0.00648718280718
         0.00650092260912 0.00650092260912 0.00650092260912
         0.00651469035074 0.00651469035074 0.00651469035074
         0.00652849022299 0.00652849022299 0.00652849022299
         0.00654231896624 0.00654231896624 0.00654231896624
         0.00655617471784 0.00655617471784 0.00655617471784
