aces_1.0.0/luts/Output_Shaper_to_linear.spi1d
Version 1
From 0.000000 1.000000
Length 1024
Components 1
{
         0.00281250011176
         0.00283642183058
         0.00286054681055
         0.00288487761281
         0.00290941470303
         0.00293416087516
         0.00295911729336
         0.00298428582028
         0.00300966901705
         0.00303526758216
         0.00306108430959
         0.00308712013066
         0.0031133776065
         0.00313985836692
         0.00316656450741
         0.00319349789061
         0.0032206599135
         0.00324805337004
         0.00327567965724
         0.00330354226753
         0.00333163933828
         0.00335997762159
         0.00338855572045
         0.00341737712733
         0.00344644393772
         0.00347575754859
         0.00350532052107
         0.00353513518348
         0.00356520316564
         0.00359552702866
         0.00362610863522
         0.00365695077926
         0.00368805509061
         0.0037194234319
         0.00375105906278
         0.00378296361305
         0.00381513964385
         0.00384758948348
         0.0038803149946
         0.00391331873834
         0.0039466037415
         0.00398017186671
         0.00401402497664
         0.0040481663309
         0.00408259779215
         0.00411732262
         0.00415234221146
         0.00418766029179
         0.004223278258
         0.0042591993697
         0.00429542595521
         0.00433196080849
         0.00436880625784
         0.00440596556291
         0.00444344012067
         0.00448123365641
         0.0045193489641
         0.00455778790638
         0.00459655607119
         0.00463565066457
         0.00467508053407
         0.00471484288573
         0.00475494656712
         0.0047953883186
         0.00483617698774
         0.00487730978057
         0.00491879507899
         0.00496063008904
         0.00500282458961
         0.00504537625238
         0.00508828973398
         0.00513156782836
         0.00517521472648
         0.00521923229098
         0.00526362471282
         0.00530839432031
         0.00535354483873
         0.00539907952771
         0.00544500118122
         0.00549131352454
         0.00553802028298
         0.00558512378484
         0.0056326277554
         0.00568053591996
         0.00572885200381
         0.00577757880092
         0.0058267195709
         0.00587627897039
         0.00592625979334
         0.00597666623071
         0.0060275006108
         0.00607876712456
         0.00613046996295
         0.00618261285126
         0.00623519858345
         0.00628823274747
         0.00634171720594
         0.0063956566155
         0.00645005516708
         0.00650491565466
         0.00656024366617
         0.00661604385823
         0.00667231436819
         0.0067290677689
         0.00678629940376
         0.00684402277693
         0.00690223276615
         0.00696094147861
         0.00702014798298
         0.00707985786721
         0.00714007532224
         0.00720080547035
         0.00726205157116
         0.00732381874695
         0.00738611212
         0.00744893448427
         0.00751229189336
         0.00757618714124
         0.00764062674716
         0.00770561397076
         0.0077711539343
         0.00783725176007
         0.00790391117334
         0.00797113776207
         0.00803893711418
         0.00810731202364
         0.00817626900971
         0.00824581179768
         0.00831594690681
         0.00838667806238
         0.00845801085234
         0.00852994993329
         0.0086025018245
         0.00867567025125
         0.0087494617328
         0.00882387999445
         0.00889893434942
         0.00897462107241
         0.00905095785856
         0.00912793818861
         0.00920557882637
         0.00928387325257
         0.00936284009367
         0.00944247283041
         0.00952278915793
         0.00960378162563
         0.00968546979129
         0.00976784620434
         0.00985093042254
         0.009934714064
         0.0100192176178
         0.0101044327021
         0.0101903788745
         0.0102770533413
         0.0103644644842
         0.0104526197538
         0.0105415247381
         0.010631185025
         0.0107216089964
         0.0108128013089
         0.0109047703445
         0.0109975198284
         0.0110910590738
         0.0111853946
         0.011280531995
         0.0113764787093
         0.0114732403308
         0.0115708271042
         0.0116692446172
         0.0117684965953
         0.0118685942143
         0.0119695430622
         0.0120713496581
         0.012174022384
         0.0122775677592
         0.0123819960281
         0.0124873099849
         0.0125935217366
         0.0127006359398
         0.0128086600453
         0.0129176052287
         0.0130274752155
         0.0131382811815
         0.0132500287145
         0.013362727128
         0.013476382941
         0.0135910073295
         0.0137066049501
         0.0138231860474
         0.0139407590032
         0.0140593331307
         0.014178914018
         0.0142995128408
         0.0144211370498
         0.0145437959582
         0.0146674979478
         0.0147922532633
         0.0149180693552
         0.0150449546054
         0.0151729192585
         0.0153019744903
         0.0154321268201
         0.0155633846298
         0.0156957581639
         0.0158292576671
         0.0159638952464
         0.0160996764898
         0.0162366107106
         0.0163747109473
         0.016513986513
         0.0166544467211
         0.0167961008847
         0.0169389601797
         0.0170830339193
         0.0172283351421
         0.017374869436
         0.0175226554275
         0.0176716931164
         0.0178220011294
         0.0179735850543
         0.0181264597923
         0.0182806346565
         0.018436120823
         0.0185929294676
         0.0187510699034
         0.0189105570316
         0.0190714020282
         0.0192336142063
         0.0193972047418
         0.0195621885359
         0.0197285730392
         0.0198963750154
         0.0200656075031
         0.0202362760901
         0.0204083956778
         0.0205819793046
         0.0207570381463
         0.0209335889667
         0.0211116392165
         0.0212912037969
         0.0214722957462
         0.0216549281031
         0.021839113906
         0.0220248661935
         0.0222121998668
         0.0224011261016
         0.0225916579366
         0.0227838102728
         0.0229775998741
         0.0231730341911
         0.0233701337129
         0.0235689077526
         0.0237693730742
         0.0239715445787
         0.0241754353046
         0.0243810582906
         0.0245884303004
         0.0247975680977
         0.0250084828585
         0.0252211932093
         0.0254357103258
         0.0256520546973
         0.0258702393621
         0.0260902773589
         0.0263121891767
         0.026535987854
         0.0267616901547
         0.0269893109798
         0.0272188670933
         0.0274503808469
         0.0276838578284
         0.0279193241149
         0.0281568020582
         0.028396287933
         0.0286378134042
         0.0288813915104
         0.0291270427406
         0.029374781996
         0.0296246297657
         0.029876600951
         0.0301307160407
         0.0303869936615
         0.0306454524398
         0.030906105414
         0.0311689786613
         0.0314340852201
         0.0317014493048
         0.0319710858166
         0.0322430171072
         0.0325172580779
         0.0327938348055
         0.033072758466
         0.033354062587
         0.0336377546191
         0.0339238606393
         0.0342123992741
         0.0345033928752
         0.0347968637943
         0.0350928269327
         0.0353913083673
         0.0356923267245
         0.0359959118068
         0.0363020710647
         0.0366108417511
         0.0369222462177
         0.0372362881899
         0.0375530011952
         0.0378724075854
         0.0381945334375
         0.038519397378
         0.0388470217586
         0.0391774363816
         0.0395106598735
         0.0398467183113
         0.0401856340468
         0.040527433157
         0.0408721379936
         0.0412197783589
         0.0415703691542
         0.0419239476323
         0.0422805324197
         0.0426401495934
         0.0430028252304
         0.0433685854077
         0.0437374599278
         0.044109467417
         0.0444846376777
         0.0448630042374
         0.0452445857227
         0.0456294156611
         0.0460175126791
         0.0464089177549
         0.0468036495149
         0.0472017377615
         0.0476032085717
         0.0480080991983
         0.0484164506197
         0.0488282553852
         0.0492435619235
         0.0496624037623
         0.050084810704
         0.0505108051002
         0.0509404242039
         0.0513736978173
         0.0518106557429
         0.0522513315082
         0.0526957586408
         0.0531439594924
         0.0535959787667
         0.0540518350899
         0.0545115768909
         0.0549752227962
         0.0554428137839
         0.0559143833816
         0.056389965117
         0.0568695887923
         0.0573532916605
         0.0578411109746
         0.0583330802619
         0.0588292293251
         0.0593296028674
         0.0598342344165
         0.0603431500494
         0.0608564019203
         0.0613740123808
         0.0618960298598
         0.0624224878848
         0.0629534199834
         0.0634888708591
         0.0640288740396
         0.0645734742284
         0.0651227012277
         0.0656766071916
         0.0662352144718
         0.0667985826731
         0.0673667341471
         0.0679397210479
         0.068517588079
         0.0691003650427
         0.0696880966425
         0.0702808275819
         0.0708786025643
         0.0714814588428
         0.0720894485712
         0.072702601552
         0.0733209773898
         0.0739446058869
         0.0745735391974
         0.0752078220248
         0.0758475065231
         0.0764926299453
         0.0771432369947
         0.077799372375
         0.0784611031413
         0.0791284516454
         0.0798014774919
         0.0804802253842
         0.0811647549272
         0.0818551033735
         0.0825513228774
         0.0832534879446
         0.0839615985751
         0.0846757292747
         0.0853959396482
         0.0861222818494
         0.0868547931314
         0.0875935330987
         0.0883385613561
         0.0890899226069
         0.0898476839066
         0.0906118825078
         0.0913825780153
         0.0921598374844
         0.0929436981678
         0.0937342271209
         0.0945314913988
         0.0953355282545
         0.0961464047432
         0.0969641804695
         0.0977889001369
         0.0986206457019
         0.0994594693184
         0.10030541569
         0.101158559322
         0.102018974721
         0.10288669914
         0.103761799634
         0.104644343257
         0.105534389615
         0.106432020664
         0.107337281108
         0.108250238001
         0.109170988202
         0.110099546611
         0.111036002636
         0.111980415881
         0.112932860851
         0.113893412054
         0.114862129092
         0.115839093924
         0.116824358702
         0.117818012834
         0.118820115924
         0.119830742478
         0.120849959552
         0.121877841651
         0.122914478183
         0.123959928751
         0.125014275312
         0.126077577472
         0.127149924636
         0.128231406212
         0.129322081804
         0.130422025919
         0.131531327963
         0.132650062442
         0.133778318763
         0.134916186333
         0.136063709855
         0.137220993638
         0.138388127089
         0.139565184712
         0.140752255917
         0.141949430108
         0.143156826496
         0.144374459982
         0.145602419972
         0.146840855479
         0.148089811206
         0.14934939146
         0.150619670749
         0.15190076828
         0.15319275856
         0.154495745897
         0.155809804797
         0.157135039568
         0.158471554518
         0.159819439054
         0.161178782582
         0.162549689412
         0.16393224895
         0.165326580405
         0.166732758284
         0.168150901794
         0.169581115246
         0.171023488045
         0.172478124499
         0.173945143819
         0.17542463541
         0.176916718483
         0.178421467543
         0.179939031601
         0.181469514966
         0.183013007045
         0.184569612145
         0.18613947928
         0.187722682953
         0.189319416881
         0.190929606557
         0.192553624511
         0.194191321731
         0.195843085647
         0.197508767247
         0.199188739061
         0.200882866979
         0.20259155333
         0.204314619303
         0.206052497029
         0.207805007696
         0.209572568536
         0.211355015635
         0.213152751327
         0.2149656564
         0.216794118285
         0.218637987971
         0.220497697592
         0.222373053432
         0.224264532328
         0.226171940565
         0.228095710278
         0.230035722256
         0.231992349029
         0.233965501189
         0.235955566168
         0.237962394953
         0.239986479282
         0.242027595639
         0.244086250663
         0.246162235737
         0.2482560426
         0.250367492437
         0.252497106791
         0.254644632339
         0.256810575724
         0.258994787931
         0.261197775602
         0.263419300318
         0.26565989852
         0.267919391394
         0.270198255777
         0.272496342659
         0.274814158678
         0.277151495218
         0.279508888721
         0.28188636899
         0.284283936024
         0.286701917648
         0.289140462875
         0.291599720716
         0.29407992959
         0.296581238508
         0.299103796482
         0.30164784193
         0.304213494062
         0.306800991297
         0.309410482645
         0.312042176723
         0.314696252346
         0.317372918129
         0.320072323084
         0.322794675827
         0.325540214777
         0.328309118748
         0.331101536751
         0.333917707205
         0.336757868528
         0.339622169733
         0.342510819435
         0.345424026251
         0.348362028599
         0.351325035095
         0.354313224554
         0.357326835394
         0.360366076231
         0.363431185484
         0.366522341967
         0.369639784098
         0.372783780098
         0.375954478979
         0.379152148962
         0.382377028465
         0.385629355907
         0.388909339905
         0.392217218876
         0.395553201437
         0.398917585611
         0.402310550213
         0.405732423067
         0.409183353186
         0.412663668394
         0.416173577309
         0.419713377953
         0.42328324914
         0.426883459091
         0.43051430583
         0.434176057577
         0.437868952751
         0.441593259573
         0.445349186659
         0.449137121439
         0.45295727253
         0.456809908152
         0.460695296526
         0.464613735676
         0.468565493822
         0.472550868988
         0.476570159197
         0.480623632669
         0.484711915255
         0.488834619522
         0.492992401123
         0.497185558081
         0.501414358616
         0.505679130554
         0.509980201721
         0.51431787014
         0.518692374229
         0.523104131222
         0.527553379536
         0.532040476799
         0.536565721035
         0.541129529476
         0.545732080936
         0.550373792648
         0.55505502224
         0.559776008129
         0.564537227154
         0.569338858128
         0.574181377888
         0.579065084457
         0.583990335464
         0.588957488537
         0.593966841698
         0.59901881218
         0.604113817215
         0.609252035618
         0.614434063435
         0.619660139084
         0.624930620193
         0.630245983601
         0.635606527328
         0.641012728214
         0.646464824677
         0.651963353157
         0.657508611679
         0.66310107708
         0.668741106987
         0.674429059029
         0.680165410042
         0.685950517654
         0.691784918308
         0.697668850422
         0.703602910042
         0.709587395191
         0.715622782707
         0.721709251404
         0.727848052979
         0.734038472176
         0.740282058716
         0.746578276157
         0.752928555012
         0.759332358837
         0.765791118145
         0.772304296494
         0.778873383999
         0.785497844219
         0.792179167271
         0.798916816711
         0.805712163448
         0.812564909458
         0.819476485252
         0.826446294785
         0.833476424217
         0.840565264225
         0.847714960575
         0.854924917221
         0.862196743488
         0.86952996254
         0.876926004887
         0.884384453297
         0.891906797886
         0.899492681026
         0.90714353323
         0.914858937263
         0.922640621662
         0.93048787117
         0.938402414322
         0.946383714676
         0.954433500767
         0.962551116943
         0.97073841095
         0.97899466753
         0.987321853638
         0.995719194412
         1.00418865681
         1.01272940636
         1.02134346962
         1.03003013134
         1.03879141808
         1.04762661457
         1.05653750896
         1.06552350521
         1.07458674908
         1.08372616768
         1.09294426441
         1.10223984718
         1.11161530018
         1.12106990814
         1.13060545921
         1.14022147655
         1.14991998672
         1.15970027447
         1.16956448555
         1.17951178551
         1.18954455853
         1.19966185093
         1.2098659277
         1.22015607357
         1.23053455353
         1.24100041389
         1.25155615807
         1.26220083237
         1.27293694019
         1.28376352787
         1.29468297958
         1.30569446087
         1.31680047512
         1.32800006866
         1.3392957449
         1.35068666935
         1.36217546463
         1.37376093864
         1.38544595242
         1.39722943306
         1.40911400318
         1.42109870911
         1.43318641186
         1.44537687302
         1.45766997337
         1.47006881237
         1.4825719595
         1.49518227577
         1.50789916515
         1.52072525024
         1.53365921974
         1.5467042923
         1.55985915661
         1.57312703133
         1.58650672436
         1.60000133514
         1.61360967159
         1.62733459473
         1.6411755085
         1.65513503551
         1.66921234131
         1.6834102869
         1.69772803783
         1.71216845512
         1.72673082352
         1.74141800404
         1.75622916222
         1.77116727829
         1.78623139858
         1.80142486095
         1.81674611568
         1.83219909668
         1.84778237343
         1.86349928379
         1.87934863567
         1.89533412457
         1.91145420074
         1.92771267891
         1.94410824776
         1.96064460278
         1.97732007504
         1.99413883686
         2.01109933853
         2.02820539474
         2.0454556942
         2.06285405159
         2.08039879799
         2.09809446335
         2.11593914032
         2.13393688202
         2.15208625793
         2.1703915596
         2.18885111809
         2.20746898651
         2.22624397278
         2.24518013
         2.26427578926
         2.28353524208
         2.30295705795
         2.32254576683
         2.34229922295
         2.36222243309
         2.38231372833
         2.40257716179
         2.42301154137
         2.4436211586
         2.46440625191
         2.48536801338
         2.50650668144
         2.52782654762
         2.54932618141
         2.57101035118
         2.59287714958
         2.61493182182
         2.63717222214
         2.65960359573
         2.68222379684
         2.7050383091
         2.72804522514
         2.75124955177
         2.77464938164
         2.79825019836
         2.82204961777
         2.84605360031
         2.87025976181
         2.89467382431
         2.91929340363
         2.9441242218
         2.96916484833
         2.99442005157
         3.01988792419
         3.04557466507
         3.0714776516
         3.09760332108
         3.12394881248
         3.15052056313
         3.17731618881
         3.20434188843
         3.2315955162
         3.25908303261
         3.28680181503
         3.31475901604
         3.34295153618
         3.37138605118
         3.40006017685
         3.42898082733
         3.45814466476
         3.48755908012
         3.51722121239
         3.54713845253
         3.57730722427
         3.60773515701
         3.63841962814
         3.6693675518
         3.70057582855
         3.7320523262
         3.76379418373
         3.7958085537
         3.82809257507
         3.86065363884
         3.89348888397
         3.9266064167
         3.96000289917
         3.99368596077
         4.02765274048
         4.06191158295
         4.09645843506
         4.13130235672
         4.16644001007
         4.20187902451
         4.23761940002
         4.27366113663
         4.31001234055
         4.34666967392
         4.38364171982
         4.42092514038
         4.45852899551
         4.49644947052
         4.53469514847
         4.57326412201
         4.61216306686
         4.65139055252
         4.69095420837
         4.73085165024
         4.77109146118
         4.81167078018
         4.85259771347
         4.89386987686
         4.93549633026
         4.97747373581
         5.01981115341
         5.06250524521
         5.10556650162
         5.14899015427
         5.19278621674
         5.23695230484
         5.28149652481
         5.32641649246
         5.37172222137
         5.41740989685
         5.46348905563
         5.50995731354
         5.55682373047
         5.60408592224
         5.65175294876
         5.69982242584
         5.74830389023
         5.7971944809
         5.84650373459
         5.89622926712
         5.94638204575
         5.99695682526
         6.04796648026
         6.09940481186
         6.15128517151
         6.20360326767
         6.2563700676
         6.30958175659
         6.36324977875
         6.41736984253
         6.47195529938
         6.52700042725
         6.5825176239
         6.63850355148
         6.69496917725
         6.75191116333
         6.80934143066
         6.86725664139
         6.92566823959
         6.98457193375
         7.04398202896
         7.10389184952
         7.16431665421
         7.22525024414
         7.28671216965
         7.3486866951
         7.41119337082
         7.47422647476
         7.53780126572
         7.6019115448
         7.66657161713
         7.731777668
         7.79754257202
         7.86386203766
         7.9307513237
         7.99820327759
         8.06623458862
         8.13483905792
         8.20403289795
         8.27380943298
         8.34418487549
         8.41515445709
         8.48673152924
         8.5589132309
         8.63171291351
         8.70512771606
         8.77917194366
         8.85383987427
         8.92914962769
         9.00509357452
         9.08168888092
         9.1589307785
         9.23683452606
         9.3153963089
         9.3946313858
         9.47453403473
         9.55512332916
         9.63639068604
         9.71835613251
         9.80101203918
         9.88437843323
         9.96844673157
         10.0532360077
         10.1387405396
         10.2249794006
         10.3119440079
         10.3996562958
         10.4881067276
         10.5773172379
         10.6672782898
         10.7580127716
         10.8495121002
         10.9417963028
         11.0348577499
         11.1287183762
         11.2233695984
         11.3188343048
         11.415102005
         11.5121974945
         11.6101102829
         11.7088651657
         11.8084506989
         11.9088907242
         12.0101776123
         12.1123352051
         12.2153530121
