aces_1.0.0/luts/Protune_Flat_to_linear.spi1d
Version 1
From 0.000000 1.000000
Length 1024
Components 1
{
         0.0
         4.13553243561e-05
         8.29021955724e-05
         0.000124641504954
         0.000166574143805
         0.000208701007068
         0.000251022982411
         0.000293541001156
         0.000336255936418
         0.000379168748623
         0.000422280281782
         0.000465591525426
         0.00050910335267
         0.000552816782147
         0.000596732599661
         0.000640851911157
         0.000685175531544
         0.00072970445035
         0.000774439598899
         0.000819381966721
         0.000864532485139
         0.000909892143682
         0.000955461931881
         0.00100124278106
         0.00104723556433
         0.00109344150405
         0.00113986141514
         0.00118649634533
         0.00123334734235
         0.00128041522112
         0.00132770114578
         0.00137520616408
         0.00142293120734
         0.00147087720688
         0.00151904532686
         0.00156743661501
         0.00161605188623
         0.00166489253752
         0.00171395926736
         0.00176325323991
         0.00181277561933
         0.00186252733693
         0.00191250955686
         0.00196272321045
         0.00201316946186
         0.00206384947523
         0.00211476394907
         0.00216591451317
         0.00221730186604
         0.00226892740466
         0.00232079182751
         0.0023728965316
         0.00242524268106
         0.00247783120722
         0.00253066350706
         0.00258374027908
         0.00263706292026
         0.00269063259475
         0.00274445046671
         0.00279851746745
         0.00285283499397
         0.00290740397759
         0.00296222581528
         0.00301730167121
         0.00307263247669
         0.00312821962871
         0.00318406405859
         0.00324016739614
         0.0032965305727
         0.0033531547524
         0.00341004109941
         0.00346719101071
         0.00352460565045
         0.00358228641562
         0.00364023400471
         0.00369845028035
         0.00375693594106
         0.00381569261663
         0.00387472147122
         0.00393402390182
         0.00399360060692
         0.00405345344916
         0.00411358382553
         0.00417399220169
         0.00423468044028
         0.00429564993829
         0.0043569020927
         0.00441843783483
         0.00448025809601
         0.00454236520454
         0.00460476009175
         0.00466744368896
         0.00473041739315
         0.00479368306696
         0.00485724164173
         0.00492109498009
         0.00498524354771
         0.00504968967289
         0.00511443428695
         0.00517947832122
         0.00524482410401
         0.00531047256663
         0.00537642464042
         0.00544268265367
         0.00550924707204
         0.00557612022385
         0.00564330304042
         0.00571079691872
         0.00577860372141
         0.00584672437981
         0.0059151602909
         0.00598391378298
         0.00605298532173
         0.00612237676978
         0.00619208952412
         0.00626212544739
         0.00633248547092
         0.00640317192301
         0.00647418526933
         0.00654552783817
         0.00661720056087
         0.00668920530006
         0.0067615439184
         0.0068342173472
         0.00690722698346
         0.00698057562113
         0.00705426326022
         0.00712829269469
         0.00720266485587
         0.00727738114074
         0.00735244387761
         0.00742785446346
         0.00750361382961
         0.00757972430438
         0.00765618728474
         0.00773300463334
         0.00781017774716
         0.00788770802319
         0.0079655982554
         0.00804384797812
         0.00812246091664
         0.00820143800229
         0.00828078016639
         0.00836049113423
         0.00844056997448
         0.00852102041245
         0.00860184337944
         0.00868304073811
         0.00876461435109
         0.00884656514972
         0.00892889592797
         0.00901160854846
         0.00909470394254
         0.00917818397284
         0.009262050502
         0.00934630539268
         0.00943095143884
         0.00951598864049
         0.0096014207229
         0.00968724768609
         0.00977347232401
         0.00986009649932
         0.00994712114334
         0.0100345499814
         0.0101223830134
         0.0102106230333
         0.0102992719039
         0.0103883314878
         0.0104778036475
         0.0105676902458
         0.010657992214
         0.0107487132773
         0.0108398543671
         0.0109314182773
         0.0110234059393
         0.0111158192158
         0.0112086609006
         0.0113019319251
         0.0113956360146
         0.0114897731692
         0.011584347114
         0.0116793587804
         0.0117748100311
         0.0118707045913
         0.011967042461
         0.0120638264343
         0.0121610593051
         0.0122587420046
         0.012356877327
         0.0124554671347
         0.0125545132905
         0.0126540185884
         0.0127539848909
         0.0128544140607
         0.0129553079605
         0.0130566703156
         0.0131585011259
         0.0132608041167
         0.0133635811508
         0.0134668331593
         0.013570564799
         0.0136747760698
         0.0137794697657
         0.0138846486807
         0.0139903146774
         0.0140964705497
         0.0142031181604
         0.014310259372
         0.0144178969786
         0.0145260328427
         0.0146346697584
         0.0147438095883
         0.0148534560576
         0.0149636091664
         0.01507427264
         0.0151854492724
         0.0152971399948
         0.0154093485326
         0.0155220767483
         0.0156353283674
         0.0157491024584
         0.0158634036779
         0.0159782357514
         0.0160935986787
         0.0162094961852
         0.0163259319961
         0.0164429042488
         0.0165604203939
         0.0166784804314
         0.016797086224
         0.0169162433594
         0.0170359499753
         0.017156213522
         0.0172770321369
         0.0173984114081
         0.0175203531981
         0.0176428593695
         0.0177659317851
         0.0178895760328
         0.0180137921125
         0.0181385837495
         0.0182639528066
         0.0183899030089
         0.0185164362192
         0.0186435561627
         0.0187712647021
         0.0188995655626
         0.0190284587443
         0.0191579498351
         0.0192880425602
         0.0194187350571
         0.0195500347763
         0.0196819417179
         0.019814459607
         0.0199475903064
         0.020081339404
         0.0202157068998
         0.0203506983817
         0.0204863138497
         0.0206225570291
         0.0207594316453
         0.0208969414234
         0.0210350863636
         0.0211738720536
         0.0213133003563
         0.0214533749968
         0.0215940978378
         0.0217354726046
         0.0218775030226
         0.0220201890916
         0.0221635382622
         0.0223075505346
         0.0224522296339
         0.0225975792855
         0.022743601352
         0.0228903014213
         0.0230376794934
         0.0231857411563
         0.0233344882727
         0.0234839227051
         0.0236340519041
         0.0237848758698
         0.0239363964647
         0.0240886211395
         0.0242415498942
         0.0243951864541
         0.024549536407
         0.024704599753
         0.0248603820801
         0.0250168852508
         0.0251741129905
         0.0253320708871
         0.0254907589406
         0.0256501827389
         0.0258103441447
         0.0259712468833
         0.0261328965425
         0.0262952931225
         0.0264584440738
         0.0266223493963
         0.0267870128155
         0.0269524399191
         0.0271186344326
         0.0272855982184
         0.0274533350021
         0.0276218485087
         0.0277911424637
         0.0279612205923
         0.0281320866197
         0.0283037442714
         0.0284761954099
         0.0286494474858
         0.0288235004991
         0.0289983619004
         0.0291740316898
         0.0293505135924
         0.0295278150588
         0.0297059379518
         0.0298848841339
         0.0300646610558
         0.0302452687174
         0.0304267145693
         0.0306090004742
         0.0307921301574
         0.0309761092067
         0.0311609394848
         0.0313466265798
         0.0315331704915
         0.0317205823958
         0.0319088622928
         0.0320980101824
         0.0322880372405
         0.0324789434671
         0.0326707363129
         0.0328634157777
         0.0330569893122
         0.0332514569163
         0.0334468260407
         0.0336431004107
         0.0338402837515
         0.0340383797884
         0.0342373922467
         0.034437328577
         0.0346381925046
         0.0348399840295
         0.0350427106023
         0.0352463759482
         0.0354509875178
         0.0356565453112
         0.0358630530536
         0.0360705181956
         0.0362789444625
         0.0364883355796
         0.0366986989975
         0.0369100347161
         0.0371223501861
         0.0373356491327
         0.0375499352813
         0.0377652160823
         0.0379814915359
         0.0381987690926
         0.0384170524776
         0.0386363491416
         0.0388566590846
         0.0390779897571
         0.0393003486097
         0.0395237319171
         0.0397481545806
         0.0399736166
         0.0402001217008
         0.0404276736081
         0.0406562834978
         0.0408859476447
         0.0411166809499
         0.0413484796882
         0.04158135131
         0.041815303266
         0.0420503392816
         0.0422864630818
         0.0425236821175
         0.0427619963884
         0.0430014170706
         0.0432419478893
         0.0434835888445
         0.0437263511121
         0.0439702384174
         0.0442152544856
         0.0444614067674
         0.044708698988
         0.0449571348727
         0.0452067218721
         0.0454574674368
         0.0457093715668
         0.0459624454379
         0.0462166890502
         0.0464721098542
         0.0467287153006
         0.0469865053892
         0.0472454950213
         0.0475056804717
         0.047767072916
         0.0480296760798
         0.0482934936881
         0.048558536917
         0.0488248057663
         0.0490923076868
         0.0493610464036
         0.0496310330927
         0.0499022677541
         0.0501747615635
         0.0504485145211
         0.0507235378027
         0.0509998351336
         0.051277410239
         0.0515562742949
         0.0518364273012
         0.0521178767085
         0.0524006336927
         0.0526846982539
         0.0529700778425
         0.0532567799091
         0.0535448081791
         0.0538341738284
         0.0541248768568
         0.0544169284403
         0.0547103323042
         0.0550050921738
         0.0553012192249
         0.0555987209082
         0.0558975972235
         0.0561978593469
         0.0564995110035
         0.056802559644
         0.0571070127189
         0.0574128776789
         0.0577201582491
         0.0580288618803
         0.0583389960229
         0.0586505644023
         0.0589635781944
         0.0592780373991
         0.0595939569175
         0.0599113404751
         0.060230191797
         0.0605505220592
         0.0608723349869
         0.0611956380308
         0.0615204386413
         0.0618467442691
         0.0621745623648
         0.0625038966537
         0.0628347620368
         0.063167154789
         0.0635010823607
         0.0638365671039
         0.0641735941172
         0.064512193203
         0.0648523569107
         0.0651940926909
         0.0655374154449
         0.0658823251724
         0.0662288367748
         0.0665769502521
         0.0669266730547
         0.0672780200839
         0.0676309913397
         0.0679856017232
         0.0683418512344
         0.0686997547746
         0.0690593123436
         0.0694205313921
         0.0697834342718
         0.0701480135322
         0.0705142766237
         0.0708822384477
         0.0712519064546
         0.071623288095
         0.071996383369
         0.0723712146282
         0.0727477818727
         0.0731260851026
         0.0735061466694
         0.0738879665732
         0.0742715597153
         0.0746569260955
         0.0750440731645
         0.0754330158234
         0.0758237615228
         0.0762163177133
         0.0766106918454
         0.0770068913698
         0.0774049311876
         0.0778048112988
         0.0782065391541
         0.0786101296544
         0.0790155902505
         0.0794229358435
         0.0798321589828
         0.0802432820201
         0.0806563049555
         0.0810712426901
         0.0814881101251
         0.0819068998098
         0.0823276266456
         0.082750312984
         0.083174943924
         0.0836015492678
         0.084030136466
         0.0844606980681
         0.0848932564259
         0.0853278189898
         0.085764400661
         0.086202993989
         0.0866436287761
         0.0870862975717
         0.0875310227275
         0.0879778042436
         0.0884266495705
         0.0888775810599
         0.089330598712
         0.0897857174277
         0.0902429372072
         0.0907022804022
         0.0911637544632
         0.0916273593903
         0.0920931175351
         0.0925610288978
         0.0930311083794
         0.0935033634305
         0.0939778015018
         0.0944544449449
         0.0949332937598
         0.0954143628478
         0.0958976596594
         0.0963831916451
         0.0968709737062
         0.0973610132933
         0.0978533253074
         0.0983479171991
         0.0988448038697
         0.0993439853191
         0.0998454838991
         0.10034929961
         0.100855454803
         0.101363949478
         0.101874805987
         0.10238802433
         0.102903619409
         0.103421606123
         0.103941984475
         0.104464776814
         0.104989998043
         0.10551764071
         0.106047734618
         0.106580279768
         0.107115291059
         0.107652783394
         0.108192764223
         0.108735248446
         0.109280243516
         0.109827764332
         0.110377818346
         0.110930420458
         0.11148558557
         0.112043321133
         0.112603634596
         0.113166548312
         0.113732069731
         0.114300206304
         0.114870972931
         0.115444391966
         0.116020463407
         0.116599202156
         0.117180615664
         0.117764733732
         0.11835154891
         0.11894108355
         0.119533352554
         0.12012835592
         0.120726123452
         0.121326655149
         0.121929973364
         0.122536085546
         0.123144999146
         0.123756736517
         0.124371312559
         0.124988727272
         0.125609010458
         0.126232162118
         0.126858189702
         0.127487137914
         0.128118976951
         0.128753751516
         0.129391476512
         0.130032137036
         0.130675777793
         0.131322398782
         0.131972014904
         0.132624641061
         0.133280277252
         0.133938968182
         0.134600698948
         0.135265499353
         0.135933369398
         0.136604338884
         0.137278422713
         0.137955620885
         0.138635963202
         0.139319449663
         0.140006110072
         0.140695944428
         0.141388967633
         0.142085209489
         0.142784669995
         0.143487378955
         0.144193336368
         0.144902572036
         0.145615085959
         0.14633089304
         0.14705003798
         0.147772490978
         0.148498296738
         0.14922747016
         0.149960011244
         0.150695949793
         0.151435300708
         0.15217807889
         0.152924284339
         0.153673961759
         0.154427096248
         0.15518373251
         0.155943870544
         0.156707525253
         0.157474711537
         0.158245459199
         0.159019768238
         0.159797683358
         0.160579189658
         0.161364302039
         0.162153065205
         0.162945479155
         0.163741573691
         0.164541348815
         0.165344819427
         0.166152015328
         0.166962951422
         0.167777657509
         0.168596118689
         0.169418379664
         0.170244440436
         0.171074330807
         0.171908080578
         0.172745674849
         0.173587143421
         0.174432530999
         0.175281822681
         0.17613504827
         0.176992222667
         0.177853360772
         0.17871850729
         0.179587647319
         0.180460810661
         0.18133802712
         0.182219296694
         0.183104664087
         0.183994114399
         0.184887692332
         0.185785412788
         0.186687290668
         0.187593340874
         0.188503593206
         0.189418062568
         0.190336763859
         0.191259711981
         0.192186951637
         0.193118467927
         0.194054320455
         0.194994494319
         0.195939019322
         0.196887925267
         0.197841227055
         0.198798939586
         0.199761092663
         0.200727701187
         0.20169878006
         0.202674373984
         0.20365446806
         0.204639106989
         0.205628320575
         0.206622093916
         0.207620486617
         0.208623498678
         0.209631145
         0.210643470287
         0.21166048944
         0.21268221736
         0.213708668947
         0.214739874005
         0.215775862336
         0.216816648841
         0.217862263322
         0.218912705779
         0.219968020916
         0.221028223634
         0.222093328834
         0.223163381219
         0.22423838079
         0.22531837225
         0.226403355598
         0.227493360639
         0.228588417172
         0.229688555002
         0.230793774128
         0.231904119253
         0.233019605279
         0.234140262008
         0.235266104341
         0.23639716208
         0.237533465028
         0.238675028086
         0.239821881056
         0.240974038839
         0.242131531239
         0.243294402957
         0.244462639093
         0.245636299253
         0.246815383434
         0.247999951243
         0.249189987779
         0.250385522842
         0.251586616039
         0.25279328227
         0.254005521536
         0.25522339344
         0.256446868181
         0.257676035166
         0.258910894394
         0.260151475668
         0.26139780879
         0.262649893761
         0.263907790184
         0.265171527863
         0.266441106796
         0.267716556787
         0.268997907639
         0.270285218954
         0.271578460932
         0.272877722979
         0.274183005095
         0.27549430728
         0.276811689138
         0.278135180473
         0.279464811087
         0.280800580978
         0.282142549753
         0.283490747213
         0.284845173359
         0.286205857992
         0.287572860718
         0.288946211338
         0.290325909853
         0.291711986065
         0.293104499578
         0.294503450394
         0.295908868313
         0.297320812941
         0.298739314079
         0.300164371729
         0.301596015692
         0.303034305573
         0.304479241371
         0.305930882692
         0.307389259338
         0.308854371309
         0.31032627821
         0.311805009842
         0.313290596008
         0.314783036709
         0.316282391548
         0.317788720131
         0.319301992655
         0.320822298527
         0.322349637747
         0.323884040117
         0.325425565243
         0.326974242926
         0.328530073166
         0.330093115568
         0.331663370132
         0.333240926266
         0.334825783968
         0.336418002844
         0.338017582893
         0.339624553919
         0.341238975525
         0.342860877514
         0.344490289688
         0.346127271652
         0.347771823406
         0.349423974752
         0.351083785295
         0.352751284838
         0.354426532984
         0.356109499931
         0.35780030489
         0.359498918056
         0.361205399036
         0.362919777632
         0.364642113447
         0.366372406483
         0.368110716343
         0.369857102633
         0.371611535549
         0.373374134302
         0.375144869089
         0.376923829317
         0.378711014986
         0.380506485701
         0.382310271263
         0.384122401476
         0.385942935944
         0.387771904469
         0.389609336853
         0.391455292702
         0.393309772015
         0.395172864199
         0.397044599056
         0.398924976587
         0.400814056396
         0.402711898088
         0.404618531466
         0.406534016132
         0.408458352089
         0.41039159894
         0.41233381629
         0.414285004139
         0.416245251894
         0.418214559555
         0.420193016529
         0.422180593014
         0.424177408218
         0.426183462143
         0.428198814392
         0.43022352457
         0.432257562876
         0.434301048517
         0.436354011297
         0.438416481018
         0.440488487482
         0.442570090294
         0.444661349058
         0.446762263775
         0.448872923851
         0.450993388891
         0.453123658895
         0.455263763666
         0.457413822412
         0.459573835135
         0.461743831635
         0.46392390132
         0.466114044189
         0.468314349651
         0.470524847507
         0.47274556756
         0.474976599216
         0.477217942476
         0.479469656944
         0.481731832027
         0.484004467726
         0.486287623644
         0.488581389189
         0.490885734558
         0.493200778961
         0.4955265522
         0.497863084078
         0.500210404396
         0.502568662167
         0.504937827587
         0.507317960262
         0.509709060192
         0.51211130619
         0.514524638653
         0.516949176788
         0.519384920597
         0.521831989288
         0.524290382862
         0.526760101318
         0.529241323471
         0.531733989716
         0.534238278866
         0.536754071712
         0.539281606674
         0.541820764542
         0.544371724129
         0.546934485435
         0.549509167671
         0.552095711231
         0.55469429493
         0.557304859161
         0.559927523136
         0.562562346458
         0.565209388733
         0.567868709564
         0.570540308952
         0.573224246502
         0.575920701027
         0.578629612923
         0.581351041794
         0.58408510685
         0.58683180809
         0.589591264725
         0.592363476753
         0.595148563385
         0.59794652462
         0.600757420063
         0.603581368923
         0.606418371201
         0.609268546104
         0.612131893635
         0.615008533001
         0.617898464203
         0.62080180645
         0.623718619347
         0.626648902893
         0.629592776299
         0.632550239563
         0.6355214715
         0.638506412506
         0.641505181789
         0.64451789856
         0.647544503212
         0.650585174561
         0.653639912605
         0.656708776951
         0.659791886806
         0.662889242172
         0.666000962257
         0.669127106667
         0.672267735004
         0.675422906876
         0.678592681885
         0.681777119637
         0.68497633934
         0.688190340996
         0.691419243813
         0.694663167
         0.697922050953
         0.701196014881
         0.704485177994
         0.707789540291
         0.711109280586
         0.714444339275
         0.717794835567
         0.721160888672
         0.724542498589
         0.727939784527
         0.731352806091
         0.734781622887
         0.738226354122
         0.741686999798
         0.745163738728
         0.748656511307
         0.752165496349
         0.75569075346
         0.759232282639
         0.762790262699
         0.766364693642
         0.769955694675
         0.773563325405
         0.77718770504
         0.78082883358
         0.784486830235
