aces_1.0.0/luts/rec2020_to_linear.spi1d
Version 1
From 0.000000 1.000000
Length 1024
Components 1
{
         0.0
         0.000217226028326
         0.000434452056652
         0.000651678070426
         0.000868904113304
         0.00108613015618
         0.00130335614085
         0.00152058212552
         0.00173780822661
         0.00195503421128
         0.00217226031236
         0.00238948618062
         0.0026067122817
         0.00282393838279
         0.00304116425104
         0.00325839035213
         0.00347561645322
         0.00369284232147
         0.00391006842256
         0.00700011989102
         0.00712977815419
         0.00726074632257
         0.00739302719012
         0.00752662261948
         0.00766153493896
         0.00779776694253
         0.00793532002717
         0.00807419791818
         0.00821440201253
         0.00835593510419
         0.00849879905581
         0.00864299573004
         0.00878852792084
         0.00893539749086
         0.00908360723406
         0.00923315901309
         0.00938405562192
         0.00953629799187
         0.00968988891691
         0.009844831191
         0.0100011266768
         0.0101587763056
         0.0103177838027
         0.0104781500995
         0.0106398779899
         0.0108029693365
         0.010967426002
         0.0111332507804
         0.011300444603
         0.0114690102637
         0.0116389505565
         0.0118102654815
         0.0119829587638
         0.0121570313349
         0.0123324869201
         0.0125093245879
         0.012687548995
         0.0128671610728
         0.0130481626838
         0.0132305556908
         0.0134143419564
         0.0135995242745
         0.0137861035764
         0.0139740826562
         0.0141634624451
         0.0143542457372
         0.0145464334637
         0.0147400274873
         0.0149350306019
         0.0151314446703
         0.0153292706236
         0.015528511256
         0.0157291665673
         0.0159312412143
         0.0161347351968
         0.0163396503776
         0.0165459886193
         0.0167537517846
         0.016962941736
         0.0171735621989
         0.0173856113106
         0.0175990927964
         0.0178140066564
         0.0180303584784
         0.0182481463999
         0.0184673722833
         0.0186880417168
         0.018910150975
         0.0191337056458
         0.0193587057292
         0.0195851549506
         0.0198130514473
         0.0200423989445
         0.0202732011676
         0.0205054562539
         0.0207391660661
         0.0209743343294
         0.0212109629065
         0.0214490517974
         0.0216886028647
         0.0219296179712
         0.0221720989794
         0.0224160477519
         0.0226614642888
         0.0229083523154
         0.0231567136943
         0.0234065465629
         0.0236578565091
         0.0239106416702
         0.0241649057716
         0.0244206506759
         0.0246778763831
         0.0249365866184
         0.0251967795193
         0.0254584606737
         0.0257216282189
         0.0259862858802
         0.0262524336576
         0.0265200752765
         0.0267892088741
         0.0270598381758
         0.0273319650441
         0.0276055894792
         0.0278807152063
         0.0281573403627
         0.0284354705364
         0.0287151038647
         0.0289962422103
         0.0292788892984
         0.0295630451292
         0.0298487097025
         0.0301358867437
         0.0304245762527
         0.0307147819549
         0.0310065019876
         0.0312997400761
         0.0315944962204
         0.0318907722831
         0.0321885719895
         0.0324878953397
         0.0327887386084
         0.0330911129713
         0.033395010978
         0.033700440079
         0.034007396549
         0.0343158878386
         0.0346259102225
         0.0349374674261
         0.0352505594492
         0.0355651900172
         0.0358813554049
         0.0361990630627
         0.0365183129907
         0.0368391051888
         0.0371614396572
         0.0374853163958
         0.0378107428551
         0.0381377190351
         0.0384662412107
         0.0387963168323
         0.0391279421747
         0.0394611209631
         0.0397958531976
         0.0401321426034
         0.0404699891806
         0.0408093929291
         0.0411503575742
         0.0414928793907
         0.0418369695544
         0.0421826168895
         0.0425298325717
         0.0428786166012
         0.0432289652526
         0.0435808822513
         0.0439343713224
         0.0442894287407
         0.0446460582316
         0.0450042635202
         0.0453640446067
         0.0457254014909
         0.046088334173
         0.0464528463781
         0.0468189381063
         0.0471866130829
         0.0475558713078
         0.0479267090559
         0.0482991337776
         0.048673145473
         0.0490487441421
         0.0494259297848
         0.0498047061265
         0.0501850768924
         0.050567034632
         0.0509505905211
         0.0513357371092
         0.0517224818468
         0.052110824734
         0.0525007620454
         0.0528923012316
         0.0532854422927
         0.0536801815033
         0.054076526314
         0.0544744767249
         0.0548740290105
         0.0552751906216
         0.0556779578328
         0.0560823343694
         0.0564883202314
         0.0568959191442
         0.0573051311076
         0.0577159561217
         0.0581283941865
         0.0585424490273
         0.0589581206441
         0.0593754090369
         0.0597943179309
         0.0602148473263
         0.0606369972229
         0.0610607713461
         0.0614861696959
         0.0619131922722
         0.0623418390751
         0.0627721175551
         0.0632040202618
         0.0636375546455
         0.0640727132559
         0.064509510994
         0.0649479404092
         0.0653880015016
         0.0658296942711
         0.0662730336189
         0.0667179971933
         0.0671646073461
         0.0676128566265
         0.0680627450347
         0.0685142725706
         0.0689674466848
         0.0694222599268
         0.0698787197471
         0.0703368261456
         0.0707965791225
         0.0712579861283
         0.0717210322618
         0.0721857324243
         0.0726520866156
         0.0731200873852
         0.0735897496343
         0.0740610584617
         0.0745340287685
         0.0750086531043
         0.075484931469
         0.0759628713131
         0.0764424726367
         0.0769237279892
         0.0774066522717
         0.0778912380338
         0.0783774852753
         0.0788654014468
         0.0793549790978
         0.0798462256789
         0.0803391337395
         0.0808337181807
         0.0813299715519
         0.0818278938532
         0.0823274925351
         0.0828287601471
         0.0833317041397
         0.083836324513
         0.0843426138163
         0.0848505869508
         0.0853602364659
         0.0858715698123
         0.0863845720887
         0.0868992656469
         0.0874156355858
         0.0879336893559
         0.0884534269571
         0.0889748558402
         0.0894979685545
         0.0900227651
         0.0905492454767
         0.0910774245858
         0.0916072875261
         0.0921388417482
         0.0926720872521
         0.0932070314884
         0.0937436670065
         0.0942819938064
         0.0948220193386
         0.0953637436032
         0.0959071591496
         0.096452280879
         0.0969991013408
         0.0975476205349
         0.0980978384614
         0.0986497625709
         0.0992033854127
         0.0997587218881
         0.100315757096
         0.100874498487
         0.101434953511
         0.101997107267
         0.102560982108
         0.103126555681
         0.103693850338
         0.104262851179
         0.104833565652
         0.10540599376
         0.1059801355
         0.106555998325
         0.107133574784
         0.107712864876
         0.108293883502
         0.108876615763
         0.109461069107
         0.110047243536
         0.110635139048
         0.111224755645
         0.111816100776
         0.112409166992
         0.113003961742
         0.113600485027
         0.114198736846
         0.114798717201
         0.115400418639
         0.116003863513
         0.116609029472
         0.117215931416
         0.117824569345
         0.118434935808
         0.119047038257
         0.119660884142
         0.120276458561
         0.120893776417
         0.121512830257
         0.122133620083
         0.122756153345
         0.123380430043
         0.124006442726
         0.124634206295
         0.12526370585
         0.125894963741
         0.126527950168
         0.127162694931
         0.12779918313
         0.128437414765
         0.129077404737
         0.129719138145
         0.130362614989
         0.131007865071
         0.131654843688
         0.132303595543
         0.132954090834
         0.133606344461
         0.134260356426
         0.134916126728
         0.135573640466
         0.136232927442
         0.136893972754
         0.137556776404
         0.138221338391
         0.138887658715
         0.139555752277
         0.140225604177
         0.140897214413
         0.141570597887
         0.1422457546
         0.142922669649
         0.143601357937
         0.144281804562
         0.144964024425
         0.145648017526
         0.146333783865
         0.147021323442
         0.147710621357
         0.148401707411
         0.149094566703
         0.149789199233
         0.150485605001
         0.151183798909
         0.151883751154
         0.152585491538
         0.153289020061
         0.153994321823
         0.154701411724
         0.155410274863
         0.156120926142
         0.156833350658
         0.157547563314
         0.15826356411
         0.158981353045
         0.159700930119
         0.160422295332
         0.161145448685
         0.161870390177
         0.162597119808
         0.163325637579
         0.164055943489
         0.16478805244
         0.16552194953
         0.166257634759
         0.166995123029
         0.167734414339
         0.168475493789
         0.169218361378
         0.169963046908
         0.170709520578
         0.171457782388
         0.172207862139
         0.172959730029
         0.173713415861
         0.174468889832
         0.175226166844
         0.175985261798
         0.176746144891
         0.177508845925
         0.17827335
         0.179039672017
         0.179807782173
         0.180577710271
         0.18134945631
         0.18212300539
         0.182898372412
         0.183675542474
         0.184454530478
         0.185235321522
         0.186017945409
         0.186802372336
         0.187588617206
         0.188376680017
         0.189166545868
         0.189958244562
         0.190751761198
         0.191547095776
         0.192344263196
         0.193143233657
         0.193944036961
         0.194746658206
         0.195551097393
         0.196357369423
         0.197165474296
         0.197975382209
         0.198787137866
         0.199600711465
         0.200416117907
         0.20123334229
         0.202052399516
         0.202873289585
         0.203696012497
         0.204520568252
         0.205346956849
         0.206175178289
         0.207005232573
         0.207837119699
         0.208670839667
         0.209506392479
         0.210343793035
         0.211183026433
         0.212024092674
         0.21286700666
         0.213711753488
         0.21455834806
         0.215406775475
         0.216257050633
         0.217109173536
         0.217963129282
         0.218818932772
         0.219676584005
         0.220536082983
         0.221397414804
         0.222260609269
         0.223125651479
         0.223992526531
         0.224861264229
         0.22573184967
         0.226604282856
         0.227478563786
         0.22835470736
         0.229232698679
         0.230112537742
         0.23099423945
         0.231877788901
         0.232763200998
         0.233650460839
         0.234539583325
         0.235430568457
         0.236323401332
         0.237218096852
         0.238114655018
         0.239013075829
         0.239913344383
         0.240815490484
         0.241719484329
         0.242625355721
         0.243533089757
         0.244442686439
         0.245354145765
         0.246267467737
         0.247182667255
         0.248099714518
         0.249018654227
         0.249939441681
         0.250862121582
         0.251786649227
         0.252713054419
         0.253641337156
         0.25457149744
         0.255503505468
         0.256437420845
         0.257373183966
         0.258310824633
         0.259250372648
         0.260191768408
         0.261135041714
         0.262080192566
         0.263027220964
         0.263976126909
         0.264926940203
         0.26587960124
         0.266834169626
         0.267790585756
         0.268748909235
         0.26970911026
         0.270671188831
         0.271635174751
         0.272601038218
         0.27356877923
         0.274538397789
         0.275509923697
         0.27648332715
         0.27745860815
         0.278435796499
         0.279414862394
         0.280395805836
         0.281378656626
         0.282363414764
         0.283350050449
         0.284338563681
         0.285329014063
         0.286321312189
         0.287315517664
         0.288311630487
         0.28930965066
         0.290309548378
         0.291311353445
         0.292315036058
         0.29332062602
         0.294328123331
         0.29533752799
         0.296348839998
         0.297362029552
         0.298377126455
         0.299394130707
         0.300413042307
         0.301433861256
         0.302456587553
         0.303481191397
         0.304507732391
         0.305536180735
         0.306566506624
         0.307598769665
         0.308632940054
         0.309668987989
         0.310706973076
         0.311746865511
         0.312788665295
         0.313832402229
         0.31487801671
         0.315925568342
         0.31697499752
         0.31802636385
         0.31907966733
         0.320134848356
         0.321191966534
         0.322251021862
         0.323311954737
         0.324374824762
         0.325439631939
         0.326506316662
         0.327574938536
         0.328645497561
         0.329717963934
         0.330792367458
         0.331868678331
         0.332946926355
         0.334027081728
         0.335109174252
         0.336193174124
         0.337279111147
         0.338366985321
         0.339456766844
         0.340548485518
         0.341642141342
         0.342737704515
         0.34383520484
         0.344934642315
         0.346036016941
         0.347139328718
         0.348244547844
         0.349351704121
         0.350460797548
         0.351571828127
         0.352684795856
         0.353799700737
         0.354916512966
         0.356035292149
         0.357156008482
         0.358278661966
         0.359403222799
         0.360529750586
         0.361658215523
         0.362788617611
         0.36392095685
         0.36505523324
         0.366191476583
         0.367329627275
         0.368469744921
         0.369611799717
         0.370755791664
         0.371901750565
         0.373049616814
         0.374199450016
         0.375351250172
         0.376504957676
         0.377660632133
         0.378818273544
         0.379977822304
         0.381139367819
         0.382302820683
         0.383468240499
         0.38463562727
         0.385804951191
         0.386976242065
         0.388149470091
         0.389324635267
         0.390501797199
         0.39168086648
         0.392861932516
         0.394044935703
         0.395229905844
         0.396416813135
         0.39760568738
         0.398796528578
         0.399989336729
         0.401184082031
         0.402380794287
         0.403579473495
         0.404780089855
         0.405982702971
         0.407187253237
         0.408393800259
         0.409602284431
         0.410812735558
         0.412025153637
         0.41323953867
         0.414455860853
         0.415674179792
         0.416894465685
         0.418116718531
         0.41934093833
         0.420567125082
         0.421795278788
         0.423025399446
         0.424257487059
         0.425491571426
         0.426727592945
         0.427965611219
         0.429205596447
         0.430447548628
         0.431691497564
         0.432937383652
         0.434185266495
         0.435435146093
         0.436686962843
         0.437940776348
         0.439196556807
         0.440454334021
         0.441714078188
         0.442975789309
         0.444239497185
         0.445505172014
         0.446772843599
         0.448042482138
         0.449314117432
         0.450587719679
         0.451863318682
         0.453140884638
         0.45442044735
         0.455702006817
         0.456985533237
         0.458271056414
         0.459558546543
         0.460848033428
         0.462139517069
         0.463432997465
         0.464728444815
         0.46602588892
         0.467325329781
         0.468626737595
         0.469930142164
         0.471235543489
         0.47254294157
         0.473852336407
         0.475163727999
         0.476477116346
         0.477792471647
         0.479109853506
         0.480429202318
         0.481750547886
         0.483073920012
         0.48439925909
         0.485726594925
         0.487055957317
         0.488387286663
         0.489720642567
         0.491055965424
         0.492393314838
         0.493732661009
         0.495074003935
         0.496417343616
         0.497762709856
         0.499110043049
         0.500459432602
         0.501810789108
         0.503164112568
         0.50451952219
         0.505876898766
         0.507236242294
         0.508597612381
         0.509961009026
         0.511326432228
         0.512693822384
         0.514063239098
         0.515434682369
         0.516808152199
         0.518183588982
         0.519561052322
         0.520940482616
         0.522321999073
         0.523705482483
         0.525090992451
         0.526478528976
         0.527868032455
         0.529259622097
         0.530653178692
         0.532048761845
         0.533446371555
         0.534845948219
         0.536247611046
         0.537651240826
         0.539056897163
         0.540464580059
         0.541874289513
         0.543286025524
         0.544699788094
         0.546115577221
         0.547533333302
         0.548953175545
         0.550374984741
         0.551798820496
         0.553224742413
         0.554652631283
         0.556082546711
         0.557514548302
         0.558948516846
         0.560384511948
         0.561822533607
         0.563262581825
         0.564704716206
         0.566148817539
         0.567594945431
         0.569043159485
         0.570493340492
         0.571945548058
         0.573399841785
         0.574856162071
         0.57631444931
         0.577774822712
         0.579237222672
         0.580701649189
         0.582168102264
         0.583636641502
         0.585107147694
         0.586579740047
         0.588054299355
         0.589530944824
         0.591009616852
         0.592490375042
         0.593973100185
         0.595457911491
         0.596944749355
         0.598433613777
         0.599924504757
         0.601417481899
         0.6029124856
         0.604409515858
         0.605908572674
         0.607409715652
         0.608912825584
         0.610418081284
         0.611925303936
         0.613434612751
         0.614945948124
         0.616459310055
         0.617974758148
         0.6194922328
         0.621011734009
         0.622533321381
         0.62405693531
         0.625582635403
         0.627110362053
         0.628640115261
         0.630171954632
         0.63170582056
         0.633241713047
         0.634779691696
         0.636319696903
         0.637861788273
         0.6394059062
         0.640952110291
         0.642500340939
         0.644050657749
         0.645603001118
         0.647157430649
         0.648713886738
         0.650272369385
         0.651832938194
         0.653395593166
         0.654960274696
         0.656527042389
         0.658095836639
         0.659666717052
         0.661239624023
         0.662814617157
         0.664391636848
         0.665970742702
         0.667551934719
         0.669135153294
         0.670720458031
         0.67230784893
         0.673897266388
         0.675488770008
         0.677082300186
         0.678677916527
         0.68027561903
         0.681875348091
         0.683477163315
         0.685081064701
         0.68668705225
         0.688295066357
         0.689905166626
         0.691517293453
         0.693131566048
         0.6947478652
         0.69636619091
         0.697986662388
         0.699609160423
         0.701233744621
         0.702860414982
         0.704489171505
         0.706119954586
         0.70775282383
         0.709387779236
         0.711024820805
         0.712663948536
         0.714305102825
         0.715948402882
         0.717593729496
         0.719241142273
         0.720890641212
         0.722542226315
         0.724195837975
         0.725851595402
         0.727509379387
         0.729169249535
         0.73083126545
         0.732495307922
         0.734161436558
         0.735829651356
         0.737499952316
         0.739172339439
         0.740846812725
         0.742523312569
         0.744201958179
         0.745882689953
         0.747565507889
         0.749250411987
         0.750937342644
         0.752626419067
         0.754317581654
         0.756010830402
         0.757706165314
         0.759403586388
         0.761103093624
         0.762804687023
         0.764508366585
         0.766214132309
         0.767921984196
         0.76963198185
         0.771344006062
         0.773058176041
         0.774774372578
         0.776492714882
         0.778213143349
         0.779935657978
         0.78166025877
         0.783387005329
         0.785115778446
         0.78684669733
         0.788579702377
         0.790314793587
         0.792051970959
         0.793791234493
         0.795532643795
         0.797276139259
         0.799021720886
         0.800769388676
         0.802519202232
         0.804271101952
         0.806025087833
         0.807781159878
         0.809539377689
         0.811299681664
         0.8130620718
         0.8148265481
         0.816593170166
         0.818361878395
         0.820132732391
         0.821905612946
         0.823680639267
         0.825457811356
         0.827237069607
         0.829018414021
         0.830801844597
         0.83258742094
         0.834375083447
         0.83616489172
         0.837956786156
         0.839750766754
         0.84154689312
         0.843345105648
         0.845145463943
         0.846947908401
         0.848752439022
         0.85055911541
         0.85236787796
         0.854178786278
         0.855991780758
         0.857806921005
         0.859624147415
         0.861443519592
         0.863264977932
         0.865088582039
         0.866914272308
         0.868742108345
         0.870572090149
         0.872404098511
         0.874238312244
         0.876074612141
         0.877912998199
         0.879753530025
         0.881596207619
         0.883440971375
         0.885287880898
         0.887136876583
         0.888988018036
         0.890841305256
         0.892696678638
         0.894554197788
         0.896413803101
         0.898275613785
         0.900139451027
         0.902005493641
         0.903873622417
         0.905743896961
         0.907616257668
         0.909490764141
         0.911367416382
         0.913246154785
         0.91512709856
         0.917010068893
         0.918895244598
         0.920782506466
         0.922671914101
         0.924563467503
         0.926457166672
         0.928352952003
         0.930250883102
