aces_1.0.0/luts/rec709_to_linear.spi1d
Version 1
From 0.000000 1.000000
Length 1024
Components 1
{
         0.0
         0.000217226028326
         0.000434452056652
         0.000651678070426
         0.000868904113304
         0.00108613015618
         0.00130335614085
         0.00152058212552
         0.00173780822661
         0.00195503421128
         0.00217226031236
         0.00238948618062
         0.0026067122817
         0.00282393838279
         0.00304116425104
         0.00325839035213
         0.00347561645322
         0.00369284232147
         0.00391006842256
         0.00696481298655
         0.00709414854646
         0.0072247935459
         0.00735675124452
         0.00749002350494
         0.00762461312115
         0.00776052242145
         0.00789775326848
         0.00803630799055
         0.00817618984729
         0.00831740070134
         0.00845994148403
         0.00860381685197
         0.00874902680516
         0.00889557506889
         0.00904346257448
         0.00919269304723
         0.00934326741844
         0.00949518848211
         0.00964845903218
         0.00980307999998
         0.00995905417949
         0.0101163834333
         0.0102750696242
         0.0104351164773
         0.0105965239927
         0.0107592949644
         0.0109234321862
         0.011088937521
         0.0112558118999
         0.0114240590483
         0.0115936789662
         0.0117646763101
         0.0119370501488
         0.0121108051389
         0.0122859422117
         0.0124624622986
         0.0126403691247
         0.0128196636215
         0.0130003476515
         0.0131824240088
         0.013365894556
         0.0135507602245
         0.0137370228767
         0.0139246862382
         0.0141137503088
         0.0143042178825
         0.0144960908219
         0.0146893709898
         0.0148840593174
         0.0150801585987
         0.0152776716277
         0.015476597473
         0.0156769417226
         0.0158787015826
         0.0160818826407
         0.0162864867598
         0.0164925120771
         0.0166999641806
         0.0169088430703
         0.0171191506088
         0.0173308886588
         0.0175440590829
         0.0177586656064
         0.0179747063667
         0.018192185089
         0.0184111017734
         0.0186314620078
         0.0188532639295
         0.0190765094012
         0.0193012021482
         0.0195273440331
         0.0197549331933
         0.0199839752167
         0.0202144701034
         0.0204464197159
         0.0206798240542
         0.0209146887064
         0.0211510118097
         0.0213887952268
         0.021628042683
         0.0218687541783
         0.0221109334379
         0.0223545785993
         0.0225996933877
         0.0228462796658
         0.0230943374336
         0.0233438704163
         0.0235948786139
         0.0238473638892
         0.0241013281047
         0.0243567749858
         0.0246137008071
         0.0248721111566
         0.0251320078969
         0.0253933891654
         0.02565626055
         0.0259206201881
         0.026186471805
         0.0264538172632
         0.0267226565629
         0.026992989704
         0.0272648222744
         0.0275381524116
         0.0278129838407
         0.0280893165618
         0.0283671524376
         0.0286464933306
         0.0289273411036
         0.0292096957564
         0.0294935591519
         0.0297789350152
         0.0300658214837
         0.0303542222828
         0.0306441374123
         0.030935568735
         0.0312285181135
         0.0315229892731
         0.0318189784884
         0.0321164876223
         0.0324155241251
         0.0327160842717
         0.0330181717873
         0.0333217866719
         0.0336269289255
         0.0339336059988
         0.034241810441
         0.0345515497029
         0.0348628275096
         0.0351756364107
         0.0354899838567
         0.0358058698475
         0.0361232981086
         0.0364422686398
         0.0367627777159
         0.0370848365128
         0.0374084375799
         0.0377335846424
         0.0380602814257
         0.0383885316551
         0.0387183278799
         0.0390496775508
         0.0393825806677
         0.039717040956
         0.0400530546904
         0.0403906293213
         0.0407297573984
         0.0410704500973
         0.0414127036929
         0.0417565219104
         0.0421019010246
         0.0424488447607
         0.0427973568439
         0.0431474372745
         0.0434990860522
         0.0438523069024
         0.0442070998251
         0.0445634648204
         0.0449214018881
         0.045280918479
         0.0456420071423
         0.046004679054
         0.0463689267635
         0.0467347539961
         0.0471021682024
         0.0474711619318
         0.0478417389095
         0.0482139028609
         0.0485876537859
         0.0489629916847
         0.0493399202824
         0.049718439579
         0.0500985495746
         0.0504802502692
         0.0508635491133
         0.0512484386563
         0.0516349300742
         0.0520230159163
         0.052412699908
         0.0528039857745
         0.0531968735158
         0.0535913594067
         0.053987454623
         0.0543851517141
         0.0547844544053
         0.0551853626966
         0.0555878840387
         0.0559920109808
         0.0563977509737
         0.056805100292
         0.0572140626609
         0.0576246418059
         0.0580368340015
         0.0584506429732
         0.0588660724461
         0.059283118695
         0.0597017817199
         0.0601220689714
         0.0605439767241
         0.0609675087035
         0.0613926686347
         0.0618194490671
         0.0622478574514
         0.0626778975129
         0.063109561801
         0.0635428577662
         0.0639777854085
         0.064414344728
         0.0648525357246
         0.0652923583984
         0.0657338276505
         0.0661769211292
         0.0666216611862
         0.0670680403709
         0.0675160512328
         0.067965708673
         0.0684170126915
         0.0688699483871
         0.0693245381117
         0.0697807744145
         0.0702386498451
         0.0706981793046
         0.0711593478918
         0.0716221779585
         0.0720866546035
         0.0725527778268
         0.0730205625296
         0.0734899938107
         0.0739610865712
         0.0744338259101
         0.074908234179
         0.0753842890263
         0.0758620128036
         0.0763413906097
         0.076822437346
         0.0773051381111
         0.0777895078063
         0.078275538981
         0.0787632390857
         0.0792526006699
         0.0797436311841
         0.080236338079
         0.0807307064533
         0.0812267437577
         0.0817244574428
         0.0822238475084
         0.0827249065042
         0.0832276344299
         0.0837320461869
         0.0842381343246
         0.0847458988428
         0.0852553397417
         0.0857664644718
         0.0862792655826
         0.0867937579751
         0.0873099192977
         0.0878277719021
         0.0883473157883
         0.0888685360551
         0.0893914476037
         0.0899160429835
         0.0904423296452
         0.0909703075886
         0.0914999693632
         0.0920313298702
         0.092564381659
         0.0930991247296
         0.0936355665326
         0.0941736996174
         0.0947135314345
         0.0952550619841
         0.095798291266
         0.0963432192802
         0.0968898460269
         0.0974381789565
         0.0979882106185
         0.0985399410129
         0.0990933850408
         0.099648527801
         0.100205376744
         0.100763939321
         0.101324208081
         0.101886183023
         0.102449864149
         0.103015258908
         0.103582367301
         0.104151189327
         0.104721724987
         0.10529397428
         0.105867944658
         0.106443621218
         0.107021026313
         0.107600145042
         0.108180977404
         0.108763538301
         0.109347820282
         0.109933815897
         0.110521540046
         0.11111099273
         0.111702166498
         0.11229506135
         0.112889684737
         0.113486044109
         0.114084124565
         0.114683933556
         0.115285478532
         0.115888752043
         0.116493754089
         0.11710049212
         0.117708966136
         0.118319176137
         0.118931114674
         0.119544796646
         0.120160214603
         0.120777368546
         0.121396265924
         0.122016899288
         0.122639276087
         0.123263396323
         0.123889252543
         0.124516859651
         0.125146210194
         0.125777304173
         0.126410141587
         0.127044737339
         0.127681076527
         0.12831915915
         0.128959000111
         0.129600584507
         0.13024392724
         0.13088901341
         0.131535857916
         0.132184460759
         0.132834807038
         0.133486926556
         0.134140789509
         0.134796410799
         0.135453790426
         0.136112943292
         0.136773839593
         0.137436509132
         0.138100937009
         0.138767123222
         0.139435067773
         0.140104785562
         0.140776276588
         0.141449525952
         0.142124533653
         0.142801314592
         0.14347986877
         0.144160196185
         0.144842281938
         0.145526155829
         0.146211788058
         0.146899193525
         0.147588372231
         0.148279339075
         0.148972064257
         0.149666577578
         0.150362864137
         0.151060923934
         0.151760771871
         0.152462393045
         0.153165787458
         0.153870970011
         0.154577940702
         0.155286684632
         0.155997216702
         0.15670953691
         0.157423630357
         0.158139526844
         0.158857196569
         0.159576654434
         0.160297915339
         0.161020949483
         0.161745786667
         0.162472397089
         0.163200810552
         0.163931027055
         0.164663016796
         0.165396809578
         0.1661324054
         0.166869789362
         0.167608961463
         0.168349936604
         0.169092714787
         0.169837296009
         0.170583665371
         0.171331837773
         0.172081813216
         0.1728335917
         0.173587173223
         0.174342557788
         0.175099745393
         0.175858736038
         0.176619529724
         0.177382141352
         0.17814655602
         0.178912773728
         0.179680809379
         0.180450648069
         0.181222304702
         0.181995764375
         0.182771041989
         0.183548122644
         0.184327021241
         0.18510773778
         0.18589027226
         0.186674624681
         0.187460780144
         0.188248768449
         0.189038574696
         0.189830183983
         0.190623626113
         0.191418886185
         0.192215964198
         0.193014875054
         0.193815588951
         0.194618150592
         0.195422515273
         0.196228712797
         0.197036743164
         0.197846591473
         0.198658272624
         0.199471771717
         0.200287118554
         0.201104283333
         0.201923280954
         0.202744096518
         0.203566759825
         0.204391255975
         0.205217570066
         0.206045731902
         0.206875726581
         0.207707554102
         0.208541214466
         0.209376722574
         0.210214063525
         0.211053237319
         0.211894258857
         0.212737113237
         0.213581815362
         0.214428350329
         0.215276733041
         0.216126963496
         0.216979026794
         0.217832937837
         0.218688696623
         0.219546303153
         0.220405742526
         0.221267044544
         0.222130194306
         0.222995176911
         0.223862022161
         0.224730715156
         0.225601255894
         0.226473659277
         0.227347895503
         0.228224009275
         0.229101955891
         0.229981765151
         0.230863422155
         0.231746941805
         0.2326323241
         0.233519554138
         0.234408646822
         0.235299602151
         0.236192405224
         0.237087070942
         0.237983599305
         0.238881990314
         0.239782243967
         0.240684360266
         0.24158833921
         0.242494180799
         0.243401885033
         0.244311466813
         0.245222911239
         0.246136218309
         0.247051388025
         0.247968435287
         0.248887345195
         0.249808132648
         0.250730782747
         0.251655310392
         0.252581685781
         0.253509968519
         0.254440099001
         0.255372136831
         0.256306022406
         0.257241785526
         0.258179426193
         0.259118944407
         0.260060340166
         0.261003613472
         0.261948764324
         0.262895792723
         0.263844698668
         0.264795482159
         0.265748172998
         0.266702711582
         0.267659157515
         0.268617480993
         0.269577682018
         0.270539790392
         0.27150374651
         0.272469609976
         0.273437350988
         0.27440699935
         0.275378525257
         0.276351928711
         0.277327239513
         0.278304427862
         0.27928352356
         0.280264496803
         0.281247347593
         0.282232135534
         0.283218771219
         0.284207314253
         0.285197764635
         0.286190092564
         0.287184327841
         0.288180470467
         0.289178490639
         0.290178418159
         0.291180253029
         0.292183965445
         0.293189585209
         0.294197112322
         0.295206546783
         0.296217888594
         0.29723110795
         0.298246234655
         0.299263268709
         0.300282210112
         0.301303058863
         0.302325814962
         0.303350478411
         0.304377049208
         0.305405527353
         0.306435912848
         0.30746820569
         0.308502405882
         0.309538513422
         0.310576528311
         0.31161648035
         0.312658309937
         0.313702076674
         0.314747750759
         0.315795332193
         0.316844850779
         0.317896276712
         0.318949609995
         0.320004850626
         0.321062028408
         0.322121113539
         0.323182106018
         0.324245035648
         0.325309872627
         0.326376646757
         0.327445328236
         0.328515946865
         0.329588472843
         0.330662935972
         0.33173930645
         0.332817614079
         0.333897829056
         0.334979981184
         0.336064070463
         0.337150067091
         0.33823800087
         0.339327841997
         0.340419650078
         0.341513365507
         0.342609018087
         0.343706578016
         0.344806104898
         0.345907539129
         0.347010910511
         0.348116219044
         0.349223464727
         0.350332647562
         0.351443737745
         0.352556794882
         0.353671759367
         0.354788690805
         0.355907559395
         0.357028335333
         0.358151078224
         0.359275728464
         0.360402345657
         0.361530900002
         0.362661391497
         0.363793820143
         0.36492818594
         0.36606451869
         0.367202788591
         0.368342965841
         0.369485139847
         0.370629221201
         0.371775269508
         0.372923254967
         0.374073177576
         0.375225067139
         0.376378893852
         0.377534657717
         0.378692388535
         0.379852086306
         0.381013691425
         0.382177293301
         0.383342802525
         0.384510308504
         0.385679721832
         0.386851131916
         0.388024479151
         0.389199763536
         0.390377014875
         0.391556233168
         0.392737388611
         0.393920511007
         0.395105600357
         0.396292626858
         0.397481620312
         0.398672580719
         0.39986550808
         0.401060372591
         0.402257204056
         0.403456032276
         0.404656767845
         0.40585950017
         0.407064199448
         0.408270835876
         0.409479469061
         0.410690039396
         0.411902606487
         0.413117110729
         0.414333581924
         0.415552049875
         0.416772454977
         0.417994856834
         0.419219195843
         0.420445531607
         0.421673834324
         0.422904103994
         0.424136340618
         0.425370544195
         0.426606714725
         0.427844882011
         0.429085016251
         0.430327117443
         0.431571185589
         0.43281725049
         0.434065282345
         0.435315281153
         0.436567276716
         0.437821239233
         0.439077198505
         0.440335094929
         0.44159501791
         0.442856878042
         0.444120764732
         0.445386588573
         0.44665440917
         0.447924226522
         0.449196010828
         0.450469791889
         0.451745539904
         0.453023284674
         0.454303026199
         0.455584734678
         0.456868439913
         0.458154112101
         0.459441781044
         0.460731446743
         0.462023109198
         0.463316738605
         0.464612364769
         0.465909987688
         0.467209607363
         0.468511193991
         0.469814807177
         0.471120387316
         0.472427964211
         0.473737537861
         0.475049108267
         0.476362645626
         0.477678209543
         0.478995770216
         0.480315327644
         0.481636852026
         0.482960402966
         0.484285950661
         0.485613465309
         0.486943006516
         0.488274544477
         0.489608079195
         0.490943640471
         0.492281168699
         0.493620723486
         0.494962245226
         0.496305793524
         0.497651338577
         0.498998910189
         0.500348448753
         0.501700043678
         0.503053605556
         0.504409193993
         0.505766749382
         0.507126331329
         0.508487939835
         0.509851515293
         0.511217176914
         0.512584805489
         0.513954401016
         0.515326023102
         0.51669973135
         0.518075346947
         0.519453048706
         0.520832717419
         0.522214472294
         0.523598134518
         0.524983882904
         0.526371657848
         0.527761399746
         0.529153168201
         0.530546963215
         0.531942784786
         0.533340573311
         0.534740447998
         0.536142289639
         0.537546217442
         0.538952112198
         0.540360033512
         0.541769981384
         0.54318189621
         0.544595897198
         0.546011924744
         0.547429919243
         0.548849999905
         0.55027204752
         0.551696181297
         0.553122282028
         0.554550468922
         0.555980622768
         0.557412803173
         0.55884706974
         0.560283303261
         0.561721563339
         0.56316190958
         0.564604222775
         0.566048622131
         0.567494988441
         0.568943440914
         0.570393919945
         0.571846425533
         0.57330095768
         0.574757456779
         0.576216101646
         0.577676713467
         0.579139351845
         0.580604076385
         0.582070767879
         0.583539545536
         0.585010349751
         0.586483180523
         0.587958037853
         0.589434981346
         0.590913891792
         0.592394888401
         0.593877911568
         0.595363020897
         0.596850097179
         0.598339259624
         0.599830448627
         0.601323664188
         0.602818965912
         0.604316234589
         0.605815589428
         0.60731703043
         0.608820438385
         0.610325932503
         0.611833512783
         0.613343060017
         0.614854693413
         0.616368353367
         0.617884099483
         0.619401872158
         0.620921671391
         0.622443556786
         0.623967468739
         0.625493466854
         0.627021491528
         0.628551542759
         0.630083620548
         0.631617844105
         0.633154034615
         0.634692311287
         0.636232674122
         0.63777500391
         0.639319479465
         0.640865981579
         0.64241451025
         0.643965125084
         0.645517766476
         0.64707249403
         0.648629248142
         0.650188088417
         0.65174895525
         0.653311908245
         0.654876947403
         0.656444013119
         0.658013105392
         0.659584343433
         0.661157548428
         0.662732899189
         0.664310276508
         0.665889680386
         0.667471170425
         0.669054746628
         0.670640349388
         0.672228038311
         0.673817813396
         0.67540961504
         0.677003502846
         0.678599476814
         0.680197477341
         0.68179756403
         0.683399736881
         0.685003995895
         0.686610281467
         0.688218653202
         0.689829051495
         0.691441595554
         0.693056166172
         0.694672763348
         0.69629150629
         0.697912275791
         0.699535191059
         0.701160132885
         0.702787101269
         0.70441621542
         0.706047356129
         0.707680583
         0.709315896034
         0.710953295231
         0.71259278059
         0.714234292507
         0.715877890587
         0.717523634434
         0.719171404839
         0.720821261406
         0.722473204136
         0.724127173424
         0.725783288479
         0.727441489697
         0.729101717472
         0.730764091015
         0.732428491116
         0.734094977379
         0.735763549805
         0.737434267998
         0.739107012749
         0.740781843662
         0.742458760738
         0.744137763977
         0.745818912983
         0.747502088547
         0.749187350273
         0.750874698162
         0.752564132214
         0.754255712032
         0.755949318409
         0.757645010948
         0.759342849255
         0.761042714119
         0.762744724751
         0.76444876194
         0.766154944897
         0.767863214016
         0.769573569298
         0.771286010742
         0.773000538349
         0.774717211723
         0.776435911655
         0.778156757355
         0.779879689217
         0.781604707241
         0.783331811428
         0.785061001778
         0.786792337894
         0.788525700569
         0.790261209011
         0.791998803616
         0.793738543987
         0.795480310917
         0.797224223614
         0.798970222473
         0.8007183671
         0.802468538284
         0.804220855236
         0.80597525835
         0.807731747627
         0.809490382671
         0.811251103878
         0.813013911247
         0.814778864384
         0.816545903683
         0.818315029144
         0.820086300373
         0.821859657764
         0.823635101318
         0.825412631035
         0.827192306519
         0.828974127769
         0.830758035183
         0.832544028759
         0.834332108498
         0.836122334003
         0.837914645672
         0.839709103107
         0.841505646706
         0.843304336071
         0.845105111599
         0.846908032894
         0.848712980747
         0.850520133972
         0.85232937336
         0.85414069891
         0.855954170227
         0.857769727707
         0.859587430954
         0.861407279968
         0.86322915554
         0.865053236485
         0.866879403591
         0.86870765686
         0.870538055897
         0.8723706007
         0.874205231667
         0.8760420084
         0.877880871296
         0.879721879959
         0.881564974785
         0.883410215378
         0.885257601738
         0.887107074261
         0.888958692551
         0.890812456608
         0.892668306828
         0.894526302814
         0.896386384964
         0.898248612881
         0.900112986565
         0.901979506016
         0.903848111629
         0.90571886301
         0.907591700554
         0.909466683865
         0.911343812943
         0.913223087788
         0.915104448795
         0.91698795557
         0.918873608112
         0.920761406422
         0.922651290894
         0.924543321133
         0.926437497139
         0.928333818913
