aces_1.0.0/luts/S-Log3_to_linear.spi1d
Version 1
From 0.000000 1.000000
Length 1024
Components 1
{
         -0.0140236960724
         -0.013876077719
         -0.013728460297
         -0.0135808419436
         -0.0134332245216
         -0.0132856070995
         -0.0131379887462
         -0.0129903713241
         -0.0128427529708
         -0.0126951355487
         -0.0125475171953
         -0.0123998997733
         -0.0122522814199
         -0.0121046639979
         -0.0119570456445
         -0.0118094282225
         -0.0116618098691
         -0.0115141924471
         -0.011366575025
         -0.0112189566717
         -0.0110713392496
         -0.0109237208962
         -0.0107761034742
         -0.0106284851208
         -0.0104808676988
         -0.0103332493454
         -0.0101856319234
         -0.01003801357
         -0.00989039614797
         -0.0097427777946
         -0.00959516037256
         -0.00944754295051
         -0.00929992459714
         -0.0091523071751
         -0.00900468882173
         -0.00885707139969
         -0.00870945304632
         -0.00856183562428
         -0.00841421727091
         -0.00826659984887
         -0.0081189814955
         -0.00797136407346
         -0.00782374572009
         -0.00767612829804
         -0.00752851041034
         -0.00738089252263
         -0.00723327463493
         -0.00708565674722
         -0.00693803885952
         -0.00679042097181
         -0.00664280354977
         -0.00649518566206
         -0.00634756777436
         -0.00619994988665
         -0.00605233199894
         -0.00590471411124
         -0.00575709622353
         -0.00560947833583
         -0.00546186044812
         -0.00531424256042
         -0.00516662467271
         -0.00501900678501
         -0.0048713888973
         -0.00472377147526
         -0.00457615358755
         -0.00442853569984
         -0.00428091781214
         -0.00413329992443
         -0.00398568203673
         -0.00383806414902
         -0.00369044626132
         -0.00354282837361
         -0.00339521048591
         -0.00324759283103
         -0.00309997494332
         -0.00295235705562
         -0.00280473916791
         -0.00265712128021
         -0.0025095033925
         -0.00236188573763
         -0.00221426784992
         -0.00206664996222
         -0.00191903207451
         -0.00177141418681
         -0.00162379641552
         -0.00147617852781
         -0.0013285606401
         -0.00118094286881
         -0.00103332498111
         -0.000885707093403
         -0.000738089263905
         -0.000590471434407
         -0.000442853546701
         -0.000295235717203
         -0.000147617858602
         0.0
         0.000147617858602
         0.000295235717203
         0.000442853546701
         0.000590471434407
         0.000738089263905
         0.000885707093403
         0.00103332498111
         0.00118094286881
         0.0013285606401
         0.00147617852781
         0.00162379641552
         0.00177141418681
         0.00191903207451
         0.00206664996222
         0.00221426784992
         0.00236188573763
         0.0025095033925
         0.00265712128021
         0.00280473916791
         0.00295235705562
         0.00309997494332
         0.00324759283103
         0.00339521048591
         0.00354282837361
         0.00369044626132
         0.00383806414902
         0.00398568203673
         0.00413329992443
         0.00428091781214
         0.00442853569984
         0.00457615358755
         0.00472377147526
         0.0048713888973
         0.00501900678501
         0.00516662467271
         0.00531424256042
         0.00546186044812
         0.00560947833583
         0.00575709622353
         0.00590471411124
         0.00605233199894
         0.00619994988665
         0.00634756777436
         0.00649518566206
         0.00664280354977
         0.00679042097181
         0.00693803885952
         0.00708565674722
         0.00723327463493
         0.00738089252263
         0.00752851041034
         0.00767612829804
         0.00782374572009
         0.00797136407346
         0.0081189814955
         0.00826659984887
         0.00841421727091
         0.00856183562428
         0.00870945304632
         0.00885707139969
         0.00900468882173
         0.0091523071751
         0.00929992459714
         0.00944754295051
         0.00959516037256
         0.0097427777946
         0.00989039614797
         0.01003801357
         0.0101856319234
         0.0103332493454
         0.0104808676988
         0.0106284851208
         0.0107761034742
         0.0109237208962
         0.0110713392496
         0.0112189566717
         0.0113982791081
         0.0115875285119
         0.0117784524336
         0.0119710657746
         0.0121653815731
         0.0123614156619
         0.0125591838732
         0.0127587020397
         0.0129599831998
         0.01316304598
         0.0133679043502
         0.0135745741427
         0.0137830711901
         0.0139934131876
         0.0142056150362
         0.0144196934998
         0.0146356662735
         0.0148535482585
         0.01507335715
         0.0152951106429
         0.0155188255012
         0.0157445184886
         0.015972206369
         0.0162019096315
         0.0164336450398
         0.0166674274951
         0.0169032793492
         0.0171412173659
         0.0173812583089
         0.0176234226674
         0.0178677290678
         0.0181141979992
         0.0183628443629
         0.0186136905104
         0.0188667550683
         0.019122056663
         0.0193796176463
         0.0196394566447
         0.0199015922844
         0.0201660487801
         0.0204328428954
         0.0207019951195
         0.0209735296667
         0.0212474651635
         0.021523822099
         0.0218026246876
         0.0220838934183
         0.0223676487803
         0.0226539131254
         0.0229427106678
         0.0232340618968
         0.0235279910266
         0.0238245185465
         0.024123666808
         0.024425463751
         0.0247299280018
         0.0250370856375
         0.0253469608724
         0.0256595741957
         0.0259749554098
         0.0262931231409
         0.0266141071916
         0.0269379280508
         0.0272646136582
         0.0275941882282
         0.027926677838
         0.0282621085644
         0.0286005046219
         0.0289418958127
         0.0292863044888
         0.0296337585896
         0.0299842879176
         0.0303379148245
         0.0306946709752
         0.0310545824468
         0.0314176753163
         0.0317839793861
         0.0321535244584
         0.0325263403356
         0.0329024493694
         0.0332818850875
         0.0336646810174
         0.0340508557856
         0.0344404503703
         0.0348334908485
         0.0352300070226
         0.0356300286949
         0.0360335893929
         0.0364407151937
         0.0368514470756
         0.0372658111155
         0.0376838371158
         0.0381055623293
         0.0385310165584
         0.0389602333307
         0.0393932461739
         0.0398300886154
         0.040270794183
         0.0407153964043
         0.0411639325321
         0.041616436094
         0.0420729406178
         0.0425334833562
         0.042998097837
         0.0434668250382
         0.0439396947622
         0.044416744262
         0.0448980182409
         0.0453835465014
         0.0458733662963
         0.0463675223291
         0.0468660444021
         0.0473689772189
         0.0478763617575
         0.0483882278204
         0.0489046238363
         0.0494255870581
         0.049951158464
         0.0504813753068
         0.0510162860155
         0.0515559241176
         0.0521003343165
         0.0526495613158
         0.0532036460936
         0.0537626296282
         0.054326556623
         0.0548954717815
         0.0554694198072
         0.0560484416783
         0.0566325858235
         0.0572218969464
         0.0578164197505
         0.0584162026644
         0.0590212866664
         0.0596317239106
         0.0602475591004
         0.0608688406646
         0.0614956170321
         0.0621279366314
         0.0627658516169
         0.0634094029665
         0.0640586465597
         0.0647136345506
         0.0653744190931
         0.0660410448909
         0.0667135640979
         0.0673920288682
         0.0680764988065
         0.0687670186162
         0.069463647902
         0.070166438818
         0.0708754509687
         0.0715907216072
         0.0723123252392
         0.0730403140187
         0.0737747326493
         0.0745156556368
         0.0752631276846
         0.0760172083974
         0.0767779573798
         0.0775454416871
         0.0783197060227
         0.0791008248925
         0.0798888429999
         0.0806838348508
         0.0814858600497
         0.0822949782014
         0.0831112489104
         0.0839347466826
         0.0847655236721
         0.0856036394835
         0.0864491760731
         0.0873021930456
         0.0881627500057
         0.0890309214592
         0.0899067670107
         0.090790361166
         0.0916817635298
         0.0925810560584
         0.0934883058071
         0.0944035723805
         0.0953269377351
         0.096258468926
         0.0971982330084
         0.0981463119388
         0.0991027802229
         0.100067704916
         0.101041160524
         0.102023229003
         0.103013984859
         0.104013502598
         0.105021856725
         0.106039129198
         0.107065401971
         0.108100749552
         0.109145253897
         0.110198989511
         0.111262053251
         0.112334519625
         0.113416463137
         0.114507980645
         0.115609154105
         0.116720065475
         0.117840796709
         0.118971444666
         0.120112091303
         0.121262826025
         0.122423738241
         0.123594917357
         0.12477645278
         0.125968441367
         0.127170965075
         0.128384128213
         0.129608020186
         0.130842745304
         0.132088378072
         0.133345037699
         0.134612813592
         0.135891795158
         0.137182086706
         0.138483792543
         0.139797002077
         0.141121834517
         0.142458379269
         0.143806755543
         0.145167037845
         0.146539375186
         0.147923827171
         0.149320542812
         0.150729596615
         0.152151122689
         0.153585210443
         0.155031993985
         0.156491562724
         0.157964035869
         0.159449547529
         0.160948187113
         0.16246008873
         0.163985356688
         0.165524110198
         0.167076468468
         0.168642565608
         0.170222520828
         0.171816438437
         0.173424452543
         0.175046697259
         0.176683276892
         0.178334340453
         0.180000007153
         0.181680396199
         0.183375641704
         0.185085892677
         0.18681126833
         0.188551902771
         0.190307930112
         0.192079499364
         0.193866714835
         0.19566975534
         0.197488740087
         0.199323803186
         0.201175093651
         0.203042760491
         0.20492695272
         0.206827804446
         0.208745464683
         0.210680097342
         0.212631821632
         0.214600816369
         0.216587230563
         0.218591213226
         0.22061291337
         0.222652494907
         0.22471010685
         0.226785928011
         0.228880107403
         0.230992808938
         0.233124196529
         0.235274419188
         0.23744367063
         0.239632114768
         0.241839900613
         0.24406722188
         0.246314227581
         0.248581126332
         0.250868052244
         0.253175228834
         0.255502790213
         0.257850944996
         0.260219871998
         0.262609750032
         0.265020757914
         0.267453074455
         0.269906908274
         0.272382467985
         0.274879902601
         0.277399450541
         0.279941260815
         0.28250554204
         0.285092502832
         0.287702351809
         0.290335297585
         0.292991518974
         0.295671224594
         0.29837462306
         0.301101952791
         0.303853392601
         0.306629180908
         0.309429496527
         0.312254577875
         0.315104663372
         0.317979961634
         0.320880651474
         0.323807030916
         0.326759278774
         0.329737633467
         0.332742333412
         0.335773617029
         0.338831692934
         0.341916829348
         0.345029234886
         0.348169177771
         0.35133689642
         0.354532629251
         0.357756614685
         0.361009120941
         0.364290386438
         0.367600679398
         0.370940238237
         0.374309331179
         0.377708256245
         0.381137192249
         0.38459649682
         0.388086378574
         0.391607105732
         0.395159006119
         0.398742288351
         0.402357280254
         0.40600425005
         0.409683465958
         0.413395226002
         0.417139798403
         0.420917510986
         0.424728602171
         0.428573429585
         0.432452261448
         0.436365365982
         0.440313100815
         0.444295763969
         0.448313623667
         0.452367037535
         0.456456303596
         0.460581719875
         0.464743643999
         0.468942344189
         0.473178207874
         0.477451503277
         0.481762617826
         0.486111849546
         0.490499556065
         0.494926065207
         0.499391704798
         0.503896892071
         0.508441865444
         0.513027071953
         0.51765280962
         0.522319436073
         0.527027368546
         0.531776964664
         0.536568522453
         0.541402459145
         0.546279191971
         0.551199018955
         0.55616235733
         0.561169564724
         0.566221117973
         0.571317315102
         0.576458573341
         0.581645309925
         0.586877942085
         0.59215682745
         0.597482442856
         0.602855086327
         0.608275294304
         0.613743424416
         0.619259953499
         0.624825239182
         0.630439758301
         0.636103868484
         0.641818165779
         0.647582948208
         0.653398752213
         0.659265935421
         0.665185034275
         0.671156525612
         0.677180767059
         0.683258295059
         0.689389646053
         0.69557517767
         0.701815366745
         0.708110809326
         0.714461922646
         0.72086918354
         0.727333128452
         0.733854234219
         0.740432977676
         0.747069954872
         0.753765642643
         0.760520517826
         0.767335116863
         0.774209976196
         0.781145691872
         0.788142740726
         0.795201659203
         0.802322983742
         0.80950731039
         0.816755175591
         0.824067175388
         0.831443786621
         0.83888566494
         0.846393346786
         0.853967487812
         0.861608564854
         0.869317233562
         0.87709403038
         0.884939670563
         0.892854690552
         0.900839686394
         0.90889531374
         0.917022168636
         0.925220906734
         0.933492183685
         0.941836595535
         0.950254797935
         0.958747446537
         0.967315256596
         0.975958764553
         0.984678804874
         0.993475914001
         1.00235080719
         1.0113042593
         1.02033686638
         1.02944934368
         1.03864240646
         1.04791676998
         1.05727314949
         1.06671226025
         1.07623493671
         1.08584177494
         1.09553360939
         1.10531115532
         1.11517512798
         1.12512636185
         1.13516569138
         1.14529371262
         1.15551137924
         1.1658192873
         1.17621850967
         1.18670964241
         1.19729351997
         1.20797109604
         1.21874296665
         1.2296102047
         1.24057352543
         1.25163388252
         1.26279199123
         1.27404880524
         1.285405159
         1.29686188698
         1.30842006207
         1.32008039951
         1.331843853
         1.34371137619
         1.35568380356
         1.36776220798
         1.37994730473
         1.39224028587
         1.40464198589
         1.41715323925
         1.42977523804
         1.44250893593
         1.45535516739
         1.4683150053
         1.48138952255
         1.4945795536
         1.50788640976
         1.52131080627
         1.53485405445
         1.54851698875
         1.56230080128
         1.57620644569
         1.5902351141
         1.60438787937
         1.6186658144
         1.63307011127
         1.64760172367
         1.66226184368
         1.67705154419
         1.6919721365
         1.70702469349
         1.72221040726
         1.73753035069
         1.75298583508
         1.76857793331
         1.7843080759
         1.80017721653
         1.8161867857
         1.83233785629
         1.84863185883
         1.86506986618
         1.88165330887
         1.89838349819
         1.91526150703
         1.93228888512
         1.94946682453
         1.96679675579
         1.98427987099
         2.00191760063
         2.01971149445
         2.0376625061
         2.05577230453
         2.07404255867
         2.09247422218
         2.11106872559
         2.12982797623
         2.14875292778
         2.16784524918
         2.18710660934
         2.20653820038
         2.22614169121
         2.24591851234
         2.2658700943
         2.28599834442
         2.30630469322
         2.32679033279
         2.34745740891
         2.36830711365
         2.38934135437
         2.41056156158
         2.43196940422
         2.45356655121
         2.4753549099
         2.49733567238
         2.51951098442
         2.54188251495
         2.56445169449
         2.58722066879
         2.6101911068
         2.63336443901
         2.6567428112
         2.6803278923
         2.70412158966
         2.72812581062
         2.75234246254
         2.77677297592
         2.80141973495
         2.82628440857
         2.85136890411
         2.87667536736
         2.90220570564
         2.92796182632
         2.95394563675
         2.98015928268
         3.0066049099
         3.03328418732
         3.06019949913
         3.0873529911
         3.11474657059
         3.14238238335
         3.17026257515
         3.19838929176
         3.22676491737
         3.25539135933
         3.28427100182
         3.31340622902
         3.34279894829
         3.37245178223
         3.4023668766
         3.43254637718
         3.46299290657
         3.49370861053
         3.52469611168
         3.55595755577
         3.58749556541
         3.61931228638
         3.65141057968
         3.68379282951
         3.71646142006
         3.7494187355
         3.78266787529
         3.81621074677
         3.85005044937
         3.88418960571
         3.91863036156
         3.95337581635
         3.98842859268
         4.02379131317
         4.05946731567
         4.0954580307
         4.13176774979
         4.16839790344
         4.2053527832
         4.24263381958
         4.28024482727
         4.3181886673
         4.35646772385
         4.39508581161
         4.43404531479
         4.47334909439
         4.51300048828
         4.55300283432
         4.59335899353
         4.63407182693
         4.67514467239
         4.71658086777
         4.75838375092
         4.80055618286
         4.84310150146
         4.88602304459
         4.92932462692
         4.97300863266
         5.01707935333
         5.06153964996
         5.10639333725
         5.15164375305
         5.19729423523
         5.24334859848
         5.28980970383
         5.33668231964
         5.38396930695
         5.43167448044
         5.47980165482
         5.52835464478
         5.57733678818
         5.62675189972
         5.67660474777
         5.72689771652
         5.77763605118
         5.8288230896
         5.88046264648
         5.93255901337
         5.98511600494
         6.03813791275
         6.09162855148
         6.14559221268
         6.2000336647
         6.25495624542
         6.31036472321
         6.36626291275
         6.42265558243
         6.47954750061
         6.53694200516
         6.59484434128
         6.65325880051
         6.71218967438
         6.7716422081
         6.83162021637
         6.89212846756
         6.95317220688
         7.01475572586
         7.07688379288
         7.13956165314
         7.20279359818
         7.2665848732
         7.33094024658
         7.39586496353
         7.46136379242
         7.52744150162
         7.59410429001
         7.66135597229
         7.72920322418
         7.79764986038
         7.86670207977
         7.93636512756
         8.00664424896
         8.07754516602
         8.14907264709
         8.22123241425
         8.29403114319
         8.36747360229
         8.44156551361
         8.51631259918
         8.59172058105
         8.66779613495
         8.74454402924
         8.82197093964
         8.9000825882
         8.97888469696
         9.05838394165
         9.13858604431
         9.21949768066
         9.30112552643
         9.38347434998
         9.4665517807
         9.55036449432
         9.63491821289
         9.72021961212
         9.80627536774
         9.89309215546
         9.980676651
         10.0690355301
         10.1581764221
         10.2481060028
         10.3388299942
         10.4303569794
         10.522693634
         10.6158466339
         10.7098236084
         10.8046312332
         10.9002780914
         10.9967708588
         11.0941162109
         11.192322731
         11.2913980484
         11.3913497925
         11.4921855927
         11.5939130783
         11.6965398788
         11.8000745773
         11.9045248032
         12.0098991394
         12.1162052155
         12.2234516144
         12.3316469193
         12.4407978058
         12.5509157181
         12.6620063782
         12.7740793228
         12.8871440887
         13.001209259
         13.1162824631
         13.2323732376
         13.3494911194
         13.4676456451
         13.5868434906
         13.7070970535
         13.8284130096
         13.950802803
         14.0742740631
         14.1988382339
         14.3245038986
         14.4512805939
         14.5791788101
         14.7082080841
         14.8383789062
         14.9696998596
         15.102183342
         15.2358379364
         15.370675087
         15.5067043304
         15.6439371109
         15.7823829651
         15.9220542908
         16.062959671
         16.2051124573
         16.3485202789
         16.4931983948
         16.6391563416
         16.786403656
         16.9349536896
         17.0848178864
         17.2360076904
         17.3885345459
         17.5424098969
         17.6976470947
         17.8542575836
         18.0122509003
         18.1716442108
         18.3324451447
         18.4946689606
         18.6583271027
         18.8234329224
         18.9899997711
         19.158039093
         19.3275642395
         19.4985904694
         19.6711273193
         19.8451900482
         20.0207939148
         20.1979484558
         20.3766727448
         20.556974411
         20.7388725281
         20.9223804474
         21.107509613
         21.2942771912
         21.4826946259
         21.6727809906
         21.8645477295
         22.0580101013
         22.2531833649
         22.4500827789
         22.6487236023
         22.8491210938
         23.0512905121
         23.2552490234
         23.4610118866
         23.668592453
         23.8780117035
         24.0892810822
         24.3024196625
         24.5174427032
         24.7343673706
         24.9532108307
         25.1739902496
         25.3967208862
         25.6214237213
         25.8481121063
         26.0768051147
         26.3075218201
         26.5402793884
         26.775094986
         27.0119857788
         27.2509746552
         27.4920749664
         27.7353076935
         27.9806919098
         28.2282466888
         28.4779911041
         28.7299442291
         28.9841251373
         29.2405548096
