aces_1.0.0/luts/S-Log1_to_linear.spi1d
Version 1
From 0.000000 1.000000
Length 1024
Components 1
{
         -0.0185509044677
         -0.0183454249054
         -0.0181399453431
         -0.0179344657809
         -0.0177289880812
         -0.0175235085189
         -0.0173180289567
         -0.0171125493944
         -0.0169070698321
         -0.0167015902698
         -0.0164961107075
         -0.0162906311452
         -0.016085151583
         -0.0158796720207
         -0.0156741924584
         -0.0154687128961
         -0.0152632342651
         -0.0150577547029
         -0.0148522751406
         -0.0146467955783
         -0.014441316016
         -0.0142358364537
         -0.0140303568915
         -0.0138248773292
         -0.0136193977669
         -0.0134139191359
         -0.0132084395736
         -0.0130029600114
         -0.0127974804491
         -0.0125920008868
         -0.0123865213245
         -0.0121810417622
         -0.0119755622
         -0.011770083569
         -0.0115646040067
         -0.0113591244444
         -0.0111536448821
         -0.0109481653199
         -0.0107426857576
         -0.0105372061953
         -0.010331726633
         -0.0101262470707
         -0.00992076843977
         -0.00971528887749
         -0.0095098093152
         -0.00930432975292
         -0.00909885019064
         -0.00889337062836
         -0.00868789106607
         -0.00848241150379
         -0.00827693287283
         -0.00807145331055
         -0.00786597374827
         -0.00766049418598
         -0.0074550146237
         -0.00724953506142
         -0.00704405549914
         -0.00683857640252
         -0.00663309684023
         -0.00642761727795
         -0.00622213771567
         -0.00601665861905
         -0.00581117905676
         -0.00560569949448
         -0.0054002199322
         -0.00519474083558
         -0.00498926127329
         -0.00478378171101
         -0.00457830214873
         -0.00437282305211
         -0.00416734348983
         -0.00396186392754
         -0.00375638459809
         -0.00355090503581
         -0.00334542570636
         -0.00313994614407
         -0.00293446658179
         -0.00272898725234
         -0.00252350769006
         -0.00231802836061
         -0.00211254879832
         -0.00190706946887
         -0.001701590023
         -0.00149611057714
         -0.00129063101485
         -0.00108515156899
         -0.000879672181327
         -0.00067419273546
         -0.000468713260489
         -0.000263233814621
         -5.7705456129e-05
         0.000148049090058
         0.000355057360139
         0.000563326932024
         0.000772865547333
         0.000983680947684
         0.0011957809329
         0.0014091731282
         0.00162386568263
         0.00183986639604
         0.00205718330108
         0.00227582431398
         0.002495797351
         0.00271711102687
         0.00293977302499
         0.00316379196011
         0.00338917574845
         0.00361593277194
         0.00384407141246
         0.00407360028476
         0.00430452777073
         0.00453686248511
         0.00477061234415
         0.00500578712672
         0.00524239428341
         0.00548044359311
         0.00571994297206
         0.00596090219915
         0.00620332919061
         0.00644723325968
         0.00669262371957
         0.00693950941786
         0.00718789966777
         0.0074378028512
         0.0076892292127
         0.00794218759984
         0.00819668639451
         0.0084527367726
         0.00871034711599
         0.00896952766925
         0.00923028681427
         0.00949263479561
         0.0097565818578
         0.0100221363828
         0.0102893095464
         0.0105581106618
         0.0108285490423
         0.0111006358638
         0.0113743804395
         0.0116497930139
         0.0119268838316
         0.0122056631371
         0.012486141175
         0.0127683272585
         0.0130522334948
         0.0133378691971
         0.0136252464727
         0.0139143737033
         0.0142052629963
         0.0144979245961
         0.0147923696786
         0.0150886084884
         0.0153866522014
         0.0156865119934
         0.0159881990403
         0.0162917245179
         0.0165970996022
         0.016904335469
         0.0172134432942
         0.0175244342536
         0.0178373213857
         0.0181521140039
         0.0184688232839
         0.0187874641269
         0.0191080458462
         0.0194305814803
         0.0197550822049
         0.0200815591961
         0.020410027355
         0.0207404959947
         0.0210729781538
         0.0214074850082
         0.0217440314591
         0.0220826286823
         0.0224232897162
         0.0227660257369
         0.0231108497828
         0.0234577748924
         0.0238068141043
         0.0241579785943
         0.0245112851262
         0.0248667430133
         0.0252243671566
         0.0255841705948
         0.0259461663663
         0.0263103675097
         0.0266767870635
         0.0270454417914
         0.0274163410068
         0.0277894996107
         0.0281649325043
         0.0285426545888
         0.0289226770401
         0.0293050147593
         0.0296896807849
         0.0300766937435
         0.0304660629481
         0.0308578051627
         0.0312519334257
         0.0316484645009
         0.0320474095643
         0.0324487872422
         0.0328526124358
         0.0332588963211
         0.0336676537991
         0.0340789034963
         0.0344926603138
         0.0349089354277
         0.0353277511895
         0.0357491150498
         0.0361730493605
         0.0365995615721
         0.0370286777616
         0.0374604091048
         0.0378947667778
         0.0383317731321
         0.038771443069
         0.0392137914896
         0.0396588370204
         0.0401065908372
         0.0405570752919
         0.0410103015602
         0.0414662919939
         0.0419250614941
         0.0423866249621
         0.0428510010242
         0.043318208307
         0.0437882617116
         0.0442611761391
         0.0447369739413
         0.0452156737447
         0.045697286725
         0.0461818352342
         0.0466693378985
         0.0471598096192
         0.0476532690227
         0.0481497384608
         0.0486492291093
         0.04915176332
         0.0496573634446
         0.050166040659
         0.0506778173149
         0.051192715764
         0.0517107471824
         0.0522319376469
         0.052756305784
         0.0532838664949
         0.0538146421313
         0.0543486513197
         0.0548859126866
         0.0554264523089
         0.0559702813625
         0.0565174259245
         0.0570679046214
         0.0576217360795
         0.0581789426506
         0.0587395466864
         0.0593035630882
         0.0598710179329
         0.060441929847
         0.0610163211823
         0.0615942105651
         0.0621756240726
         0.0627605766058
         0.0633490979671
         0.0639412030578
         0.0645369142294
         0.0651362612844
         0.0657392516732
         0.0663459226489
         0.0669562891126
         0.0675703734159
         0.0681881979108
         0.0688097849488
         0.0694351643324
         0.0700643509626
         0.0706973746419
         0.0713342577219
         0.0719750151038
         0.07261967659
         0.0732682719827
         0.0739208161831
         0.0745773389935
         0.0752378553152
         0.075902402401
         0.076570995152
         0.0772436633706
         0.0779204368591
         0.0786013230681
         0.0792863667011
         0.0799755752087
         0.0806689932942
         0.0813666284084
         0.0820685178041
         0.0827746838331
         0.0834851562977
         0.084199950099
         0.0849191099405
         0.0856426432729
         0.0863705873489
         0.0871029645205
         0.0878398045897
         0.0885811373591
         0.0893269851804
         0.0900773778558
         0.0908323451877
         0.0915919095278
         0.092356108129
         0.0931249558926
         0.0938984900713
         0.0946767404675
         0.0954597294331
         0.0962474942207
         0.0970400571823
         0.0978374481201
         0.0986396968365
         0.0994468331337
         0.100258886814
         0.10107588768
         0.101897872984
         0.102724865079
         0.103556893766
         0.104393988848
         0.105236187577
         0.106083519757
         0.106936015189
         0.107793703675
         0.108656622469
         0.109524793923
         0.110398255289
         0.111277043819
         0.112161181867
         0.113050706685
         0.113945655525
         0.114846050739
         0.115751937032
         0.116663344204
         0.11758030206
         0.11850284785
         0.119431018829
         0.120364844799
         0.121304355562
         0.122249595821
         0.123200587928
         0.124157384038
         0.125119999051
         0.126088500023
         0.127062886953
         0.128043204546
         0.129029512405
         0.130021810532
         0.13102017343
         0.132024601102
         0.133035168052
         0.134051889181
         0.135074794292
         0.13610394299
         0.137139350176
         0.138181075454
         0.139229148626
         0.140283599496
         0.141344487667
         0.142411828041
         0.143485680223
         0.144566074014
         0.145653054118
         0.146746650338
         0.147846922278
         0.14895388484
         0.150067597628
         0.151188090444
         0.152315422893
         0.153449609876
         0.154590710998
         0.155738770962
         0.156893834472
         0.158055916429
         0.159225091338
         0.160401389003
         0.161584854126
         0.162775531411
         0.163973465562
         0.16517868638
         0.166391268373
         0.167611226439
         0.168838620186
         0.170073494315
         0.171315893531
         0.172565862536
         0.173823446035
         0.175088688731
         0.176361650229
         0.17764236033
         0.178930878639
         0.180227249861
         0.181531518698
         0.182843729854
         0.184163942933
         0.185492187738
         0.186828538775
         0.188173025846
         0.189525708556
         0.190886631608
         0.192255854607
         0.193633407354
         0.195019364357
         0.196413755417
         0.19781665504
         0.199228093028
         0.200648143888
         0.20207683742
         0.203514233232
         0.204960390925
         0.206415370107
         0.207879200578
         0.209351956844
         0.21083368361
         0.212324440479
         0.213824287057
         0.215333268046
         0.216851443052
         0.218378871679
         0.219915598631
         0.221461698413
         0.223017215729
         0.224582210183
         0.226156741381
         0.227740868926
         0.229334637523
         0.230938136578
         0.232551395893
         0.234174475074
         0.235807448626
         0.237450376153
         0.239103317261
         0.240766331553
         0.242439478636
         0.244122818112
         0.245816409588
         0.247520327568
         0.249234616756
         0.25095936656
         0.252694606781
         0.254440456629
         0.256196916103
         0.257964074612
         0.259741991758
         0.26153075695
         0.263330429792
         0.265141069889
         0.266962736845
         0.268795490265
         0.270639419556
         0.272494584322
         0.274361073971
         0.276238918304
         0.278128176928
         0.280028998852
         0.281941354275
         0.283865392208
         0.285801142454
         0.28774869442
         0.28970810771
         0.291679471731
         0.293662846088
         0.295658290386
         0.297665894032
         0.299685746431
         0.30171790719
         0.303762435913
         0.305819422007
         0.307888954878
         0.309971094131
         0.312065899372
         0.314173489809
         0.316293925047
         0.31842726469
         0.320573627949
         0.322733044624
         0.324905633926
         0.32709145546
         0.329290598631
         0.331503123045
         0.333729147911
         0.335968732834
         0.33822196722
         0.340488940477
         0.34276971221
         0.345064371824
         0.34737303853
         0.34969574213
         0.352032601833
         0.354383736849
         0.356749176979
         0.359129011631
         0.361523360014
         0.363932311535
         0.366355925798
         0.368794322014
         0.371247559786
         0.373715758324
         0.376198977232
         0.37869733572
         0.381210923195
         0.383739829063
         0.386284142733
         0.388843953609
         0.391419351101
         0.394010454416
         0.396617352962
         0.399240136147
         0.401878893375
         0.404533714056
         0.407204717398
         0.40989202261
         0.412595689297
         0.415315806866
         0.418052524328
         0.420805901289
         0.423576056957
         0.426363110542
         0.429167121649
         0.431988239288
         0.434826523066
         0.437682121992
         0.440555125475
         0.443445622921
         0.44635373354
         0.449279546738
         0.452223211527
         0.455184787512
         0.458164423704
         0.461162239313
         0.464178293943
         0.467212736607
         0.47026565671
         0.473337173462
         0.476427435875
         0.479536503553
         0.482664525509
         0.485811591148
         0.488977849483
         0.492163389921
         0.495368361473
         0.498592853546
         0.501836955547
         0.505100846291
         0.508384644985
         0.51168847084
         0.515012383461
         0.518356561661
         0.521721124649
         0.525106191635
         0.528511881828
         0.531938314438
         0.535385608673
         0.538853943348
         0.542343378067
         0.545854091644
         0.549386203289
         0.552939832211
         0.556515097618
         0.560112178326
         0.563731133938
         0.567372202873
         0.571035385132
         0.574720919132
         0.578428924084
         0.582159519196
         0.585912823677
         0.589689016342
         0.5934882164
         0.597310602665
         0.601156234741
         0.605025291443
         0.608917951584
         0.612834274769
         0.616774559021
         0.620738744736
         0.624727189541
         0.628739833832
         0.632776975632
         0.63683873415
         0.640925228596
         0.645036637783
         0.649173080921
         0.653334736824
         0.657521724701
         0.661734223366
         0.665972411633
         0.67023640871
         0.674526453018
         0.678842544556
         0.683184981346
         0.687553882599
         0.691949367523
         0.696371674538
         0.700820922852
         0.705297291279
         0.709800899029
         0.71433198452
         0.718890607357
         0.723477065563
         0.728091478348
         0.73273396492
         0.737404763699
         0.742104053497
         0.746831953526
         0.751588642597
         0.756374359131
         0.761189162731
         0.766033351421
         0.770907044411
         0.775810480118
         0.780743718147
         0.785707056522
         0.790700674057
         0.795724630356
         0.800779283047
         0.805864691734
         0.810981094837
         0.816128671169
         0.821307599545
         0.826518118382
         0.831760346889
         0.837034523487
         0.842340886593
         0.847679495811
         0.853050708771
         0.85845464468
         0.863891482353
         0.869361460209
         0.874864757061
         0.880401551723
         0.88597214222
         0.891576647758
         0.897215306759
         0.902888357639
         0.908595919609
         0.914338290691
         0.9201156497
         0.925928175449
         0.931776165962
         0.937659740448
         0.94357919693
         0.949534773827
         0.955526530743
         0.961554884911
         0.96761995554
         0.973721921444
         0.979861140251
         0.986037731171
         0.992251932621
         0.998504042625
         1.00479424
         1.01112270355
         1.01748979092
         1.02389574051
         1.03034067154
         1.03682482243
         1.0433485508
         1.04991197586
         1.05651533604
         1.06315898895
         1.06984317303
         1.07656800747
         1.08333384991
         1.09014093876
         1.09698951244
         1.10387980938
         1.11081206799
         1.11778664589
         1.12480354309
         1.13186335564
         1.13896608353
         1.1461122036
         1.15330183506
         1.16053521633
         1.16781270504
         1.1751345396
         1.18250095844
         1.18991219997
         1.19736874104
         1.20487058163
         1.21241831779
         1.22001183033
         1.22765171528
         1.23533821106
         1.24307143688
         1.25085186958
         1.25867962837
         1.26655519009
         1.27447867393
         1.28245043755
         1.29047071934
         1.29853987694
         1.30665826797
         1.31482613087
         1.32304370403
         1.33131146431
         1.3396294117
         1.34799814224
         1.35641789436
         1.36488890648
         1.37341165543
         1.3819861412
         1.39061295986
         1.39929234982
         1.40802466869
         1.41681015491
         1.42564916611
         1.4345420599
         1.44348907471
         1.45249068737
         1.46154713631
         1.47065865993
         1.4798258543
         1.48904883862
         1.4983279705
         1.50766372681
         1.51705634594
         1.52650618553
         1.53601360321
         1.5455789566
         1.55520248413
         1.56488478184
         1.57462608814
         1.58442664146
         1.59428703785
         1.60420739651
         1.61418831348
         1.6242300272
         1.63433289528
         1.64449727535
         1.65472364426
         1.66501224041
         1.67536365986
         1.68577814102
         1.69625592232
         1.706797719
         1.71740365028
         1.72807431221
         1.73880982399
         1.74961090088
         1.7604777813
         1.77141082287
         1.78241050243
         1.79347717762
         1.80461132526
         1.81581318378
         1.82708346844
         1.83842229843
         1.84983038902
         1.86130785942
         1.87285530567
         1.8844730854
         1.89616167545
         1.90792143345
         1.91975283623
         1.93165636063
         1.94363248348
         1.95568156242
         1.96780395508
         1.9800003767
         1.9922709465
         2.00461649895
         2.01703691483
         2.02953338623
         2.04210591316
         2.05475497246
         2.06748104095
         2.08028459549
         2.09316635132
         2.10612654686
         2.11916565895
         2.13228440285
         2.14548277855
         2.15876173973
         2.17212176323
         2.18556308746
         2.19908618927
         2.21269178391
         2.22638034821
         2.24015212059
         2.25400781631
         2.26794815063
         2.28197336197
         2.29608392715
         2.31028056145
         2.32456374168
         2.33893370628
         2.35339140892
         2.36793732643
         2.38257169724
         2.39729523659
         2.41210865974
         2.42701220512
         2.44200658798
         2.45709228516
         2.4722700119
         2.48754000664
         2.50290322304
         2.51836013794
         2.53391098976
         2.54955673218
         2.56529784203
         2.58113479614
         2.59706830978
         2.61309885979
         2.62922716141
         2.64545369148
         2.66177916527
         2.67820382118
         2.69472885132
         2.71135449409
         2.72808146477
         2.74491024017
         2.76184177399
         2.77887630463
         2.79601454735
         2.81325745583
         2.83060526848
         2.84805870056
         2.86561870575
         2.88328552246
         2.90106010437
         2.91894292831
         2.93693470955
         2.95503616333
         2.97324800491
         2.99157071114
         3.01000499725
         3.02855157852
         3.04721140862
         3.06598472595
         3.08487248421
         3.10387539864
         3.12299394608
         3.1422290802
         3.16158151627
         3.18105173111
         3.20064067841
         3.22034883499
         3.24017715454
         3.26012635231
         3.28019690514
         3.30039000511
         3.32070612907
         3.34114599228
         3.36171030998
         3.38240003586
         3.40321564674
         3.42415833473
         3.44522857666
         3.46642708778
         3.48775482178
         3.5092124939
         3.5308008194
         3.55252099037
         3.57437324524
         3.59635877609
         3.61847805977
         3.64073228836
         3.66312217712
         3.68564844131
         3.70831203461
         3.73111343384
         3.75405406952
         3.77713441849
         3.80035543442
         3.82371783257
         3.8472225666
         3.87087059021
         3.89466261864
         3.91859960556
         3.94268274307
         3.96691226959
         3.99128961563
         4.01581525803
         4.04049062729
         4.06531620026
         4.09029340744
         4.11542224884
         4.14070463181
         4.16614055634
         4.19173192978
         4.21747922897
         4.24338340759
         4.26944494247
         4.29566574097
         4.32204627991
         4.34858751297
         4.37529039383
         4.40215587616
         4.42918539047
         4.4563794136
         4.48373889923
         4.51126527786
         4.53895950317
         4.56682252884
         4.59485530853
         4.62305879593
         4.6514339447
         4.67998218536
         4.70870447159
         4.73760175705
         4.76667499542
         4.79592514038
         4.82535409927
         4.8549618721
         4.88475036621
         4.91472005844
         4.9448723793
         4.97520875931
         5.00572967529
         5.03643703461
         5.06733083725
         5.09841346741
         5.12968492508
         5.16114759445
         5.19280147552
         5.22464847565
         5.25668907166
         5.28892564774
         5.32135820389
         5.35398817062
         5.38681745529
         5.41984653473
         5.45307683945
         5.48650932312
         5.5201458931
         5.55398750305
         5.58803510666
         5.62229013443
         5.65675401688
         5.69142770767
         5.72631311417
         5.7614107132
         5.79672241211
         5.83224868774
         5.86799192429
         5.90395307541
         5.94013309479
         5.97653341293
         6.01315593719
         6.05000162125
         6.08707141876
         6.12436723709
         6.16189050674
         6.1996421814
         6.23762369156
         6.27583694458
         6.31428289413
         6.35296344757
         6.39187955856
         6.43103265762
         6.47042417526
         6.51005601883
         6.549929142
         6.59004497528
         6.63040590286
         6.67101240158
         6.71186637878
         6.75296926498
         6.79432249069
         6.83592748642
         6.87778615952
         6.91990041733
         6.96227073669
         7.0048995018
         7.04778766632
         7.0909371376
         7.134349823
         7.17802715302
         7.22197055817
         7.26618146896
         7.31066179276
         7.35541343689
         7.40043735504
         7.4457359314
         7.49131011963
         7.53716230392
         7.58329391479
         7.62970638275
         7.67640209198
         7.72338199615
         7.77064800262
         7.81820249557
         7.86604642868
         7.91418170929
         7.96261072159
         8.01133441925
         8.06035518646
         8.10967445374
         8.15929508209
