aces_1.0.0/luts/S-Log2_to_linear.spi1d
Version 1
From 0.000000 1.000000
Length 1024
Components 1
{
         -0.0262106340379
         -0.025920310989
         -0.0256299879402
         -0.025339666754
         -0.0250493437052
         -0.0247590206563
         -0.0244686976075
         -0.0241783764213
         -0.0238880533725
         -0.0235977303237
         -0.0233074072748
         -0.0230170860887
         -0.0227267630398
         -0.022436439991
         -0.0221461169422
         -0.021855795756
         -0.0215654727072
         -0.0212751496583
         -0.0209848266095
         -0.0206945054233
         -0.0204041823745
         -0.0201138593256
         -0.0198235362768
         -0.0195332150906
         -0.0192428920418
         -0.018952568993
         -0.0186622459441
         -0.018371924758
         -0.0180816017091
         -0.0177912786603
         -0.0175009556115
         -0.0172106344253
         -0.0169203113765
         -0.0166299883276
         -0.0163396652788
         -0.0160493440926
         -0.0157590210438
         -0.0154686979949
         -0.0151783758774
         -0.0148880528286
         -0.0145977307111
         -0.0143074076623
         -0.0140170855448
         -0.0137267624959
         -0.0134364403784
         -0.0131461173296
         -0.0128557952121
         -0.0125654721633
         -0.0122751500458
         -0.0119848269969
         -0.0116945048794
         -0.0114041818306
         -0.0111138597131
         -0.0108235366642
         -0.0105332145467
         -0.0102428914979
         -0.0099525693804
         -0.00966224633157
         -0.00937192421407
         -0.00908160116524
         -0.00879127904773
         -0.0085009559989
         -0.00821063388139
         -0.00792031083256
         -0.00762998824939
         -0.00733966566622
         -0.00704934308305
         -0.00675902049989
         -0.00646869791672
         -0.00617837533355
         -0.00588805275038
         -0.00559773016721
         -0.00530740758404
         -0.00501708500087
         -0.0047267624177
         -0.00443643983454
         -0.00414611725137
         -0.00385579490103
         -0.00356547231786
         -0.00327514973469
         -0.00298482715152
         -0.00269450456835
         -0.00240418198518
         -0.00211385940202
         -0.00182353681885
         -0.00153321423568
         -0.00124289165251
         -0.000952569069341
         -0.000662246486172
         -0.000371923903003
         -8.15322200651e-05
         0.000209179052035
         0.000501661677845
         0.000795926433057
         0.00109198421706
         0.00138984597288
         0.00168952264357
         0.001991025405
         0.0022943650838
         0.00259955320507
         0.0029066009447
         0.00321551947854
         0.00352632021531
         0.00383901502937
         0.00415361486375
         0.00447013182566
         0.00478857709095
         0.00510896323249
         0.00543130096048
         0.00575560331345
         0.00608188100159
         0.0064101475291
         0.00674041360617
         0.00707269227132
         0.00740699609742
         0.00774333626032
         0.00808172579855
         0.00842217728496
         0.00876470375806
         0.00910931732506
         0.00945603009313
         0.00980485510081
         0.0101558063179
         0.0105088958517
         0.0108641367406
         0.0112215420231
         0.0115811256692
         0.0119428997859
         0.0123068783432
         0.0126730743796
         0.0130415018648
         0.0134121747687
         0.0137851051986
         0.0141603089869
         0.0145377991721
         0.0149175887927
         0.01529969275
         0.0156841240823
         0.0160708986223
         0.016460031271
         0.0168515332043
         0.0172454211861
         0.0176417082548
         0.0180404111743
         0.0184415429831
         0.0188451185822
         0.0192511547357
         0.0196596626192
         0.0200706608593
         0.0204841643572
         0.0209001861513
         0.0213187430054
         0.0217398516834
         0.0221635252237
         0.0225897785276
         0.0230186320841
         0.0234500970691
         0.0238841902465
         0.0243209302425
         0.0247603300959
         0.025202408433
         0.0256471801549
         0.0260946601629
         0.0265448689461
         0.0269978195429
         0.0274535305798
         0.0279120188206
         0.0283733010292
         0.0288373939693
         0.0293043125421
         0.0297740790993
         0.0302467066795
         0.030722213909
         0.0312006175518
         0.0316819362342
         0.0321661904454
         0.0326533913612
         0.0331435650587
         0.0336367227137
         0.034132886678
         0.0346320718527
         0.0351343005896
         0.0356395915151
         0.0361479558051
         0.0366594232619
         0.0371740013361
         0.03769171983
         0.0382125899196
         0.0387366376817
         0.0392638742924
         0.0397943258286
         0.0403280071914
         0.0408649407327
         0.0414051488042
         0.041948646307
         0.0424954555929
         0.0430455990136
         0.0435990914702
         0.0441559590399
         0.0447162166238
         0.0452798902988
         0.0458469986916
         0.0464175604284
         0.0469915978611
         0.0475691370666
         0.0481501929462
         0.0487347915769
         0.0493229478598
         0.0499146915972
         0.0505100414157
         0.0511090159416
         0.051711641252
         0.0523179396987
         0.052927929908
         0.0535416379571
         0.0541590861976
         0.0547802969813
         0.05540529266
         0.0560340955853
         0.0566667318344
         0.0573032200336
         0.0579435899854
         0.058587860316
         0.0592360533774
         0.0598881989717
         0.0605443194509
         0.0612044371665
         0.0618685744703
         0.0625367611647
         0.0632090196013
         0.0638853684068
         0.0645658448339
         0.0652504637837
         0.0659392550588
         0.0666322484612
         0.0673294588923
         0.0680309161544
         0.0687366500497
         0.0694466903806
         0.0701610445976
         0.0708797574043
         0.0716028511524
         0.0723303556442
         0.0730622857809
         0.0737986713648
         0.0745395496488
         0.0752849429846
         0.0760348811746
         0.0767893865705
         0.077548481524
         0.0783122107387
         0.0790805891156
         0.0798536539078
         0.0806314274669
         0.0814139395952
         0.0822012200952
         0.0829932913184
         0.0837901979685
         0.0845919549465
         0.0853985995054
         0.0862101539969
         0.0870266631246
         0.0878481417894
         0.0886746272445
         0.0895061418414
         0.0903427302837
         0.0911844149232
         0.0920312255621
         0.0928831994534
         0.0937403663993
         0.0946027562022
         0.0954703912139
         0.0963433235884
         0.0972215682268
         0.0981051698327
         0.0989941507578
         0.099888548255
         0.100788399577
         0.101693734527
         0.102604582906
         0.103520974517
         0.104442961514
         0.105370558798
         0.106303811073
         0.107242748141
         0.108187407255
         0.109137825668
         0.110094033182
         0.11105606705
         0.112023957074
         0.112997755408
         0.113977476954
         0.114963173866
         0.115954875946
         0.116952620447
         0.117956444621
         0.118966385722
         0.119982481003
         0.121004767716
         0.122033275664
         0.123068057001
         0.124109148979
         0.125156581402
         0.126210391521
         0.127270624042
         0.128337308764
         0.129410505295
         0.130490243435
         0.131576552987
         0.132669478655
         0.133769065142
         0.134875357151
         0.135988399386
         0.137108206749
         0.138234838843
         0.139368340373
         0.140508756042
         0.14165610075
         0.142810449004
         0.143971830606
         0.14514029026
         0.146315872669
         0.147498607635
         0.148688554764
         0.149885743856
         0.151090249419
         0.152302071452
         0.153521284461
         0.154747933149
         0.155982047319
         0.157223686576
         0.158472895622
         0.159729704261
         0.160994186997
         0.162266358733
         0.163546293974
         0.164834022522
         0.166129589081
         0.167433068156
         0.168744474649
         0.170063868165
         0.171391308308
         0.172726839781
         0.174070507288
         0.175422370434
         0.176782459021
         0.178150832653
         0.179527550936
         0.180912658572
         0.182306200266
         0.183708235621
         0.185118824244
         0.186537995934
         0.187965810299
         0.189402341843
         0.190847605467
         0.192301690578
         0.19376462698
         0.195236489177
         0.196717306972
         0.19820715487
         0.199706077576
         0.201214134693
         0.202731385827
         0.204257875681
         0.205793663859
         0.207338824868
         0.20889338851
         0.210457414389
         0.212030991912
         0.213614150882
         0.215206950903
         0.21680945158
         0.218421727419
         0.220043823123
         0.221675798297
         0.223317727447
         0.224969655275
         0.226631641388
         0.22830376029
         0.229986071587
         0.231678634882
         0.233381509781
         0.235094755888
         0.236818432808
         0.238552629948
         0.240297392011
         0.242052778602
         0.243818864226
         0.245595708489
         0.247383370996
         0.249181941152
         0.250991463661
         0.252812027931
         0.254643648863
         0.256486445665
         0.258340477943
         0.260205805302
         0.262082517147
         0.263970643282
         0.265870273113
         0.267781496048
         0.269704341888
         0.271638900042
         0.273585259914
         0.275543481112
         0.277513623238
         0.279495805502
         0.281490027905
         0.283496409655
         0.285515010357
         0.287545919418
         0.289589196444
         0.29164493084
         0.293713212013
         0.295794069767
         0.297887593508
         0.299993902445
         0.302113026381
         0.304245084524
         0.306390106678
         0.308548212051
         0.310719460249
         0.312903940678
         0.315101742744
         0.317312926054
         0.319537580013
         0.321775794029
         0.324027657509
         0.326293230057
         0.32857260108
         0.330865859985
         0.333173125982
         0.335494399071
         0.337829858065
         0.340179532766
         0.342543512583
         0.344921916723
         0.347314804792
         0.349722266197
         0.352144390345
         0.354581296444
         0.3570330441
         0.359499722719
         0.361981421709
         0.364478260279
         0.366990327835
         0.369517654181
         0.372060418129
         0.374618679285
         0.377192497253
         0.379782021046
         0.382387310266
         0.385008484125
         0.387645632029
         0.390298843384
         0.392968207598
         0.395653873682
         0.398355871439
         0.40107434988
         0.40380936861
         0.406561076641
         0.409329533577
         0.412114858627
         0.414917171001
         0.417736560106
         0.420573115349
         0.423426955938
         0.426298201084
         0.429186940193
         0.432093262672
         0.435017287731
         0.437959164381
         0.440918922424
         0.443896740675
         0.44689270854
         0.449906915426
         0.452939510345
         0.455990552902
         0.45906022191
         0.462148576975
         0.465255737305
         0.468381851912
         0.4715269804
         0.474691301584
         0.477874904871
         0.48107790947
         0.484300404787
         0.487542569637
         0.490804463625
         0.494086235762
         0.497388005257
         0.500709891319
         0.504052042961
         0.507414519787
         0.510797560215
         0.514201104641
         0.517625451088
         0.521070659161
         0.524536848068
         0.528024196625
         0.531532764435
         0.535062670708
         0.538614153862
         0.542187213898
         0.545782089233
         0.549398899078
         0.553037703037
         0.556698679924
         0.560381948948
         0.564087688923
         0.567815959454
         0.571566998959
         0.575340867043
         0.579137742519
         0.582957744598
         0.586801052094
         0.590667724609
         0.594558000565
         0.598471999168
         0.602409780025
         0.606371641159
         0.610357582569
         0.61436778307
         0.618402481079
         0.622461736202
         0.626545727253
         0.630654633045
         0.634788513184
         0.638947606087
         0.643132090569
         0.647342026234
         0.651577591896
         0.655839025974
         0.660126388073
         0.664439857006
         0.668779611588
         0.673145830631
         0.677538692951
         0.681958258152
         0.686404764652
         0.690878391266
         0.695379257202
         0.699907541275
         0.704463422298
         0.709047079086
         0.713658630848
         0.718298316002
         0.722966253757
         0.727662682533
         0.732387661934
         0.737141430378
         0.741924226284
         0.746736109257
         0.751577317715
         0.756448030472
         0.761348426342
         0.766278684139
         0.771238982677
         0.776229500771
         0.781250476837
         0.786301970482
         0.791384279728
         0.796497523785
         0.801642000675
         0.806817770004
         0.81202507019
         0.817264080048
         0.822535037994
         0.827838122845
         0.833173513412
         0.838541448116
         0.843942046165
         0.849375545979
         0.854842185974
         0.860342144966
         0.865875542164
         0.871442735195
         0.877043783665
         0.8826790452
         0.888348579407
         0.894052684307
         0.899791538715
         0.905565321445
         0.911374330521
         0.917218744755
         0.923098742962
         0.92901456356
         0.934966444969
         0.940954566002
         0.946979224682
         0.953040540218
         0.959138810635
         0.965274274349
         0.971447110176
         0.977657496929
         0.983905792236
         0.990192115307
         0.996516764164
         1.00287997723
         1.0092818737
         1.01572287083
         1.02220308781
         1.02872276306
         1.03528225422
         1.04188156128
         1.04852116108
         1.05520129204
         1.06192207336
         1.06868374348
         1.07548666
         1.08233106136
         1.08921706676
         1.09614515305
         1.10311532021
         1.11012804508
         1.11718344688
         1.12428188324
         1.13142359257
         1.13860881329
         1.14583778381
         1.15311086178
         1.16042816639
         1.16779005527
         1.17519688606
         1.18264877796
         1.1901460886
         1.19768917561
         1.20527815819
         1.21291327477
         1.22059500217
         1.22832357883
         1.23609924316
         1.24392223358
         1.25179290771
         1.25971150398
         1.26767838001
         1.27569389343
         1.28375816345
         1.2918715477
         1.3000344038
         1.30824697018
         1.31650948524
         1.32482254505
         1.3331861496
         1.34160065651
         1.35006654263
         1.35858404636
         1.36715328693
         1.37577486038
         1.38444900513
         1.39317584038
         1.40195596218
         1.41078960896
         1.41967701912
         1.42861866951
         1.43761467934
         1.44666552544
         1.45577156544
         1.46493315697
         1.47415041924
         1.48342394829
         1.49275398254
         1.50214076042
         1.51158487797
         1.52108645439
         1.53064596653
         1.5402636528
         1.54993999004
         1.55967533588
         1.56946992874
         1.57932424545
         1.58923864365
         1.59921336174
         1.60924887657
         1.61934554577
         1.62950384617
         1.63972389698
         1.65000629425
         1.6603512764
         1.67075932026
         1.68123090267
         1.69176614285
         1.70236563683
         1.71302962303
         1.72375869751
         1.73455309868
         1.74541330338
         1.75633966923
         1.76733267307
         1.77839255333
         1.78951990604
         1.80071496964
         1.81197834015
         1.823310256
         1.83471119404
         1.8461817503
         1.85772204399
         1.86933279037
         1.88101422787
         1.89276683331
         1.90459096432
         1.91648721695
         1.92845606804
         1.9404976368
         1.95261275768
         1.96480166912
         1.97706472874
         1.98940265179
         2.00181555748
         2.01430439949
         2.02686905861
         2.03951048851
         2.05222868919
         2.06502461433
         2.07789850235
         2.09085059166
         2.10388183594
         2.1169924736
         2.13018298149
         2.14345383644
         2.15680551529
         2.17023849487
         2.18375349045
         2.19735074043
         2.21103072166
         2.2247941494
         2.23864150047
         2.25257325172
         2.26658987999
         2.28069186211
         2.29487967491
         2.30915427208
         2.32351541519
         2.33796429634
         2.35250115395
         2.36712670326
         2.38184142113
         2.39664554596
         2.41154003143
         2.42652511597
         2.44160175323
         2.45677018166
         2.47203087807
         2.48738479614
         2.50283193588
         2.51837348938
         2.53400969505
         2.54974102974
         2.56556844711
         2.58149218559
         2.59751296043
         2.61363124847
         2.62984776497
         2.64616322517
         2.66257810593
         2.67909288406
         2.69570827484
         2.71242499352
         2.72924351692
         2.74616456032
         2.76318883896
         2.78031659126
         2.7975487709
         2.81488609314
         2.83232903481
         2.84987807274
         2.86753416061
         2.88529777527
         2.90316987038
         2.92115068436
         2.93924093246
         2.95744156837
         2.97575306892
         2.99417614937
         3.01271152496
         3.03135967255
         3.05012154579
         3.06899785995
         3.08798909187
         3.1070959568
         3.12631940842
         3.14565992355
         3.16511821747
         3.18469500542
         3.20439124107
         3.22420740128
         3.2441444397
         3.26420283318
         3.28438353539
         3.30468702316
         3.3251144886
         3.34566617012
         3.36634325981
         3.38714623451
         3.4080760479
         3.42913341522
         3.45031905174
         3.47163367271
         3.49307823181
         3.51465344429
         3.53636026382
         3.55819916725
         3.58017110825
         3.60227704048
         3.62451767921
         3.6468937397
         3.66940617561
         3.69205594063
         3.71484351158
         3.73777008057
         3.76083612442
         3.78404283524
         3.80739116669
         3.83088159561
         3.85451507568
         3.87829256058
         3.90221500397
         3.92628312111
         3.9504981041
         3.97486042976
         3.99937129021
         4.0240316391
         4.04884195328
         4.07380342484
         4.09891700745
         4.12418413162
         4.14960479736
         4.17517995834
         4.20091152191
         4.2267999649
         4.25284576416
         4.27905035019
         4.30541467667
         4.33193969727
         4.35862636566
         4.38547563553
         4.41248846054
         4.43966579437
         4.4670085907
         4.49451828003
         4.5221953392
         4.55004119873
         4.57805681229
         4.60624313354
         4.63460111618
         4.66313171387
         4.69183635712
         4.7207159996
         4.74977111816
         4.77900362015
         4.80841445923
         4.83800411224
         4.86777448654
         4.89772605896
         4.92785978317
         4.95817756653
         4.98867988586
         5.01936817169
         5.05024337769
         5.08130693436
         5.11255931854
         5.14400243759
         5.17563724518
         5.20746469498
         5.23948574066
         5.27170228958
         5.30411529541
         5.33672523499
         5.36953449249
         5.40254306793
         5.43575334549
         5.46916532516
         5.50278139114
         5.53660202026
         5.57062911987
         5.60486316681
         5.63930606842
         5.67395877838
         5.70882225037
         5.74389839172
         5.77918863297
         5.81469345093
         5.85041475296
         5.88635349274
         5.92251157761
         5.95888996124
         5.99548959732
         6.03231287003
         6.0693602562
         6.10663318634
         6.14413309097
         6.18186187744
         6.21982049942
         6.25801038742
         6.29643297195
         6.3350892067
         6.37398147583
         6.41311073303
         6.45247840881
         6.49208593369
         6.53193473816
         6.57202625275
         6.61236190796
         6.65294361115
         6.69377279282
         6.73485040665
         6.77617835999
         6.81775808334
         6.85959148407
         6.90167951584
         6.944024086
         6.98662662506
         7.02948856354
         7.07261180878
         7.11599779129
         7.15964841843
         7.20356464386
         7.24774885178
         7.29220199585
         7.33692598343
         7.38192224503
         7.42719316483
         7.4727396965
         7.51856374741
         7.56466722488
         7.61105155945
         7.65771818161
         7.70466947556
         7.7519068718
         7.79943180084
         7.84724664688
         7.89535284042
         7.94375181198
         7.99244594574
         8.04143714905
         8.09072589874
         8.14031600952
         8.19020748138
         8.24040317535
         8.29090499878
         8.34171390533
         8.39283275604
         8.44426345825
         8.49600791931
         8.54806613922
         8.60044288635
         8.65313816071
         8.7061548233
         8.75949478149
         8.81315898895
         8.8671503067
         8.92147064209
         8.97612285614
         9.03110694885
         9.08642673492
         9.14208316803
         9.19807910919
         9.25441551208
         9.31109619141
         9.36812210083
         9.42549514771
         9.48321723938
         9.54129219055
         9.59972000122
         9.65850448608
         9.71764659882
         9.77714920044
         9.83701515198
         9.89724445343
         9.95784187317
         10.0188083649
         10.0801458359
         10.1418571472
         10.2039451599
         10.2664108276
         10.3292579651
         10.3924865723
         10.4561014175
         10.5201044083
         10.5844964981
         10.6492815018
         10.7144603729
         10.7800369263
         10.8460130692
         10.9123916626
         10.9791736603
         11.0463638306
         11.1139621735
         11.1819734573
         11.2503986359
         11.3192405701
         11.388502121
         11.4581861496
         11.5282936096
         11.5988292694
         11.6697950363
         11.741191864
         11.8130245209
