aces_1.0.0/luts/sRGB_to_linear.spi1d
Version 1
From 0.000000 1.000000
Length 1024
Components 1
{
         0.0
         7.56592198741e-05
         0.000151318439748
         0.000226977659622
         0.000302636879496
         0.00037829609937
         0.000453955319244
         0.000529614510015
         0.000605273758993
         0.000680932949763
         0.000756592198741
         0.000832251389511
         0.000907910638489
         0.000983569887467
         0.00105922902003
         0.00113488826901
         0.00121054751799
         0.00128620676696
         0.00136186589953
         0.0014375251485
         0.00151318439748
         0.00158884364646
         0.00166450277902
         0.001740162028
         0.00181582127698
         0.00189148052596
         0.00196713977493
         0.00204279879108
         0.00211845804006
         0.00219411728904
         0.00226977653801
         0.00234543578699
         0.00242109503597
         0.00249675428495
         0.00257241353393
         0.00264807255007
         0.00272373179905
         0.00279939104803
         0.00287505029701
         0.00295070954598
         0.00302636879496
         0.00310202804394
         0.00317870220169
         0.00325689185411
         0.00333619187586
         0.0034166071564
         0.00349814188667
         0.00358080049045
         0.00366458739154
         0.00374950701371
         0.00383556331508
         0.00392276095226
         0.00401110434905
         0.00410059746355
         0.00419124448672
         0.00428305007517
         0.0043760179542
         0.00447015231475
         0.00456545781344
         0.0046619377099
         0.00475959666073
         0.0048584388569
         0.00495846848935
         0.00505968881771
         0.00516210449859
         0.0052657192573
         0.00537053728476
         0.00547656230628
         0.00558379851282
         0.00569225009531
         0.00580191984773
         0.00591281289235
         0.0060249324888
         0.00613828236237
         0.00625286670402
         0.00636868877336
         0.00648575322703
         0.00660406332463
         0.00672362279147
         0.00684443535283
         0.00696650473401
         0.00708983512595
         0.00721442932263
         0.00734029198065
         0.00746742589399
         0.00759583571926
         0.00772552378476
         0.0078564947471
         0.00798875186592
         0.00812229886651
         0.00825713854283
         0.0083932755515
         0.00853071268648
         0.00866945367306
         0.00880950223655
         0.00895086210221
         0.00909353606403
         0.00923752784729
         0.00938284117728
         0.00952947884798
         0.00967744458467
         0.00982674211264
         0.00997737515718
         0.0101293455809
         0.0102826589718
         0.0104373171926
         0.010593323037
         0.0107506811619
         0.0109093952924
         0.0110694672912
         0.0112309008837
         0.011393699795
         0.0115578668192
         0.0117234047502
         0.0118903182447
         0.0120586100966
         0.0122282830998
         0.0123993409798
         0.0125717865303
         0.0127456225455
         0.0129208527505
         0.0130974808708
         0.0132755087689
         0.0134549411014
         0.013635779731
         0.013818028383
         0.0140016898513
         0.0141867678612
         0.0143732642755
         0.0145611837506
         0.0147505290806
         0.0149413021281
         0.0151335075498
         0.0153271472082
         0.0155222238973
         0.0157187413424
         0.0159167032689
         0.0161161124706
         0.0163169708103
         0.0165192820132
         0.0167230479419
         0.0169282741845
         0.0171349607408
         0.0173431113362
         0.0175527315587
         0.0177638214082
         0.0179763846099
         0.0181904248893
         0.0184059422463
         0.0186229441315
         0.0188414305449
         0.0190614052117
         0.0192828699946
         0.019505828619
         0.0197302848101
         0.0199562385678
         0.0201836973429
         0.0204126592726
         0.0206431299448
         0.0208751112223
         0.0211086049676
         0.0213436167687
         0.0215801484883
         0.0218182001263
         0.0220577772707
         0.0222988836467
         0.0225415192544
         0.0227856878191
         0.0230313912034
         0.0232786349952
         0.0235274191946
         0.0237777475268
         0.0240296237171
         0.0242830477655
         0.02453802526
         0.0247945580631
         0.0250526480377
         0.0253122970462
         0.0255735106766
         0.0258362907916
         0.0261006373912
         0.0263665560633
         0.0266340486705
         0.0269031170756
         0.0271737650037
         0.0274459924549
         0.0277198068798
         0.0279952064157
         0.0282721966505
         0.028550779447
         0.028830954805
         0.0291127301753
         0.029396103695
         0.0296810809523
         0.029967661947
         0.0302558504045
         0.03054565005
         0.0308370627463
         0.0311300903559
         0.0314247347414
         0.0317209996283
         0.0320188887417
         0.032318405807
         0.0326195470989
         0.0329223200679
         0.033226724714
         0.0335327647626
         0.0338404476643
         0.0341497659683
         0.0344607271254
         0.0347733385861
         0.0350875928998
         0.0354035012424
         0.0357210598886
         0.036040276289
         0.0363611504436
         0.0366836823523
         0.0370078794658
         0.0373337417841
         0.0376612693071
         0.0379904694855
         0.0383213423193
         0.0386538878083
         0.038988109678
         0.039324015379
         0.0396616011858
         0.0400008708239
         0.0403418280184
         0.0406844764948
         0.0410288125277
         0.0413748435676
         0.0417225733399
         0.0420720018446
         0.0424231290817
         0.0427759625018
         0.0431305021048
         0.0434867478907
         0.0438447035849
         0.0442043729126
         0.0445657595992
         0.0449288599193
         0.0452936850488
         0.0456602275372
         0.0460284985602
         0.0463984943926
         0.0467702187598
         0.0471436753869
         0.0475188679993
         0.0478957928717
         0.0482744574547
         0.0486548654735
         0.0490370132029
         0.0494209043682
         0.0498065464199
         0.0501939356327
         0.0505830794573
         0.0509739778936
         0.0513666309416
         0.0517610423267
         0.0521572157741
         0.0525551512837
         0.052954852581
         0.0533563233912
         0.0537595637143
         0.0541645735502
         0.0545713603497
         0.0549799203873
         0.0553902611136
         0.0558023825288
         0.056216288358
         0.0566319786012
         0.0570494569838
         0.057468727231
         0.0578897856176
         0.0583126395941
         0.0587372891605
         0.0591637380421
         0.059591986239
         0.0600220412016
         0.0604538954794
         0.0608875602484
         0.0613230355084
         0.0617603175342
         0.0621994175017
         0.0626403316855
         0.0630830600858
         0.0635276138783
         0.063973993063
         0.0644221901894
         0.064872212708
         0.0653240680695
         0.0657777488232
         0.0662332624197
         0.0666906163096
         0.0671498030424
         0.0676108300686
         0.0680737048388
         0.0685384124517
         0.0690049678087
         0.0694733709097
         0.0699436292052
         0.0704157352448
         0.0708896964788
         0.0713655054569
         0.0718431770802
         0.0723227113485
         0.0728041082621
         0.0732873678207
         0.0737724900246
         0.0742594823241
         0.0747483447194
         0.0752390772104
         0.0757316872478
         0.0762261748314
         0.0767225399613
         0.0772207826376
         0.0777209103107
         0.0782229229808
         0.0787268206477
         0.0792326033115
         0.0797402784228
         0.0802498459816
         0.0807613134384
         0.0812746733427
         0.0817899256945
         0.0823070853949
         0.0828261449933
         0.0833471119404
         0.0838699862361
         0.0843947678804
         0.0849214568734
         0.0854500606656
         0.085980579257
         0.0865130126476
         0.0870473608375
         0.0875836387277
         0.0881218314171
         0.0886619538069
         0.0892039984465
         0.0897479727864
         0.0902938768268
         0.0908417105675
         0.0913914814591
         0.0919431895018
         0.0924968346953
         0.0930524170399
         0.0936099439859
         0.094169408083
         0.0947308242321
         0.0952941849828
         0.0958594977856
         0.0964267626405
         0.0969959795475
         0.0975671559572
         0.0981402844191
         0.0987153723836
         0.0992924198508
         0.0998714342713
         0.100452408195
         0.101035356522
         0.101620264351
         0.102207146585
         0.102796003222
         0.103386834264
         0.103979639709
         0.104574427009
         0.105171188712
         0.10576993227
         0.106370665133
         0.10697337985
         0.107578083873
         0.1081847772
         0.108793459833
         0.10940413177
         0.110016800463
         0.110631473362
         0.111248135567
         0.111866801977
         0.112487472594
         0.113110147417
         0.113734826446
         0.114361517131
         0.114990212023
         0.115620918572
         0.116253644228
         0.116888381541
         0.11752513051
         0.118163906038
         0.118804700673
         0.119447514415
         0.120092354715
         0.120739221573
         0.121388114989
         0.122039042413
         0.122691996396
         0.123346984386
         0.124004006386
         0.124663069844
         0.125324174762
         0.125987306237
         0.126652494073
         0.127319723368
         0.127988994122
         0.128660321236
         0.129333689809
         0.130009114742
         0.130686581135
         0.131366118789
         0.132047697902
         0.132731348276
         0.133417055011
         0.134104818106
         0.134794652462
         0.135486543179
         0.136180505157
         0.136876538396
         0.137574642897
         0.138274818659
         0.138977065682
         0.139681398869
         0.140387803316
         0.141096293926
         0.141806855798
         0.142519503832
         0.143234238029
         0.143951058388
         0.14466996491
         0.145390957594
         0.146114051342
         0.146839231253
         0.147566512227
         0.148295879364
         0.149027362466
         0.14976093173
         0.150496602058
         0.151234388351
         0.151974275708
         0.152716264129
         0.153460368514
         0.154206573963
         0.154954910278
         0.155705347657
         0.156457901001
         0.15721257031
         0.157969355583
         0.158728271723
         0.159489303827
         0.160252466798
         0.161017745733
         0.161785170436
         0.162554711103
         0.163326382637
         0.164100185037
         0.164876118302
         0.165654197335
         0.166434407234
         0.1672167629
         0.168001264334
         0.168787896633
         0.1695766747
         0.170367598534
         0.171160683036
         0.171955898404
         0.172753274441
         0.173552811146
         0.174354493618
         0.175158321857
         0.175964325666
         0.176772475243
         0.177582800388
         0.178395271301
         0.179209917784
         0.180026724935
         0.180845707655
         0.181666851044
         0.182490170002
         0.183315649629
         0.184143319726
         0.184973165393
         0.185805171728
         0.186639368534
         0.18747574091
         0.188314303756
         0.189155042171
         0.189997971058
         0.190843090415
         0.191690400243
         0.19253988564
         0.193391576409
         0.194245457649
         0.19510152936
         0.195959806442
         0.196820273995
         0.19768294692
         0.198547810316
         0.199414893985
         0.200284168124
         0.201155662537
         0.20202934742
         0.202905252576
         0.203783363104
         0.204663693905
         0.205546244979
         0.206431001425
         0.207317978144
         0.208207175136
         0.209098592401
         0.209992229939
         0.210888087749
         0.211786180735
         0.212686493993
         0.213589027524
         0.214493811131
         0.21540081501
         0.216310054064
         0.217221528292
         0.218135237694
         0.21905118227
         0.219969376922
         0.220889791846
         0.221812471747
         0.222737386823
         0.223664551973
         0.224593952298
         0.225525617599
         0.226459518075
         0.227395683527
         0.228334099054
         0.229274764657
         0.230217695236
         0.231162875891
         0.232110321522
         0.233060032129
         0.234011992812
         0.234966233373
         0.23592273891
         0.236881494522
         0.237842530012
         0.23880584538
         0.239771410823
         0.240739271045
         0.241709396243
         0.242681801319
         0.243656486273
         0.244633436203
         0.245612680912
         0.246594205499
         0.247578024864
         0.248564109206
         0.249552503228
         0.250543177128
         0.251536130905
         0.252531379461
         0.253528922796
         0.25452876091
         0.255530923605
         0.256535351276
         0.257542073727
         0.258551120758
         0.259562462568
         0.260576099157
         0.261592060328
         0.262610316277
         0.263630867004
         0.264653742313
         0.265678912401
         0.266706436872
         0.26773622632
         0.268768370152
         0.269802808762
         0.270839571953
         0.271878659725
         0.272920072079
         0.273963779211
         0.275009840727
         0.276058226824
         0.277108937502
         0.278161972761
         0.279217332602
         0.280275017023
         0.281335055828
         0.282397419214
         0.283462136984
         0.284529179335
         0.285598546267
         0.286670267582
         0.287744343281
         0.288820743561
         0.289899498224
         0.290980607271
         0.292064040899
         0.293149858713
         0.294238001108
         0.295328497887
         0.296421349049
         0.297516554594
         0.298614144325
         0.299714058638
         0.300816357136
         0.301920980215
         0.30302798748
         0.304137378931
         0.305249124765
         0.306363224983
         0.307479679585
         0.308598548174
         0.309719741344
         0.310843348503
         0.311969310045
         0.313097655773
         0.314228355885
         0.315361440182
         0.316496938467
         0.317634791136
         0.31877502799
         0.319917649031
         0.321062654257
         0.322210043669
         0.323359817266
         0.324512004852
         0.325666546822
         0.326823502779
         0.327982872725
         0.329144597054
         0.330308765173
         0.331475287676
         0.332644224167
         0.333815574646
         0.334989309311
         0.336165457964
         0.337344020605
         0.338524967432
         0.339708358049
         0.340894132853
         0.342082321644
         0.343272924423
         0.344465941191
         0.345661371946
         0.34685921669
         0.348059475422
         0.349262148142
         0.350467264652
         0.351674795151
         0.352884739637
         0.354097098112
         0.355311900377
         0.356529146433
         0.357748806477
         0.358970880508
         0.360195398331
         0.361422359943
         0.362651735544
         0.363883584738
         0.365117847919
         0.366354525089
         0.367593675852
         0.368835240602
         0.370079278946
         0.37132576108
         0.372574657202
         0.373826026917
         0.375079840422
         0.376336097717
         0.377594798803
         0.378855973482
         0.380119562149
         0.381385654211
         0.382654160261
         0.383925169706
         0.38519859314
         0.386474519968
         0.387752860785
         0.389033704996
         0.390316992998
         0.391602754593
         0.39289098978
         0.394181668758
         0.395474851131
         0.396770477295
         0.398068606853
         0.399369180202
         0.400672256947
         0.401977777481
         0.403285801411
         0.404596298933
         0.405909270048
         0.407224714756
         0.408542662859
         0.409863084555
         0.411186009645
         0.412511408329
         0.413839280605
         0.415169656277
         0.416502535343
         0.417837888002
         0.419175744057
         0.420516103506
         0.421858936548
         0.423204302788
         0.42455214262
         0.425902485847
         0.42725533247
         0.428610682487
         0.4299685359
         0.43132892251
         0.432691782713
         0.434057176113
         0.435425043106
         0.436795443296
         0.438168376684
         0.439543783665
         0.440921723843
         0.442302197218
         0.443685173988
         0.445070654154
         0.446458667517
         0.447849214077
         0.449242293835
         0.450637876987
         0.452035993338
         0.453436613083
         0.454839795828
         0.456245481968
         0.457653701305
         0.45906445384
         0.460477769375
         0.461893588305
         0.463311940432
         0.464732855558
         0.466156303883
         0.467582285404
         0.469010800123
         0.47044184804
         0.471875458956
         0.473311632872
         0.474750310183
         0.476191580296
         0.477635383606
         0.479081720114
         0.480530619621
         0.481982052326
         0.483436077833
         0.484892636538
         0.486351758242
         0.487813442945
         0.489277660847
         0.49074447155
         0.492213815451
         0.493685752153
         0.495160222054
         0.496637284756
         0.498116880655
         0.499599069357
         0.501083850861
         0.502571165562
         0.504061043262
         0.505553543568
         0.507048606873
         0.508546233177
         0.510046422482
         0.511549174786
         0.513054549694
         0.514562487602
         0.51607298851
         0.517586112022
         0.519101798534
         0.520620048046
         0.522140920162
         0.523664355278
         0.525190412998
         0.526719033718
         0.528250277042
         0.529784083366
         0.531320512295
         0.532859504223
         0.534401118755
         0.535945355892
         0.537492156029
         0.539041519165
         0.54059356451
         0.542148172855
         0.5437053442
         0.545265197754
         0.546827614307
         0.548392653465
         0.549960315228
         0.551530539989
         0.55310344696
         0.554678916931
         0.556257009506
         0.557837724686
         0.559421062469
         0.561007022858
         0.56259560585
         0.564186751842
         0.565780580044
         0.567377030849
         0.568976104259
         0.570577800274
         0.572182059288
         0.573789000511
         0.575398623943
         0.577010810375
         0.578625619411
         0.580243110657
         0.581863224506
         0.58348596096
         0.585111320019
         0.586739301682
         0.588369965553
         0.590003252029
         0.591639220715
         0.593277752399
         0.594919025898
         0.596562862396
         0.598209381104
         0.599858522415
         0.601510345936
         0.603164792061
         0.604821920395
         0.606481671333
         0.608144104481
         0.609809160233
         0.611476898193
         0.613147318363
         0.614820361137
         0.616496026516
         0.618174433708
         0.619855463505
         0.621539115906
         0.62322551012
         0.624914526939
         0.626606225967
         0.6283005476
         0.629997611046
         0.631697297096
         0.633399665356
         0.635104715824
         0.636812448502
         0.638522803783
         0.640235900879
         0.641951680183
         0.643670082092
         0.64539116621
         0.647114992142
         0.648841440678
         0.650570631027
         0.652302443981
         0.654036998749
         0.655774176121
         0.657514095306
         0.659256696701
         0.661001980305
         0.662749946117
         0.664500653744
         0.666253983974
         0.668010056019
         0.669768810272
         0.671530306339
         0.673294425011
         0.675061285496
         0.67683082819
         0.678603112698
         0.680378079414
         0.68215572834
         0.68393611908
         0.685719192028
         0.68750500679
         0.689293503761
         0.691084742546
         0.69287866354
         0.694675326347
         0.696474671364
         0.698276698589
         0.700081527233
         0.701889038086
         0.703699231148
         0.705512166023
         0.707327842712
         0.709146261215
         0.710967361927
         0.712791204453
         0.714617788792
         0.71644705534
         0.718279063702
         0.720113873482
         0.721951305866
         0.723791539669
         0.725634515285
         0.727480173111
         0.72932857275
         0.731179773808
         0.733033657074
         0.734890282154
         0.736749649048
         0.738611757755
         0.740476608276
         0.742344200611
         0.74421453476
         0.746087670326
         0.747963488102
         0.749842107296
         0.751723408699
         0.75360751152
         0.755494356155
         0.757383942604
         0.759276270866
         0.761171400547
         0.763069212437
         0.764969825745
         0.766873240471
         0.768779337406
         0.77068823576
         0.772599875927
         0.774514317513
         0.776431500912
         0.778351426125
         0.780274152756
         0.782199680805
         0.784127891064
         0.78605890274
         0.787992715836
         0.789929270744
         0.791868627071
         0.793810725212
         0.795755624771
         0.797703266144
         0.799653708935
         0.801606953144
         0.803562939167
         0.805521726608
         0.807483315468
         0.809447646141
         0.811414778233
         0.813384711742
         0.815357446671
         0.817332923412
         0.819311201572
         0.821292281151
         0.823276162148
         0.825262784958
         0.827252268791
         0.829244494438
         0.831239521503
         0.833237409592
         0.835238039494
         0.837241470814
         0.839247703552
         0.841256737709
         0.843268573284
         0.845283210278
         0.847300708294
         0.849320948124
         0.851343989372
         0.853369891644
         0.855398595333
         0.857430040836
         0.859464347363
         0.861501455307
         0.863541424274
         0.865584135056
         0.86762970686
         0.869678080082
         0.871729314327
         0.873783290386
         0.875840127468
         0.877899825573
         0.879962265491
         0.882027626038
         0.884095728397
         0.88616669178
         0.888240456581
         0.890317082405
         0.892396509647
         0.894478797913
         0.896563887596
         0.898651838303
         0.900742590427
         0.902836203575
         0.904932618141
         0.90703189373
         0.909134030342
