aces_1.0.0/luts/V3 LogC_1000_to_linear.spi1d
Version 1
From 0.000000 1.000000
Length 1024
Components 1
{
         -0.0175058674067
         -0.00387265486643
         -0.00382851110771
         -0.00378395849839
         -0.00373899331316
         -0.00369361182675
         -0.00364780984819
         -0.0036015836522
         -0.00355492951348
         -0.0035078432411
         -0.00346032087691
         -0.00341235846281
         -0.00336395180784
         -0.00331509695388
         -0.00326578947715
         -0.00321602541953
         -0.00316580035724
         -0.00311511033215
         -0.00306395092048
         -0.00301231746562
         -0.00296020600945
         -0.00290761189535
         -0.00285453069955
         -0.00280095776543
         -0.00274688890204
         -0.00269231921993
         -0.0026372440625
         -0.00258165877312
         -0.00252555892803
         -0.00246893940493
         -0.00241179554723
         -0.00235412246548
         -0.00229591527022
         -0.00223716907203
         -0.00217787874863
         -0.00211803917773
         -0.00205764570273
         -0.0019966927357
         -0.00193517527077
         -0.00187308806926
         -0.00181042589247
         -0.00174718338531
         -0.00168335519265
         -0.001618935843
         -0.00155391998123
         -0.00148830190301
         -0.00142207613681
         -0.00135523709469
         -0.00128777895588
         -0.00121969613247
         -0.00115098280367
         -0.0010816330323
         -0.0010116409976
         -0.000941000820603
         -0.000869706389494
         -0.000797751708888
         -0.000725130608771
         -0.00065183697734
         -0.000577864528168
         -0.000503207033034
         -0.000427858089097
         -0.000351811322616
         -0.000275060301647
         -0.000197598448722
         -0.00011941921548
         -4.05159444199e-05
         3.91180692532e-05
         0.000119489588542
         0.000200605441933
         0.000282472523395
         0.000365097803297
         0.000448488281108
         0.000532651087269
         0.00061759329401
         0.000703322235495
         0.000789845071267
         0.000877169251908
         0.000965302111581
         0.00105425121728
         0.0011440240778
         0.00123462837655
         0.00132607179694
         0.00141836202238
         0.00151150708552
         0.00160551466979
         0.00170039292425
         0.00179614988156
         0.00189279369079
         0.00199033250101
         0.00208877469413
         0.00218812841922
         0.00228840229101
         0.00238960492425
         0.00249174493365
         0.00259483070113
         0.00269887130708
         0.00280387536623
         0.00290985172614
         0.00301680993289
         0.00312475836836
         0.00323370657861
         0.00334366387688
         0.00345463957638
         0.00356664299034
         0.00367968366481
         0.0037937713787
         0.00390891544521
         0.00402512587607
         0.00414241291583
         0.0042607858777
         0.00438025500625
         0.00450083101168
         0.00462252320722
         0.00474534276873
         0.0048692994751
         0.00499440450221
         0.00512066762894
         0.00524810049683
         0.00537671381608
         0.00550651783124
         0.00563752418384
         0.0057697435841
         0.00590318767354
         0.00603786762804
         0.00617379508913
         0.00631098076701
         0.00644943770021
         0.00658917659894
         0.00673020957038
         0.00687254872173
         0.00701620616019
         0.00716119399294
         0.00730752432719
         0.00745521020144
         0.0076042637229
         0.00775469793007
         0.00790652446449
         0.00805975776166
         0.00821441039443
         0.00837049540132
         0.00852802488953
         0.00868701469153
         0.0088474759832
         0.0090094236657
         0.00917287077755
         0.0093378322199
         0.00950432103127
         0.00967235211283
         0.00984193850309
         0.0100130960345
         0.010185838677
         0.0103601813316
         0.0105361388996
         0.0107137253508
         0.0108929565176
         0.0110738482326
         0.0112564144656
         0.0114406719804
         0.0116266356781
         0.0118143213913
         0.0120037458837
         0.0121949240565
         0.0123878736049
         0.01258260943
         0.0127791492268
         0.012977508828
         0.0131777049974
         0.0133797563612
         0.0135836778209
         0.013789488934
         0.0139972055331
         0.0142068453133
         0.0144184278324
         0.0146319689229
         0.0148474881425
         0.0150650031865
         0.0152845326811
         0.0155060952529
         0.0157297085971
         0.0159553941339
         0.0161831714213
         0.0164130553603
         0.0166450701654
         0.0168792326003
         0.0171155631542
         0.0173540841788
         0.0175948124379
         0.0178377721459
         0.0180829800665
         0.0183304604143
         0.0185802318156
         0.0188323166221
         0.0190867353231
         0.0193435121328
         0.0196026656777
         0.0198642183095
         0.0201281942427
         0.020394615829
         0.0206635035574
         0.0209348816425
         0.0212087742984
         0.0214852020144
         0.0217641908675
         0.0220457632095
         0.0223299413919
         0.0226167533547
         0.0229062214494
         0.0231983698905
         0.0234932247549
         0.0237908102572
         0.0240911506116
         0.0243942737579
         0.0247002039105
         0.0250089652836
         0.0253205895424
         0.0256350971758
         0.0259525179863
         0.0262728799134
         0.0265962071717
         0.0269225295633
         0.027251875028
         0.0275842696428
         0.0279197432101
         0.0282583218068
         0.0286000389606
         0.0289449188858
         0.0292929932475
         0.0296442899853
         0.0299988426268
         0.0303566772491
         0.0307178255171
         0.0310823190957
         0.0314501896501
         0.0318214669824
         0.0321961790323
         0.0325743630528
         0.0329560525715
         0.0333412736654
         0.0337300635874
         0.0341224558651
         0.0345184803009
         0.0349181704223
         0.0353215672076
         0.0357286967337
         0.0361395962536
         0.0365543030202
         0.0369728468359
         0.037395272404
         0.0378216058016
         0.0382518880069
         0.0386861562729
         0.0391244478524
         0.039566796273
         0.0400132425129
         0.0404638238251
         0.0409185774624
         0.0413775406778
         0.0418407581747
         0.0423082634807
         0.042780097574
         0.0432563014328
         0.0437369160354
         0.0442219823599
         0.0447115413845
         0.0452056340873
         0.0457043014467
         0.046207588166
         0.0467155389488
         0.0472281873226
         0.0477455891669
         0.0482677817345
         0.0487948060036
         0.0493267178535
         0.049863550812
         0.050405357033
         0.0509521812201
         0.0515040680766
         0.0520610697567
         0.0526232272387
         0.0531905926764
         0.0537632107735
         0.0543411299586
         0.0549244061112
         0.0555130802095
         0.0561072081327
         0.0567068383098
         0.0573120228946
         0.0579228103161
         0.0585392564535
         0.0591614097357
         0.0597893260419
         0.0604230575264
         0.061062656343
         0.0617081820965
         0.0623596832156
         0.063017219305
         0.0636808425188
         0.0643506124616
         0.065026588738
         0.0657088235021
         0.0663973763585
         0.0670923069119
         0.0677936673164
         0.0685015320778
         0.0692159458995
         0.0699369832873
         0.0706646889448
         0.0713991448283
         0.0721403956413
         0.0728885084391
         0.0736435577273
         0.0744055956602
         0.0751746892929
         0.0759509056807
         0.0767343118787
         0.0775249749422
         0.0783229619265
         0.0791283398867
         0.0799411684275
         0.0807615295053
         0.0815894901752
         0.0824251174927
         0.0832684859633
         0.0841196626425
         0.0849787220359
         0.0858457386494
         0.0867207795382
         0.0876039266586
         0.0884952545166
         0.0893948376179
         0.0903027579188
         0.0912190750241
         0.0921438857913
         0.0930772572756
         0.0940192788839
         0.0949700176716
         0.0959295630455
         0.0968979969621
         0.0978754013777
         0.0988618582487
         0.0998574495316
         0.100862257183
         0.101876370609
         0.102899879217
         0.103932864964
         0.104975424707
         0.106027632952
         0.107089586556
         0.108161374927
         0.109243087471
         0.110334821045
         0.111436665058
         0.112548716366
         0.113671064377
         0.114803798497
         0.115947030485
         0.117100857198
         0.118265360594
         0.11944065243
         0.120626822114
         0.121823981404
         0.123032234609
         0.124251671135
         0.125482395291
         0.126724526286
         0.127978160977
         0.129243403673
         0.130520358682
         0.131809145212
         0.133109867573
         0.134422644973
         0.135747566819
         0.137084767222
         0.138434335589
         0.139796420932
         0.141171112657
         0.142558544874
         0.143958821893
         0.145372062922
         0.14679838717
         0.148237928748
         0.149690806866
         0.151157125831
         0.152637034655
         0.154130652547
         0.155638098717
         0.157159507275
         0.15869499743
         0.160244718194
         0.161808788776
         0.163387343287
         0.164980515838
         0.166588455439
         0.168211266398
         0.16984911263
         0.171502143145
         0.173170462251
         0.174854248762
         0.176553621888
         0.17826873064
         0.17999972403
         0.18174675107
         0.183509945869
         0.185289487243
         0.187085494399
         0.188898146152
         0.190727576613
         0.192573964596
         0.19443744421
         0.196318179369
         0.198216333985
         0.200132057071
         0.20206554234
         0.204016923904
         0.205986380577
         0.20797406137
         0.209980174899
         0.212004855275
         0.214048281312
         0.216110631824
         0.218192100525
         0.220292821527
         0.222413018346
         0.224552839994
         0.226712480187
         0.228892117739
         0.231091946363
         0.233312144876
         0.235552921891
         0.237814426422
         0.240096896887
         0.242400482297
         0.244725421071
         0.247071877122
         0.249440073967
         0.251830220222
         0.254242479801
         0.256677061319
         0.259134232998
         0.261614143848
         0.264117002487
         0.266643047333
         0.269192516804
         0.271765559912
         0.274362444878
         0.276983380318
         0.27962860465
         0.282298326492
         0.284992754459
         0.28771212697
         0.290456712246
         0.2932266891
         0.296022355556
         0.298843890429
         0.301691532135
         0.304565578699
         0.307466238737
         0.310393750668
         0.313348382711
         0.31633040309
         0.319339990616
         0.322377502918
         0.325443118811
         0.328537106514
         0.331659764051
         0.334811359644
         0.33799213171
         0.341202348471
         0.344442307949
         0.347712278366
         0.351012527943
         0.3543433249
         0.357704997063
         0.36109778285
         0.364522010088
         0.367977917194
         0.371465861797
         0.374986082315
         0.378538936377
         0.382124662399
         0.385743618011
         0.389396071434
         0.393082380295
         0.396802783012
         0.400557667017
         0.404347330332
         0.408172100782
         0.412032276392
         0.415928214788
         0.419860213995
         0.423828631639
         0.42783382535
         0.431876093149
         0.435955792665
         0.440073281527
         0.44422891736
         0.44842299819
         0.45265597105
         0.456928104162
         0.461239844561
         0.465591490269
         0.469983428717
         0.474416077137
         0.478889733553
         0.483404844999
         0.487961769104
         0.492560893297
         0.497202634811
         0.501887321472
         0.506615459919
         0.51138728857
         0.516203403473
         0.521064043045
         0.525969743729
         0.530920922756
         0.535917878151
         0.540961146355
         0.546051084995
         0.551188230515
         0.556372880936
         0.561605572701
         0.566886723042
         0.572216808796
         0.577596247196
         0.583025515079
         0.588505029678
         0.594035327435
         0.599616825581
         0.605250000954
         0.610935389996
         0.616673350334
         0.622464537621
         0.628309309483
         0.634208261967
         0.640161752701
         0.646170437336
         0.652234792709
         0.658355295658
         0.664532482624
         0.670766830444
         0.67705899477
         0.683409392834
         0.689818620682
         0.696287155151
         0.702815651894
         0.709404587746
         0.716054499149
         0.722766041756
         0.729539752007
         0.736376225948
         0.743275940418
         0.750239610672
         0.757267713547
         0.764360964298
         0.771519899368
         0.778745114803
         0.786037266254
         0.793396890163
         0.800824761391
         0.808321356773
         0.815887391567
         0.823523521423
         0.831230342388
         0.839008569717
         0.846858799458
         0.854781746864
         0.862778127193
         0.870848476887
         0.878993630409
         0.887214183807
         0.895510852337
         0.903884351254
         0.912335455418
         0.92086482048
         0.929473161697
         0.938161194324
         0.946929693222
         0.95577943325
         0.964711129665
         0.973725557327
         0.982823431492
         0.992005586624
         1.00127279758
         1.01062572002
         1.02006542683
         1.02959251404
         1.03920769691
         1.04891204834
         1.05870628357
         1.06859123707
         1.07856762409
         1.08863651752
         1.09879863262
         1.10905480385
         1.11940610409
         1.12985312939
         1.14039695263
         1.15103840828
         1.16177845001
         1.17261791229
         1.18355774879
         1.1945990324
         1.20574247837
         1.21698904037
         1.22833991051
         1.23979580402
         1.25135779381
         1.26302695274
         1.2748041153
         1.28669035435
         1.29868674278
         1.31079411507
         1.32301366329
         1.33534634113
         1.34779334068
         1.36035549641
         1.37303411961
         1.38583004475
         1.39874458313
         1.41177868843
         1.42493343353
         1.43821001053
         1.45160961151
         1.46513330936
         1.47878229618
         1.49255752563
         1.50646042824
         1.52049207687
         1.53465378284
         1.54894649982
         1.56337165833
         1.57793033123
         1.59262394905
         1.60745358467
         1.62242054939
         1.63752615452
         1.65277159214
         1.66815829277
         1.68368756771
         1.69936048985
         1.71517860889
         1.73114335537
         1.74725580215
         1.76351749897
         1.77992987633
         1.79649412632
         1.81321191788
         1.83008444309
         1.84711325169
         1.86429977417
         1.88164544106
         1.89915180206
         1.9168202877
         1.93465232849
         1.95264959335
         1.9708135128
         1.98914563656
         2.00764751434
         2.0263209343
         2.0451669693
         2.06418776512
         2.08338475227
         2.10275936127
         2.12231349945
         2.14204859734
         2.16196656227
         2.18206906319
         2.20235776901
         2.22283434868
         2.24350047112
         2.26435804367
         2.28540873528
         2.30665445328
         2.32809686661
         2.34973788261
         2.37157917023
         2.39362287521
         2.41587090492
         2.43832468987
         2.46098661423
         2.48385834694
         2.50694179535
         2.53023910522
         2.55375218391
         2.57748317719
         2.60143375397
         2.62560629845
         2.65000247955
         2.67462468147
         2.69947504997
         2.7245554924
         2.74986815453
         2.77541542053
         2.80119895935
         2.827221632
         2.85348510742
         2.87999176979
         2.9067440033
         2.9337439537
         2.9609940052
         2.98849654198
         3.01625370979
         3.04426789284
         3.0725414753
         3.10107684135
         3.12987661362
         3.15894317627
         3.18827867508
         3.21788620949
         3.24776768684
         3.27792596817
         3.30836343765
         3.33908295631
         3.37008690834
         3.40137815475
         3.43295907974
         3.46483230591
         3.49700093269
         3.52946734428
         3.56223464012
         3.59530520439
         3.62868213654
         3.66236805916
         3.6963660717
         3.73067903519
         3.76530957222
         3.80026102066
         3.83553600311
         3.87113761902
         3.90706920624
         3.94333338737
         3.97993350029
         4.01687240601
         4.05415344238
         4.0917801857
         4.12975502014
         4.16808128357
         4.20676279068
         4.24580287933
         4.28520393372
         4.32497024536
         4.36510467529
         4.40561103821
         4.44649219513
         4.48775196075
         4.52939414978
         4.57142162323
         4.61383867264
         4.65664863586
         4.69985485077
         4.74346113205
         4.7874712944
         4.83188915253
         4.87671852112
         4.92196273804
         4.96762609482
         5.01371240616
         5.06022548676
         5.10716915131
         5.15454769135
         5.20236539841
         5.25062561035
         5.29933261871
         5.34849071503
         5.39810419083
         5.44817733765
         5.49871397018
         5.54971885681
         5.60119628906
         5.65315008163
         5.7055850029
         5.75850582123
         5.81191635132
         5.86582183838
         5.92022657394
         5.97513484955
         6.0305519104
         6.08648204803
         6.14293050766
         6.19990158081
         6.25740003586
         6.31543111801
         6.37399959564
         6.43311071396
         6.49276924133
         6.55298042297
         6.61374855042
         6.67508029938
         6.73697948456
         6.79945230484
         6.86250305176
         6.92613840103
         6.9903626442
         7.05518198013
         7.12060165405
         7.18662691116
         7.25326395035
         7.32051801682
         7.38839483261
         7.45690059662
         7.52604055405
         7.59582090378
         7.66624736786
         7.73732614517
         7.80906295776
         7.88146448135
         7.95453643799
         8.02828502655
         8.10271644592
         8.17783737183
         8.25365447998
         8.33017349243
         8.4074010849
         8.48534393311
         8.56400871277
         8.64340114594
         8.72352981567
         8.80440044403
         8.88601970673
         8.96839523315
         9.05153369904
         9.13544178009
         9.22012710571
         9.30559635162
         9.39185714722
         9.47891807556
         9.56678390503
         9.65546417236
         9.74496555328
         9.83529567719
         9.92646217346
         10.0184736252
         10.1113367081
         10.2050600052
         10.2996511459
         10.3951187134
         10.4914703369
         10.5887136459
         10.6868581772
         10.7859115601
         10.8858823776
         10.9867782593
         11.0886096954
         11.1913833618
         11.2951087952
         11.3997955322
         11.5054512024
         11.6120862961
         11.7197084427
         11.828327179
         11.937951088
         12.0485916138
         12.1602563858
         12.2729549408
         12.3866977692
         12.501493454
         12.6173524857
         12.7342844009
         12.8522987366
         12.9714069366
         13.0916185379
         13.2129421234
         13.3353900909
         13.4589719772
         13.5836982727
         13.7095804214
         13.8366279602
         13.9648513794
         14.0942630768
         14.2248735428
         14.3566923141
         14.4897327423
         14.6240053177
         14.7595214844
         14.8962926865
         15.034330368
         15.1736469269
         15.3142528534
         15.456161499
         15.5993843079
         15.7439336777
         15.8898220062
         16.0370616913
         16.1856632233
         16.335641861
         16.4870109558
         16.6397800446
         16.793964386
         16.9495773315
         17.1066303253
         17.2651386261
         17.4251155853
         17.5865726471
         17.7495269775
         17.9139881134
         18.0799732208
         18.2474956512
         18.4165706635
         18.5872097015
         18.7594299316
         18.9332447052
         19.108669281
         19.2857189178
         19.4644088745
         19.6447525024
         19.8267669678
         20.0104675293
         20.1958675385
         20.3829860687
         20.5718383789
         20.7624378204
         20.9548034668
         21.1489505768
         21.3448944092
         21.5426540375
         21.7422466278
         21.9436855316
         22.1469917297
         22.3521785736
         22.5592670441
         22.7682743073
         22.9792156219
         23.1921100616
         23.4069786072
         23.62383461
         23.8427009583
         24.0635929108
         24.2865314484
         24.5115337372
         24.7386207581
         24.9678096771
         25.1991214752
         25.4325771332
         25.6681938171
         25.9059925079
         26.1459922791
         26.3882160187
         26.6326828003
         26.8794136047
         27.1284313202
         27.3797531128
         27.6334018707
         27.8894023895
         28.1477718353
         28.4085330963
         28.671710968
         28.9373264313
         29.2054004669
         29.4759578705
         29.7490215302
         30.0246143341
         30.3027572632
         30.5834789276
         30.8667984009
         31.1527423859
         31.4413356781
         31.7325992584
         32.0265617371
         32.3232460022
         32.6226806641
         32.9248847961
         33.229888916
         33.5377197266
         33.848400116
         34.1619567871
         34.4784164429
         34.7978096008
         35.1201591492
         35.4454956055
         35.7738418579
         36.1052322388
         36.4396896362
         36.7772483826
         37.1179275513
         37.4617652893
         37.8087882996
         38.1590232849
         38.5125007629
         38.8692550659
         39.229309082
         39.5927009583
         39.9594573975
         40.3296127319
         40.7031936646
         41.0802345276
         41.4607658386
         41.8448219299
         42.2324371338
         42.6236419678
         43.0184669495
         43.4169502258
         43.8191261292
         44.2250213623
         44.6346817017
