aces_1.0.0/luts/V3 LogC_1600_to_linear.spi1d
Version 1
From 0.000000 1.000000
Length 4096
Components 1
{
         -0.0179774928838
         -0.00270278262906
         -0.00269272108562
         -0.00268263602629
         -0.00267252698541
         -0.00266239396296
         -0.00265223695897
         -0.00264205597341
         -0.0026318510063
         -0.00262162159197
         -0.00261136819609
         -0.00260109035298
         -0.00259078829549
         -0.00258046179079
         -0.00257011083886
         -0.00255973543972
         -0.00254933536053
         -0.00253891083412
         -0.00252846139483
         -0.00251798750833
         -0.00250748847611
         -0.00249696476385
         -0.00248641613871
         -0.00247584260069
         -0.00246524391696
         -0.00245462032035
         -0.0024439713452
         -0.00243329722434
         -0.00242259795777
         -0.00241187331267
         -0.00240112328902
         -0.002390347654
         -0.00237954664044
         -0.00236872001551
         -0.00235786777921
         -0.00234698993154
         -0.00233608600684
         -0.00232515670359
         -0.00231420132332
         -0.00230321986601
         -0.0022922125645
         -0.00228117918596
         -0.00227011973038
         -0.00225903396495
         -0.00224792212248
         -0.00223678373732
         -0.00222561927512
         -0.00221442827024
         -0.00220321072266
         -0.00219196663238
         -0.00218069576658
         -0.00216939835809
         -0.00215807417408
         -0.00214672321454
         -0.00213534547947
         -0.00212394073606
         -0.00211250898428
         -0.00210104999132
         -0.00208956399001
         -0.00207805098034
         -0.00206651049666
         -0.00205494277179
         -0.00204334757291
         -0.00203172513284
         -0.00202007498592
         -0.00200839736499
         -0.00199669203721
         -0.00198495900258
         -0.00197319802828
         -0.00196140934713
         -0.00194959284272
         -0.00193774828222
         -0.00192587566562
         -0.00191397499293
         -0.00190204614773
         -0.00189008901361
         -0.00187810359057
         -0.00186608976219
         -0.00185404752847
         -0.00184197677299
         -0.00182987737935
         -0.00181774946395
         -0.00180559267756
         -0.00179340725299
         -0.00178119295742
         -0.00176894967444
         -0.00175667740405
         -0.00174437614623
         -0.00173204578459
         -0.00171968608629
         -0.00170729728416
         -0.00169487902895
         -0.00168243143708
         -0.00166995439213
         -0.00165744777769
         -0.00164491159376
         -0.00163234572392
         -0.00161975005176
         -0.00160712457728
         -0.00159446918406
         -0.0015817838721
         -0.00156906852499
         -0.00155632302631
         -0.00154354737606
         -0.00153074157424
         -0.00151790527161
         -0.001505038701
         -0.00149214162957
         -0.00147921405733
         -0.00146625586785
         -0.00145326706115
         -0.00144024740439
         -0.00142719689757
         -0.00141411554068
         -0.00140100333374
         -0.00138785992749
         -0.00137468543835
         -0.0013614797499
         -0.00134824286215
         -0.00133497454226
         -0.00132167490665
         -0.00130834372249
         -0.00129498098977
         -0.00128158659209
         -0.00126816052943
         -0.00125470256899
         -0.00124121282715
         -0.00122769118752
         -0.00121413753368
         -0.00120055174921
         -0.00118693383411
         -0.00117328355554
         -0.00115960114636
         -0.00114588625729
         -0.00113213888835
         -0.00111835892312
         -0.0011045463616
         -0.00109070120379
         -0.00107682310045
         -0.0010629122844
         -0.00104896840639
         -0.00103499158286
         -0.00102098169737
         -0.00100693863351
         -0.00099286227487
         -0.00097875262145
         -0.000964609615039
         -0.000950433022808
         -0.000936222961172
         -0.000921979197301
         -0.000907701731194
         -0.000893390446436
         -0.000879045284819
         -0.000864666129928
         -0.000850252981763
         -0.000835805723909
         -0.000821324181743
         -0.000806808413472
         -0.000792258244473
         -0.000777673674747
         -0.000763054529671
         -0.000748400809243
         -0.00073371239705
         -0.000718989176676
         -0.000704231089912
         -0.00068943813676
         -0.000674610084388
         -0.000659746932797
         -0.000644848623779
         -0.000629915040918
         -0.000614946067799
         -0.000599941704422
         -0.000584901776165
         -0.000569826283026
         -0.000554715050384
         -0.000539568078239
         -0.000524385191966
         -0.000509166391566
         -0.000493911560625
         -0.000478620640934
         -0.000463293486973
         -0.000447930040536
         -0.000432530243415
         -0.000417093979195
         -0.000401621160563
         -0.000386111700209
         -0.000370565539924
         -0.000354982563294
         -0.000339362712111
         -0.00032370586996
         -0.000308011949528
         -0.000292280863505
         -0.000276512553683
         -0.000260706903646
         -0.000244863855187
         -0.000228983262787
         -0.000213065097341
         -0.000197109227884
         -0.000181115596206
         -0.000165084085893
         -0.000149014624185
         -0.000132907123771
         -0.000116761482786
         -0.000100577613921
         -8.43554371386e-05
         -6.80948433001e-05
         -5.17957596458e-05
         -3.54580843123e-05
         -1.90817299881e-05
         -2.6666029953e-06
         1.37873876156e-05
         3.02803346131e-05
         4.68123289465e-05
         6.3383464294e-05
         7.9993827967e-05
         9.66435254668e-05
         0.000113332636829
         0.000130061263917
         0.000146829494042
         0.000163637421792
         0.000180485134479
         0.000197372748516
         0.000214300351217
         0.000231268015341
         0.000248275871854
         0.000265323964413
         0.000282412423985
         0.000299541366985
         0.000316710851621
         0.000333920965204
         0.000351171853254
         0.000368463573977
         0.000385796243791
         0.000403169920901
         0.000420584750827
         0.000438040820882
         0.000455538189271
         0.000473077001516
         0.000490657344926
         0.000508279306814
         0.000525943003595
         0.000543648493476
         0.000561395892873
         0.000579185318202
         0.000597016885877
         0.000614890654106
         0.000632806739304
         0.000650765257888
         0.000668766268063
         0.000686809886247
         0.000704896287061
         0.000723025470506
         0.000741197552998
         0.00075941265095
         0.000777670938987
         0.000795972417109
         0.00081431720173
         0.000832705467474
         0.00085113721434
         0.000869612616953
         0.000888131791726
         0.000906694796868
         0.000925301748794
         0.000943952705711
         0.000962647900451
         0.000981387333013
         0.00100017106161
         0.00101899937727
         0.00103787216358
         0.00105678965338
         0.00107575196307
         0.00109475920908
         0.00111381139141
         0.00113290862646
         0.00115205114707
         0.00117123906966
         0.00119047227781
         0.00120975112077
         0.00122907559853
         0.0012484457111
         0.00126786180772
         0.00128732388839
         0.00130683195312
         0.00132638623472
         0.00134598684963
         0.00136563379783
         0.00138532731216
         0.00140506739262
         0.00142485427205
         0.00144468806684
         0.00146456866059
         0.00148449640255
         0.00150447140913
         0.00152449356392
         0.00154456321616
         0.00156468024943
         0.00158484501299
         0.00160505750682
         0.00162531796377
         0.00164562626742
         0.00166598265059
         0.00168638722971
         0.00170684012119
         0.00172734144144
         0.00174789130688
         0.00176848983392
         0.00178913713899
         0.00180983333848
         0.00183057843242
         0.00185137277003
         0.00187221623491
         0.00189310917631
         0.0019140514778
         0.00193504337221
         0.00195608497597
         0.00197717640549
         0.00199831766076
         0.00201950920746
         0.00204075081274
         0.00206204270944
         0.00208338489756
         0.00210477784276
         0.00212622131221
         0.00214771553874
         0.00216926052235
         0.0021908567287
         0.00221250392497
         0.0022342025768
         0.00225595245138
         0.00227775378153
         0.00229960680008
         0.00232151150703
         0.00234346813522
         0.00236547668464
         0.00238753738813
         0.00240965024568
         0.00243181549013
         0.00245403312147
         0.00247630360536
         0.00249862670898
         0.00252100243233
         0.0025434314739
         0.00256591336802
         0.00258844858035
         0.00261103734374
         0.00263367919251
         0.002656375058
         0.00267912424169
         0.00270192767493
         0.00272478489205
         0.00274769612588
         0.00277066184208
         0.00279368180782
         0.00281675625592
         0.00283988541923
         0.00286306929775
         0.00288630789146
         0.00290960166603
         0.00293295062147
         0.0029563549906
         0.00297981454059
         0.00300332973711
         0.00302690058015
         0.00305052706972
         0.00307420967147
         0.0030979483854
         0.00312174321152
         0.00314559438266
         0.00316950189881
         0.00319346622564
         0.00321748713031
         0.0032415650785
         0.00326569983736
         0.00328989187256
         0.00331414118409
         0.0033384480048
         0.00336281210184
         0.00338723417372
         0.00341171375476
         0.00343625154346
         0.003460847307
         0.00348550127819
         0.00351021368988
         0.00353498454206
         0.00355981406756
         0.00358470249921
         0.00360964983702
         0.00363465608098
         0.00365972146392
         0.00368484645151
         0.00371003081091
         0.00373527477495
         0.00376057857648
         0.00378594221547
         0.00381136592478
         0.00383684970438
         0.00386239401996
         0.00388799863867
         0.00391366379336
         0.0039393901825
         0.0039651771076
         0.00399102503434
         0.00401693442836
         0.00404290482402
         0.00406893715262
         0.00409503094852
         0.00412118621171
         0.00414740340784
         0.00417368300259
         0.00420002499595
         0.00422642892227
         0.00425289524719
         0.00427942443639
         0.00430601648986
         0.00433267187327
         0.00435938965529
         0.00438617123291
         0.00441301614046
         0.00443992437795
         0.00446689641103
         0.00449393223971
         0.00452103186399
         0.00454819621518
         0.00457542436197
         0.00460271723568
         0.00463007483631
         0.00465749716386
         0.00468498421833
         0.00471253646538
         0.004740153905
         0.00476783653721
         0.00479558482766
         0.00482339924201
         0.00485127884895
         0.00487922504544
         0.00490723690018
         0.00493531534448
         0.00496346037835
         0.00499167200178
         0.00501995021477
         0.00504829548299
         0.00507670780644
         0.00510518765077
         0.00513373455033
         0.00516234943643
         0.00519103184342
         0.00521978223696
         0.00524860061705
         0.00527748698369
         0.00530644180253
         0.00533546553925
         0.00536455772817
         0.00539371883497
         0.00542294932529
         0.00545224873349
         0.00548161752522
         0.00551105570048
         0.00554056372494
         0.00557014159858
         0.00559978932142
         0.00562950735912
         0.00565929571167
         0.00568915484473
         0.00571908429265
         0.00574908498675
         0.00577915646136
         0.00580929918215
         0.00583951314911
         0.00586979882792
         0.00590015621856
         0.00593058532104
         0.00596108660102
         0.0059916600585
         0.00602230615914
         0.00605302443728
         0.00608381535858
         0.0061146793887
         0.00614561652765
         0.00617662677541
         0.00620771059766
         0.0062388679944
         0.00627009896562
         0.00630140397698
         0.00633278349414
         0.00636423705146
         0.00639576464891
         0.00642736721784
         0.00645904475823
         0.00649079727009
         0.00652262475342
         0.00655452767387
         0.00658650603145
         0.00661856029183
         0.00665069045499
         0.00668289652094
         0.00671517895535
         0.0067475377582
         0.00677997292951
         0.00681248540059
         0.00684507424012
         0.00687774084508
         0.00691048428416
         0.00694330548868
         0.00697620445862
         0.00700918119401
         0.00704223616049
         0.00707536935806
         0.00710858078673
         0.00714187091216
         0.00717524020001
         0.00720868818462
         0.00724221533164
         0.00727582210675
         0.00730950804427
         0.00734327407554
         0.00737711973488
         0.00741104595363
         0.00744505226612
         0.00747913913801
         0.00751330656931
         0.00754755502567
         0.00758188450709
         0.00761629501358
         0.00765078747645
         0.00768536143005
         0.00772001687437
         0.00775475474074
         0.00778957502916
         0.00782447773963
         0.00785946287215
         0.00789452996105
         0.00792968180031
         0.00796491559595
         0.00800023321062
         0.00803563464433
         0.00807111989707
         0.00810668896884
         0.00814234185964
         0.00817807950079
         0.0082139018923
         0.00824980903417
         0.00828580092639
         0.00832187850028
         0.00835804082453
         0.00839428976178
         0.00843062344939
         0.00846704374999
         0.00850355066359
         0.00854014325887
         0.00857682246715
         0.00861358921975
         0.00865044258535
         0.00868738256395
         0.00872441101819
         0.00876152701676
         0.00879873055965
         0.00883602164686
         0.00887340214103
         0.00891087017953
         0.008948427625
         0.00898607354611
         0.00902380887419
         0.00906163360924
         0.00909954775125
         0.00913755223155
         0.00917564611882
         0.00921382941306
         0.00925210397691
         0.00929046981037
         0.0093289250508
         0.00936747249216
         0.00940611027181
         0.0094448402524
         0.0094836615026
         0.00952257495373
         0.0095615806058
         0.00960067845881
         0.00963986851275
         0.00967915169895
         0.0097185280174
         0.00975799746811
         0.00979756005108
         0.00983721669763
         0.00987696647644
         0.00991681125015
         0.00995675008744
         0.00999678391963
         0.0100369118154
         0.0100771347061
         0.010117453523
         0.0101578673348
         0.0101983770728
         0.0102389818057
         0.0102796833962
         0.0103204818442
         0.0103613762185
         0.0104023674503
         0.0104434555396
         0.0104846414179
         0.0105259250849
         0.0105673056096
         0.0106087848544
         0.0106503618881
         0.0106920367107
         0.0107338111848
         0.010775684379
         0.0108176562935
         0.0108597278595
         0.0109019000083
         0.0109441708773
         0.0109865413979
         0.0110290134326
         0.0110715851188
         0.0111142583191
         0.0111570321023
         0.0111999073997
         0.0112428832799
         0.0112859616056
         0.0113291423768
         0.0113724246621
         0.0114158103243
         0.0114592975006
         0.0115028880537
         0.0115465819836
         0.0115903792903
         0.0116342809051
         0.0116782858968
         0.0117223951966
         0.0117666088045
         0.0118109267205
         0.011855349876
         0.0118998782709
         0.0119445119053
         0.0119892517105
         0.0120340976864
         0.0120790489018
         0.0121241072193
         0.0121692717075
         0.0122145432979
         0.0122599219903
         0.0123054077849
         0.0123510025442
         0.0123967044055
         0.0124425143003
         0.0124884322286
         0.0125344600528
         0.0125805959105
         0.0126268416643
         0.0126731963828
         0.0127196609974
         0.012766235508
         0.012812920846
         0.0128597160801
         0.0129066230729
         0.0129536399618
         0.0130007686093
         0.0130480090156
         0.0130953611806
         0.0131428251043
         0.013190401718
         0.0132380910218
         0.0132858930156
         0.0133338086307
         0.0133818369359
         0.0134299797937
         0.0134782362729
         0.0135266063735
         0.013575091958
         0.0136236920953
         0.0136724067852
         0.0137212369591
         0.013770182617
         0.0138192446902
         0.0138684231788
         0.0139177171513
         0.0139671284705
         0.0140166562051
         0.0140663022175
         0.0141160646453
         0.0141659453511
         0.0142159443349
         0.0142660615966
         0.0143162980676
         0.0143666528165
         0.0144171267748
         0.0144677199423
         0.0145184332505
         0.0145692666993
         0.0146202202886
         0.0146712949499
         0.0147224897519
         0.0147738065571
         0.0148252444342
         0.0148768043146
         0.0149284861982
         0.0149802900851
         0.0150322169065
         0.0150842666626
         0.0151364402846
         0.0151887368411
         0.0152411572635
         0.0152937015519
         0.0153463697061
         0.0153991635889
         0.0154520822689
         0.0155051257461
         0.0155582958832
         0.0156115908176
         0.0156650114805
         0.0157185606658
         0.0157722346485
         0.0158260371536
         0.0158799663186
         0.0159340221435
         0.0159882083535
         0.0160425212234
         0.0160969626158
         0.0161515325308
         0.0162062328309
         0.0162610616535
         0.0163160208613
         0.0163711104542
         0.0164263304323
         0.0164816807956
         0.016537161544
         0.0165927745402
         0.0166485197842
         0.0167043954134
         0.016760405153
         0.0168165452778
         0.0168728195131
         0.0169292278588
         0.0169857684523
         0.0170424431562
         0.0170992519706
         0.0171561967582
         0.0172132756561
         0.0172704886645
         0.017327837646
         0.0173853226006
         0.0174429435283
         0.0175007004291
         0.0175585951656
         0.0176166258752
         0.0176747944206
         0.0177331008017
         0.0177915450186
         0.0178501270711
         0.0179088488221
         0.0179677084088
         0.0180267076939
         0.0180858485401
         0.0181451272219
         0.0182045474648
         0.0182641074061
         0.0183238089085
         0.0183836519718
         0.0184436365962
         0.0185037627816
         0.0185640305281
         0.0186244435608
         0.0186849981546
         0.0187456943095
         0.0188065376133
         0.0188675224781
         0.0189286526293
         0.0189899280667
         0.0190513469279
         0.019112912938
         0.0191746242344
         0.0192364808172
         0.0192984845489
         0.019360633567
         0.0194229315966
         0.0194853767753
         0.0195479691029
         0.0196107104421
         0.0196736007929
         0.0197366382927
         0.0197998266667
         0.0198631640524
         0.0199266504496
         0.0199902895838
         0.0200540777296
         0.0201180167496
         0.0201821066439
         0.0202463492751
         0.0203107446432
         0.0203752908856
         0.0204399898648
         0.0205048434436
         0.0205698497593
         0.0206350106746
         0.0207003243268
         0.0207657944411
         0.020831419155
         0.0208971984684
         0.0209631342441
         0.0210292246193
         0.0210954733193
         0.0211618784815
         0.0212284401059
         0.0212951600552
         0.0213620364666
         0.0214290730655
         0.0214962679893
         0.0215636212379
         0.021631134674
         0.0216988082975
         0.0217666402459
         0.0218346342444
         0.0219027902931
         0.0219711065292
         0.0220395829529
         0.0221082232893
         0.0221770256758
         0.0222459919751
         0.0223151203245
         0.0223844125867
         0.0224538687617
         0.022523490712
         0.0225932765752
         0.0226632263511
         0.0227333437651
         0.0228036269546
         0.0228740740567
         0.0229446906596
         0.023015473038
         0.023086424917
         0.0231575425714
         0.0232288297266
         0.0233002845198
         0.0233719106764
         0.023443704471
         0.023515669629
         0.0235878042877
         0.0236601084471
         0.0237325858325
         0.0238052345812
         0.0238780546933
         0.0239510480314
         0.0240242127329
         0.0240975506604
         0.0241710636765
         0.0242447499186
         0.0243186112493
         0.0243926476687
         0.0244668573141
         0.0245412439108
         0.0246158074588
         0.0246905460954
         0.0247654635459
         0.0248405560851
         0.0249158274382
         0.0249912776053
         0.0250669065863
         0.0251427143812
         0.0252187009901
         0.0252948682755
         0.0253712143749
         0.0254477430135
         0.025524450466
         0.0256013423204
         0.0256784148514
         0.0257556699216
         0.0258331075311
         0.0259107295424
         0.0259885340929
         0.0260665230453
         0.0261446982622
         0.0262230560184
         0.0263016019017
         0.0263803321868
         0.0264592487365
         0.0265383534133
         0.0266176443547
         0.0266971234232
         0.0267767906189
         0.0268566459417
         0.0269366893917
         0.0270169246942
         0.0270973481238
         0.0271779634058
         0.0272587686777
         0.027339765802
         0.0274209529161
         0.0275023337454
         0.0275839082897
         0.0276656746864
         0.0277476347983
         0.0278297886252
         0.0279121361673
         0.0279946811497
         0.0280774198472
         0.0281603541225
         0.0282434858382
         0.0283268131316
         0.028410339728
         0.0284940619022
         0.0285779833794
         0.0286621041596
         0.0287464223802
         0.0288309417665
         0.0289156604558
         0.0290005803108
         0.0290857013315
         0.0291710235178
         0.0292565468699
         0.0293422732502
         0.0294282026589
         0.0295143350959
         0.0296006724238
         0.0296872146428
         0.02977395989
         0.0298609118909
         0.0299480687827
         0.0300354324281
         0.0301230028272
         0.0302107818425
         0.0302987676114
         0.0303869601339
         0.0304753631353
         0.0305639766157
