aces_1.0.0/luts/V3 LogC_2560_to_linear.spi1d
Version 1
From 0.000000 1.000000
Length 4096
Components 1
{
         -0.0184752065688
         -0.00137868220918
         -0.00136945617851
         -0.00136020767968
         -0.0013509367127
         -0.00134164316114
         -0.00133232702501
         -0.00132298818789
         -0.00131362664979
         -0.00130424229428
         -0.00129483512137
         -0.00128540513106
         -0.00127595220692
         -0.00126647623256
         -0.00125697720796
         -0.00124745501671
         -0.00123790977523
         -0.00122834125068
         -0.00121874944307
         -0.00120913423598
         -0.00119949574582
         -0.00118983373977
         -0.00118014833424
         -0.0011704392964
         -0.00116070662625
         -0.00115095020737
         -0.00114117015619
         -0.00113136623986
         -0.00112153857481
         -0.0011116869282
         -0.00110181130003
         -0.00109191169031
         -0.0010819878662
         -0.00107204006054
         -0.00106206804048
         -0.00105207168963
         -0.00104205100797
         -0.00103200599551
         -0.00102193653584
         -0.00101184251253
         -0.001001724042
         -0.000991580891423
         -0.000981413060799
         -0.000971220550127
         -0.000961003184784
         -0.00095076096477
         -0.000940493831877
         -0.000930201727897
         -0.000919884594623
         -0.000909542373847
         -0.000899174949154
         -0.000888782320544
         -0.000878364429809
         -0.000867921160534
         -0.000857452454511
         -0.000846958369948
         -0.000836438674014
         -0.000825893424917
         -0.000815322506242
         -0.00080472585978
         -0.000794103427324
         -0.000783455208875
         -0.000772781029809
         -0.000762080890127
         -0.000751354731619
         -0.00074060249608
         -0.000729824067093
         -0.000719019386452
         -0.000708188454155
         -0.000697331211995
         -0.00068644748535
         -0.000675537332427
         -0.000664600578602
         -0.000653637282085
         -0.000642647268251
         -0.0006316305371
         -0.000620587030426
         -0.000609516631812
         -0.000598419283051
         -0.000587294925936
         -0.000576143502258
         -0.000564965012018
         -0.000553759280592
         -0.000542526249774
         -0.00053126597777
         -0.00051997823175
         -0.000508663069922
         -0.000497320375871
         -0.000485950062284
         -0.000474552100059
         -0.000463126401883
         -0.000451672909549
         -0.000440191535745
         -0.000428682251368
         -0.000417144969106
         -0.000405579601647
         -0.000393986119889
         -0.000382364407415
         -0.000370714435121
         -0.000359036115697
         -0.00034732936183
         -0.000335594144417
         -0.00032383040525
         -0.00031203799881
         -0.000300216925098
         -0.0002883670968
         -0.000276488426607
         -0.000264580885414
         -0.000252644327702
         -0.000240678768023
         -0.00022868407541
         -0.000216660220758
         -0.000204607102205
         -0.000192524646991
         -0.00018041281146
         -0.000168271508301
         -0.000156100664753
         -0.000143900208059
         -0.000131670080009
         -0.000119410178741
         -0.000107120460598
         -9.48008455453e-05
         -8.24512535473e-05
         -7.00716191204e-05
         -5.7661865867e-05
         -4.52219173894e-05
         -3.27517082042e-05
         -2.02511564567e-05
         -7.7201939348e-06
         4.84125484945e-06
         1.74332653842e-05
         3.00559095194e-05
         4.27092636528e-05
         5.53934041818e-05
         6.81083984091e-05
         8.08543336461e-05
         9.36312790145e-05
         0.000106439299998
         0.000119278491184
         0.00013214891078
         0.000145050653373
         0.000157983769896
         0.000170948362211
         0.000183944503078
         0.000196972250706
         0.000210031692404
         0.000223122915486
         0.000236245978158
         0.000249400967732
         0.00026258797152
         0.000275807047728
         0.00028905828367
         0.000302341766655
         0.000315657583997
         0.000329005764797
         0.000342386454577
         0.000355799653335
         0.00036924550659
         0.000382724101655
         0.000396235438529
         0.000409779691836
         0.000423356861575
         0.000436967093265
         0.00045061041601
         0.000464286946226
         0.000477996713016
         0.000491739891004
         0.000505516480189
         0.000519326538779
         0.000533170241397
         0.000547047646251
         0.000560958811548
         0.000574903795496
         0.00058888271451
         0.000602895626798
         0.000616942648776
         0.00063102383865
         0.00064513925463
         0.000659289071336
         0.000673473288771
         0.000687692023348
         0.000701945333276
         0.00071623333497
         0.000730556086637
         0.000744913646486
         0.000759306189138
         0.000773733772803
         0.00078819639748
         0.000802694237791
         0.000817227351945
         0.000831795798149
         0.000846399692819
         0.000861039152369
         0.0008757141768
         0.000890424940735
         0.000905171502382
         0.000919953919947
         0.000934772309847
         0.000949626730289
         0.000964517297689
         0.000979444128461
         0.000994407222606
         0.00100940675475
         0.0010244428413
         0.00103951536585
         0.00105462467764
         0.00106977066025
         0.00108495354652
         0.00110017333645
         0.00111543026287
         0.00113072420936
         0.00114605529234
         0.00116142386105
         0.00117682968266
         0.00119227299001
         0.00120775389951
         0.00122327252757
         0.00123882887419
         0.0012544230558
         0.00127005507238
         0.00128572527319
         0.00130143354181
         0.00131717999466
         0.00133296486456
         0.0013487880351
         0.00136464973912
         0.0013805499766
         0.00139648898039
         0.00141246675048
         0.00142848340329
         0.00144453893881
         0.00146063358989
         0.00147676735651
         0.00149294047151
         0.00150915281847
         0.00152540474664
         0.00154169613961
         0.00155802711379
         0.001574397902
         0.00159080850426
         0.00160725892056
         0.00162374950014
         0.00164028012659
         0.00165685103275
         0.0016734622186
         0.00169011380058
         0.00170680589508
         0.00172353861853
         0.00174031208735
         0.00175712630153
         0.00177398137748
         0.00179087754805
         0.00180781481322
         0.00182479328942
         0.00184181309305
         0.00185887422413
         0.00187597691547
         0.00189312116709
         0.0019103072118
         0.00192753504962
         0.00194480479695
         0.0019621164538
         0.00197947048582
         0.00199686642736
         0.00201430474408
         0.00203178566881
         0.00204930896871
         0.00206687510945
         0.0020844838582
         0.00210213544779
         0.00211982987821
         0.00213756738231
         0.0021553481929
         0.00217317207716
         0.00219103950076
         0.00220895023085
         0.00222690473311
         0.00224490277469
         0.00226294458844
         0.00228103040718
         0.00229915999807
         0.0023173338268
         0.00233555189334
         0.00235381443053
         0.00237212120555
         0.00239047268406
         0.00240886863321
         0.00242730928585
         0.0024457948748
         0.0024643256329
         0.00248290132731
         0.00250152219087
         0.0025201884564
         0.00253889989108
         0.00255765696056
         0.00257645989768
         0.00259530823678
         0.00261420267634
         0.00263314298354
         0.00265212939121
         0.00267116189934
         0.00269024097361
         0.00270936614834
         0.00272853812203
         0.00274775642902
         0.0027670217678
         0.00278633390553
         0.00280569307506
         0.00282509927638
         0.00284455250949
         0.00286405324005
         0.00288360146806
         0.00290319719352
         0.00292284064926
         0.00294253183529
         0.00296227098443
         0.00298205809668
         0.00300189340487
         0.00302177690901
         0.00304170884192
         0.00306168920361
         0.00308171822689
         0.00310179614462
         0.00312192272395
         0.00314209819771
         0.00316232279874
         0.00318259675987
         0.00320291984826
         0.00322329252958
         0.003243714571
         0.00326418643817
         0.0032847081311
         0.00330527964979
         0.0033259014599
         0.00334657309577
         0.00336729525588
         0.00338806794025
         0.00340889091603
         0.0034297646489
         0.00345068913884
         0.0034716646187
         0.00349269085564
         0.00351376854815
         0.0035348974634
         0.00355607783422
         0.00357730942778
         0.00359859294258
         0.00361992814578
         0.00364131550305
         0.00366275454871
         0.00368424598128
         0.0037057895679
         0.00372738554142
         0.00374903413467
         0.00377073534764
         0.00379248941317
         0.00381429656409
         0.00383615656756
         0.00385806965642
         0.00388003629632
         0.00390205625445
         0.00392412953079
         0.00394625682384
         0.0039684381336
         0.00399067299441
         0.00401296233758
         0.00403530569747
         0.00405770353973
         0.0040801553987
         0.0041026622057
         0.00412522396073
         0.00414784066379
         0.00417051184922
         0.00419323844835
         0.00421602046117
         0.00423885788769
         0.00426175072789
         0.00428469944745
         0.00430770404637
         0.00433076452464
         0.00435388088226
         0.0043770535849
         0.00440028309822
         0.00442356849089
         0.0044469111599
         0.00447031017393
         0.00449376599863
         0.00451727909967
         0.00454084947705
         0.00456447713077
         0.00458816252649
         0.00461190519854
         0.0046357056126
         0.00465956423432
         0.00468348059803
         0.00470745516941
         0.00473148841411
         0.00475557986647
         0.00477972999215
         0.00480393879116
         0.00482820626348
         0.00485253334045
         0.00487691909075
         0.00490136444569
         0.00492586893961
         0.00495043350384
         0.00497505767271
         0.00499974191189
         0.00502448575571
         0.0050492901355
         0.0050741545856
         0.00509908003733
         0.00512406555936
         0.00514911208302
         0.00517421960831
         0.00519938813522
         0.00522461812943
         0.00524990912527
         0.00527526205406
         0.00530067645013
         0.00532615277916
         0.00535169104114
         0.00537729123607
         0.00540295382962
         0.00542867882177
         0.0054544666782
         0.00548031693324
         0.00550623051822
         0.00553220650181
         0.005558246281
         0.00558434892446
         0.00561051536351
         0.00563674559817
         0.00566303962842
         0.00568939745426
         0.0057158190757
         0.00574230542406
         0.00576885603368
         0.00579547137022
         0.00582215143368
         0.00584889622405
         0.00587570620701
         0.00590258138254
         0.00592952221632
         0.00595652824268
         0.00598360039294
         0.00601073820144
         0.00603794166818
         0.00606521172449
         0.0060925479047
         0.00611995067447
         0.00614742003381
         0.00617495644838
         0.00620255991817
         0.00623022997752
         0.00625796802342
         0.00628577312455
         0.00631364621222
         0.00634158682078
         0.00636959541589
         0.00639767246321
         0.00642581749707
         0.00645403098315
         0.0064823133871
         0.00651066424325
         0.00653908448294
         0.0065675736405
         0.00659613171592
         0.00662475964054
         0.00665345741436
         0.00668222503737
         0.00671106250957
         0.00673996983096
         0.00676894793287
         0.00679799634963
         0.00682711508125
         0.00685630505905
         0.00688556628302
         0.0069148982875
         0.00694430153817
         0.00697377650067
         0.00700332364067
         0.00703294202685
         0.00706263259053
         0.00709239579737
         0.00712223071605
         0.00715213874355
         0.00718211941421
         0.00721217319369
         0.00724229961634
         0.00727249961346
         0.00730277318507
         0.00733312033117
         0.00736354151741
         0.00739403627813
         0.00742460554466
         0.00745524931699
         0.00748596712947
         0.00751675991341
         0.00754762766883
         0.00757857086137
         0.00760958902538
         0.00764068262652
         0.00767185166478
         0.00770309660584
         0.00773441791534
         0.00776581512764
         0.00779728870839
         0.00782883912325
         0.00786046590656
         0.00789216998965
         0.0079239513725
         0.00795580912381
         0.00798774510622
         0.00801975931972
         0.008051850833
         0.00808401964605
         0.00811626762152
         0.00814859382808
         0.00818099919707
         0.00821348279715
         0.00824604555964
         0.00827868748456
         0.00831140950322
         0.0083442106843
         0.0083770910278
         0.00841005239636
         0.00844309292734
         0.00847621448338
         0.00850941613317
         0.00854269880801
         0.00857606250793
         0.00860950816423
         0.00864303391427
         0.0086766416207
         0.00871033128351
         0.00874410290271
         0.00877795740962
         0.00881189294159
         0.00884591136128
         0.00888001359999
         0.00891419779509
         0.0089484648779
         0.00898281577975
         0.00901725050062
         0.00905176904052
         0.00908637139946
         0.00912105757743
         0.00915582850575
         0.00919068418443
         0.00922562461346
         0.00926064979285
         0.00929575972259
         0.00933095626533
         0.00936623755842
         0.0094016045332
         0.00943705812097
         0.00947259739041
         0.00950822420418
         0.00954393669963
         0.00957973580807
         0.00961562339216
         0.00965159665793
         0.00968765839934
         0.00972380768508
         0.00976004544646
         0.00979637075216
         0.0098327845335
         0.00986928679049
         0.00990587845445
         0.00994255859405
         0.00997932814062
         0.0100161870942
         0.0100531354547
         0.0100901741534
         0.0101273022592
         0.0101645216346
         0.0102018313482
         0.0102392314002
         0.0102767227218
         0.0103143053129
         0.0103519791737
         0.0103897443041
         0.0104276016355
         0.0104655511677
         0.0105035929009
         0.0105417277664
         0.0105799548328
         0.0106182750314
         0.0106566883624
         0.0106951948255
         0.0107337962836
         0.0107724899426
         0.0108112785965
         0.0108501622453
         0.0108891399577
         0.0109282117337
         0.0109673794359
         0.011006642133
         0.0110460007563
         0.0110854543746
         0.0111250048503
         0.011164650321
         0.0112043935806
         0.0112442327663
         0.0112841688097
         0.0113242026418
         0.0113643333316
         0.0114045618102
         0.0114448880777
         0.0114853130654
         0.0115258358419
         0.0115664573386
         0.0116071775556
         0.0116479964927
         0.0116889150813
         0.0117299333215
         0.0117710512131
         0.0118122696877
         0.0118535878137
         0.0118950065225
         0.0119365258142
         0.0119781466201
         0.0120198689401
         0.012061691843
         0.0121036171913
         0.0121456440538
         0.0121877733618
         0.0122300051153
         0.0122723402455
         0.0123147778213
         0.0123573187739
         0.0123999631032
         0.0124427108094
         0.0124855628237
         0.0125285191461
         0.0125715797767
         0.0126147456467
         0.0126580167562
         0.0127013921738
         0.0127448737621
         0.0127884615213
         0.0128321545199
         0.0128759536892
         0.0129198599607
         0.0129638733342
         0.0130079928786
         0.0130522204563
         0.0130965551361
         0.0131409978494
         0.0131855495274
         0.0132302083075
         0.0132749760523
         0.0133198536932
         0.0133648393676
         0.013409934938
         0.0134551404044
         0.0135004557669
         0.0135458810255
         0.0135914171115
         0.0136370640248
         0.0136828217655
         0.0137286903337
         0.0137746715918
         0.0138207636774
         0.0138669684529
         0.0139132859185
         0.0139597160742
         0.0140062589198
         0.0140529144555
         0.0140996845439
         0.0141465673223
         0.0141935646534
         0.0142406765372
         0.0142879029736
         0.0143352439627
         0.0143827004358
         0.0144302723929
         0.0144779607654
         0.0145257636905
         0.0145736839622
         0.0146217206493
         0.0146698737517
         0.0147181442007
         0.0147665319964
         0.0148150380701
         0.0148636614904
         0.01491240412
         0.0149612640962
         0.015010244213
         0.0150593426079
         0.0151085611433
         0.015157898888
         0.0152073567733
         0.0152569347993
         0.0153066329658
         0.0153564531356
         0.0154063943774
         0.015456456691
         0.015506641008
         0.0155569473282
         0.0156073756516
         0.0156579278409
         0.0157086011022
         0.0157593991607
         0.0158103201538
         0.0158613659441
         0.015912534669
         0.0159638281912
         0.0160152483732
         0.0160667914897
         0.0161184594035
         0.0161702558398
         0.0162221752107
         0.0162742231041
         0.0163263976574
         0.0163786970079
         0.0164311248809
         0.0164836812764
         0.0165363643318
         0.0165891759098
         0.0166421160102
         0.0166951846331
         0.0167483817786
         0.0168017093092
         0.016855167225
         0.0169087536633
         0.0169624723494
         0.017016319558
         0.0170702990144
         0.0171244107187
         0.0171786528081
         0.0172330252826
         0.0172875318676
         0.0173421725631
         0.0173969436437
         0.0174518488348
         0.0175068881363
         0.0175620596856
         0.017617367208
         0.0176728088409
         0.0177283845842
         0.0177840963006
         0.0178399439901
         0.0178959276527
         0.0179520454258
         0.0180083028972
         0.0180646944791
         0.0181212238967
         0.0181778911501
         0.0182346962392
         0.0182916410267
         0.0183487217873
         0.018405944109
         0.0184633024037
         0.0185208022594
         0.0185784418136
         0.0186362210661
         0.0186941418797
         0.0187522042543
         0.0188104063272
         0.0188687499613
         0.0189272351563
         0.018985863775
         0.0190446358174
         0.0191035494208
         0.0191626064479
         0.0192218068987
         0.0192811526358
         0.0193406417966
         0.0194002762437
         0.0194600541145
         0.0195199791342
         0.0195800494403
         0.0196402668953
         0.0197006296366
         0.019761139527
         0.0198217965662
         0.0198826007545
         0.0199435539544
         0.0200046543032
         0.0200659036636
         0.0201273020357
         0.020188851282
         0.0202505476773
         0.0203123949468
         0.0203743949533
         0.0204365439713
         0.0204988438636
         0.0205612946302
         0.0206238981336
         0.020686654374
         0.0207495633513
         0.0208126250654
         0.0208758413792
         0.0209392104298
         0.02100273408
         0.021066410467
         0.0211302433163
         0.0211942307651
         0.0212583746761
         0.0213226750493
         0.0213871318847
         0.0214517433196
         0.021516514942
         0.021581441164
         0.0216465275735
         0.0217117723078
         0.0217771753669
         0.0218427367508
         0.0219084583223
         0.0219743400812
         0.022040380165
         0.0221065822989
         0.0221729464829
         0.0222394708544
         0.022306157276
         0.0223730057478
         0.0224400181323
         0.022507192567
         0.0225745309144
         0.0226420331746
         0.0227096993476
         0.0227775294334
         0.0228455252945
         0.0229136850685
         0.0229820124805
         0.0230505056679
         0.0231191664934
         0.0231879930943
         0.0232569873333
         0.0233261492103
         0.0233954787254
         0.0234649777412
         0.0235346462578
         0.023604484275
         0.0236744917929
         0.0237446688116
         0.0238150190562
         0.0238855388016
         0.0239562299103
         0.0240270923823
         0.0240981280804
         0.0241693370044
         0.0242407191545
         0.0243122745305
         0.0243840031326
         0.0244559086859
         0.0245279874653
         0.0246002413332
         0.0246726721525
         0.0247452780604
         0.0248180609196
         0.0248910207301
         0.0249641574919
         0.0250374730676
         0.0251109674573
         0.0251846406609
         0.0252584926784
         0.0253325235099
         0.0254067350179
         0.0254811272025
         0.0255557019264
         0.0256304554641
         0.0257053915411
         0.02578051202
         0.0258558131754
         0.0259312968701
         0.0260069668293
         0.0260828193277
         0.026158856228
         0.0262350775301
         0.0263114850968
         0.026388078928
         0.0264648590237
         0.0265418253839
         0.0266189780086
         0.0266963206232
         0.0267738495022
         0.0268515683711
         0.0269294753671
         0.0270075723529
         0.0270858593285
         0.0271643362939
         0.0272430051118
         0.0273218657821
         0.0274009164423
         0.0274801608175
         0.0275595970452
         0.027639226988
         0.0277190506458
         0.0277990680188
         0.0278792809695
         0.0279596894979
         0.0280402917415
         0.0281210914254
         0.0282020885497
         0.0282832812518
         0.0283646713942
         0.0284462608397
         0.0285280477256
         0.0286100339144
         0.0286922194064
         0.0287746042013
         0.0288571901619
         0.0289399772882
         0.0290229655802
         0.0291061550379
         0.0291895475239
         0.0292731430382
         0.0293569434434
         0.0294409450144
         0.0295251514763
         0.0296095646918
         0.0296941809356
         0.0297790039331
         0.0298640336841
         0.0299492701888
         0.0300347153097
         0.0301203653216
         0.0302062258124
         0.0302922949195
         0.0303785726428
         0.030465060845
         0.0305517595261
         0.0306386705488
         0.0307257901877
