aces_1.0.0/luts/V3 LogC_800_to_linear.spi1d
Version 1
From 0.000000 1.000000
Length 4096
Components 1
{
         -0.017290500924
         -0.00443639326841
         -0.00442506885156
         -0.004413719289
         -0.00440234364942
         -0.0043909419328
         -0.00437951413915
         -0.00436806073412
         -0.00435658078641
         -0.00434507522732
         -0.00433354312554
         -0.00432198494673
         -0.00431040022522
         -0.00429878896102
         -0.00428715161979
         -0.00427548773587
         -0.00426379730925
         -0.00425207987428
         -0.00424033636227
         -0.00422856584191
         -0.0042167683132
         -0.00420494424179
         -0.00419309269637
         -0.00418121460825
         -0.00416930951178
         -0.00415737740695
         -0.00414541782811
         -0.00413343077525
         -0.00412141671404
         -0.00410937564448
         -0.00409730663523
         -0.00408521061763
         -0.00407308666036
         -0.00406093522906
         -0.00404875585809
         -0.00403654901311
         -0.00402431469411
         -0.00401205196977
         -0.00399976177141
         -0.00398744316772
         -0.00397509662434
         -0.0039627221413
         -0.00395031925291
         -0.00393788842484
         -0.00392542872578
         -0.00391294108704
         -0.00390042504296
         -0.00388788036071
         -0.00387530704029
         -0.00386270531453
         -0.00385007471777
         -0.00383741525002
         -0.00382472714409
         -0.00381201016717
         -0.00379926408641
         -0.00378648913465
         -0.00377368507907
         -0.00376085168682
         -0.00374798919074
         -0.003735097358
         -0.0037221761886
         -0.00370922568254
         -0.00369624560699
         -0.00368323596194
         -0.00367019674741
         -0.00365712773055
         -0.00364402891137
         -0.00363090028986
         -0.00361774186604
         -0.00360455363989
         -0.00359133514576
         -0.00357808661647
         -0.0035648078192
         -0.00355149875395
         -0.00353815942071
         -0.00352478981949
         -0.00351138971746
         -0.00349795911461
         -0.00348449801095
         -0.00347100617364
         -0.00345748360269
         -0.00344393006526
         -0.00343034579419
         -0.00341673078947
         -0.00340308458544
         -0.00338940718211
         -0.00337569881231
         -0.00336195924319
         -0.00334818824194
         -0.00333438604139
         -0.00332055217586
         -0.00330668711103
         -0.00329279014841
         -0.00327886175364
         -0.00326490169391
         -0.00325090973638
         -0.00323688588105
         -0.00322283012792
         -0.00320874224417
         -0.00319462246262
         -0.00318047055043
         -0.00316628627479
         -0.00315206963569
         -0.00313782086596
         -0.00312353949994
         -0.00310922553763
         -0.00309487921186
         -0.00308050005697
         -0.00306608807296
         -0.00305164325982
         -0.00303716561757
         -0.0030226551462
         -0.00300811161287
         -0.00299353478476
         -0.00297892489471
         -0.00296428147703
         -0.00294960499741
         -0.00293489499018
         -0.00292015145533
         -0.00290537439287
         -0.00289056380279
         -0.00287571921945
         -0.00286084110849
         -0.00284592900425
         -0.00283098290674
         -0.00281600281596
         -0.00280098849908
         -0.00278593995608
         -0.00277085741982
         -0.00275574019179
         -0.00274058873765
         -0.00272540282458
         -0.00271018221974
         -0.00269492692314
         -0.00267963693477
         -0.00266431225464
         -0.00264895241708
         -0.00263355788775
         -0.00261812820099
         -0.00260266335681
         -0.00258716312237
         -0.0025716277305
         -0.00255605694838
         -0.002540450776
         -0.00252480898052
         -0.00250913156196
         -0.00249341852032
         -0.00247766962275
         -0.00246188486926
         -0.00244606425986
         -0.0024302075617
         -0.0024143147748
         -0.00239838566631
         -0.00238242046908
         -0.00236641871743
         -0.0023503806442
         -0.00233430601656
         -0.00231819483452
         -0.00230204686522
         -0.00228586210869
         -0.00226964056492
         -0.00225338200107
         -0.00223708664998
         -0.00222075404599
         -0.0022043841891
         -0.0021879770793
         -0.00217153248377
         -0.00215505063534
         -0.00213853130117
         -0.00212197401561
         -0.00210537924431
         -0.00208874675445
         -0.0020720763132
         -0.00205536792055
         -0.00203862134367
         -0.0020218368154
         -0.00200501410291
         -0.00198815297335
         -0.00197125342675
         -0.00195431523025
         -0.00193733873311
         -0.00192032346968
         -0.00190326943994
         -0.00188617664389
         -0.00186904484872
         -0.00185187405441
         -0.00183466426097
         -0.00181741511915
         -0.00180012674537
         -0.0017827990232
         -0.00176543183625
         -0.00174802506808
         -0.00173057871871
         -0.00171309267171
         -0.00169556669425
         -0.00167800078634
         -0.00166039494798
         -0.00164274906274
         -0.0016250628978
         -0.00160733645316
         -0.00158956972882
         -0.00157176249195
         -0.00155391474254
         -0.00153602624778
         -0.00151809712406
         -0.00150012713857
         -0.00148211617488
         -0.00146406423301
         -0.00144597119652
         -0.00142783694901
         -0.00140966137405
         -0.00139144435525
         -0.001373186009
         -0.00135488598607
         -0.00133654428646
         -0.00131816079374
         -0.00129973550793
         -0.00128126819618
         -0.0012627588585
         -0.00124420737848
         -0.00122561363969
         -0.00120697752573
         -0.00118829903658
         -0.00116957793944
         -0.00115081423428
         -0.0011320078047
         -0.00111315853428
         -0.00109426630661
         -0.00107533112168
         -0.00105635286309
         -0.00103733129799
         -0.0010182664264
         -0.00099915813189
         -0.00098000629805
         -0.00096081092488
         -0.000941571779549
         -0.000922288803849
         -0.000902961939573
         -0.000883591070306
         -0.000864176137839
         -0.000844716909342
         -0.000825213384815
         -0.000805665447842
         -0.000786073040217
         -0.000766435987316
         -0.000746754172724
         -0.000727027538233
         -0.000707256025635
         -0.000687439460307
         -0.000667577784043
         -0.000647670880426
         -0.000627718633041
         -0.000607720925473
         -0.000587677699514
         -0.000567588838749
         -0.000547454168554
         -0.000527273688931
         -0.000507047283463
         -0.000486774777528
         -0.000466456112918
         -0.000446091173217
         -0.000425679871114
         -0.00040522206109
         -0.000384717684938
         -0.000364166597137
         -0.000343568710377
         -0.000322923908243
         -0.000302232103422
         -0.0002814931795
         -0.000260707020061
         -0.00023987350869
         -0.000218992572627
         -0.000198064080905
         -0.000177087917109
         -0.000156063993927
         -0.000134992194944
         -0.000113872396469
         -9.27045111894e-05
         -7.14884154149e-05
         -5.02240072819e-05
         -2.89111685561e-05
         -7.54979646445e-06
         1.38602235893e-05
         3.53190007445e-05
         5.68266477785e-05
         7.83832729212e-05
         9.99889889499e-05
         0.00012164391228
         0.000143348152051
         0.000165101810126
         0.000186905017472
         0.000208757875953
         0.000230660501984
         0.00025261301198
         0.000274615507806
         0.000296668091323
         0.000318770937156
         0.000340924074408
         0.000363127706805
         0.000385381863452
         0.000407686718972
         0.000430042360676
         0.000452448934084
         0.000474906526506
         0.000497415254358
         0.00051997526316
         0.000542586611118
         0.000565249472857
         0.00058796396479
         0.000610730145127
         0.000633548188489
         0.000656418211292
         0.000679340329953
         0.000702314602677
         0.000725341204088
         0.000748420250602
         0.000771551858634
         0.000794736144599
         0.000817973283119
         0.000841263274197
         0.000864606292453
         0.000888002512511
         0.000911451992579
         0.000934954907279
         0.00095851131482
         0.000982121331617
         0.0010057851905
         0.00102950294968
         0.00105327460915
         0.00107710051816
         0.00110098067671
         0.00112491520122
         0.00114890420809
         0.00117294781376
         0.00119704625104
         0.00122119951993
         0.00124540773686
         0.00126967125107
         0.00129398982972
         0.00131836393848
         0.00134279346094
         0.00136727874633
         0.00139181967825
         0.00141641648952
         0.00144106941298
         0.0014657783322
         0.00149054359645
         0.00151536532212
         0.00154024350923
         0.00156517839059
         0.00159016996622
         0.00161521858536
         0.00164032413159
         0.00166548695415
         0.00169070705306
         0.00171598454472
         0.00174131954554
         0.00176671240479
         0.00179216300603
         0.0018176715821
         0.00184323813301
         0.00186886300799
         0.00189454632346
         0.001920287963
         0.00194608839229
         0.00197194749489
         0.00199786550365
         0.00202384241857
         0.00204987870529
         0.002075974131
         0.00210212892853
         0.0021283433307
         0.00215461757034
         0.00218095164746
         0.00220734556206
         0.00223379954696
         0.002260313835
         0.002286888659
         0.00231352378614
         0.00234021968208
         0.00236697634682
         0.00239379401319
         0.00242067268118
         0.00244761258364
         0.00247461372055
         0.00250167655759
         0.00252880086191
         0.00255598686635
         0.00258323503658
         0.00261054513976
         0.00263791740872
         0.00266535207629
         0.00269284914248
         0.0027204088401
         0.00274803116918
         0.00277571659535
         0.00280346511863
         0.00283127673902
         0.00285915168934
         0.00288709020242
         0.00291509227827
         0.00294315814972
         0.00297128781676
         0.00299948151223
         0.00302773970179
         0.00305606191978
         0.00308444886468
         0.00311290030368
         0.00314141670242
         0.00316999806091
         0.00319864437915
         0.00322735588998
         0.00325613282621
         0.00328497542068
         0.0033138836734
         0.00334285758436
         0.00337189761922
         0.00340100377798
         0.00343017606065
         0.00345941493288
         0.00348872039467
         0.00351809267886
         0.00354753178544
         0.00357703771442
         0.00360661116429
         0.00363625166938
         0.00366595992818
         0.00369573570788
         0.00372557947412
         0.00375549099408
         0.00378547073342
         0.00381551869214
         0.00384563510306
         0.0038758199662
         0.0039060737472
         0.00393639644608
         0.00396678829566
         0.0039972490631
         0.00402777921408
         0.00405837921426
         0.00408904859796
         0.00411978783086
         0.00415059737861
         0.00418147677556
         0.00421242648736
         0.00424344697967
         0.00427453778684
         0.00430569937453
         0.00433693220839
         0.00436823582277
         0.00439961114898
         0.00443105772138
         0.00446257600561
         0.00449416600168
         0.00452582770959
         0.00455756206065
         0.00458936812356
         0.00462124682963
         0.00465319817886
         0.00468522217125
         0.00471731927246
         0.00474948948249
         0.00478173280135
         0.00481404969469
         0.00484643969685
         0.00487890420482
         0.00491144228727
         0.00494405440986
         0.00497674103826
         0.00500950170681
         0.00504233734682
         0.00507524749264
         0.00510823260993
         0.00514129316434
         0.00517442869022
         0.00520763965324
         0.00524092651904
         0.00527428882197
         0.00530772749335
         0.00534124206752
         0.00537483301014
         0.00540850078687
         0.00544224493206
         0.00547606591135
         0.00550996372476
         0.00554393930361
         0.00557799171656
         0.00561212189496
         0.00564632983878
         0.00568061554804
         0.0057149794884
         0.0057494211942
         0.00578394206241
         0.00581854116172
         0.00585321895778
         0.00588797591627
         0.00592281203717
         0.00595772732049
         0.00599272223189
         0.00602779723704
         0.0060629514046
         0.00609818613157
         0.00613350095227
         0.00616889586672
         0.00620437180623
         0.00623992830515
         0.00627556629479
         0.00631128484383
         0.0063470848836
         0.00638296641409
         0.00641892990097
         0.00645497534424
         0.00649110227823
         0.00652731209993
         0.00656360434368
         0.00659997900948
         0.00663643656299
         0.0066729770042
         0.00670960079879
         0.00674630794674
         0.00678309891373
         0.00681997323409
         0.00685693183914
         0.00689397472888
         0.00693110143766
         0.00696831336245
         0.00700560957193
         0.00704299099743
         0.00708045717329
         0.00711800903082
         0.00715564610437
         0.00719336932525
         0.00723117822781
         0.00726907327771
         0.00730705447495
         0.00734512228519
         0.00738327670842
         0.00742151821032
         0.00745984679088
         0.0074982624501
         0.00753676565364
         0.0075753564015
         0.00761403515935
         0.00765280192718
         0.00769165717065
         0.00773060088977
         0.00776963308454
         0.00780875468627
         0.00784796476364
         0.00788726471364
         0.00792665313929
         0.00796613283455
         0.00800570100546
         0.00804535951465
         0.00808510929346
         0.00812494847924
         0.00816487893462
         0.00820490065962
         0.00824501272291
         0.00828521698713
         0.00832551252097
         0.00836589932442
         0.0084063783288
         0.00844694953412
         0.00848761387169
         0.00852836947888
         0.00856921914965
         0.00861016102135
         0.00865119695663
         0.00869232509285
         0.00873354822397
         0.00877486448735
         0.00881627481431
         0.00885777920485
         0.00889937859029
         0.00894107297063
         0.00898286141455
         0.0090247457847
         0.00906672514975
         0.00910880044103
         0.00915097165853
         0.00919323880225
         0.00923560187221
         0.00927806179971
         0.00932061765343
         0.00936327129602
         0.00940602179617
         0.00944887008518
         0.00949181523174
         0.00953485816717
         0.0095779998228
         0.00962123926729
         0.00966457650065
         0.00970801338553
         0.00975154899061
         0.0097951842472
         0.00983891822398
         0.00988275185227
         0.00992668513209
         0.00997071899474
         0.0100148525089
         0.0100590866059
         0.0101034222171
         0.0101478574798
         0.0101923951879
         0.0102370334789
         0.0102817742154
         0.010326616466
         0.0103715602309
         0.0104166073725
         0.0104617569596
         0.0105070089921
         0.0105523634702
         0.0105978222564
         0.0106433844194
         0.0106890499592
         0.0107348198071
         0.0107806939632
         0.0108266724274
         0.0108727551997
         0.0109189432114
         0.0109652364627
         0.0110116349533
         0.0110581396148
         0.0111047495157
         0.0111514665186
         0.0111982887611
         0.0112452181056
         0.0112922545522
         0.011339398101
         0.0113866487518
         0.011434007436
         0.0114814732224
         0.0115290479735
         0.011576730758
         0.0116245215759
         0.0116724213585
         0.0117204310372
         0.0117685496807
         0.0118167772889
         0.0118651157245
         0.0119135631248
         0.0119621213526
         0.0120107904077
         0.0120595702901
         0.012108461
         0.0121574634686
         0.0122065767646
         0.0122558027506
         0.0123051404953
         0.01235459093
         0.0124041531235
         0.0124538289383
         0.0125036174431
         0.0125535195693
         0.0126035353169
         0.0126536646858
         0.0127039086074
         0.0127542670816
         0.0128047401085
         0.0128553276882
         0.0129060307518
         0.0129568492994
         0.013007783331
         0.0130588337779
         0.0131099997088
         0.0131612829864
         0.0132126826793
         0.0132641997188
         0.013315834105
         0.0133675858378
         0.0134194549173
         0.0134714432061
         0.0135235488415
         0.0135757736862
         0.0136281177402
         0.0136805810034
         0.013733163476
         0.0137858651578
         0.0138386869803
         0.0138916298747
         0.0139446929097
         0.0139978770167
         0.0140511821955
         0.0141046084464
         0.0141581557691
         0.0142118260264
         0.014265618287
         0.0143195334822
         0.0143735706806
         0.0144277308136
         0.0144820148125
         0.0145364226773
         0.014590954408
         0.0146456100047
         0.0147003894672
         0.0147552946582
         0.0148103246465
         0.014865479432
         0.0149207608774
         0.01497616712
         0.0150317000225
         0.0150873595849
         0.0151431458071
         0.0151990586892
         0.0152550991625
         0.0153112672269
         0.0153675638139
         0.0154239879921
         0.0154805406928
         0.015537221916
         0.0155940325931
         0.015650972724
         0.0157080423087
         0.0157652422786
         0.015822570771
         0.0158800315112
         0.0159376226366
         0.0159953460097
         0.0160531997681
         0.0161111857742
         0.0161693021655
         0.0162275526673
         0.0162859354168
         0.0163444522768
         0.016403099522
         0.0164618827403
         0.016520800069
         0.0165798496455
         0.0166390351951
         0.0166983548552
         0.0167578086257
         0.016817400232
         0.0168771259487
         0.0169369876385
         0.0169969853014
         0.0170571208
         0.0171173922718
         0.0171778015792
         0.0172383487225
         0.0172990337014
         0.0173598565161
         0.0174208171666
         0.0174819175154
         0.0175431575626
         0.0176045354456
         0.0176660548896
         0.0177277121693
         0.0177895128727
         0.0178514514118
         0.0179135333747
         0.0179757550359
         0.0180381182581
         0.018100624904
         0.018163273111
         0.0182260647416
         0.0182889979333
         0.0183520745486
         0.0184152964503
         0.0184786617756
         0.0185421705246
         0.0186058245599
         0.0186696238816
         0.0187335666269
         0.0187976565212
         0.0188618935645
         0.0189262740314
         0.01899080351
         0.0190554782748
         0.0191203020513
         0.0191852729768
         0.0192503910512
         0.0193156581372
         0.0193810723722
         0.0194466374815
         0.0195123497397
         0.0195782128721
         0.0196442268789
         0.0197103898972
         0.0197767056525
         0.0198431704193
         0.0199097860605
         0.0199765544385
         0.0200434755534
         0.0201105494052
         0.0201777741313
         0.0202451534569
         0.0203126855195
         0.0203803703189
         0.0204482115805
         0.020516205579
         0.0205843541771
         0.0206526592374
         0.0207211188972
         0.0207897350192
         0.0208585076034
         0.0209274366498
         0.0209965221584
         0.0210657659918
         0.0211351662874
         0.0212047249079
         0.0212744437158
         0.0213443189859
         0.0214143544436
         0.0214845500886
         0.0215549040586
         0.021625418216
         0.0216960944235
         0.0217669308186
         0.0218379274011
         0.0219090878963
         0.0219804085791
         0.0220518931746
         0.0221235398203
         0.0221953485161
         0.0222673229873
         0.0223394595087
         0.0224117618054
         0.0224842280149
         0.0225568581372
         0.0226296558976
         0.0227026175708
         0.022775746882
         0.0228490419686
         0.0229225028306
         0.0229961331934
         0.0230699293315
         0.0231438949704
         0.0232180282474
         0.023292331025
         0.0233668014407
         0.0234414432198
         0.0235162544996
         0.02359123528
         0.0236663874239
         0.0237417109311
         0.0238172058016
         0.0238928738981
         0.023968713358
         0.0240447241813
         0.0241209100932
         0.0241972673684
         0.0242737997323
         0.0243505071849
         0.0244273878634
         0.0245044454932
         0.024581676349
         0.0246590841562
         0.0247366689146
         0.0248144287616
         0.0248923674226
         0.0249704830348
         0.0250487755984
         0.0251272469759
         0.0252058971673
         0.0252847261727
         0.0253637358546
         0.0254429243505
         0.025522293523
         0.025601843372
         0.0256815757602
         0.0257614869624
         0.0258415825665
         0.0259218588471
         0.0260023195297
         0.0260829627514
         0.0261637885123
         0.0262447986752
         0.0263259951025
         0.0264073759317
         0.0264889411628
         0.0265706926584
         0.0266526285559
         0.0267347525805
         0.0268170647323
         0.0268995631486
         0.0269822496921
         0.0270651243627
         0.0271481871605
         0.0272314399481
         0.0273148827255
         0.02739851363
         0.027482336387
         0.0275663509965
         0.0276505555958
         0.0277349520475
         0.0278195403516
         0.0279043223709
         0.0279892962426
         0.028074465692
         0.0281598269939
         0.0282453838736
         0.0283311344683
         0.0284170806408
         0.0285032242537
         0.0285895615816
         0.0286760982126
         0.0287628304213
         0.0288497600704
         0.0289368871599
         0.0290242135525
         0.0291117373854
         0.029199462384
         0.0292873866856
         0.0293755102903
         0.0294638350606
         0.0295523609966
         0.0296410899609
         0.0297300182283
         0.0298191513866
         0.0299084857106
         0.0299980249256
         0.0300877671689
         0.0301777143031
         0.0302678663284
         0.0303582232445
         0.0304487869143
         0.0305395554751
         0.0306305307895
         0.0307217147201
         0.0308131054044
         0.0309047047049
         0.030996510759
