aces_1.0.0/luts/V3 LogC_500_to_linear.spi1d
Version 1
From 0.000000 1.000000
Length 4096
Components 1
{
         -0.0168537572026
         -0.00547468429431
         -0.00546248722821
         -0.0054502626881
         -0.00543801113963
         -0.00542573258281
         -0.00541342701763
         -0.00540109397843
         -0.00538873299956
         -0.00537634501234
         -0.00536392955109
         -0.00535148661584
         -0.00533901620656
         -0.00532651785761
         -0.00531399156898
         -0.00530143780634
         -0.00528885563836
         -0.00527624599636
         -0.00526360841468
         -0.00525094289333
         -0.00523824896663
         -0.0052255266346
         -0.0052127763629
         -0.00519999768585
         -0.00518719106913
         -0.0051743555814
         -0.00516149168834
         -0.00514859892428
         -0.00513567822054
         -0.00512272818014
         -0.0051097497344
         -0.00509674241766
         -0.00508370622993
         -0.00507064117119
         -0.00505754677579
         -0.00504442350939
         -0.00503127137199
         -0.00501808989793
         -0.00500487908721
         -0.00499163893983
         -0.00497836945578
         -0.00496507016942
         -0.00495174201205
         -0.0049383835867
         -0.00492499582469
         -0.00491157872602
         -0.00489813135937
         -0.00488465419039
         -0.00487114721909
         -0.00485760997981
         -0.0048440429382
         -0.00483044609427
         -0.0048168185167
         -0.00480316113681
         -0.00478947302327
         -0.00477575464174
         -0.00476200599223
         -0.00474822660908
         -0.00473441649228
         -0.0047205761075
         -0.00470670498908
         -0.00469280267134
         -0.00467886961997
         -0.00466490583494
         -0.00465091131628
         -0.00463688513264
         -0.00462282821536
         -0.00460873963311
         -0.00459462031722
         -0.00458046933636
         -0.00456628715619
         -0.00455207331106
         -0.00453782780096
         -0.00452355109155
         -0.00450924225152
         -0.00449490174651
         -0.00448052957654
         -0.00446612527594
         -0.00445168931037
         -0.00443722121418
         -0.00442272098735
         -0.00440818816423
         -0.00439362367615
         -0.00437902659178
         -0.00436439691111
         -0.00434973509982
         -0.00433504022658
         -0.00432031322271
         -0.00430555362254
         -0.00429076096043
         -0.00427593523636
         -0.00426107691601
         -0.0042461855337
         -0.00423126108944
         -0.00421630358323
         -0.00420131301507
         -0.0041862889193
         -0.00417123129591
         -0.00415614061058
         -0.00414101639763
         -0.00412585865706
         -0.00411066692322
         -0.00409544166178
         -0.00408018287271
         -0.00406488962471
         -0.0040495628491
         -0.00403420208022
         -0.0040188068524
         -0.00400337763131
         -0.00398791441694
         -0.00397241674364
         -0.0039568846114
         -0.00394131755456
         -0.00392571650445
         -0.00391008052975
         -0.00389441009611
         -0.00387870473787
         -0.00386296468787
         -0.00384718948044
         -0.00383137934841
         -0.00381553405896
         -0.00379965361208
         -0.00378373800777
         -0.00376778678037
         -0.00375180039555
         -0.00373577838764
         -0.00371972098947
         -0.00370362796821
         -0.00368749909103
         -0.00367133435793
         -0.00365513376892
         -0.00363889732398
         -0.00362262455747
         -0.00360631593503
         -0.00358997099102
         -0.00357358995825
         -0.00355717237107
         -0.00354071822949
         -0.00352422776632
         -0.00350770074874
         -0.00349113694392
         -0.00347453635186
         -0.00345789873973
         -0.00344122434035
         -0.0034245129209
         -0.00340776448138
         -0.00339097878896
         -0.00337415584363
         -0.0033572956454
         -0.00334039796144
         -0.00332346255891
         -0.00330648990348
         -0.00328947929665
         -0.00327243097126
         -0.00325534492731
         -0.00323822093196
         -0.00322105875239
         -0.00320385862142
         -0.00318662030622
         -0.0031693438068
         -0.0031520286575
         -0.00313467532396
         -0.00311728334054
         -0.00309985294007
         -0.00308238365687
         -0.00306487572379
         -0.00304732867517
         -0.00302974297665
         -0.00301211816259
         -0.00299445400015
         -0.00297675095499
         -0.00295900832862
         -0.00294122635387
         -0.00292340503074
         -0.00290554412641
         -0.00288764340803
         -0.00286970310844
         -0.00285172299482
         -0.00283370306715
         -0.00281564285979
         -0.00279754260555
         -0.00277940230444
         -0.00276122172363
         -0.00274300063029
         -0.00272473925725
         -0.00270643737167
         -0.00268809474073
         -0.00266971136443
         -0.00265128724277
         -0.00263282214291
         -0.0026143162977
         -0.00259576900862
         -0.00257718074135
         -0.00255855126306
         -0.00253988034092
         -0.00252116797492
         -0.00250241416506
         -0.00248361867853
         -0.00246478128247
         -0.00244590220973
         -0.00242698122747
         -0.0024080183357
         -0.00238901330158
         -0.00236996589229
         -0.00235087634064
         -0.00233174441382
         -0.00231257011183
         -0.00229335296899
         -0.00227409345098
         -0.00225479109213
         -0.00223544565961
         -0.00221605761908
         -0.00219662627205
         -0.00217715208419
         -0.00215763435699
         -0.00213807355613
         -0.0021184689831
         -0.0020988213364
         -0.00207912968472
         -0.0020593944937
         -0.00203961553052
         -0.00201979256235
         -0.00199992558919
         -0.00198001461104
         -0.00196005939506
         -0.00194005982485
         -0.0019200159004
         -0.00189992750529
         -0.0018797944067
         -0.00185961672105
         -0.00183939421549
         -0.00181912677363
         -0.00179881439544
         -0.00177845684811
         -0.00175805413164
         -0.00173760612961
         -0.00171711284202
         -0.00169657391962
         -0.00167598947883
         -0.00165535928681
         -0.00163468334358
         -0.0016139614163
         -0.00159319362137
         -0.00157237960957
         -0.0015515194973
         -0.00153061293531
         -0.00150966004003
         -0.00148866069503
         -0.00146761466749
         -0.00144652184099
         -0.00142538233195
         -0.00140419579111
         -0.00138296221849
         -0.00136168161407
         -0.00134035362862
         -0.00131897837855
         -0.00129755563103
         -0.00127608538605
         -0.0012545674108
         -0.00123300170526
         -0.00121138815302
         -0.00118972652126
         -0.00116801692639
         -0.00114625901915
         -0.00112445291597
         -0.00110259838402
         -0.00108069530688
         -0.00105874356814
         -0.00103674316779
         -0.001014693873
         -0.000992595683783
         -0.000970448367298
         -0.000948251923546
         -0.000926006177906
         -0.000903711072169
         -0.000881366489921
         -0.000858972256538
         -0.00083652837202
         -0.000814034603536
         -0.000791490951087
         -0.00076889724005
         -0.000746253354009
         -0.000723559176549
         -0.000700814649463
         -0.000678019598126
         -0.000655173964333
         -0.000632277631667
         -0.000609330483712
         -0.000586332345847
         -0.000563283159863
         -0.000540182867553
         -0.000517031236086
         -0.000493828207254
         -0.000470573664643
         -0.00044726752094
         -0.000423909630626
         -0.000400499877287
         -0.00037703817361
         -0.000353524374077
         -0.000329958362272
         -0.000306340050884
         -0.000282669294393
         -0.000258946005488
         -0.000235170053202
         -0.000211341306567
         -0.000187459663721
         -0.000163525008247
         -0.000139537223731
         -0.000115496171929
         -9.14017582545e-05
         -6.72538590152e-05
         -4.30523432442e-05
         -1.87971072592e-05
         5.51197581444e-06
         2.98750237562e-05
         5.42921588931e-05
         7.87634999142e-05
         0.000103289159597
         0.000127869279822
         0.000152503955178
         0.000177193316631
         0.000201937495149
         0.000226736607146
         0.000251590769039
         0.000276500097243
         0.000301464722725
         0.000326484791003
         0.00035156038939
         0.000376691663405
         0.000401878700359
         0.000427121674875
         0.000452420703368
         0.000477775873151
         0.000503187300637
         0.000528655189555
         0.000554179598112
         0.00057976070093
         0.000605398556218
         0.000631093338598
         0.000656845164485
         0.000682654150296
         0.000708520412445
         0.000734444125555
         0.000760425406042
         0.000786464312114
         0.0008125610766
         0.000838715699501
         0.000864928471856
         0.000891199393664
         0.000917528639548
         0.000943916325923
         0.000970362627413
         0.000996867544018
         0.00102343142498
         0.0010500542121
         0.0010767361382
         0.00110347720329
         0.0011302777566
         0.00115713779815
         0.00118405732792
         0.00121103681158
         0.00123807601631
         0.00126517529134
         0.00129233475309
         0.00131955451798
         0.00134683470242
         0.00137417553924
         0.00140157691203
         0.00142903917003
         0.00145656242967
         0.00148414680734
         0.00151179230306
         0.00153949926607
         0.00156726769637
         0.00159509782679
         0.00162298977375
         0.00165094353724
         0.0016789593501
         0.00170703744516
         0.00173517782241
         0.00176338071469
         0.001791646122
         0.00181997439358
         0.00184836541303
         0.00187681952957
         0.00190533685964
         0.00193391751964
         0.00196256162599
         0.00199126917869
         0.00202004052699
         0.00204887567088
         0.00207777507603
         0.00210673850961
         0.00213576620445
         0.00216485839337
         0.00219401507638
         0.00222323648632
         0.002252522856
         0.00228187418543
         0.00231129070744
         0.00234077242203
         0.00237031979486
         0.00239993259311
         0.00242961128242
         0.00245935562998
         0.00248916610144
         0.00251904292963
         0.00254898588173
         0.00257899542339
         0.00260907155462
         0.0026392142754
         0.00266942405142
         0.00269970088266
         0.00273004500195
         0.00276045640931
         0.00279093533754
         0.0028214820195
         0.00285209645517
         0.00288277887739
         0.00291352928616
         0.00294434814714
         0.0029752352275
         0.00300619099289
         0.00303721544333
         0.00306830881163
         0.00309947109781
         0.00313070276752
         0.00316200358793
         0.0031933740247
         0.00322481384501
         0.00325632374734
         0.00328790349886
         0.0033195533324
         0.0033512734808
         0.00338306394406
         0.00341492518783
         0.00344685697928
         0.00347885978408
         0.0035109333694
         0.00354307843372
         0.00357529474422
         0.00360758253373
         0.00363994226791
         0.00367237348109
         0.00370487687178
         0.00373745243996
         0.00377010018565
         0.00380282057449
         0.0038356136065
         0.00386847928166
         0.00390141806565
         0.00393442995846
         0.00396751519293
         0.00400067353621
         0.00403390591964
         0.00406721187755
         0.00410059140995
         0.00413404544815
         0.00416757399216
         0.00420117657632
         0.00423485413194
         0.0042686057277
         0.0043024327606
         0.00433633523062
         0.00437031220645
         0.00440436508507
         0.00443849340081
         0.00447269761935
         0.00450697774068
         0.00454133376479
         0.00457576615736
         0.00461027538404
         0.00464486051351
         0.00467952294275
         0.00471426220611
         0.00474907830358
         0.00478397216648
         0.00481894332916
         0.00485399179161
         0.00488911848515
         0.00492432294413
         0.00495960563421
         0.00499496655539
         0.00503040617332
         0.00506592402235
         0.00510152103379
         0.00513719720766
         0.00517295254394
         0.00520878704265
         0.00524470116943
         0.00528069538996
         0.0053167687729
         0.00535292271525
         0.005389157217
         0.00542547134683
         0.00546186696738
         0.00549834268168
         0.0055348998867
         0.00557153765112
         0.00560825737193
         0.00564505811781
         0.00568194082007
         0.00571890547872
         0.00575595209375
         0.00579308113083
         0.0058302921243
         0.00586758600548
         0.00590496277437
         0.00594242243096
         0.00597996544093
         0.0060175913386
         0.00605530105531
         0.00609309459105
         0.00613097194582
         0.00616893311962
         0.00620697904378
         0.00624510878697
         0.00628332374617
         0.00632162345573
         0.00636000791565
         0.00639847759157
         0.00643703294918
         0.00647567398846
         0.00651440024376
         0.00655321311206
         0.00659211166203
         0.006631096825
         0.00667016860098
         0.00670932698995
         0.00674857245758
         0.00678790453821
         0.00682732462883
         0.00686683179811
         0.0069064265117
         0.00694610970095
         0.00698588043451
         0.00702573964372
         0.00706568732858
         0.00710572395474
         0.00714584905654
         0.00718606356531
         0.00722636748105
         0.0072667603381
         0.00730724306777
         0.00734781567007
         0.00738847861066
         0.00742923142388
         0.00747007504106
         0.00751100946218
         0.00755203422159
         0.00759315025061
         0.00763435754925
         0.00767565658316
         0.00771704735234
         0.00775852939114
         0.00780010409653
         0.0078417705372
         0.00788353011012
         0.00792538188398
         0.00796732679009
         0.00800936482847
         0.00805149693042
         0.00809372123331
         0.00813603959978
         0.00817845296115
         0.00822095945477
         0.00826356001198
         0.00830625649542
         0.00834904611111
         0.00839193165302
         0.00843491312116
         0.00847798865288
         0.00852116011083
         0.008564427495
         0.00860779173672
         0.00865125097334
         0.00869480799884
         0.00873846095055
         0.00878221075982
         0.00882605742663
         0.00887000188231
         0.00891404412687
         0.00895818416029
         0.00900242105126
         0.00904675759375
         0.00909119192511
         0.00913572497666
         0.0091803567484
         0.00922508724034
         0.00926991738379
         0.00931484717876
         0.00935987662524
         0.00940500665456
         0.0094502363354
         0.00949556566775
         0.00954099651426
         0.00958652794361
         0.00963216088712
         0.00967789441347
         0.0097237303853
         0.0097696678713
         0.00981570687145
         0.00986184831709
         0.00990809220821
         0.00995443854481
         0.0100008873269
         0.0100474404171
         0.0100940959528
         0.0101408557966
         0.0101877190173
         0.0102346856147
         0.0102817574516
         0.0103289335966
         0.0103762140498
         0.0104235997424
         0.0104710906744
         0.0105186868459
         0.0105663891882
         0.0106141967699
         0.0106621105224
         0.010710131377
         0.0107582584023
         0.0108064915985
         0.010854832828
         0.0109032811597
         0.0109518365934
         0.0110005000606
         0.0110492724925
         0.0110981520265
         0.0111471405253
         0.0111962370574
         0.0112454434857
         0.0112947588786
         0.0113441841677
         0.0113937184215
         0.0114433625713
         0.0114931175485
         0.0115429824218
         0.0115929590538
         0.0116430455819
         0.0116932438686
         0.0117435529828
         0.0117939738557
         0.0118445074186
         0.0118951527402
         0.0119459098205
         0.0119967805222
         0.0120477639139
         0.0120988599956
         0.01215007063
         0.0122013939545
         0.0122528309003
         0.01230438333
         0.0123560493812
         0.012407829985
         0.0124597260728
         0.0125117367133
         0.0125638637692
         0.0126161053777
         0.0126684634015
         0.0127209378406
         0.0127735286951
         0.0128262368962
         0.0128790615126
         0.0129320034757
         0.0129850627854
         0.0130382403731
         0.0130915353075
         0.0131449494511
         0.0131984809414
         0.0132521325722
         0.0133059024811
         0.0133597915992
         0.013413800858
         0.0134679302573
         0.0135221797973
         0.0135765485466
         0.0136310392991
         0.0136856511235
         0.0137403830886
         0.0137952370569
         0.0138502130285
         0.0139053110033
         0.0139605309814
         0.0140158738941
         0.0140713397413
         0.0141269285232
         0.0141826402396
         0.0142384758219
         0.0142944362015
         0.0143505204469
         0.0144067285582
         0.0144630623981
         0.0145195201039
         0.0145761044696
         0.0146328136325
         0.0146896485239
         0.0147466100752
         0.0148036973551
         0.0148609122261
         0.0149182537571
         0.0149757228792
         0.0150333195925
         0.015091043897
         0.0151488957927
         0.0152068771422
         0.0152649870142
         0.0153232254088
         0.0153815932572
         0.0154400905594
         0.0154987182468
         0.0155574753881
         0.0156163638458
         0.0156753826886
         0.0157345309854
         0.0157938133925
         0.0158532261848
         0.0159127693623
         0.0159724466503
         0.016032256186
         0.0160921979696
         0.0161522720009
         0.0162124801427
         0.016272822395
         0.0163332987577
         0.0163939092308
         0.0164546538144
         0.0165155343711
         0.0165765490383
         0.0166376996785
         0.0166989844292
         0.0167604070157
         0.0168219655752
         0.0168836601079
         0.0169454924762
         0.0170074608177
         0.0170695688576
         0.0171318128705
         0.0171941965818
         0.0172567181289
         0.0173193775117
         0.0173821765929
         0.0174451153725
         0.0175081938505
         0.0175714120269
         0.0176347717643
         0.0176982712001
         0.0177619121969
         0.0178256928921
         0.017889617011
         0.0179536808282
         0.0180178899318
         0.0180822387338
         0.0181467328221
         0.0182113684714
         0.0182761475444
         0.0183410700411
         0.0184061378241
         0.0184713508934
         0.0185367073864
         0.0186022091657
         0.0186678562313
         0.0187336485833
         0.0187995880842
         0.0188656728715
         0.0189319048077
         0.0189982838929
         0.019064810127
         0.0191314835101
         0.0191983059049
         0.0192652773112
         0.0193323958665
         0.0193996634334
         0.0194670818746
         0.0195346493274
         0.0196023657918
         0.0196702331305
         0.0197382513434
         0.0198064204305
         0.019874740392
         0.0199432130903
         0.0200118366629
         0.020080614835
         0.0201495438814
         0.0202186256647
         0.0202878601849
         0.0203572493047
         0.0204267930239
         0.0204964913428
         0.0205663442612
         0.0206363517791
         0.0207065138966
         0.0207768324763
         0.0208473075181
         0.0209179390222
         0.0209887269884
         0.0210596714169
         0.0211307741702
         0.0212020352483
         0.0212734527886
         0.0213450305164
         0.021416766569
         0.0214886628091
         0.0215607173741
         0.0216329321265
         0.0217053070664
         0.0217778440565
         0.021850541234
         0.021923398599
         0.0219964180142
         0.0220696013421
         0.0221429448575
         0.0222164522856
         0.0222901236266
         0.0223639588803
         0.0224379561841
         0.0225121192634
         0.0225864462554
         0.0226609371603
         0.0227355957031
         0.0228104181588
         0.0228854082525
         0.022960562259
         0.0230358857661
         0.0231113750488
         0.0231870319694
         0.0232628583908
         0.0233388524503
         0.0234150141478
         0.023491345346
         0.0235678460449
         0.0236445181072
         0.0237213578075
         0.0237983688712
         0.0238755512983
         0.0239529050887
         0.0240304321051
         0.0241081286222
         0.0241859983653
         0.0242640413344
         0.0243422593921
         0.0244206488132
         0.0244992114604
         0.0245779510587
         0.0246568638831
         0.0247359517962
         0.0248152166605
         0.0248946566135
         0.0249742716551
         0.0250540655106
         0.0251340344548
         0.0252141822129
         0.025294508785
         0.0253750123084
         0.0254556946456
         0.0255365557969
         0.0256175976247
         0.0256988182664
         0.0257802195847
         0.0258618015796
         0.0259435661137
         0.0260255094618
         0.0261076372117
         0.0261899456382
         0.0262724366039
         0.0263551119715
         0.0264379698783
         0.026521012187
         0.0266042388976
         0.02668765001
         0.0267712473869
         0.0268550291657
         0.0269389972091
         0.0270231515169
         0.0271074939519
         0.0271920226514
         0.0272767394781
         0.0273616425693
         0.0274467356503
         0.0275320168585
         0.0276174880564
         0.0277031492442
         0.0277890004218
         0.0278750415891
         0.027961274609
         0.0280476976186
         0.0281343143433
         0.0282211229205
         0.0283081233501
         0.0283953174949
         0.0284827053547
         0.0285702869296
         0.0286580622196
         0.0287460330874
         0.0288341995329
         0.0289225615561
         0.0290111191571
         0.0290998741984
         0.0291888248175
         0.0292779747397
         0.0293673221022
         0.0294568669051
         0.029546611011
         0.02963655442
         0.029726697132
         0.0298170410097
         0.0299075841904
         0.0299983285367
         0.0300892759115
         0.0301804244518
         0.0302717741579
         0.0303633268923
         0.0304550845176
         0.0305470433086
         0.0306392088532
         0.0307315774262
         0.0308241508901
         0.0309169311076
         0.0310099162161
         0.0311031080782
         0.031196506694
