aces_1.0.0/luts/V3 LogC_3200_to_linear.spi1d
Version 1
From 0.000000 1.000000
Length 4096
Components 1
{
         -0.0187212731689
         -0.000705013982952
         -0.000696177594364
         -0.000687319377903
         -0.000678439391777
         -0.000669537461363
         -0.000660613644868
         -0.00065166776767
         -0.000642699887976
         -0.000633709831163
         -0.000624697655439
         -0.000615663302597
         -0.000606606598012
         -0.000597527599894
         -0.000588426250033
         -0.000579302432016
         -0.000570156145841
         -0.000560987275094
         -0.000551795819774
         -0.000542581721675
         -0.00053334486438
         -0.000524085306097
         -0.000514802872203
         -0.000505497562699
         -0.000496169319376
         -0.000486818084028
         -0.000477443769341
         -0.000468046375317
         -0.000458625785541
         -0.000449182000011
         -0.000439714931417
         -0.000430224521551
         -0.000420710712206
         -0.000411173445173
         -0.000401612662245
         -0.000392028305214
         -0.000382420344977
         -0.000372788694222
         -0.000363133294741
         -0.000353454088327
         -0.000343751016771
         -0.000334024021868
         -0.000324273074511
         -0.000314498058287
         -0.000304698973196
         -0.000294875702821
         -0.000285028247163
         -0.000275156489806
         -0.000265260401648
         -0.000255339924479
         -0.000245394970989
         -0.000235425526625
         -0.000225431504077
         -0.000215412830585
         -0.000205369462492
         -0.000195301341591
         -0.000185208395123
         -0.000175090579432
         -0.000164947807207
         -0.000154780034791
         -0.000144587189425
         -0.000134369227453
         -0.000124126076116
         -0.00011385766993
         -0.000103563950688
         -9.32448529056e-05
         -8.29003183753e-05
         -7.25302816136e-05
         -6.21346844127e-05
         -5.17134540132e-05
         -4.12665358454e-05
         -3.07938644255e-05
         -2.02953742701e-05
         -9.77100444288e-06
         7.79310823873e-07
         1.13556343422e-05
         2.19580306293e-05
         3.25865657942e-05
         4.32412998634e-05
         5.39223001397e-05
         6.46296321065e-05
         7.53633648856e-05
         8.61235530465e-05
         9.69102620729e-05
         0.000107723572
         0.000118563533761
         0.000129430220113
         0.000140323696542
         0.000151244021254
         0.000162191281561
         0.000173165506567
         0.000184166798135
         0.000195195214474
         0.00020625081379
         0.000217333668843
         0.000228443837841
         0.000239581408096
         0.000250746437814
         0.000261938985204
         0.000273159093922
         0.000284406909486
         0.000295682431897
         0.000306985748466
         0.000318316946505
         0.000329676055117
         0.000341063161613
         0.00035247838241
         0.000363921717508
         0.000375393254217
         0.000386893079849
         0.000398421252612
         0.000409977830714
         0.000421562930569
         0.000433176552178
         0.000444818841061
         0.000456489797216
         0.000468189566163
         0.000479918147903
         0.000491675629746
         0.000503462099005
         0.000515277672093
         0.000527122349013
         0.00053899618797
         0.000550899363589
         0.00056283181766
         0.000574793724809
         0.000586785085034
         0.000598806072958
         0.000610856630374
         0.000622936931904
         0.00063504697755
         0.000647186941933
         0.000659356766846
         0.000671556626912
         0.000683786580339
         0.000696046627127
         0.000708336941898
         0.000720657524653
         0.000733008491807
         0.000745389959775
         0.00075780187035
         0.000770244398154
         0.000782717601396
         0.000795221596491
         0.000807756383438
         0.000820322078653
         0.000832918740343
         0.000845546426717
         0.000858205312397
         0.000870895339176
         0.000883616681676
         0.000896369398106
         0.000909153546672
         0.000921969185583
         0.000934816431254
         0.000947695341893
         0.000960606033914
         0.000973548507318
         0.00098652287852
         0.000999529263936
         0.00101256777998
         0.00102563831024
         0.00103874120396
         0.0010518762283
         0.00106504373252
         0.00107824371662
         0.00109147618059
         0.00110474135727
         0.00111803913023
         0.00113136973232
         0.00114473316353
         0.00115812965669
         0.00117155909538
         0.00118502159603
         0.00119851727504
         0.00121204624884
         0.00122560863383
         0.00123920443002
         0.00125283375382
         0.00126649660524
         0.0012801932171
         0.0012939235894
         0.00130768772215
         0.00132148584817
         0.00133531796746
         0.00134918419644
         0.00136308465153
         0.00137701933272
         0.00139098835643
         0.00140499183908
         0.00141902989708
         0.00143310241401
         0.00144720973913
         0.00146135187242
         0.0014755288139
         0.00148974067997
         0.00150398758706
         0.00151826965157
         0.00153258687351
         0.00154693936929
         0.00156132737175
         0.00157575076446
         0.00159020966385
         0.00160470430274
         0.00161923456471
         0.00163380079903
         0.00164840277284
         0.00166304083541
         0.00167771498673
         0.00169242534321
         0.00170717190485
         0.0017219549045
         0.00173677422572
         0.00175163010135
         0.00176652264781
         0.0017814518651
         0.00179641798604
         0.00181142089423
         0.00182646082249
         0.00184153788723
         0.00185665197205
         0.00187180342618
         0.00188699224964
         0.00190221844241
         0.00191748223733
         0.0019327836344
         0.00194812275004
         0.00196349970065
         0.00197891448624
         0.00199436722323
         0.00200985814445
         0.00202538748272
         0.00204095477238
         0.0020565604791
         0.00207220483571
         0.00208788760938
         0.00210360903293
         0.0021193693392
         0.00213516829535
         0.00215100636706
         0.00216688355431
         0.00218279962428
         0.00219875527546
         0.00221475004219
         0.00223078415729
         0.00224685785361
         0.00226297136396
         0.00227912445553
         0.00229531736113
         0.00231155008078
         0.00232782308012
         0.00234413589351
         0.00236048921943
         0.00237688259222
         0.00239331647754
         0.00240979087539
         0.00242630601861
         0.00244286167435
         0.00245945830829
         0.0024760956876
         0.00249277427793
         0.00250949384645
         0.00252625462599
         0.00254305684939
         0.00255990051664
         0.00257678539492
         0.00259371218272
         0.00261068064719
         0.00262769102119
         0.00264474307187
         0.0026618372649
         0.0026789738331
         0.00269615231082
         0.00271337339655
         0.00273063685745
         0.00274794269353
         0.00276529137045
         0.00278268288821
         0.00280011701398
         0.00281759444624
         0.00283511471935
         0.00285267829895
         0.00287028518505
         0.00288793537766
         0.00290562910959
         0.00292336661369
         0.00294114765711
         0.0029589724727
         0.00297684152611
         0.00299475435168
         0.00301271141507
         0.00303071271628
         0.00304875848815
         0.00306684873067
         0.00308498367667
         0.00310316309333
         0.0031213874463
         0.00313965673558
         0.00315797096118
         0.00317633035593
         0.00319473515265
         0.00321318535134
         0.00323168071918
         0.00325022195466
         0.00326880882494
         0.00328744156286
         0.00330612016842
         0.00332484487444
         0.00334361568093
         0.00336243282072
         0.00338129629381
         0.00340020633303
         0.00341916293837
         0.00343816634268
         0.00345721631311
         0.00347631354816
         0.00349545781501
         0.00351464934647
         0.00353388790973
         0.00355317420326
         0.00357250776142
         0.00359188928269
         0.00361131830141
         0.00363079551607
         0.00365032046102
         0.00366989360191
         0.00368951517157
         0.00370918493718
         0.00372890336439
         0.00374867022038
         0.00376848573796
         0.00378835038282
         0.00380826368928
         0.00382822635584
         0.00384823814966
         0.00386829930358
         0.00388840981759
         0.00390856992453
         0.0039287796244
         0.00394903961569
         0.00396934896708
         0.00398970860988
         0.0040101185441
         0.00403057876974
         0.0040510892868
         0.00407165056095
         0.00409226212651
         0.00411292491481
         0.00413363846019
         0.00415440322831
         0.00417521921918
         0.00419608643278
         0.00421700486913
         0.00423797499388
         0.00425899680704
         0.00428007077426
         0.00430119642988
         0.00432237423956
         0.00434360420331
         0.00436488632113
         0.00438622105867
         0.00440760841593
         0.00442904839292
         0.0044505414553
         0.0044720871374
         0.00449368637055
         0.00451533868909
         0.00453704409301
         0.00455880351365
         0.00458061601967
         0.00460248300806
         0.00462440308183
         0.00464637763798
         0.0046684066765
         0.00469048926607
         0.00471262680367
         0.00473481882364
         0.00475706579164
         0.00477936724201
         0.00480172364041
         0.00482413545251
         0.00484660221264
         0.00486912438646
         0.00489170243964
         0.00491433590651
         0.00493702478707
         0.00495977001265
         0.00498257158324
         0.00500542903319
         0.00502834282815
         0.00505131296813
         0.00507433991879
         0.00509742368013
         0.00512056425214
         0.00514376210049
         0.00516701675951
         0.00519032869488
         0.00521369837224
         0.00523712579161
         0.00526061095297
         0.00528415385634
         0.0053077545017
         0.00533141382039
         0.00535513134673
         0.00537890708074
         0.00540274148807
         0.00542663503438
         0.00545058725402
         0.00547459814698
         0.00549866864458
         0.00552279828116
         0.00554698752239
         0.00557123636827
         0.00559554528445
         0.00561991380528
         0.00564434239641
         0.00566883152351
         0.00569338072091
         0.00571799045429
         0.00574266072363
         0.0057673919946
         0.00579218426719
         0.00581703754142
         0.00584195228294
         0.00586692802608
         0.00589196570218
         0.00591706484556
         0.00594222638756
         0.00596744939685
         0.00599273480475
         0.00601808261126
         0.00604349281639
         0.00606896588579
         0.0060945013538
         0.00612009968609
         0.00614576181397
         0.00617148680612
         0.00619727512822
         0.00622312678024
         0.00624904269353
         0.00627502240241
         0.00630106590688
         0.00632717367262
         0.00635334569961
         0.00637958245352
         0.00640588393435
         0.0064322501421
         0.00645868154243
         0.00648517766967
         0.00651173945516
         0.00653836689889
         0.00656505953521
         0.00659181829542
         0.00661864271387
         0.00664553325623
         0.00667249038815
         0.00669951410964
         0.00672660395503
         0.00675376085564
         0.00678098481148
         0.00680827582255
         0.00683563388884
         0.00686305947602
         0.00689055258408
         0.00691811367869
         0.00694574275985
         0.00697343982756
         0.00700120534748
         0.00702903885394
         0.00705694174394
         0.00708491262048
         0.00711295288056
         0.00714106205851
         0.00716924061999
         0.00719748903066
         0.0072258063592
         0.0072541940026
         0.00728265149519
         0.00731117930263
         0.00733977695927
         0.00736844586208
         0.00739718461409
         0.00742599461228
         0.00745487585664
         0.00748382788152
         0.00751285161823
         0.00754194660112
         0.00757111376151
         0.00760035216808
         0.00762966321781
         0.00765904644504
         0.00768850184977
         0.00771802989766
         0.00774763105437
         0.00777730485424
         0.00780705176294
         0.00783687178046
         0.00786676630378
         0.00789673347026
         0.00792677514255
         0.00795689038932
         0.0079870801419
         0.00801734440029
         0.00804768316448
         0.0080780973658
         0.00810858607292
         0.00813914928585
         0.00816978886724
         0.00820050295442
         0.00823129341006
         0.00826215930283
         0.00829310249537
         0.00832412112504
         0.00835521612316
         0.00838638748974
         0.00841763615608
         0.0084489621222
         0.00848036445677
         0.00851184502244
         0.00854340288788
         0.0085750380531
         0.00860675238073
         0.00863854400814
         0.00867041386664
         0.00870236288756
         0.00873439013958
         0.00876649655402
         0.00879868213087
         0.00883094687015
         0.00886329170316
         0.0088957156986
         0.00892821978778
         0.00896080490202
         0.00899346917868
         0.0090262144804
         0.00905903987586
         0.00909194722772
         0.00912493467331
         0.00915800407529
         0.00919115543365
         0.00922438781708
         0.0092577021569
         0.0092910984531
         0.00932457763702
         0.00935813877732
         0.00939178280532
         0.00942550972104
         0.00945932045579
         0.00949321407825
         0.00952719058841
         0.00956125184894
         0.00959539692849
         0.00962962582707
         0.00966393947601
         0.00969833694398
         0.00973282009363
         0.00976738799363
         0.00980204064399
         0.00983677897602
         0.00987160298973
         0.00990651361644
         0.00994150899351
         0.00997659191489
         0.010011760518
         0.010047015734
         0.0100823584944
         0.0101177878678
         0.0101533047855
         0.0101889092475
         0.0102246012539
         0.0102603808045
         0.0102962497622
         0.0103322062641
         0.0103682521731
         0.0104043856263
         0.0104406094179
         0.010476921685
         0.0105133242905
         0.010549816303
         0.0105863977224
         0.0106230704114
         0.0106598325074
         0.010696685873
         0.0107336295769
         0.0107706645504
         0.0108077907935
         0.0108450083062
         0.0108823180199
         0.0109197199345
         0.01095721405
         0.0109947994351
         0.0110324788839
         0.0110702505335
         0.0111081153154
         0.0111460732296
         0.0111841252074
         0.0112222712487
         0.0112605104223
         0.0112988445908
         0.0113372728229
         0.0113757960498
         0.0114144142717
         0.0114531274885
         0.0114919357002
         0.0115308407694
         0.0115698408335
         0.0116089368239
         0.0116481296718
         0.0116874193773
         0.0117268059403
         0.0117662893608
         0.0118058696389
         0.0118455477059
         0.0118853244931
         0.0119251981378
         0.0119651705027
         0.0120052415878
         0.012045411393
         0.0120856808499
         0.0121260490268
         0.012166515924
         0.0122070834041
         0.0122477505356
         0.01228851825
         0.0123293865472
         0.0123703554273
         0.0124114258215
         0.0124525967985
         0.0124938692898
         0.0125352432951
         0.012576719746
         0.0126182986423
         0.0126599799842
         0.0127017637715
         0.0127436500043
         0.0127856405452
         0.0128277344629
         0.0128699317575
         0.0129122333601
         0.0129546383396
         0.0129971494898
         0.0130397640169
         0.0130824837834
         0.0131253097206
         0.0131682408974
         0.0132112773135
         0.0132544208318
         0.0132976695895
         0.0133410254493
         0.0133844884112
         0.0134280584753
         0.0134717356414
         0.0135155208409
         0.0135594131425
         0.0136034144089
         0.01364752464
         0.0136917429045
         0.0137360701337
         0.0137805063277
         0.0138250533491
         0.0138697093353
         0.0139144752175
         0.013959351927
         0.0140043385327
         0.014049436897
         0.0140946460888
         0.0141399661079
         0.0141853988171
         0.0142309432849
         0.0142765995115
         0.0143223684281
         0.0143682509661
         0.0144142461941
         0.0144603541121
         0.0145065765828
         0.0145529126748
         0.0145993633196
         0.0146459275857
         0.0146926073357
         0.0147394025698
         0.0147863123566
         0.0148333376274
         0.0148804793134
         0.0149277374148
         0.0149751119316
         0.0150226028636
         0.0150702111423
         0.0151179367676
         0.0151657797396
         0.0152137409896
         0.0152618205175
         0.0153100183234
         0.0153583353385
         0.015406771563
         0.0154553260654
         0.0155040016398
         0.0155527964234
         0.0156017113477
         0.0156507473439
         0.015699904412
         0.0157491825521
         0.0157985817641
         0.015848102048
         0.0158977452666
         0.0159475114197
         0.0159974005073
         0.0160474106669
         0.0160975456238
         0.0161478035152
         0.0161981862038
         0.0162486918271
         0.0162993222475
         0.0163500793278
         0.0164009593427
         0.0164519660175
         0.0165030974895
         0.0165543556213
         0.0166057404131
         0.016657250002
         0.0167088881135
         0.0167606547475
         0.0168125461787
         0.0168645679951
         0.0169167164713
         0.0169689934701
         0.017021400854
         0.0170739367604
         0.0171266011894
         0.0171793960035
         0.0172323212028
         0.0172853767872
         0.0173385646194
         0.0173918809742
         0.0174453295767
         0.0174989104271
         0.0175526235253
         0.0176064688712
         0.017660446465
         0.0177145581692
         0.0177688021213
         0.0178231801838
         0.0178776923567
         0.0179323386401
         0.0179871208966
         0.0180420372635
         0.0180970896035
         0.018152276054
         0.0182076003402
         0.0182630605996
         0.018318656832
         0.0183743909001
         0.0184302609414
         0.018486270681
         0.0185424163938
         0.0185987018049
         0.0186551269144
         0.0187116898596
         0.0187683925033
         0.0188252348453
         0.0188822168857
         0.0189393404871
         0.0189966037869
         0.0190540086478
         0.0191115550697
         0.0191692430526
         0.0192270744592
         0.0192850474268
         0.0193431619555
         0.0194014217705
         0.0194598250091
         0.0195183716714
         0.0195770636201
         0.0196358989924
         0.0196948796511
         0.019754005596
         0.01981327869
         0.0198726970702
         0.0199322607368
         0.019991973415
         0.0200518313795
         0.0201118383557
         0.0201719924808
         0.0202322956175
         0.0202927459031
         0.0203533452004
         0.020414095372
         0.0204749945551
         0.0205360446125
         0.0205972436816
         0.0206585954875
         0.0207200981677
         0.0207817517221
         0.0208435561508
         0.020905515179
         0.0209676250815
         0.0210298895836
         0.0210923068225
         0.021154878661
         0.0212176032364
         0.021280484274
         0.0213435199112
         0.0214067101479
         0.0214700568467
         0.0215335581452
         0.0215972177684
         0.0216610338539
         0.0217250064015
         0.0217891391367
         0.0218534264714
         0.0219178758562
         0.0219824817032
         0.0220472477376
         0.022112172097
         0.0221772585064
         0.0222425032407
         0.0223079100251
         0.0223734788597
         0.0224392078817
         0.0225051008165
         0.0225711539388
         0.0226373709738
         0.0227037519217
         0.0227702949196
         0.022837003693
         0.0229038745165
         0.0229709129781
         0.0230381153524
         0.0231054835021
         0.0231730174273
         0.0232407171279
         0.0233085863292
         0.0233766213059
         0.0234448239207
         0.0235131941736
         0.0235817339271
         0.0236504413188
         0.0237193182111
         0.0237883664668
         0.0238575842232
         0.0239269714803
         0.0239965319633
         0.0240662619472
         0.024136165157
         0.0242062397301
         0.0242764875293
         0.0243469085544
         0.0244175028056
         0.0244882721454
         0.0245592147112
         0.0246303323656
         0.0247016269714
         0.0247730948031
         0.0248447395861
         0.0249165613204
         0.0249885618687
         0.0250607375056
         0.0251330919564
         0.0252056252211
         0.0252783354372
         0.0253512263298
         0.025424297899
         0.0254975482821
         0.0255709793419
         0.0256445910782
         0.025718383491
         0.0257923603058
         0.0258665177971
         0.0259408578277
         0.0260153822601
         0.0260900910944
         0.0261649824679
         0.0262400582433
         0.0263153202832
         0.0263907667249
         0.0264663994312
         0.0265422202647
         0.0266182255
         0.0266944207251
         0.0267708022147
         0.0268473718315
         0.0269241295755
         0.0270010791719
         0.0270782150328
         0.0271555446088
         0.027233062312
         0.0273107718676
         0.0273886732757
         0.0274667665362
         0.0275450516492
         0.0276235304773
         0.0277022030205
         0.0277810692787
         0.0278601292521
         0.0279393848032
         0.0280188340694
         0.028098480776
         0.0281783249229
         0.0282583646476
         0.0283386018127
         0.0284190364182
         0.0284996703267
         0.0285805016756
         0.0286615323275
         0.0287427641451
         0.0288241952658
         0.0289058275521
         0.0289876610041
         0.0290696956217
         0.0291519314051
         0.0292343720794
         0.029317015782
         0.0293998625129
         0.0294829141349
         0.0295661687851
         0.0296496301889
         0.0297332964838
         0.0298171695322
         0.0299012493342
         0.0299855377525
         0.0300700329244
         0.0301547348499
         0.0302396472543
         0.030324768275
         0.0304100997746
         0.0304956417531
         0.0305813942105
         0.0306673590094
         0.0307535342872
         0.0308399219066
