aces_1.0.0/luts/V3 LogC_640_to_linear.spi1d
Version 1
From 0.000000 1.000000
Length 4096
Components 1
{
         -0.0170803647488
         -0.00494256755337
         -0.00493083056062
         -0.00491906702518
         -0.00490727694705
         -0.00489546079189
         -0.00488361762837
         -0.00487174792215
         -0.00485985120758
         -0.00484792795032
         -0.00483597815037
         -0.0048240008764
         -0.00481199705973
         -0.00479996623471
         -0.00478790840134
         -0.00477582355961
         -0.00476371124387
         -0.00475157145411
         -0.00473940465599
         -0.00472721038386
         -0.00471498910338
         -0.00470273988321
         -0.00469046318904
         -0.00467815902084
         -0.00466582691297
         -0.00465346733108
         -0.00464107980952
         -0.00462866434827
         -0.00461622094736
         -0.00460374960676
         -0.00459125032648
         -0.00457872264087
         -0.00456616701558
         -0.00455358298495
         -0.00454097101465
         -0.00452833017334
         -0.00451566139236
         -0.00450296374038
         -0.00449023768306
         -0.00447748275474
         -0.00446469942108
         -0.00445188721642
         -0.00443904614076
         -0.0044261761941
         -0.00441327737644
         -0.00440034968778
         -0.00438739266247
         -0.00437440630049
         -0.0043613910675
         -0.00434834649786
         -0.00433527259156
         -0.0043221693486
         -0.00430903630331
         -0.00429587392136
         -0.0042826817371
         -0.00426946021616
         -0.00425620889291
         -0.00424292776734
         -0.00422961637378
         -0.0042162751779
         -0.00420290417969
         -0.0041895029135
         -0.004176071845
         -0.00416261004284
         -0.00414911843836
         -0.00413559610024
         -0.00412204349414
         -0.00410846062005
         -0.00409484701231
         -0.00408120267093
         -0.00406752759591
         -0.00405382178724
         -0.00404008524492
         -0.00402631796896
         -0.0040125194937
         -0.00399868981913
         -0.00398482941091
         -0.00397093780339
         -0.0039570145309
         -0.0039430600591
         -0.003929074388
         -0.00391505705193
         -0.00390100851655
         -0.00388692808338
         -0.00387281621806
         -0.00385867245495
         -0.00384449679404
         -0.00383028923534
         -0.00381604977883
         -0.00380177842453
         -0.00378747470677
         -0.00377313909121
         -0.00375877087936
         -0.00374437053688
         -0.00372993783094
         -0.00371547252871
         -0.00370097486302
         -0.00368644460104
         -0.00367188150994
         -0.00365728558972
         -0.00364265684038
         -0.00362799526192
         -0.00361330085434
         -0.00359857315198
         -0.00358381238766
         -0.00356901856139
         -0.00355419120751
         -0.00353933055885
         -0.00352443661541
         -0.00350950914435
         -0.00349454791285
         -0.00347955315374
         -0.00346452463418
         -0.00344946235418
         -0.00343436608091
         -0.00341923604719
         -0.00340407178737
         -0.00338887330145
         -0.00337364082225
         -0.00335837411694
         -0.0033430729527
         -0.00332773732953
         -0.00331236724742
         -0.00329696270637
         -0.00328152347356
         -0.00326604931615
         -0.00325054046698
         -0.00323499692604
         -0.00321941822767
         -0.00320380437188
         -0.00318815559149
         -0.00317247142084
         -0.00315675209276
         -0.00314099737443
         -0.00312520703301
         -0.00310938153416
         -0.00309352017939
         -0.00307762320153
         -0.00306169036776
         -0.00304572191089
         -0.00302971736528
         -0.00301367673092
         -0.00299760024063
         -0.00298148742877
         -0.00296533829533
         -0.00294915307313
         -0.00293293129653
         -0.00291667296551
         -0.00290037808008
         -0.00288404664025
         -0.00286767841317
         -0.00285127316602
         -0.00283483136445
         -0.00281835230999
         -0.00280183623545
         -0.00278528314084
         -0.00276869256049
         -0.00275206496008
         -0.0027353996411
         -0.00271869706921
         -0.00270195677876
         -0.00268517900258
         -0.00266836327501
         -0.00265150982887
         -0.00263461843133
         -0.0026176890824
         -0.00260072154924
         -0.00258371583186
         -0.00256667193025
         -0.00254958984442
         -0.0025324691087
         -0.00251530995592
         -0.00249811215326
         -0.00248087546788
         -0.00246360036545
         -0.00244628614746
         -0.00242893304676
         -0.00241154106334
         -0.00239410973154
         -0.00237663928419
         -0.00235912948847
         -0.00234158034436
         -0.00232399161905
         -0.00230636331253
         -0.0022886954248
         -0.00227098795585
         -0.00225324044004
         -0.00223545311019
         -0.00221762573346
         -0.00219975807704
         -0.00218185037374
         -0.00216390239075
         -0.00214591412805
         -0.00212788511999
         -0.00210981583223
         -0.0020917057991
         -0.00207355502062
         -0.00205536326393
         -0.00203713076189
         -0.00201885728166
         -0.00200054259039
         -0.00198218668811
         -0.00196378934197
         -0.00194535078481
         -0.00192687078379
         -0.00190834910609
         -0.00188978586812
         -0.00187118072063
         -0.00185253389645
         -0.00183384492993
         -0.0018151140539
         -0.00179634103552
         -0.00177752575837
         -0.00175866810605
         -0.00173976807855
         -0.00172082544304
         -0.00170184031595
         -0.00168281246442
         -0.00166374165565
         -0.00164462812245
         -0.00162547151558
         -0.00160627183504
         -0.00158702884801
         -0.00156774267089
         -0.00154841318727
         -0.0015290400479
         -0.00150962348562
         -0.00149016315117
         -0.00147065904457
         -0.00145111104939
         -0.00143151904922
         -0.00141188304406
         -0.00139220280107
         -0.00137247832026
         -0.0013527093688
         -0.0013328960631
         -0.00131303817034
         -0.00129313557409
         -0.00127318815794
         -0.00125319592189
         -0.00123315874953
         -0.00121307640802
         -0.00119294889737
         -0.00117277621757
         -0.00115255801938
         -0.00113229441922
         -0.00111198518425
         -0.00109163031448
         -0.00107122957706
         -0.00105078297202
         -0.00103029038291
         -0.00100975169335
         -0.000989166786894
         -0.000968535547145
         -0.000947857915889
         -0.000927133776713
         -0.0009063630132
         -0.000885545508936
         -0.000864681205712
         -0.000843769928906
         -0.000822811562102
         -0.000801806105301
         -0.000780753383879
         -0.00075965328142
         -0.000738505739719
         -0.00071731058415
         -0.000696067756508
         -0.000674777140375
         -0.000653438677546
         -0.000632052135188
         -0.000610617513303
         -0.000589134637266
         -0.000567603448872
         -0.000546023831703
         -0.000524395669345
         -0.000502718845382
         -0.000480993272504
         -0.00045921880519
         -0.000437395327026
         -0.000415522779804
         -0.000393601018004
         -0.000371629954316
         -0.000349609443219
         -0.000327539397404
         -0.000305419671349
         -0.000283250206849
         -0.000261030887486
         -0.000238761553192
         -0.000216442131205
         -0.000194072490558
         -0.000171652514837
         -0.000149182116729
         -0.000126661150716
         -0.000104089536762
         -8.14671293483e-05
         -5.87938338867e-05
         -3.60695266863e-05
         -1.32940976982e-05
         9.53257040237e-06
         3.24105931213e-05
         5.53400859644e-05
         7.8321165347e-05
         0.00010135393677
         0.00012443853484
         0.000147575061419
         0.000170763640199
         0.000194004402147
         0.000217297434574
         0.000240642868448
         0.000264040834736
         0.00028749142075
         0.000310994772008
         0.000334551004926
         0.000358160235919
         0.000381822581403
         0.000405538157793
         0.000429307081504
         0.000453129498055
         0.000477005494758
         0.000500935188029
         0.000524918723386
         0.000548956217244
         0.000573047844227
         0.000597193604335
         0.000621393730398
         0.000645648280624
         0.000669957371429
         0.000694321177434
         0.000718739756849
         0.000743213342503
         0.000767741934396
         0.000792325707152
         0.000816964835394
         0.000841659377329
         0.000866409449372
         0.000891215226147
         0.000916076765861
         0.000940994301345
         0.000965967832599
         0.000990997534245
         0.00101608363912
         0.001041226089
         0.00106642523315
         0.00109168095514
         0.00111699348781
         0.00114236306399
         0.00116778956726
         0.00119327334687
         0.00121881451923
         0.00124441308435
         0.00127006927505
         0.00129578320775
         0.00132155488245
         0.0013473846484
         0.00137327250559
         0.00139921857044
         0.00142522295937
         0.0014512859052
         0.00147740752436
         0.00150358781684
         0.00152982713189
         0.00155612535309
         0.00158248282969
         0.00160889956169
         0.0016353756655
         0.00166191149037
         0.00168850691989
         0.00171516218688
         0.00174187740777
         0.00176865269896
         0.00179548829328
         0.00182238419075
         0.00184934074059
         0.0018763578264
         0.00190343568102
         0.00193057442084
         0.00195777439512
         0.00198503537104
         0.00201235781424
         0.0020397414919
         0.00206718710251
         0.00209469418041
         0.00212226319127
         0.0021498943679
         0.00217758771032
         0.00220534321852
         0.00223316112533
         0.00226104189642
         0.00228898506612
         0.00231699133292
         0.00234506046399
         0.00237319292501
         0.00240138848312
         0.002429647604
         0.00245797005482
         0.00248635653406
         0.0025148068089
         0.00254332087934
         0.00257189921103
         0.00260054203682
         0.00262924912386
         0.00265802070498
         0.00268685724586
         0.00271575851366
         0.00274472474121
         0.00277375616133
         0.00280285300687
         0.00283201527782
         0.00286124320701
         0.00289053679444
         0.00291989627294
         0.00294932187535
         0.00297881360166
         0.0030083716847
         0.00303799635731
         0.00306768738665
         0.00309744547121
         0.003127270611
         0.00315716257319
         0.00318712205626
         0.00321714882739
         0.0032472431194
         0.00327740493231
         0.00330763496459
         0.00333793275058
         0.00336829875596
         0.00339873321354
         0.00342923589051
         0.00345980748534
         0.00349044753239
         0.00352115673013
         0.00355193507858
         0.00358278257772
         0.0036136994604
         0.00364468572661
         0.00367574184202
         0.00370686803944
         0.00373806408606
         0.00376933021471
         0.00380066665821
         0.00383207388222
         0.00386355142109
         0.00389509997331
         0.00392671953887
         0.00395841011778
         0.00399017194286
         0.00402200547978
         0.00405391072854
         0.00408588722348
         0.00411793589592
         0.00415005674586
         0.00418224977329
         0.00421451544389
         0.00424685375765
         0.00427926471457
         0.00431174831465
         0.00434430502355
         0.00437693530694
         0.00440963869914
         0.00444241566584
         0.00447526667267
         0.00450819125399
         0.00454119034111
         0.00457426300272
         0.0046074106358
         0.00464063277468
         0.00467392941937
         0.00470730103552
         0.00474074762315
         0.0047742696479
         0.00480786710978
         0.00484154000878
         0.00487528881058
         0.00490911351517
         0.00494301458821
         0.00497699156404
         0.00501104490831
         0.00504517508671
         0.00507938163355
         0.00511366548017
         0.00514802662656
         0.00518246507272
         0.00521698081866
         0.00525157386437
         0.00528624514118
         0.00532099418342
         0.00535582192242
         0.00539072742686
         0.00542571162805
         0.00546077499166
         0.00549591658637
         0.0055311373435
         0.0055664377287
         0.00560181727633
         0.00563727645203
         0.00567281525582
         0.00570843415335
         0.00574413314462
         0.00577991269529
         0.0058157723397
         0.00585171300918
         0.00588773423806
         0.00592383695766
         0.00596002023667
         0.00599628547207
         0.00603263219818
         0.00606906041503
         0.00610557058826
         0.00614216318354
         0.00617883820087
         0.00621559517458
         0.00625243550166
         0.0062893582508
         0.00632636388764
         0.00636345334351
         0.00640062615275
         0.00643788231537
         0.00647522229701
         0.00651264656335
         0.00655015464872
         0.00658774748445
         0.00662542460486
         0.00666318647563
         0.00670103356242
         0.00673896586522
         0.00677698291838
         0.00681508611888
         0.00685327500105
         0.0068915495649
         0.00692991027609
         0.00696835713461
         0.00700689060614
         0.00704551069066
         0.00708421785384
         0.00712301209569
         0.0071618934162
         0.00720086228102
         0.00723991915584
         0.00727906357497
         0.00731829600409
         0.00735761690885
         0.00739702582359
         0.00743652414531
         0.00747611094266
         0.00751578668132
         0.00755555182695
         0.00759540637955
         0.00763535033911
         0.00767538463697
         0.00771550834179
         0.00775572285056
         0.00779602769762
         0.0078364238143
         0.00787691026926
         0.00791748706251
         0.0079581560567
         0.0079989163205
         0.00803976878524
         0.00808071251959
         0.00812174845487
         0.00816287659109
         0.00820409785956
         0.00824541132897
         0.00828681793064
         0.00832831766456
         0.00836991053075
         0.00841159746051
         0.00845337752253
         0.00849525164813
         0.00853722076863
         0.00857928395271
         0.00862144120038
         0.00866369344294
         0.00870604161173
         0.0087484838441
         0.0087910220027
         0.00883365608752
         0.00887638609856
         0.00891921203583
         0.00896213483065
         0.0090051535517
         0.00904827006161
         0.00909148249775
         0.00913479272276
         0.00917819980532
         0.00922170467675
         0.00926530733705
         0.00930900871754
         0.0093528078869
         0.00939670577645
         0.0094407023862
         0.00948479864746
         0.0095289926976
         0.00957328733057
         0.00961768161505
         0.00966217555106
         0.00970676913857
         0.00975146330893
         0.00979625806212
         0.00984115339816
         0.00988615024835
         0.00993124768138
         0.00997644662857
         0.0100217480212
         0.0100671509281
         0.0101126553491
         0.0101582631469
         0.0102039733902
         0.0102497860789
         0.0102957012132
         0.0103417206556
         0.0103878434747
         0.0104340696707
         0.0104804001749
         0.0105268349871
         0.0105733741075
         0.010620017536
         0.0106667671353
         0.0107136210427
         0.0107605801895
         0.0108076445758
         0.0108548160642
         0.0109020927921
         0.010949476622
         0.0109969666228
         0.0110445627943
         0.0110922669992
         0.0111400783062
         0.0111879967153
         0.0112360231578
         0.0112841576338
         0.0113324010745
         0.0113807525486
         0.0114292129874
         0.0114777814597
         0.0115264607593
         0.0115752480924
         0.0116241462529
         0.0116731543094
         0.011722272262
         0.0117715010419
         0.011820839718
         0.0118702901527
         0.0119198514149
         0.0119695244357
         0.0120193092152
         0.0120692066848
         0.0121192149818
         0.0121693369001
         0.0122195715085
         0.0122699188069
         0.0123203787953
         0.0123709533364
         0.0124216414988
         0.0124724432826
         0.0125233596191
         0.0125743905082
         0.0126255359501
         0.0126767968759
         0.0127281723544
         0.0127796642482
         0.0128312716261
         0.0128829944879
         0.0129348346964
         0.0129867913201
         0.0130388643593
         0.013091054745
         0.0131433634087
         0.0131957884878
         0.0132483318448
         0.0133009944111
         0.0133537743241
         0.0134066734463
         0.0134596908465
         0.0135128283873
         0.0135660851374
         0.0136194620281
         0.0136729590595
         0.0137265762314
         0.013780313544
         0.0138341719285
         0.0138881513849
         0.0139422528446
         0.0139964763075
         0.0140508208424
         0.0141052883118
         0.0141598777846
         0.0142145901918
         0.0142694255337
         0.0143243847415
         0.0143794678152
         0.0144346738234
         0.0144900046289
         0.0145454602316
         0.0146010397002
         0.0146567448974
         0.0147125748917
         0.0147685306147
         0.0148246129975
         0.0148808211088
         0.0149371549487
         0.0149936163798
         0.0150502044708
         0.0151069201529
         0.0151637634262
         0.0152207342908
         0.0152778336778
         0.0153350606561
         0.0153924170882
         0.0154499029741
         0.0155075173825
         0.0155652621761
         0.0156231364235
         0.0156811401248
         0.0157392751426
         0.0157975405455
         0.0158559381962
         0.0159144662321
         0.0159731265157
         0.0160319171846
         0.0160908419639
         0.016149898991
         0.0162090882659
         0.0162684116513
         0.0163278672844
         0.016387457028
         0.0164471808821
         0.0165070388466
         0.0165670327842
         0.0166271608323
         0.0166874229908
         0.0167478229851
         0.0168083570898
         0.0168690271676
         0.0169298350811
         0.0169907789677
         0.0170518606901
         0.0171130783856
         0.0171744357795
         0.0172359291464
         0.0172975622118
         0.0173593349755
         0.017421245575
         0.0174832940102
         0.0175454840064
         0.017607813701
         0.017670283094
         0.0177328921854
         0.0177956428379
         0.0178585350513
         0.0179215688258
         0.0179847441614
         0.0180480610579
         0.0181115213782
         0.0181751232594
         0.018238870427
         0.0183027591556
         0.0183667913079
         0.0184309687465
         0.0184952896088
         0.0185597557575
         0.0186243671924
         0.0186891239136
         0.0187540259212
         0.0188190732151
         0.018884267658
         0.0189496092498
         0.0190150979906
         0.0190807320178
         0.0191465150565
         0.0192124471068
         0.0192785263062
         0.0193447545171
         0.0194111317396
         0.0194776579738
         0.0195443332195
         0.0196111593395
         0.0196781363338
         0.0197452642024
         0.0198125410825
         0.0198799706995
         0.0199475530535
         0.0200152862817
         0.0200831722468
         0.0201512090862
         0.0202194005251
         0.0202877465636
         0.0203562453389
         0.0204248968512
         0.0204937048256
         0.020562665537
         0.0206317827106
         0.0207010563463
         0.0207704845816
         0.0208400692791
         0.0209098104388
         0.0209797080606
         0.0210497640073
         0.0211199764162
         0.02119034715
         0.0212608762085
         0.021331563592
         0.0214024111629
         0.0214734170586
         0.0215445831418
         0.0216159094125
         0.0216873958707
         0.0217590425164
         0.0218308512121
         0.0219028219581
         0.0219749547541
         0.0220472477376
         0.022119704634
         0.022192325443
         0.0222651083022
         0.0223380550742
         0.0224111676216
         0.0224844422191
         0.0225578825921
         0.0226314887404
         0.0227052606642
         0.0227791983634
         0.022853301838
         0.0229275710881
         0.0230020098388
         0.023076614365
         0.0231513865292
         0.0232263281941
         0.0233014374971
         0.0233767163008
         0.0234521646053
         0.0235277824104
         0.0236035697162
         0.0236795283854
         0.0237556565553
         0.0238319579512
         0.0239084288478
         0.0239850729704
         0.024061890319
         0.0241388790309
         0.0242160428315
         0.0242933779955
         0.0243708882481
         0.0244485735893
         0.0245264321566
         0.0246044676751
         0.0246826764196
         0.0247610621154
         0.0248396247625
         0.0249183643609
         0.0249972809106
         0.0250763744116
         0.0251556467265
         0.0252350959927
         0.0253147240728
         0.0253945328295
         0.0254745204002
         0.0255546867847
         0.0256350357085
         0.0257155634463
         0.0257962737232
         0.0258771646768
         0.0259582381696
         0.0260394942015
         0.0261209327728
         0.0262025538832
         0.0262843593955
         0.0263663493097
         0.0264485217631
         0.026530880481
         0.0266134254634
         0.0266961548477
         0.0267790704966
         0.0268621724099
         0.0269454624504
         0.0270289387554
         0.0271126031876
         0.0271964557469
         0.0272804964334
         0.0273647271097
         0.0274491477758
         0.027533756569
         0.0276185572147
         0.0277035478503
         0.0277887303382
         0.0278741046786
         0.0279596708715
         0.0280454289168
         0.0281313788146
         0.0282175242901
         0.0283038634807
         0.0283903945237
         0.0284771230072
         0.0285640452057
         0.028651162982
         0.028738476336
         0.0288259871304
         0.0289136953652
         0.0290015991777
         0.0290897022933
         0.0291780028492
         0.0292665027082
         0.0293552000076
         0.0294440984726
         0.0295331962407
         0.0296224951744
         0.0297119934112
         0.0298016946763
         0.0298915971071
         0.0299817007035
         0.0300720091909
         0.030162518844
         0.0302532333881
         0.0303441509604
         0.0304352752864
         0.0305266026407
         0.030618134886
         0.0307098738849
         0.0308018196374
         0.0308939721435
         0.0309863332659
