aces_1.0.0/luts/V3 LogC_160_to_linear.spi1d
Version 1
From 0.000000 1.000000
Length 4096
Components 1
{
         -0.0158811360598
         -0.00757886189967
         -0.00756450928748
         -0.0075501264073
         -0.00753571372479
         -0.0075212707743
         -0.0075067980215
         -0.00749229453504
         -0.0074777607806
         -0.00746319675818
         -0.00744860200211
         -0.00743397697806
         -0.00741932122037
         -0.00740463472903
         -0.00738991750404
         -0.00737516954541
         -0.00736039085314
         -0.00734558096156
         -0.00733074033633
         -0.0073158685118
         -0.00730096595362
         -0.00728603173047
         -0.00727106630802
         -0.00725607015193
         -0.0072410418652
         -0.00722598237917
         -0.00721089169383
         -0.00719576934353
         -0.00718061486259
         -0.00716542918235
         -0.00715021183714
         -0.00713496236131
         -0.00711968075484
         -0.00710436748341
         -0.00708902208135
         -0.00707364454865
         -0.00705823488533
         -0.00704279309139
         -0.00702731916681
         -0.00701181264594
         -0.00699627352878
         -0.00698070181534
         -0.00696509797126
         -0.00694946106523
         -0.00693379156291
         -0.00691808946431
         -0.00690235430375
         -0.00688658608124
         -0.00687078526244
         -0.00685495138168
         -0.00683908397332
         -0.006823183503
         -0.00680724997073
         -0.00679128291085
         -0.00677528278902
         -0.00675924867392
         -0.00674318149686
         -0.00672708032653
         -0.00671094562858
         -0.00669477693737
         -0.00667857471853
         -0.00666233850643
         -0.00664606830105
         -0.0066297641024
         -0.00661342591047
         -0.00659705325961
         -0.00658064661548
         -0.0065642055124
         -0.0065477299504
         -0.00653121992946
         -0.00651467544958
         -0.00649809651077
         -0.00648148264736
         -0.00646483385935
         -0.00644815061241
         -0.00643143244088
         -0.00641467887908
         -0.00639789085835
         -0.0063810669817
         -0.00636420864612
         -0.00634731445462
         -0.00633038533852
         -0.00631342083216
         -0.00629642046988
         -0.00627938471735
         -0.00626231310889
         -0.00624520611018
         -0.00622806325555
         -0.006210884545
         -0.00619366997853
         -0.00617641909048
         -0.00615913234651
         -0.00614180928096
         -0.00612444989383
         -0.00610705465078
         -0.00608962262049
         -0.00607215426862
         -0.00605464912951
         -0.00603710766882
         -0.00601952942088
         -0.00600191392004
         -0.00598426209763
         -0.00596657348797
         -0.0059488476254
         -0.00593108450994
         -0.00591328460723
         -0.00589544698596
         -0.00587757257745
         -0.00585966045037
         -0.00584171060473
         -0.00582372350618
         -0.00580569868907
         -0.00578763661906
         -0.00576953636482
         -0.00575139792636
         -0.00573322223499
         -0.00571500789374
         -0.00569675583392
         -0.00567846512422
         -0.00566013669595
         -0.0056417696178
         -0.00562336435542
         -0.00560492044315
         -0.00558643788099
         -0.00556791666895
         -0.00554935680702
         -0.00553075782955
         -0.00551212020218
         -0.00549344345927
         -0.00547472760081
         -0.00545597309247
         -0.00543717853725
         -0.00541834533215
         -0.00539947254583
         -0.00538056017831
         -0.00536160822958
         -0.00534261669964
         -0.00532358512282
         -0.0053045139648
         -0.00528540322557
         -0.00526625197381
         -0.00524706067517
         -0.00522782979533
         -0.00520855793729
         -0.00518924649805
         -0.00516989408061
         -0.0051505016163
         -0.0051310681738
         -0.00511159421876
         -0.00509207975119
         -0.00507252430543
         -0.00505292788148
         -0.00503329047933
         -0.00501361163333
         -0.0049938922748
         -0.00497413100675
         -0.0049543287605
         -0.00493448507041
         -0.00491459993646
         -0.00489467335865
         -0.00487470487133
         -0.00485469447449
         -0.00483464216813
         -0.00481454795226
         -0.00479441182688
         -0.00477423379198
         -0.0047540133819
         -0.00473375059664
         -0.00471344543621
         -0.00469309743494
         -0.00467270705849
         -0.00465227430686
         -0.0046317987144
         -0.0046112802811
         -0.00459071900696
         -0.00457011442631
         -0.00454946700484
         -0.0045287758112
         -0.00450804177672
         -0.00448726443574
         -0.00446644378826
         -0.00444557936862
         -0.00442467117682
         -0.00440371921286
         -0.00438272347674
         -0.00436168396845
         -0.00434060022235
         -0.00431947270408
         -0.00429830048233
         -0.00427708448842
         -0.00425582379103
         -0.00423451839015
         -0.00421316875145
         -0.00419177440926
         -0.0041703353636
         -0.00414885114878
         -0.00412732223049
         -0.00410574860871
         -0.00408412935212
         -0.00406246492639
         -0.00404075533152
         -0.00401900010183
         -0.00399719970301
         -0.00397535320371
         -0.00395346153527
         -0.00393152376637
         -0.00390954036266
         -0.00388751062565
         -0.00386543478817
         -0.00384331285022
         -0.00382114481181
         -0.00379893020727
         -0.0037766690366
         -0.00375436153263
         -0.0037320072297
         -0.00370960612781
         -0.00368715822697
         -0.00366466329433
         -0.0036421213299
         -0.00361953233369
         -0.00359689584002
         -0.00357421208173
         -0.00355148105882
         -0.00352870230563
         -0.00350587582216
         -0.0034830016084
         -0.00346007966436
         -0.00343710952438
         -0.00341409142129
         -0.00339102535509
         -0.00336791086011
         -0.00334474793635
         -0.00332153681666
         -0.00329827680252
         -0.00327496835962
         -0.00325161102228
         -0.00322820502333
         -0.00320474989712
         -0.00318124564365
         -0.0031576922629
         -0.00313408952206
         -0.00311043765396
         -0.0030867359601
         -0.00306298490614
         -0.00303918425925
         -0.00301533355378
         -0.00299143302254
         -0.00296748266555
         -0.00294348201714
         -0.00291943107732
         -0.0028953300789
         -0.00287117855623
         -0.00284697627649
         -0.00282272370532
         -0.00279842014425
         -0.00277406582609
         -0.00274966051802
         -0.00272520422004
         -0.00270069669932
         -0.00267613795586
         -0.00265152775683
         -0.00262686610222
         -0.00260215275921
         -0.00257738796063
         -0.00255257124081
         -0.00252770236693
         -0.00250278180465
         -0.00247780885547
         -0.00245278375223
         -0.0024277062621
         -0.00240257638507
         -0.00237739388831
         -0.002352158539
         -0.00232687056996
         -0.00230152974837
         -0.00227613584138
         -0.00225068884902
         -0.00222518853843
         -0.00219963490963
         -0.00217402772978
         -0.00214836699888
         -0.00212265271693
         -0.00209688441828
         -0.00207106233574
         -0.0020451862365
         -0.00201925612055
         -0.00199327152222
         -0.00196723267436
         -0.00194113934413
         -0.00191499141511
         -0.00188878877088
         -0.00186253129505
         -0.00183621887118
         -0.00180985138286
         -0.00178342883009
         -0.00175695086364
         -0.0017304175999
         -0.00170382880606
         -0.00167718436569
         -0.00165048416238
         -0.00162372807972
         -0.00159691611771
         -0.00157004792709
         -0.00154312362429
         -0.00151614297647
         -0.00148910586722
         -0.00146201218013
         -0.00143486179877
         -0.00140765460674
         -0.00138039048761
         -0.00135306932498
         -0.00132569100242
         -0.00129825540353
         -0.00127076241188
         -0.00124321191106
         -0.00121560378466
         -0.00118793791626
         -0.00116021407302
         -0.00113243225496
         -0.00110459234565
         -0.00107669422869
         -0.00104873767123
         -0.00102072255686
         -0.000992649002001
         -0.000964516599197
         -0.000936325348448
         -0.000908075133339
         -0.000879765779246
         -0.000851397227962
         -0.000822969304863
         -0.000794481951743
         -0.000765934935771
         -0.000737328198738
         -0.000708661682438
         -0.000679935095832
         -0.000651148438919
         -0.000622301595286
         -0.0005933943321
         -0.000564426649362
         -0.000535398314241
         -0.00050630926853
         -0.00047715936671
         -0.000447948492365
         -0.000418676470872
         -0.00038934321492
         -0.000359948578989
         -0.000330492446665
         -0.000300974701531
         -0.00027139519807
         -0.00024175379076
         -0.000212050377741
         -0.000182284813491
         -0.000152456981596
         -0.000122566736536
         -9.26139473449e-05
         -6.25985048828e-05
         -3.25202563545e-05
         -2.37907738665e-06
         2.78251609416e-05
         5.80925952818e-05
         8.84233522811e-05
         0.000118817573821
         0.000149275379954
         0.0001797969162
         0.00021038230625
         0.000241031681071
         0.000271745200735
         0.000302522967104
         0.000333365111146
         0.000364271807484
         0.00039524314343
         0.000426279293606
         0.000457380374428
         0.000488546560518
         0.000519777880982
         0.000551074626856
         0.00058243679814
         0.000613864569459
         0.000645358115435
         0.00067691761069
         0.000708543055225
         0.000740234681871
         0.00077199266525
         0.00080381706357
         0.000835707993247
         0.00086766568711
         0.000899690261576
         0.00093178183306
         0.000963940517977
         0.00099616649095
         0.00102845998481
         0.00106082088314
         0.00109324953519
         0.00112574605737
         0.00115831068251
         0.0011909432942
         0.00122364424169
         0.00125641352497
         0.00128925149329
         0.00132215803023
         0.00135513348505
         0.00138817797415
         0.00142129149754
         0.00145447440445
         0.0014877266949
         0.00152104860172
         0.00155444012489
         0.00158790161368
         0.00162143306807
         0.00165503460448
         0.00168870657217
         0.00172244885471
         0.00175626180135
         0.0017901455285
         0.00182410015259
         0.00185812567361
         0.00189222255722
         0.001926390687
         0.0019606302958
         0.00199494161643
         0.0020293246489
         0.00206377962604
         0.00209830678068
         0.00213290611282
         0.00216757785529
         0.00220232200809
         0.00223713903688
         0.00227202870883
         0.0023069914896
         0.00234202761203
         0.00237713684328
         0.00241231941618
         0.0024475757964
         0.00248290575109
         0.00251830974594
         0.00255378778093
         0.00258934008889
         0.00262496690266
         0.0026606679894
         0.00269644381478
         0.00273229461163
         0.00276822037995
         0.00280422135256
         0.00284029752947
         0.00287644937634
         0.00291267666034
         0.00294897984713
         0.00298535893671
         0.00302181416191
         0.00305834575556
         0.00309495371766
         0.00313163828105
         0.00316839944571
         0.00320523767732
         0.00324215297587
         0.00327914534137
         0.00331621523947
         0.00335336267017
         0.00339058786631
         0.00342789106071
         0.00346527202055
         0.00350273144431
         0.00354026909918
         0.00357788521796
         0.00361558026634
         0.00365335401148
         0.0036912066862
         0.00372913875617
         0.00376715022139
         0.00380524108186
         0.00384341157041
         0.00388166215271
         0.00391999259591
         0.00395840313286
         0.0039968942292
         0.00403546588495
         0.00407411810011
         0.00411285134032
         0.0041516656056
         0.00419056089595
         0.00422953767702
         0.00426859594882
         0.004307736177
         0.0043469578959
         0.00438626203686
         0.0044256481342
         0.00446511665359
         0.00450466806069
         0.00454430188984
         0.00458401860669
         0.00462381867692
         0.00466370210052
         0.00470366887748
         0.00474371900782
         0.00478385295719
         0.00482407119125
         0.00486437324435
         0.00490476004779
         0.00494523067027
         0.00498578650877
         0.00502642709762
         0.00506715290248
         0.0051079634577
         0.0051488596946
         0.00518984114751
         0.00523090874776
         0.00527206202969
         0.00531330192462
         0.00535462750122
         0.00539603969082
         0.00543753849342
         0.00547912437469
         0.00552079686895
         0.00556255690753
         0.00560440449044
         0.00564633915201
         0.00568836182356
         0.00573047203943
         0.00577267073095
         0.00581495743245
         0.00585733307526
         0.00589979719371
         0.0059423497878
         0.00598499178886
         0.00602772273123
         0.00607054354623
         0.00611345330253
         0.00615645339713
         0.00619954336435
         0.0062427232042
         0.00628599338233
         0.00632935436442
         0.0063728056848
         0.0064163482748
         0.0064599821344
         0.00650370679796
         0.00654752319679
         0.00659143133089
         0.00663543120027
         0.00667952327058
         0.00672370754182
         0.006767984014
         0.00681235315278
         0.00685681542382
         0.00690137036145
         0.006946018897
         0.0069907605648
         0.00703559629619
         0.00708052515984
         0.00712554855272
         0.00717066600919
         0.00721587752923
         0.00726118404418
         0.00730658508837
         0.00735208112746
         0.00739767262712
         0.00744335958734
         0.00748914154246
         0.00753501988947
         0.00758099416271
         0.00762706436217
         0.00767323095351
         0.00771949393675
         0.00776585424319
         0.00781231140718
         0.00785886589438
         0.00790551677346
         0.00795226637274
         0.00799911376089
         0.00804605893791
         0.0080931019038
         0.00814024358988
         0.00818748399615
         0.00823482312262
         0.00828226096928
         0.00832979846746
         0.00837743561715
         0.00842517241836
         0.00847300887108
         0.00852094497532
         0.00856898259372
         0.00861711986363
         0.00866535771638
         0.00871369708329
         0.00876213703305
         0.00881067849696
         0.00885932147503
         0.00890806596726
         0.00895691290498
         0.00900586228818
         0.00905491318554
         0.0091040674597
         0.00915332417935
         0.00920268427581
         0.00925214774907
         0.00930171366781
         0.009351384826
         0.00940115842968
         0.00945103727281
         0.00950102042407
         0.00955110788345
         0.00960129965097
         0.00965159665793
         0.00970199890435
         0.00975250732154
         0.00980312097818
         0.00985383987427
         0.00990466587245
         0.00995559804142
         0.0100066363811
         0.0100577808917
         0.0101090334356
         0.0101603930816
         0.0102118598297
         0.0102634346113
         0.0103151174262
         0.0103669073433
         0.0104188071564
         0.0104708140716
         0.0105229308829
         0.0105751557276
         0.0106274904683
         0.0106799351051
         0.0107324887067
         0.0107851531357
         0.0108379265293
         0.0108908116817
         0.0109438067302
         0.0109969126061
         0.0110501293093
         0.0111034577712
         0.0111568979919
         0.0112104499713
         0.0112641137093
         0.0113178901374
         0.0113717783242
         0.0114257801324
         0.0114798946306
         0.0115341218188
         0.0115884635597
         0.0116429179907
         0.0116974869743
         0.0117521695793
         0.0118069667369
         0.0118618784472
         0.0119169056416
         0.0119720473886
         0.0120273046196
         0.0120826773345
         0.0121381664649
         0.0121937710792
         0.0122494921088
         0.0123053304851
         0.0123612852767
         0.0124173564836
         0.0124735459685
         0.0125298518687
         0.0125862760469
         0.0126428185031
         0.0126994792372
         0.0127562591806
         0.0128131564707
         0.0128701739013
         0.0129273105413
         0.0129845663905
         0.0130419423804
         0.0130994375795
         0.0131570538506
         0.0132147902623
         0.0132726477459
         0.0133306263015
         0.013388725929
         0.0134469475597
         0.0135052902624
         0.0135637558997
         0.0136223426089
         0.013681053184
         0.0137398857623
         0.0137988422066
         0.0138579215854
         0.0139171238989
         0.0139764510095
         0.0140359019861
         0.0140954777598
         0.0141551773995
         0.0142150018364
         0.0142749520019
         0.0143350278959
         0.0143952285871
         0.0144555559382
         0.0145160090178
         0.0145765887573
         0.014637296088
         0.0146981291473
         0.0147590897977
         0.0148201789707
         0.0148813948035
         0.0149427391589
         0.0150042120367
         0.0150658125058
         0.01512754336
         0.0151894027367
         0.015251390636
         0.0153135098517
         0.0153757575899
         0.0154381366447
         0.0155006451532
         0.0155632849783
         0.0156260561198
         0.0156889576465
         0.0157519932836
         0.0158151574433
         0.0158784557134
         0.0159418862313
         0.016005448997
         0.0160691458732
         0.0161329749972
         0.0161969382316
         0.0162610337138
         0.0163252651691
         0.0163896307349
         0.0164541304111
         0.0165187641978
         0.0165835358202
         0.0166484396905
         0.0167134813964
         0.0167786590755
         0.0168439727277
         0.0169094242156
         0.0169750116765
         0.0170407351106
         0.0171065982431
         0.0171725973487
         0.0172387361526
         0.0173050109297
         0.0173714272678
         0.0174379814416
         0.0175046734512
         0.0175715070218
         0.0176384784281
         0.0177055913955
         0.0177728440613
         0.017840238288
         0.0179077740759
         0.0179754495621
         0.0180432666093
         0.0181112270802
         0.0181793291122
         0.0182475727051
         0.0183159597218
         0.0183844901621
         0.0184531640261
         0.0185219813138
         0.0185909420252
         0.0186600480229
         0.0187292974442
         0.0187986921519
         0.0188682321459
         0.0189379174262
         0.0190077498555
         0.0190777275711
         0.0191478505731
         0.019218120724
         0.0192885398865
         0.0193591043353
         0.0194298159331
         0.0195006765425
         0.0195716861635
         0.0196428429335
         0.0197141505778
         0.019785605371
         0.0198572110385
         0.0199289657176
         0.0200008694082
         0.0200729258358
         0.0201451312751
         0.0202174875885
         0.0202899966389
         0.0203626565635
         0.020435469225
         0.0205084346235
         0.0205815508962
         0.0206548217684
         0.0207282453775
         0.0208018217236
         0.0208755526692
         0.0209494382143
         0.021023478359
         0.0210976731032
         0.0211720243096
         0.021246528253
         0.0213211905211
         0.0213960073888
         0.0214709825814
         0.0215461142361
         0.021621402353
         0.0216968469322
         0.0217724516988
         0.0218482129276
         0.0219241343439
         0.0220002122223
         0.0220764502883
         0.0221528485417
         0.0222294069827
         0.0223061237484
         0.0223830025643
         0.0224600415677
         0.0225372426212
         0.0226146038622
         0.0226921290159
         0.0227698143572
         0.0228476636112
         0.0229256749153
         0.0230038482696
         0.0230821873993
         0.0231606885791
         0.0232393555343
         0.0233181864023
         0.0233971830457
         0.0234763436019
         0.0235556699336
         0.0236351639032
         0.0237148217857
         0.0237946473062
         0.0238746404648
         0.0239548012614
         0.0240351278335
         0.0241156239063
         0.0241962894797
         0.0242771208286
         0.0243581235409
         0.0244392957538
         0.0245206374675
         0.0246021486819
         0.0246838312596
         0.024765683338
         0.0248477086425
         0.0249299034476
         0.0250122714788
         0.0250948127359
         0.0251775253564
         0.0252604112029
         0.0253434702754
         0.0254267044365
         0.0255101118237
         0.0255936924368
         0.0256774500012
         0.0257613807917
         0.0258454885334
         0.0259297732264
         0.026014233008
         0.026098869741
         0.0261836834252
         0.0262686740607
         0.0263538435102
         0.0264391899109
         0.0265247151256
         0.0266104191542
         0.0266963038594
         0.0267823673785
         0.0268686115742
         0.0269550345838
         0.0270416401327
         0.0271284263581
         0.0272153932601
         0.027302544564
         0.0273898765445
         0.0274773910642
         0.0275650881231
         0.0276529695839
         0.0277410354465
         0.0278292838484
         0.0279177185148
         0.0280063375831
         0.0280951410532
         0.0281841326505
         0.0282733086497
         0.0283626709133
         0.0284522213042
         0.0285419579595
         0.0286318846047
         0.0287219975144
         0.0288122985512
         0.0289027895778
         0.0289934687316
         0.0290843397379
         0.0291753988713
         0.0292666498572
         0.0293580908328
         0.0294497236609
         0.0295415483415
         0.0296335648745
         0.02972577326
         0.0298181753606
         0.0299107711762
         0.0300035588443
         0.0300965420902
         0.0301897209138
         0.0302830934525
         0.0303766615689
         0.030470425263
         0.030564384535
         0.0306585412472
         0.0307528935373
         0.0308474451303
         0.0309421941638
         0.0310371406376
         0.0311322864145
         0.0312276314944
         0.0313231758773
         0.0314189195633
         0.0315148644149
         0.031611006707
         0.0317073538899
         0.0318039022386
         0.0319006517529
         0.0319976061583
         0.032094758004
         0.0321921184659
         0.0322896800935
