aces_1.0.0/luts/V3 LogC_200_to_linear.spi1d
Version 1
From 0.000000 1.000000
Length 4096
Components 1
{
         -0.0160626843572
         -0.00720993243158
         -0.00719600496814
         -0.00718204816803
         -0.00716806203127
         -0.00715404609218
         -0.00714000035077
         -0.0071259252727
         -0.00711182039231
         -0.00709768524393
         -0.00708352029324
         -0.00706932554021
         -0.00705510098487
         -0.00704084569588
         -0.00702656060457
         -0.00701224571094
         -0.00699790008366
         -0.00698352372274
         -0.00696911755949
         -0.0069546806626
         -0.00694021303207
         -0.00692571513355
         -0.00691118650138
         -0.00689662713557
         -0.00688203657046
         -0.00686741573736
         -0.00685276370496
         -0.00683808047324
         -0.00682336604223
         -0.00680862087756
         -0.0067938445136
         -0.00677903648466
         -0.00676419772208
         -0.00674932729453
         -0.00673442520201
         -0.00671949144453
         -0.00670452648774
         -0.00668952986598
         -0.00667450111359
         -0.0066594411619
         -0.00664434861392
         -0.00662922486663
         -0.00661406852305
         -0.0065988805145
         -0.00658365990967
         -0.00656840763986
         -0.00655312277377
         -0.00653780577704
         -0.00652245618403
         -0.00650707399473
         -0.00649165920913
         -0.00647621229291
         -0.00646073231474
         -0.00644521974027
         -0.00642967410386
         -0.00641409587115
         -0.00639848457649
         -0.00638284021989
         -0.00636716280133
         -0.00635145185515
         -0.00633570784703
         -0.00631993077695
         -0.00630412017927
         -0.00628827605397
         -0.00627239840105
         -0.00625648722053
         -0.00624054251239
         -0.00622456381097
         -0.00620855158195
         -0.00619250535965
         -0.00617642514408
         -0.00616031093523
         -0.00614416226745
         -0.00612798007205
         -0.00611176295206
         -0.00609551230446
         -0.00607922673225
         -0.00606290670112
         -0.00604655221105
         -0.00603016326204
         -0.00601373938844
         -0.00599728059024
         -0.0059807873331
         -0.00596425915137
         -0.00594769604504
         -0.00593109754845
         -0.00591446412727
         -0.00589779578149
         -0.00588109204546
         -0.00586435291916
         -0.00584757793695
         -0.00583076803014
         -0.00581392226741
         -0.00579704111442
         -0.00578012363985
         -0.00576317077503
         -0.00574618205428
         -0.00572915747762
         -0.00571209704503
         -0.00569499982521
         -0.00567786721513
         -0.0056606978178
         -0.0056434920989
         -0.00562625005841
         -0.00560897169635
         -0.00559165654704
         -0.00557430507615
         -0.00555691681802
         -0.00553949130699
         -0.00552202947438
         -0.00550453038886
         -0.0054869945161
         -0.00546942139044
         -0.00545181101188
         -0.00543416338041
         -0.00541647849604
         -0.00539875589311
         -0.00538099603727
         -0.00536319892853
         -0.00534536363557
         -0.00532749062404
         -0.00530958035961
         -0.00529163144529
         -0.00527364527807
         -0.00525562046096
         -0.00523755792528
         -0.00521945673972
         -0.00520131736994
         -0.00518313981593
         -0.00516492361203
         -0.0051466692239
         -0.00512837572023
         -0.00511004356667
         -0.00509167276323
         -0.0050732633099
         -0.00505481474102
         -0.00503632705659
         -0.00501780025661
         -0.00499923434108
         -0.00498062884435
         -0.00496198423207
         -0.00494330050424
         -0.00492457672954
         -0.00490581337363
         -0.00488701043651
         -0.00486816791818
         -0.00484928488731
         -0.00483036227524
         -0.00481140008196
         -0.00479239691049
         -0.00477335415781
         -0.00475427089259
         -0.00473514711484
         -0.00471598329023
         -0.00469677848741
         -0.00467753317207
         -0.0046582473442
         -0.00463892053813
         -0.00461955275387
         -0.00460014399141
         -0.00458069425076
         -0.00456120353192
         -0.00454167136922
         -0.00452209776267
         -0.00450248271227
         -0.00448282621801
         -0.00446312827989
         -0.00444338843226
         -0.00442360714078
         -0.00440378393978
         -0.0043839183636
         -0.00436401134357
         -0.0043440614827
         -0.00432407017797
         -0.00430403603241
         -0.00428395951167
         -0.00426384108141
         -0.00424367934465
         -0.00422347523272
         -0.00420322874561
         -0.004182938952
         -0.00416260631755
         -0.00414223084226
         -0.00412181206048
         -0.00410134997219
         -0.0040808445774
         -0.00406029587612
         -0.00403970386833
         -0.00401906808838
         -0.00399838900194
         -0.00397766567767
         -0.00395689858124
         -0.00393608771265
         -0.00391523307189
         -0.00389433396049
         -0.00387339061126
         -0.00385240302421
         -0.00383137096651
         -0.00381029443815
         -0.00378917320631
         -0.00376800727099
         -0.00374679663219
         -0.0037255412899
         -0.00370424077846
         -0.00368289509788
         -0.00366150448099
         -0.00364006846212
         -0.00361858704127
         -0.00359706021845
         -0.00357548799366
         -0.00355386990122
         -0.00353220617399
         -0.00351049657911
         -0.0034887411166
         -0.00346693955362
         -0.00344509165734
         -0.00342319789343
         -0.00340125756338
         -0.00337927090004
         -0.00335723767057
         -0.00333515787497
         -0.00331303128041
         -0.0032908578869
         -0.00326863746159
         -0.00324637023732
         -0.00322405574843
         -0.00320169422776
         -0.00317928520963
         -0.00315682869405
         -0.00313432491384
         -0.00311177340336
         -0.0030891741626
         -0.00306652695872
         -0.00304383202456
         -0.00302108889446
         -0.00299829780124
         -0.00297545851208
         -0.00295257079415
         -0.00292963464744
         -0.00290664983913
         -0.00288361660205
         -0.00286053447053
         -0.0028374036774
         -0.00281422375701
         -0.00279099494219
         -0.00276771676727
         -0.00274438946508
         -0.00272101280279
         -0.00269758678041
         -0.00267411116511
         -0.00265058572404
         -0.00262701045722
         -0.00260338559747
         -0.0025797104463
         -0.00255598523654
         -0.00253220996819
         -0.00250838440843
         -0.00248450832441
         -0.00246058171615
         -0.00243660435081
         -0.00241257646121
         -0.00238849781454
         -0.00236436794512
         -0.00234018708579
         -0.00231595523655
         -0.00229167193174
         -0.00226733717136
         -0.00224295118824
         -0.00221851328388
         -0.00219402392395
         -0.00216948264278
         -0.00214488944039
         -0.00212024431676
         -0.00209554680623
         -0.00207079714164
         -0.00204599509016
         -0.00202114065178
         -0.00199623359367
         -0.00197127368301
         -0.00194626103621
         -0.00192119553685
         -0.00189607695211
         -0.00187090516556
         -0.00184568017721
         -0.00182040175423
         -0.00179506989662
         -0.00176968437154
         -0.001744245179
         -0.00171875220258
         -0.00169320520945
         -0.00166760419961
         -0.00164194894023
         -0.00161623943131
         -0.00159047555644
         -0.0015646571992
         -0.00153878412675
         -0.0015128563391
         -0.00148687360343
         -0.00146083603613
         -0.00143474328797
         -0.00140859524254
         -0.00138239201624
         -0.00135613325983
         -0.00132981897332
         -0.00130344892386
         -0.00127702322789
         -0.00125054153614
         -0.0012240037322
         -0.00119740981609
         -0.00117075967137
         -0.00114405306522
         -0.00111728999764
         -0.00109047035221
         -0.00106359389611
         -0.00103666051291
         -0.00100967020262
         -0.000982622732408
         -0.000955518102273
         -0.000928356079385
         -0.000901136547327
         -0.000873859447893
         -0.000846524664667
         -0.000819131964818
         -0.000791681348346
         -0.000764172640629
         -0.000736605725251
         -0.000708980427589
         -0.000681296747644
         -0.000653554452583
         -0.000625753425993
         -0.000597893609665
         -0.000569974828977
         -0.000541996967513
         -0.000513959908858
         -0.000485863507492
         -0.000457707647001
         -0.000429492240073
         -0.000401217112085
         -0.000372882146621
         -0.000344487198163
         -0.000316032208502
         -0.000287516973913
         -0.000258941436186
         -0.000230305391597
         -0.000201608781936
         -0.000172851432581
         -0.000144033227116
         -0.000115154049126
         -8.6213760369e-05
         -5.72122262383e-05
         -2.81493285001e-05
         9.75069838205e-07
         3.01610962197e-05
         5.94088851358e-05
         8.87185597094e-05
         0.000118090254546
         0.000147524115164
         0.000177020236151
         0.000206578784855
         0.000236199892242
         0.000265883660177
         0.000295630248729
         0.000325439788867
         0.000355312397005
         0.000385248247767
         0.00041524739936
         0.000445310055511
         0.000475436332636
         0.000505626318045
         0.000535880273674
         0.000566198141314
         0.000596580212004
         0.00062702660216
         0.000657537369989
         0.000688112748321
         0.000718752795365
         0.000749457685743
         0.00078022753587
         0.00081106252037
         0.000841962755658
         0.000872928358149
         0.000903959502466
         0.000935056305025
         0.00096621888224
         0.000997447408736
         0.00102874205913
         0.00106010294985
         0.00109153008088
         0.00112302380148
         0.00115458422806
         0.00118621136062
         0.00121790543199
         0.00124966655858
         0.00128149485681
         0.00131339055952
         0.00134535366669
         0.00137738452759
         0.0014094831422
         0.00144164962694
         0.00147388421465
         0.00150618702173
         0.00153855816461
         0.0015709977597
         0.00160350615624
         0.00163608323783
         0.00166872923728
         0.00170144427102
         0.00173422868829
         0.00176708237268
         0.00180000555702
         0.00183299847413
         0.00186606112402
         0.00189919385593
         0.00193239655346
         0.00196566968225
         0.0019990131259
         0.00203242711723
         0.00206591165625
         0.00209946744144
         0.00213309400715
         0.00216679158621
         0.00220056064427
         0.00223440118134
         0.00226831319742
         0.00230229715817
         0.00233635283075
         0.00237048068084
         0.00240468070842
         0.00243895314634
         0.00247329799458
         0.00250771571882
         0.00254220608622
         0.00257676956244
         0.00261140614748
         0.00264611607417
         0.00268089934252
         0.00271575618535
         0.0027506868355
         0.00278569152579
         0.00282077025622
         0.0028559230268
         0.00289115030318
         0.00292645208538
         0.0029618286062
         0.0029972800985
         0.00303280656226
         0.00306840799749
         0.00310408486985
         0.00313983741216
         0.00317566539161
         0.00321156927384
         0.00324754905887
         0.00328360497952
         0.00331973726861
         0.00335594615899
         0.00339223141782
         0.00342859351076
         0.00346503267065
         0.00350154889748
         0.00353814242408
         0.00357481325045
         0.00361156160943
         0.00364838796668
         0.00368529208936
         0.00372227444313
         0.00375933502801
         0.00379647384398
         0.0038336913567
         0.00387098779902
         0.00390836270526
         0.00394581723958
         0.00398335093632
         0.00402096379548
         0.00405865628272
         0.0040964288637
         0.00413428107277
         0.00417221337557
         0.00421022577211
         0.00424831919372
         0.00428649270907
         0.00432474724948
         0.0043630823493
         0.00440149893984
         0.00443999702111
         0.00447857612744
         0.00451723719016
         0.0045559797436
         0.00459480425343
         0.00463371118531
         0.00467270053923
         0.0047117723152
         0.00475092651322
         0.00479016359895
         0.00482948403805
         0.00486888736486
         0.00490837451071
         0.00494794454426
         0.0049875988625
         0.00502733699977
         0.00506715895608
         0.00510706519708
         0.00514705618843
         0.00518713146448
         0.00522729195654
         0.00526753719896
         0.00530786765739
         0.00534828333184
         0.00538878468797
         0.00542937172577
         0.00547004444525
         0.00551080331206
         0.00555164832622
         0.00559257995337
         0.00563359819353
         0.00567470351234
         0.00571589544415
         0.00575717445463
         0.00579854100943
         0.00583999510854
         0.00588153675199
         0.00592316640541
         0.00596488406882
         0.00600669020787
         0.00604858482257
         0.00609056791291
         0.00613263994455
         0.00617480091751
         0.00621705083176
         0.00625939061865
         0.00630181981251
         0.00634433887899
         0.0063869478181
         0.0064296470955
         0.00647243671119
         0.00651531666517
         0.0065582874231
         0.00660134898499
         0.00664450181648
         0.00668774591759
         0.00673108175397
         0.00677450885996
         0.00681802816689
         0.00686163967475
         0.00690534338355
         0.00694913929328
         0.00699302833527
         0.0070370095782
         0.00708108441904
         0.00712525239214
         0.00716951396316
         0.0072138691321
         0.00725831789896
         0.00730286119506
         0.00734749808908
         0.007392229978
         0.00743705639616
         0.00748197780922
         0.00752699375153
         0.00757210562006
         0.00761731248349
         0.00766261527315
         0.00770801352337
         0.00775350816548
         0.00779909919947
         0.00784478615969
         0.00789057090878
         0.0079364515841
         0.00798242911696
         0.0080285044387
         0.0080746775493
         0.00812094844878
         0.0081673162058
         0.00821378268301
         0.00826034788042
         0.0083070108667
         0.0083537735045
         0.00840063393116
         0.00844759494066
         0.00849465373904
         0.00854181312025
         0.00858907215297
         0.00863643083721
         0.00868389010429
         0.00873144995421
         0.00877911038697
         0.00882687140256
         0.00887473393232
         0.00892269704491
         0.00897076167166
         0.0090189287439
         0.0090671973303
         0.00911556836218
         0.00916404090822
         0.00921261683106
         0.00926129519939
         0.00931007694453
         0.00935896113515
         0.0094079496339
         0.00945704150945
         0.00950623676181
         0.0095555363223
         0.00960494019091
         0.00965444929898
         0.00970406271517
         0.00975378137082
         0.00980360433459
         0.00985353346914
         0.00990356784314
         0.00995370838791
         0.0100039551035
         0.0100543079898
         0.0101047679782
         0.0101553341374
         0.0102060073987
         0.010256787762
         0.0103076761588
         0.0103586716577
         0.0104097751901
         0.0104609867558
         0.0105123072863
         0.0105637358502
         0.0106152733788
         0.0106669198722
         0.0107186753303
         0.0107705406845
         0.0108225159347
         0.010874601081
         0.0109267961234
         0.0109791019931
         0.0110315186903
         0.0110840452835
         0.0111366845667
         0.011189433746
         0.0112422956154
         0.0112952692434
         0.0113483546302
         0.0114015517756
         0.0114548625425
         0.0115082859993
         0.0115618221462
         0.0116154719144
         0.0116692343727
         0.0117231113836
         0.0117771020159
         0.0118312072009
         0.0118854269385
         0.0119397612289
         0.0119942100719
         0.0120487743989
         0.0121034542099
         0.0121582504362
         0.0122131621465
         0.0122681893408
         0.0123233338818
         0.0123785948381
         0.0124339722097
         0.0124894678593
         0.0125450799242
         0.012600810267
         0.0126566579565
         0.0127126248553
         0.0127687091008
         0.0128249125555
         0.0128812342882
         0.0129376761615
         0.0129942372441
         0.013050917536
         0.0131077179685
         0.0131646385416
         0.0132216801867
         0.0132788419724
         0.0133361248299
         0.0133935287595
         0.0134510546923
         0.013508701697
         0.013566470705
         0.0136243626475
         0.0136823765934
         0.0137405125424
         0.0137987723574
         0.0138571560383
         0.0139156626537
         0.0139742922038
         0.0140330474824
         0.0140919256955
         0.0141509296373
         0.0142100574449
         0.014269310981
         0.0143286893144
         0.0143881933764
         0.0144478240982
         0.0145075805485
         0.0145674636588
         0.0146274734288
         0.0146876098588
         0.01474787388
         0.014808264561
         0.0148687837645
         0.0149294314906
         0.0149902068079
         0.0150511106476
         0.0151121439412
         0.0151733066887
         0.0152345979586
         0.0152960196137
         0.0153575707227
         0.0154192522168
         0.0154810640961
         0.0155430072919
         0.0156050808728
         0.0156672857702
         0.0157296229154
         0.0157920923084
         0.0158546939492
         0.0159174259752
         0.0159802921116
         0.0160432923585
         0.0161064248532
         0.0161696914583
         0.0162330903113
         0.0162966251373
         0.0163602940738
         0.0164240971208
         0.0164880361408
         0.0165521092713
         0.0166163183749
         0.0166806634516
         0.0167451445013
         0.0168097633868
         0.0168745163828
         0.0169394090772
         0.0170044377446
         0.0170696042478
         0.0171349085867
         0.0172003507614
         0.0172659307718
         0.0173316504806
         0.0173975098878
         0.0174635089934
         0.0175296459347
         0.017595924437
         0.0176623426378
         0.0177289005369
         0.017795599997
         0.0178624410182
         0.0179294217378
         0.017996545881
         0.0180638115853
         0.0181312207133
         0.0181987714022
         0.0182664636523
         0.0183343011886
         0.0184022821486
         0.0184704065323
         0.0185386743397
         0.0186070874333
         0.0186756458133
         0.018744347617
         0.0188131965697
         0.0188821908087
         0.0189513303339
         0.0190206170082
         0.0190900489688
         0.0191596280783
         0.0192293561995
         0.019299229607
         0.0193692520261
         0.0194394234568
         0.0195097420365
         0.0195802096277
         0.0196508262306
         0.0197215937078
         0.0197925083339
         0.0198635756969
         0.0199347920716
         0.0200061593205
         0.0200776774436
         0.020149346441
         0.0202211681753
         0.0202931407839
         0.0203652661294
         0.0204375442117
         0.0205099768937
         0.0205825604498
         0.0206552986056
         0.0207281894982
         0.020801236853
         0.0208744369447
         0.0209477934986
         0.0210213027894
         0.0210949704051
         0.0211687926203
         0.0212427712977
         0.0213169064373
         0.0213911980391
         0.021465646103
         0.0215402524918
         0.0216150172055
         0.021689940244
         0.0217650216073
         0.0218402612954
         0.0219156611711
         0.0219912193716
         0.0220669377595
         0.0221428181976
         0.0222188569605
         0.0222950577736
         0.0223714187741
         0.0224479418248
         0.0225246269256
         0.0226014759392
         0.0226784851402
         0.022755658254
         0.0228329952806
         0.0229104943573
         0.0229881592095
         0.0230659861118
         0.0231439806521
         0.0232221372426
         0.0233004614711
         0.023378951475
         0.0234576053917
         0.0235364269465
         0.0236154161394
         0.0236945711076
         0.0237738955766
         0.023853385821
         0.0239330455661
         0.0240128729492
         0.0240928698331
         0.0241730362177
         0.024253372103
         0.024333877489
         0.0244145523757
         0.0244954004884
         0.0245764181018
         0.0246576070786
         0.0247389674187
         0.0248205009848
         0.0249022059143
         0.0249840859324
         0.0250661373138
         0.0251483619213
         0.0252307616174
         0.0253133364022
         0.0253960844129
         0.0254790075123
         0.025562107563
         0.0256453827024
         0.0257288329303
         0.0258124601096
         0.0258962661028
         0.0259802471846
         0.0260644070804
         0.0261487457901
         0.0262332614511
         0.0263179577887
         0.0264028310776
         0.026487885043
         0.0265731196851
         0.026658533141
         0.0267441291362
         0.026829905808
         0.0269158631563
         0.0270020030439
         0.027088323608
         0.0271748285741
         0.0272615160793
         0.0273483879864
         0.0274354424328
         0.027522681281
         0.027610104531
         0.0276977140456
         0.0277855079621
         0.0278734881431
         0.0279616527259
         0.0280500054359
         0.0281385462731
         0.0282272733748
         0.028316186741
         0.028405290097
         0.0284945815802
         0.0285840611905
         0.0286737307906
         0.0287635903805
         0.0288536399603
         0.0289438795298
         0.0290343109518
         0.0291249342263
         0.0292157474905
         0.0293067544699
         0.0293979533017
         0.0294893439859
         0.0295809302479
         0.0296727083623
         0.0297646820545
         0.0298568494618
         0.0299492124468
         0.0300417710096
         0.0301345251501
         0.0302274767309
         0.0303206238896
         0.0304139684886
         0.0305075086653
         0.0306012500077
         0.0306951869279
         0.0307893250138
         0.03088366054
         0.0309781953692
         0.0310729313642
         0.0311678685248
         0.0312630049884
         0.0313583426178
         0.031453885138
         0.0315496250987
         0.0316455699503
         0.0317417196929
         0.0318380706012
         0.0319346264005
         0.0320313870907
