aces_1.0.0/luts/V3 LogC_1280_to_linear.spi1d
Version 1
From 0.000000 1.000000
Length 1024
Components 1
{
         -0.0177504550666
         -0.00325692212209
         -0.00321459164843
         -0.00317186373286
         -0.00312873465009
         -0.003085200442
         -0.0030412573833
         -0.0029969017487
         -0.00295212958008
         -0.00290693691932
         -0.00286131980829
         -0.00281527452171
         -0.00276879663579
         -0.00272188242525
         -0.00267452769913
         -0.00262672826648
         -0.00257847970352
         -0.00252977828495
         -0.002480619587
         -0.00243099918589
         -0.00238091265783
         -0.00233035604469
         -0.00227932445705
         -0.00222781370394
         -0.00217581936158
         -0.00212333654054
         -0.00207036104985
         -0.00201688800007
         -0.0019629127346
         -0.00190843071323
         -0.00185343704652
         -0.00179792684503
         -0.00174189545214
         -0.00168533797842
         -0.00162824930158
         -0.00157062453218
         -0.00151245854795
         -0.00145374645945
         -0.00139448302798
         -0.00133466301486
         -0.0012742811814
         -0.00121333240531
         -0.00115181133151
         -0.00108971248847
         -0.00102703052107
         -0.000963759841397
         -0.000899895036127
         -0.000835430517327
         -0.000770360638853
         -0.000704679696355
         -0.000638381985482
         -0.000571461685468
         -0.000503912917338
         -0.000435729889432
         -0.000366906519048
         -0.000297436869005
         -0.000227314871154
         -0.000156534355483
         -8.50891665323e-05
         -1.29730633489e-05
         5.98202641413e-05
         0.000133297173306
         0.00020746406517
         0.0002823274408
         0.000357893848559
         0.000434169865912
         0.000511162157636
         0.00058887747582
         0.000667322601657
         0.000746504403651
         0.000826429692097
         0.000907105626538
         0.000988539075479
         0.00107073725667
         0.00115370738786
         0.00123745668679
         0.00132199237123
         0.00140732200816
         0.00149345281534
         0.00158039247617
         0.00166814867407
         0.00175672885962
         0.00184614094906
         0.00193639262579
         0.00202749180607
         0.00211944640614
         0.00221226457506
         0.00230595446192
         0.00240052421577
         0.0024959819857
         0.00259233592078
         0.00268959486857
         0.00278776721098
         0.00288686156273
         0.00298688630573
         0.00308785028756
         0.00318976258859
         0.00329263159074
         0.00339646684006
         0.00350127718411
         0.0036070717033
         0.00371385971084
         0.00382165051997
         0.00393045367673
         0.00404027849436
         0.00415113475174
         0.00426303176209
         0.00437597976997
         0.00448998855427
         0.0046050674282
         0.00472122756764
         0.00483847828582
         0.00495682982728
         0.00507629290223
         0.00519687822089
         0.00531859556213
         0.00544145610183
         0.00556547008455
         0.00569064868614
         0.00581700308248
         0.00594454398379
         0.00607328256592
         0.00620323000476
         0.00633439747617
         0.00646679708734
         0.00660044001415
         0.00673533743247
         0.00687150238082
         0.0070089455694
         0.00714767957106
         0.00728771602735
         0.00742906797677
         0.00757174706087
         0.00771576631814
         0.00786113739014
         0.00800787471235
         0.00815598852932
         0.00830549467355
         0.0084564043209
         0.00860873050988
         0.00876248721033
         0.0089176883921
         0.0090743470937
         0.00923247635365
         0.0093920910731
         0.00955320429057
         0.0097158299759
         0.00987998396158
         0.0100456783548
         0.0102129299194
         0.0103817516938
         0.0105521585792
         0.0107241654769
         0.0108977872878
         0.011073040776
         0.0112499389797
         0.011428498663
         0.0116087356582
         0.0117906648666
         0.0119743021205
         0.0121596641839
         0.0123467668891
         0.012535627
         0.0127262603492
         0.0129186837003
         0.0131129138172
         0.013308968395
         0.0135068641976
         0.0137066179886
         0.0139082474634
         0.014111770317
         0.0143172051758
         0.0145245688036
         0.0147338788956
         0.0149451559409
         0.015158415772
         0.0153736788779
         0.0155909638852
         0.0158102884889
         0.0160316731781
         0.0162551365793
         0.0164806991816
         0.0167083796114
         0.0169381964952
         0.0171701740474
         0.0174043290317
         0.0176406819373
         0.017879255116
         0.0181200690567
         0.0183631442487
         0.018608501181
         0.018856164068
         0.0191061515361
         0.0193584859371
         0.0196131914854
         0.0198702868074
         0.0201297979802
         0.0203917454928
         0.0206561535597
         0.0209230445325
         0.0211924407631
         0.0214643683285
         0.0217388477176
         0.0220159050077
         0.0222955644131
         0.0225778501481
         0.0228627882898
         0.0231503993273
         0.0234407130629
         0.023733753711
         0.0240295436233
         0.0243281126022
         0.0246294867247
         0.0249336883426
         0.0252407491207
         0.0255506914109
         0.0258635450155
         0.0261793360114
         0.0264980942011
         0.0268198437989
         0.0271446164697
         0.0274724382907
         0.0278033390641
         0.028137344867
         0.0284744892269
         0.0288148000836
         0.0291583053768
         0.0295050367713
         0.0298550259322
         0.0302082989365
         0.0305648911744
         0.0309248324484
         0.0312881506979
         0.0316548831761
         0.0320250615478
         0.03239871189
         0.032775875181
         0.0331565774977
         0.0335408560932
         0.0339287407696
         0.0343202725053
         0.0347154773772
         0.0351143963635
         0.0355170592666
         0.0359235033393
         0.0363337658346
         0.03674788028
         0.0371658802032
         0.0375878103077
         0.0380137003958
         0.0384435914457
         0.0388775169849
         0.0393155179918
         0.0397576354444
         0.0402038991451
         0.0406543575227
         0.0411090441048
         0.0415680035949
         0.0420312695205
         0.0424988865852
         0.0429708957672
         0.0434473380446
         0.0439282543957
         0.0444136857986
         0.0449036732316
         0.0453982651234
         0.0458975024521
         0.0464014261961
         0.0469100810587
         0.0474235154688
         0.0479417704046
         0.0484648905694
         0.0489929243922
         0.0495259165764
         0.0500639155507
         0.0506069622934
         0.0511551126838
         0.0517084114254
         0.0522669032216
         0.0528306402266
         0.0533996708691
         0.0539740473032
         0.0545538142323
         0.0551390275359
         0.0557297356427
         0.0563259907067
         0.056927844882
         0.057535354048
         0.0581485629082
         0.0587675347924
         0.0593923181295
         0.0600229650736
         0.0606595389545
         0.061302088201
         0.0619506724179
         0.0626053437591
         0.0632661655545
         0.0639331936836
         0.064606487751
         0.0652860999107
         0.065972097218
         0.0666645392776
         0.0673634782434
         0.0680689811707
         0.0687811151147
         0.0694999322295
         0.0702254995704
         0.0709578767419
         0.0716971382499
         0.0724433362484
         0.0731965452433
         0.0739568248391
         0.0747242420912
         0.0754988715053
         0.076280772686
         0.0770700201392
         0.0778666734695
         0.0786708071828
         0.0794824957848
         0.0803018063307
         0.0811288133264
         0.081963583827
         0.0828061923385
         0.0836567133665
         0.084515221417
         0.0853817909956
         0.0862565040588
         0.0871394276619
         0.0880306363106
         0.0889302194118
         0.0898382514715
         0.0907548069954
         0.0916799753904
         0.0926138311625
         0.0935564488173
         0.0945079252124
         0.0954683348536
         0.0964377596974
         0.0974162966013
         0.0984040126204
         0.099401012063
         0.100407369435
         0.101423181593
         0.102448530495
         0.103483505547
         0.104528203607
         0.10558270663
         0.106647118926
         0.10772152245
         0.108806014061
         0.109900698066
         0.111005648971
         0.112120985985
         0.113246798515
         0.114383175969
         0.115530230105
         0.11668805033
         0.117856748402
         0.119036413729
         0.12022716552
         0.121429093182
         0.122642315924
         0.123866923153
         0.12510304153
         0.12635076046
         0.127610191703
         0.128881454468
         0.130164653063
         0.131459906697
         0.132767319679
         0.134087011218
         0.135419085622
         0.136763677001
         0.138120904565
         0.139490872622
         0.14087370038
         0.142269521952
         0.143678441644
         0.145100593567
         0.146536096931
         0.147985085845
         0.149447694421
         0.150924012065
         0.152414217591
         0.153918400407
         0.155436724424
         0.156969293952
         0.158516258001
         0.160077750683
         0.161653906107
         0.163244858384
         0.164850756526
         0.166471734643
         0.168107926846
         0.169759497046
         0.171426564455
         0.173109292984
         0.174807831645
         0.176522299647
         0.178252890706
         0.17999972403
         0.181762948632
         0.183542743325
         0.185339257121
         0.187152639031
         0.188983038068
         0.190830633044
         0.192695572972
         0.194578036666
         0.196478173137
         0.198396161199
         0.200332149863
         0.202286317945
         0.204258844256
         0.206249892712
         0.208259627223
         0.210288241506
         0.212335914373
         0.214402809739
         0.216489106417
         0.218595013022
         0.220720678568
         0.222866311669
         0.225032091141
         0.227218210697
         0.229424864054
         0.231652230024
         0.233900532126
         0.236169934273
         0.23846064508
         0.240772858262
         0.243106797338
         0.245462656021
         0.247840628028
         0.250240951777
         0.25266379118
         0.255109399557
         0.257577955723
         0.260069698095
         0.262584865093
         0.26512363553
         0.267686218023
         0.270272910595
         0.272883862257
         0.27551934123
         0.278179585934
         0.280864804983
         0.283575206995
         0.286311089993
         0.289072662592
         0.291860193014
         0.294673860073
         0.297513961792
         0.300380736589
         0.303274422884
         0.306195318699
         0.309143602848
         0.312119603157
         0.315123528242
         0.318155676126
         0.321216285229
         0.32430562377
         0.327423989773
         0.330571651459
         0.333748877048
         0.336955904961
         0.340193063021
         0.34346061945
         0.346758872271
         0.350088089705
         0.353448569775
         0.356840610504
         0.360264509916
         0.363720566034
         0.367209047079
         0.370730310678
         0.374284654856
         0.377872347832
         0.381493747234
         0.385149151087
         0.388838887215
         0.392563253641
         0.396322607994
         0.400117278099
         0.403947561979
         0.407813817263
         0.411716371775
         0.415655612946
         0.419631808996
         0.423645347357
         0.427696585655
         0.431785851717
         0.435913532972
         0.440079987049
         0.444285541773
         0.448530614376
         0.452815532684
         0.45714071393
         0.461506485939
         0.465913265944
         0.470361411572
         0.474851340055
         0.479383438826
         0.483958095312
         0.488575726748
         0.49323669076
         0.497941434383
         0.502690374851
         0.507483899593
         0.512322425842
         0.517206370831
         0.522136211395
         0.527112364769
         0.532135248184
         0.537205278873
         0.542322874069
         0.547488629818
         0.552702784538
         0.557965993881
         0.56327855587
         0.568641066551
         0.574053883553
         0.579517602921
         0.585032582283
         0.590599358082
         0.596218407154
         0.601890206337
         0.607615292072
         0.613394141197
         0.619227230549
         0.625115096569
         0.6310582757
         0.637057244778
         0.64311259985
         0.649224758148
         0.655394375324
         0.66162186861
         0.667907893658
         0.674252867699
         0.680657505989
         0.687122285366
         0.693647742271
         0.700234472752
         0.706883072853
         0.713594079018
         0.720368146896
         0.727205812931
         0.734107673168
         0.741074383259
         0.748106479645
         0.755204617977
         0.762369453907
         0.769601523876
         0.77690154314
         0.784270107746
         0.79170781374
         0.799215435982
         0.806793510914
         0.814442813396
         0.822163879871
         0.829957485199
         0.83782428503
         0.845764935017
         0.853780150414
         0.861870646477
         0.870037138462
         0.878280282021
         0.886600852013
         0.894999563694
         0.90347713232
         0.912034332752
         0.920671880245
         0.929390490055
         0.938191056252
         0.947074234486
         0.956040799618
         0.965091586113
         0.974227368832
         0.983448982239
         0.99275714159
         1.00215268135
         1.01163649559
         1.02120935917
         1.03087222576
         1.04062569141
         1.05047082901
         1.06040835381
         1.07043921947
         1.08056426048
         1.0907844305
         1.101100564
         1.11151361465
         1.12202441692
         1.13263392448
         1.1433429718
         1.15415275097
         1.16506385803
         1.17607760429
         1.18719470501
         1.19841611385
         1.20974302292
         1.22117626667
         1.23271679878
         1.24436581135
         1.25612413883
         1.26799297333
         1.2799731493
         1.29206597805
         1.30427217484
         1.31659317017
         1.32902979851
         1.34158313274
         1.35425448418
         1.36704480648
         1.37995517254
         1.39298677444
         1.40614080429
         1.41941833496
         1.43282055855
         1.44634866714
         1.46000385284
         1.47378718853
         1.4876999855
         1.50174343586
         1.51591873169
         1.5302271843
         1.54466998577
         1.55924832821
         1.57396364212
         1.58881723881
         1.60381019115
         1.61894404888
         1.63421988487
         1.64963924885
         1.66520345211
         1.68091368675
         1.6967716217
         1.71277832985
         1.72893548012
         1.7452442646
         1.76170623302
         1.77832269669
         1.79509532452
         1.81202542782
         1.8291144371
         1.8463640213
         1.86377561092
         1.88135063648
         1.8990906477
         1.91699743271
         1.93507218361
         1.95331680775
         1.97173273563
         1.99032151699
         2.00908493996
         2.02802443504
         2.04714202881
         2.06643891335
         2.08591723442
         2.10557818413
         2.12542390823
         2.14545607567
         2.16567635536
         2.18608641624
         2.20668816566
         2.22748351097
         2.24847388268
         2.26966166496
         2.29104804993
         2.31263566017
         2.33442568779
         2.35642051697
         2.37862181664
         2.40103173256
         2.42365193367
         2.44648456573
         2.4695315361
         2.49279522896
         2.51627707481
         2.53997969627
         2.56390476227
         2.58805441856
         2.61243081093
         2.63703632355
         2.66187286377
         2.68694257736
         2.71224761009
         2.73779058456
         2.76357316971
         2.78959798813
         2.81586694717
         2.84238290787
         2.86914777756
         2.89616394043
         2.92343378067
         2.95095968246
         2.97874426842
         3.00678944588
         3.03509831429
         3.06367278099
         3.09251570702
         3.12162947655
         3.15101671219
         3.18067979813
         3.21062135696
         3.24084424973
         3.27135109901
         3.3021440506
         3.33322644234
         3.36460065842
         3.39626955986
         3.42823576927
         3.46050214767
         3.49307155609
         3.52594661713
         3.55913066864
         3.59262633324
         3.62643647194
         3.66056418419
         3.69501209259
         3.72978377342
         3.76488184929
         3.80030965805
         3.83607006073
         3.87216639519
         3.90860152245
         3.94537901878
         3.98250174522
         4.01997280121
         4.05779600143
         4.09597444534
         4.13451147079
         4.17341041565
         4.21267461777
         4.25230741501
         4.29231214523
         4.33269309998
         4.37345266342
         4.41459560394
         4.45612430573
         4.49804353714
         4.54035615921
         4.58306598663
         4.62617683411
         4.66969299316
         4.71361732483
         4.75795459747
         4.80270767212
         4.84788131714
         4.89347934723
         4.93950557709
         4.98596382141
         5.03285837173
         5.08019304276
         5.12797260284
         5.17620038986
         5.22488164902
         5.27401971817
         5.32361936569
         5.37368440628
         5.42422008514
         5.47523021698
         5.52671909332
         5.57869195938
         5.63115262985
         5.68410587311
         5.73755645752
         5.79150867462
         5.84596824646
         5.90093851089
         5.95642518997
         6.01243305206
         6.06896686554
         6.12603187561
         6.18363237381
         6.24177360535
         6.30046129227
         6.3596997261
         6.41949462891
         6.47985076904
         6.54077386856
         6.60226917267
         6.66434192657
         6.72699785233
         6.79024171829
         6.85407972336
         6.91851711273
         6.98355960846
         7.04921293259
         7.11548280716
         7.18237495422
         7.24989557266
         7.31804990768
         7.38684415817
         7.45628452301
         7.52637720108
         7.59712791443
         7.66854333878
         7.74062871933
         7.81339168549
         7.88683748245
         7.96097326279
         8.03580570221
         8.11133956909
         8.18758392334
         8.26454353333
         8.34222602844
         8.42063903809
         8.49978733063
         8.57967853546
         8.66032123566
         8.74172019958
         8.82388401031
         8.90681934357
         8.99053287506
         9.07503318787
         9.1603269577
         9.24642181396
         9.33332443237
         9.42104434967
         9.5095872879
         9.59896183014
         9.68917560577
         9.7802362442
         9.87215232849
         9.96493148804
         10.0585813522
         10.1531114578
         10.2485294342
         10.3448429108
         10.4420614243
         10.5401916504
         10.6392440796
         10.7392272949
         10.8401489258
         10.9420185089
         11.0448446274
         11.1486358643
         11.2534017563
         11.3591518402
         11.4658956528
         11.5736408234
         11.6823978424
         11.7921762466
         11.9029865265
         12.0148363113
         12.1277370453
         12.2416973114
         12.3567285538
         12.4728393555
         12.5900411606
         12.7083425522
         12.827755928
         12.9482898712
         13.0699567795
         13.1927652359
         13.3167276382
         13.4418535233
         13.568154335
         13.6956415176
         13.8243255615
         13.9542188644
         14.0853319168
         14.217675209
         14.3512620926
         14.4861030579
         14.6222105026
         14.759595871
         14.8982715607
         15.0382490158
         15.1795415878
         15.3221607208
         15.4661197662
         15.6114301682
         15.758105278
         15.9061574936
         16.0555992126
         16.206445694
         16.358707428
         16.5124015808
         16.6675357819
         16.8241291046
         16.9821910858
         17.1417388916
         17.3027839661
         17.4653434753
         17.6294269562
         17.7950534821
         17.9622325897
         18.1309833527
         18.3013191223
         18.4732532501
         18.6468029022
         18.8219833374
         18.9988059998
         19.1772918701
         19.3574523926
         19.5393047333
         19.7228660583
         19.9081497192
         20.0951728821
         20.2839546204
         20.4745063782
         20.6668491364
         20.8609981537
         21.0569705963
         21.2547836304
         21.4544525146
         21.65599823
         21.8594360352
         22.0647830963
         22.2720603943
         22.4812831879
         22.6924705505
         22.9056415558
         23.1208133698
         23.3380069733
         23.5572395325
         23.7785301208
         24.0018997192
         24.2273674011
         24.45495224
         24.6846733093
         24.9165534973
         25.1506099701
         25.3868637085
         25.6253376007
         25.8660488129
         26.1090221405
         26.3542766571
         26.6018333435
         26.8517169952
         27.1039447784
         27.358543396
         27.6155319214
         27.8749332428
         28.1367702484
         28.4010677338
         28.6678447723
         28.9371299744
         29.2089424133
         29.4833068848
         29.7602481842
         30.0397891998
         30.3219566345
         30.6067733765
         30.8942661285
         31.1844558716
         31.4773731232
         31.7730407715
         32.0714836121
         32.3727302551
         32.6768035889
         32.9837341309
         33.293548584
         33.6062698364
         33.9219284058
         34.2405509949
         34.5621681213
         34.8868026733
         35.2144851685
         35.5452461243
         35.8791160583
         36.2161178589
         36.5562858582
         36.899646759
         37.2462310791
         37.5960731506
         37.9491996765
         38.3056411743
         38.6654281616
         39.0285987854
         39.3951759338
         39.7651939392
         40.1386909485
         40.5156936646
         40.8962364197
         41.2803535461
         41.6680755615
         42.0594406128
         42.4544830322
         42.8532333374
         43.2557258606
         43.6619987488
         44.0720901489
         44.4860267639
         44.9038543701
         45.3256072998
         45.7513198853
         46.1810264587
         46.6147727966
         47.0525894165
         47.49451828
         47.9405975342
         48.3908653259
