aces_1.0.0/luts/V3 LogC_2000_to_linear.spi1d
Version 1
From 0.000000 1.000000
Length 4096
Components 1
{
         -0.0182104073465
         -0.00208979798481
         -0.0020801355131
         -0.00207044999115
         -0.00206074118614
         -0.00205100909807
         -0.00204125372693
         -0.0020314748399
         -0.00202167243697
         -0.00201184675097
         -0.00200199731626
         -0.00199212436564
         -0.0019822276663
         -0.00197230745107
         -0.00196236325428
         -0.00195239519235
         -0.00194240326528
         -0.00193238735665
         -0.00192234746646
         -0.0019122834783
         -0.00190219539218
         -0.00189208309166
         -0.00188194646034
         -0.00187178561464
         -0.00186160032172
         -0.00185139069799
         -0.00184115651064
         -0.00183089787606
         -0.00182061456144
         -0.00181030656677
         -0.00179997389205
         -0.00178961653728
         -0.00177923415322
         -0.00176882697269
         -0.00175839487929
         -0.00174793764018
         -0.00173745548818
         -0.00172694807407
         -0.00171641551424
         -0.00170585769229
         -0.00169527449179
         -0.00168466591276
         -0.00167403195519
         -0.00166337250266
         -0.00165268743876
         -0.00164197676349
         -0.00163124047685
         -0.00162047834601
         -0.00160969048738
         -0.00159887666814
         -0.00158803700469
         -0.00157717126422
         -0.00156627944671
         -0.00155536155216
         -0.00154441758059
         -0.00153344718274
         -0.00152245059144
         -0.00151142757386
         -0.00150037813
         -0.00148930225987
         -0.00147819973063
         -0.00146707065869
         -0.00145591481123
         -0.00144473230466
         -0.00143352290615
         -0.00142228673212
         -0.00141102354974
         -0.00139973324258
         -0.00138841604348
         -0.0013770716032
         -0.00136569992173
         -0.00135430099908
         -0.00134287483525
         -0.00133142119739
         -0.00131994008552
         -0.00130843138322
         -0.00129689520691
         -0.00128533132374
         -0.00127373961732
         -0.00126212020405
         -0.00125047296751
         -0.00123879767489
         -0.00122709444258
         -0.00121536315419
         -0.0012036038097
         -0.00119181617629
         -0.00118000025395
         -0.0011681560427
         -0.0011562834261
         -0.00114438228775
         -0.00113245262764
         -0.00112049432937
         -0.00110850739293
         -0.0010964917019
         -0.00108444725629
         -0.00107237382326
         -0.00106027151924
         -0.00104814022779
         -0.00103597971611
         -0.00102379010059
         -0.00101157126483
         -0.000999323092401
         -0.000987045583315
         -0.000974738621153
         -0.000962402147707
         -0.000950036104769
         -0.000937640375923
         -0.000925214961171
         -0.000912759685889
         -0.000900274608284
         -0.000887759553734
         -0.000875214464031
         -0.000862639339175
         -0.000850034062751
         -0.000837398518343
         -0.000824732647743
         -0.000812036450952
         -0.000799309811555
         -0.000786552613135
         -0.000773764855694
         -0.000760946422815
         -0.000748097256292
         -0.000735217239708
         -0.000722306373063
         -0.000709364539944
         -0.000696391623933
         -0.000683387683239
         -0.000670352485031
         -0.000657286029309
         -0.000644188316073
         -0.000631059112493
         -0.000617898418568
         -0.000604706234299
         -0.000591482385062
         -0.000578226754442
         -0.000564939400647
         -0.000551620207261
         -0.000538268999662
         -0.000524885836057
         -0.000511470541824
         -0.000498023116961
         -0.000484543386847
         -0.000471031380584
         -0.000457486952655
         -0.000443910015747
         -0.00043030056986
         -0.000416658440372
         -0.000402983627282
         -0.000389276014175
         -0.00037553551374
         -0.000361762067769
         -0.00034795558895
         -0.000334116019076
         -0.000320243241731
         -0.000306337198708
         -0.000292397802696
         -0.000278424995486
         -0.000264418660663
         -0.00025037874002
         -0.000236305160797
         -0.000222197821131
         -0.000208056662814
         -0.000193881583982
         -0.000179672511877
         -0.000165429359186
         -0.000151152053149
         -0.000136840506457
         -0.000122494646348
         -0.000108114378236
         -9.36996220844e-05
         -7.92502978584e-05
         -6.47663255222e-05
         -5.02476177644e-05
         -3.56940909114e-05
         -2.11056649277e-05
         -6.48225204714e-06
         8.17622913019e-06
         2.28698627325e-05
         3.7598732888e-05
         5.23629278177e-05
         6.71625239193e-05
         8.1997619418e-05
         9.68682870734e-05
         0.000111774614197
         0.000126716695377
         0.000141694603371
         0.000156708425493
         0.000171758263605
         0.000186844190466
         0.000201966293389
         0.000217124659684
         0.000232319376664
         0.000247550546192
         0.000262818211922
         0.000278122519376
         0.000293463526759
         0.000308841321385
         0.000324255990563
         0.000339707621606
         0.000355196301825
         0.000370722147636
         0.000386285217246
         0.000401885597967
         0.000417523406213
         0.000433198700193
         0.000448911596322
         0.000464662152808
         0.00048045051517
         0.000496276712511
         0.000512140861247
         0.000528043077793
         0.000543983420357
         0.000559962005354
         0.000575978890993
         0.000592034193687
         0.000608127971645
         0.000624260399491
         0.000640431477223
         0.000656641321257
         0.000672890048008
         0.000689177773893
         0.000705504557118
         0.000721870455891
         0.000738275644835
         0.00075472012395
         0.00077120406786
         0.000787727534771
         0.000804290641099
         0.00082089350326
         0.000837536121253
         0.000854218669701
         0.000870941206813
         0.000887703849003
         0.000904506712686
         0.000921349856071
         0.000938233395573
         0.000955157447606
         0.00097212207038
         0.0009891273221
         0.0010061734356
         0.00102326041088
         0.00104038836434
         0.00105755741242
         0.00107476755511
         0.00109201902524
         0.0011093118228
         0.00112664618064
         0.00114402198233
         0.00116143957712
         0.00117889884859
         0.00119640002958
         0.00121394323651
         0.00123152846936
         0.00124915584456
         0.00126682547852
         0.00128453748766
         0.0013022919884
         0.00132008909713
         0.0013379289303
         0.00135581148788
         0.00137373688631
         0.0013917053584
         0.00140971678775
         0.00142777152359
         0.00144586956594
         0.0014640110312
         0.00148219591938
         0.0015004244633
         0.00151869666297
         0.00153701275121
         0.00155537272803
         0.00157377670985
         0.00159222481307
         0.00161071727052
         0.0016292539658
         0.00164783513173
         0.00166646088473
         0.00168513134122
         0.00170384650119
         0.00172260659747
         0.00174141163006
         0.00176026183181
         0.00177915720269
         0.00179809785914
         0.00181708391756
         0.00183611561079
         0.0018551928224
         0.00187431590166
         0.00189348473214
         0.00191269966308
         0.00193196057808
         0.00195126770996
         0.00197062105872
         0.00199002097361
         0.0020094672218
         0.00202896026894
         0.00204850011505
         0.00206808652729
         0.00208772020414
         0.00210740091279
         0.00212712865323
         0.00214690389112
         0.00216672639363
         0.00218659662642
         0.00220651435666
         0.00222647981718
         0.00224649324082
         0.00226655462757
         0.00228666421026
         0.0023068219889
         0.00232702796347
         0.00234728259966
         0.00236758566462
         0.00238793739118
         0.00240833801217
         0.00242878776044
         0.0024492861703
         0.00246983394027
         0.00249043107033
         0.00251107732765
         0.00253177341074
         0.00255251885392
         0.00257331412286
         0.00259415921755
         0.00261505437084
         0.00263599981554
         0.00265699531883
         0.00267804111354
         0.0026991374325
         0.00272028427571
         0.002741481876
         0.0027627304662
         0.00278402981348
         0.00280538038351
         0.00282678194344
         0.00284823495895
         0.00286973943003
         0.00289129558951
         0.00291290320456
         0.00293456274085
         0.00295627419837
         0.00297803780995
         0.0029998535756
         0.00302172172815
         0.00304364226758
         0.00306561519392
         0.00308764097281
         0.00310971960425
         0.00313185108826
         0.00315403589047
         0.00317627354525
         0.00319856475107
         0.00322090927511
         0.00324330758303
         0.003265759442
         0.00328826508485
         0.00331082497723
         0.0033334386535
         0.00335610681213
         0.00337882922031
         0.00340160611086
         0.0034244377166
         0.00344732380472
         0.0034702650737
         0.00349326129071
         0.00351631245576
         0.0035394190345
         0.00356258125976
         0.00358579866588
         0.00360907195136
         0.00363240111619
         0.00365578592755
         0.00367922708392
         0.00370272435248
         0.00372627796605
         0.00374988815747
         0.00377355492674
         0.00379727850668
         0.0038210588973
         0.00384489633143
         0.00386879080907
         0.00389274279587
         0.00391675205901
         0.00394081883132
         0.00396494334564
         0.00398912606761
         0.00401336653158
         0.00403766520321
         0.00406202208251
         0.00408643716946
         0.00411091092974
         0.004135443829
         0.00416003493592
         0.00418468518183
         0.00420939503238
         0.00423416355625
         0.00425899168476
         0.00428387941793
         0.00430882675573
         0.00433383369818
         0.00435890071094
         0.00438402825966
         0.00440921541303
         0.00443446356803
         0.00445977179334
         0.00448514102027
         0.00451057124883
         0.00453606201336
         0.00456161424518
         0.00458722747862
         0.00461290217936
         0.00463863881305
         0.00466443691403
         0.00469029694796
         0.00471621891484
         0.00474220281467
         0.00476824911311
         0.00479435827583
         0.00482052983716
         0.0048467637971
         0.00487306108698
         0.00489942124113
         0.00492584472522
         0.0049523320049
         0.00497888214886
         0.00500549608842
         0.00503217382357
         0.00505891581997
         0.00508572207764
         0.0051125921309
         0.00513952691108
         0.00516652595252
         0.00519359018654
         0.00522071914747
         0.00524791283533
         0.00527517218143
         0.00530249672011
         0.00532988691702
         0.00535734277219
         0.00538486428559
         0.00541245192289
         0.0054401056841
         0.00546782603487
         0.00549561250955
         0.00552346557379
         0.00555138569325
         0.00557937286794
         0.0056074266322
         0.005635548383
         0.00566373718902
         0.00569199351594
         0.00572031736374
         0.00574870966375
         0.00577716995031
         0.00580569822341
         0.00583429494873
         0.00586296059191
         0.00589169468731
         0.00592049770057
         0.00594937009737
         0.00597831141204
         0.00600732211024
         0.00603640265763
         0.00606555258855
         0.00609477283433
         0.0061240629293
         0.00615342287347
         0.00618285359815
         0.00621235510334
         0.00624192738906
         0.00627156998962
         0.00630128430203
         0.00633106939495
         0.0063609261997
         0.0063908547163
         0.00642085494474
         0.00645092688501
         0.00648107100278
         0.00651128776371
         0.00654157670215
         0.00657193828374
         0.0066023725085
         0.00663287984207
         0.00666346028447
         0.00669411430135
         0.00672484189272
         0.00675564259291
         0.0067865177989
         0.00681746657938
         0.00684848986566
         0.00687958765775
         0.00691075948998
         0.00694200675935
         0.00697332853451
         0.00700472528115
         0.00703619746491
         0.00706774555147
         0.00709936907515
         0.00713106803596
         0.00716284336522
         0.00719469459727
         0.00722662266344
         0.00725862709805
         0.00729070836678
         0.00732286646962
         0.00735510140657
         0.00738741410896
         0.00741980411112
         0.00745227187872
         0.00748481741175
         0.00751744071022
         0.00755014270544
         0.00758292293176
         0.00761578185484
         0.00764871947467
         0.00768173625693
         0.0077148322016
         0.00774800730869
         0.00778126204386
         0.00781459640712
         0.00784801132977
         0.00788150541484
         0.00791508052498
         0.00794873572886
         0.0079824719578
         0.00801628921181
         0.00805018749088
         0.00808416679502
         0.00811822712421
         0.00815237034112
         0.00818659458309
         0.00822090078145
         0.00825528986752
         0.00828976090997
         0.00832431484014
         0.00835895165801
         0.00839367229491
         0.00842847488821
         0.00846336130053
         0.00849833153188
         0.00853338651359
         0.00856852438301
         0.00860374700278
         0.00863905344158
         0.00867444556206
         0.00870992150158
         0.00874548312277
         0.00878113042563
         0.00881686247885
         0.00885268021375
         0.00888858456165
         0.00892457459122
         0.00896065030247
         0.00899681355804
         0.00903306342661
         0.00906939990819
         0.00910582300276
         0.00914233457297
         0.00917893275619
         0.00921561941504
         0.00925239361823
         0.00928925629705
         0.0093262065202
         0.00936324615031
         0.00940037425607
         0.0094375917688
         0.0094748986885
         0.00951229501516
         0.00954978074878
         0.00958735588938
         0.00962502136827
         0.00966277811676
         0.00970062427223
         0.0097385616973
         0.00977659039199
         0.00981470942497
         0.00985292065889
         0.00989122316241
         0.00992961786687
         0.00996810477227
         0.0100066829473
         0.0100453542545
         0.0100841186941
         0.0101229753345
         0.0101619260386
         0.0102009698749
         0.0102401068434
         0.0102793378755
         0.0103186629713
         0.0103580830619
         0.0103975972161
         0.0104372054338
         0.0104769095778
         0.0105167087168
         0.0105566028506
         0.0105965929106
         0.0106366788968
         0.0106768617406
         0.0107171395794
         0.0107575152069
         0.0107979867607
         0.0108385561034
         0.0108792223036
         0.0109199862927
         0.0109608480707
         0.0110018076375
         0.0110428649932
         0.0110840210691
         0.0111252758652
         0.0111666303128
         0.0112080834806
         0.0112496353686
         0.0112912878394
         0.0113330399618
         0.0113748917356
         0.0114168440923
         0.0114588979632
         0.0115010514855
         0.0115433065221
         0.0115856630728
         0.0116281211376
         0.0116706807166
         0.0117133427411
         0.0117561072111
         0.0117989731953
         0.0118419425562
         0.011885015294
         0.0119281914085
         0.0119714708999
         0.0120148537681
         0.0120583409443
         0.0121019324288
         0.0121456291527
         0.0121894292533
         0.0122333355248
         0.0122773470357
         0.0123214628547
         0.0123656857759
         0.0124100139365
         0.0124544491991
         0.0124989906326
         0.0125436391681
         0.0125883938745
         0.0126332566142
         0.0126782273874
         0.0127233052626
         0.0127684911713
         0.0128137860447
         0.0128591889516
         0.0129047008231
         0.0129503225908
         0.0129960523918
         0.0130418930203
         0.0130878435448
         0.0131339039654
         0.013180074282
         0.0132263563573
         0.0132727483287
         0.0133192520589
         0.0133658675477
         0.0134125947952
         0.0134594338015
         0.0135063854977
         0.0135534498841
         0.0136006269604
         0.0136479167268
         0.0136953201145
         0.0137428371236
         0.0137904686853
         0.0138382138684
         0.0138860736042
         0.013934048824
         0.0139821385965
         0.0140303429216
         0.0140786636621
         0.0141271008179
         0.0141756534576
         0.0142243225127
         0.0142731079832
         0.0143220108002
         0.014371030964
         0.0144201684743
         0.0144694242626
         0.0145187973976
         0.0145682897419
         0.0146179003641
         0.0146676301956
         0.0147174792364
         0.0147674474865
         0.0148175358772
         0.0148677444085
         0.0149180730805
         0.014968521893
         0.0150190927088
         0.0150697845966
         0.0151205975562
         0.0151715334505
         0.0152225904167
         0.0152737703174
         0.0153250731528
         0.0153764979914
         0.0154280476272
         0.0154797192663
         0.0155315157026
         0.0155834369361
         0.0156354811043
         0.0156876519322
         0.0157399475574
         0.0157923679799
         0.0158449131995
         0.0158975850791
         0.0159503836185
         0.0160033088177
         0.0160563606769
         0.0161095410585
         0.0161628481001
         0.0162162818015
         0.016269845888
         0.0163235366344
         0.0163773559034
         0.0164313055575
         0.0164853837341
         0.0165395922959
         0.0165939293802
         0.0166483987123
         0.0167029984295
         0.0167577266693
         0.0168125890195
         0.0168675817549
         0.0169227067381
         0.0169779639691
         0.0170333534479
         0.0170888751745
         0.0171445310116
         0.0172003190964
         0.0172562412918
         0.0173122975975
         0.0173684898764
         0.0174248162657
         0.0174812767655
         0.0175378732383
         0.0175946056843
         0.0176514741033
         0.0177084784955
         0.0177656188607
         0.0178228970617
         0.0178803130984
         0.0179378669709
         0.0179955586791
         0.0180533882231
         0.0181113556027
         0.0181694626808
         0.0182277094573
         0.0182860959321
         0.018344623968
         0.0184032898396
         0.0184620972723
         0.018521046266
         0.0185801368207
         0.0186393670738
         0.0186987407506
         0.018758257851
         0.0188179165125
         0.0188777185977
         0.0189376622438
         0.018997753039
         0.0190579853952
         0.0191183630377
         0.0191788859665
         0.019239552319
         0.0193003658205
         0.0193613246083
         0.0194224286824
         0.0194836817682
         0.0195450801402
         0.0196066256613
         0.0196683183312
         0.0197301600128
         0.0197921488434
         0.0198542866856
         0.019916575402
         0.0199790112674
         0.0200415980071
         0.0201043337584
         0.0201672203839
         0.0202302578837
         0.0202934481204
         0.0203567873687
         0.0204202793539
         0.020483924076
         0.020547721535
         0.0206116717309
         0.0206757746637
         0.020740032196
         0.020804444328
         0.0208690091968
         0.0209337305278
         0.0209986064583
         0.0210636369884
         0.0211288239807
         0.0211941692978
         0.0212596692145
         0.0213253255934
         0.0213911421597
         0.0214571133256
         0.021523244679
         0.0215895343572
         0.0216559842229
         0.0217225905508
         0.0217893589288
         0.0218562874943
         0.0219233743846
         0.0219906233251
         0.0220580343157
         0.0221256073564
         0.0221933405846
         0.0222612377256
         0.0223292969167
         0.0223975200206
         0.0224659051746
         0.022534456104
         0.0226031709462
         0.0226720497012
         0.0227410942316
         0.0228103045374
         0.0228796806186
         0.0229492224753
         0.02301893197
         0.0230888091028
         0.023158852011
         0.0232290644199
         0.0232994444668
         0.0233699940145
         0.0234407130629
         0.0235115997493
         0.0235826577991
         0.0236538872123
         0.0237252861261
         0.0237968564034
         0.0238685980439
         0.0239405129105
         0.0240125991404
         0.0240848585963
         0.0241572912782
         0.0242298971862
         0.0243026781827
         0.0243756324053
         0.0244487617165
         0.024522067979
         0.0245955493301
         0.0246692057699
         0.0247430410236
         0.024817051366
         0.0248912405223
         0.0249656066298
         0.0250401515514
         0.0251148752868
         0.0251897778362
         0.0252648610622
         0.0253401231021
         0.0254155658185
         0.0254911892116
         0.0255669951439
         0.0256429817528
         0.0257191509008
         0.0257955025882
         0.0258720386773
         0.0259487573057
         0.0260256584734
         0.0261027459055
         0.0261800177395
         0.0262574739754
         0.0263351183385
         0.0264129471034
         0.0264909621328
         0.0265691652894
         0.0266475565732
         0.0267261341214
         0.0268049016595
         0.0268838573247
         0.0269630011171
         0.027042336762
         0.0271218623966
         0.027201578021
         0.0272814836353
         0.0273615829647
         0.0274418741465
         0.0275223571807
         0.0276030320674
         0.0276839025319
         0.0277649667114
         0.027846224606
         0.0279276780784
         0.0280093252659
         0.0280911698937
         0.0281732100993
         0.0282554477453
         0.028337880969
         0.0284205134958
         0.0285033434629
         0.0285863727331
         0.0286695994437
         0.0287530273199
         0.0288366544992
         0.0289204828441
         0.0290045123547
         0.029088743031
         0.029173174873
         0.0292578097433
         0.0293426495045
         0.0294276904315
         0.0295129362494
         0.0295983850956
         0.0296840406954
         0.0297699011862
         0.029855966568
         0.0299422387034
         0.030028719455
         0.0301154050976
         0.0302023012191
         0.0302894040942
         0.0303767155856
         0.0304642375559
         0.0305519681424
         0.0306399092078
