aces_1.0.0/luts/V3 LogC_250_to_linear.spi1d
Version 1
From 0.000000 1.000000
Length 4096
Components 1
{
         -0.0162484236062
         -0.00682065822184
         -0.00680715497583
         -0.00679362285882
         -0.00678006187081
         -0.00676647154614
         -0.00675285235047
         -0.00673920381814
         -0.00672552641481
         -0.00671181920916
         -0.00669808313251
         -0.00668431771919
         -0.00667052250355
         -0.00665669795126
         -0.00664284359664
         -0.00662895943969
         -0.00661504594609
         -0.00660110265017
         -0.00658712955192
         -0.00657312618569
         -0.00655909301713
         -0.00654503004625
         -0.00653093680739
         -0.00651681330055
         -0.00650265952572
         -0.00648847594857
         -0.00647426163778
         -0.00646001659334
         -0.00644574174657
         -0.00643143570051
         -0.00641709938645
         -0.00640273233876
         -0.00638833455741
         -0.00637390604243
         -0.00635944632813
         -0.00634495588019
         -0.00633043423295
         -0.00631588185206
         -0.0063012978062
         -0.0062866830267
         -0.00627203658223
         -0.00625735940412
         -0.00624265009537
         -0.00622790958732
         -0.00621313787997
         -0.00619833404198
         -0.00618349853903
         -0.00616863183677
         -0.00615373253822
         -0.00613880204037
         -0.00612383894622
         -0.00610884418711
         -0.00609381729737
         -0.006078758277
         -0.006063667126
         -0.00604854337871
         -0.00603338750079
         -0.00601819902658
         -0.00600297842175
         -0.00598772475496
         -0.00597243849188
         -0.00595711963251
         -0.00594176817685
         -0.00592638365924
         -0.00591096607968
         -0.00589551590383
         -0.00588003220037
         -0.00586451543495
         -0.00584896560758
         -0.00583338271827
         -0.00581776630133
         -0.00580211635679
         -0.00578643288463
         -0.00577071588486
         -0.00575496489182
         -0.00573918083683
         -0.00572336278856
         -0.00570751074702
         -0.0056916247122
         -0.00567570468411
         -0.00565975066274
         -0.00564376264811
         -0.00562774017453
         -0.00561168370768
         -0.00559559231624
         -0.00557946693152
         -0.00556330708787
         -0.00554711231962
         -0.00553088309243
         -0.00551461940631
         -0.00549832032993
         -0.00548198679462
         -0.00546561786905
         -0.00544921448454
         -0.00543277570978
         -0.00541630154476
         -0.00539979245514
         -0.00538324797526
         -0.00536666763946
         -0.00535005237907
         -0.00533340126276
         -0.00531671475619
         -0.00529999192804
         -0.00528323370963
         -0.00526643963531
         -0.00524960970506
         -0.0052327439189
         -0.00521584181115
         -0.00519890338182
         -0.00518192863092
         -0.00516491802409
         -0.00514787063003
         -0.00513078644872
         -0.00511366641149
         -0.00509650912136
         -0.00507931550965
         -0.00506208511069
         -0.00504481745884
         -0.00502751301974
         -0.0050101717934
         -0.00499279331416
         -0.00497537758201
         -0.00495792459697
         -0.00494043389335
         -0.00492290593684
         -0.00490534072742
         -0.00488773779944
         -0.00487009715289
         -0.00485241878778
         -0.0048347027041
         -0.0048169484362
         -0.00479915644974
         -0.00478132627904
         -0.00476345792413
         -0.00474555091932
         -0.00472760619596
         -0.0047096228227
         -0.00469160079956
         -0.00467354059219
         -0.00465544126928
         -0.00463730376214
         -0.00461912713945
         -0.00460091140121
         -0.00458265701309
         -0.00456436304376
         -0.00454603042454
         -0.00452765822411
         -0.00450924690813
         -0.00449079601094
         -0.00447230599821
         -0.0044537759386
         -0.00443520676345
         -0.00441659754142
         -0.00439794827253
         -0.00437925942242
         -0.00436053052545
         -0.00434176111594
         -0.00432295212522
         -0.00430410262197
         -0.00428521260619
         -0.00426628207788
         -0.0042473115027
         -0.00422829994932
         -0.00420924788341
         -0.00419015483931
         -0.00417102128267
         -0.00415184674785
         -0.00413263076916
         -0.00411337381229
         -0.00409407587722
         -0.0040747364983
         -0.00405535567552
         -0.00403593340889
         -0.00401646923274
         -0.00399696361274
         -0.00397741654888
         -0.0039578275755
         -0.00393819622695
         -0.00391852343455
         -0.00389880803414
         -0.00387905072421
         -0.0038592510391
         -0.00383940897882
         -0.00381952454336
         -0.00379959749989
         -0.00377962761559
         -0.00375961512327
         -0.00373955979012
         -0.00371946161613
         -0.00369932036847
         -0.00367913604714
         -0.00365890841931
         -0.00363863748498
         -0.00361832324415
         -0.003597965464
         -0.00357756414451
         -0.00355711928569
         -0.00353663042188
         -0.00351609778591
         -0.00349552114494
         -0.00347490073182
         -0.00345423584804
         -0.00343352695927
         -0.00341277359985
         -0.0033919760026
         -0.00337113370188
         -0.00335024693049
         -0.0033293152228
         -0.00330833881162
         -0.00328731769696
         -0.00326625141315
         -0.0032451399602
         -0.00322398357093
         -0.00320278177969
         -0.00318153458647
         -0.00316024175845
         -0.00313890352845
         -0.00311751966365
         -0.0030960899312
         -0.00307461433113
         -0.00305309286341
         -0.00303152529523
         -0.00300991139375
         -0.0029882513918
         -0.00296654505655
         -0.00294479215518
         -0.00292299268767
         -0.00290114665404
         -0.00287925382145
         -0.0028573141899
         -0.00283532752655
         -0.00281329383142
         -0.00279121287167
         -0.0027690846473
         -0.0027469091583
         -0.00272468617186
         -0.00270241568796
         -0.00268009747379
         -0.00265773152933
         -0.00263531762175
         -0.00261285575107
         -0.00259034591727
         -0.00256778788753
         -0.00254518142901
         -0.00252252677456
         -0.00249982345849
         -0.00247707148083
         -0.00245427107438
         -0.00243142154068
         -0.00240852334537
         -0.00238557602279
         -0.00236257980578
         -0.00233953399584
         -0.00231643905863
         -0.00229329476133
         -0.0022701008711
         -0.00224685738795
         -0.0022235638462
         -0.00220022071153
         -0.0021768277511
         -0.00215338449925
         -0.00212989095598
         -0.00210634735413
         -0.00208275322802
         -0.0020591088105
         -0.00203541340306
         -0.00201166770421
         -0.00198787078261
         -0.00196402310394
         -0.00194012455177
         -0.00191617466044
         -0.00189217354637
         -0.00186812097672
         -0.00184401695151
         -0.00181986147072
         -0.00179565418512
         -0.00177139497828
         -0.00174708396662
         -0.00172272091731
         -0.00169830571394
         -0.00167383824009
         -0.00164931837935
         -0.00162474613171
         -0.00160012114793
         -0.00157544354443
         -0.00155071308836
         -0.00152592966333
         -0.00150109326933
         -0.00147620367352
         -0.0014512607595
         -0.00142626452725
         -0.00140121474396
         -0.00137611140963
         -0.00135095429141
         -0.0013257432729
         -0.0013004783541
         -0.00127515941858
         -0.00124978623353
         -0.00122435868252
         -0.00119887676556
         -0.00117334024981
         -0.00114774913527
         -0.00112210318912
         -0.00109640241135
         -0.00107064656913
         -0.00104483566247
         -0.00101896945853
         -0.000993047840893
         -0.000967070809565
         -0.000941038131714
         -0.000914949807338
         -0.000888805545401
         -0.000862605404109
         -0.000836349150632
         -0.000810036668554
         -0.000783667899668
         -0.000757242669351
         -0.000730760919396
         -0.000704222475179
         -0.000677627162077
         -0.00065097498009
         -0.000624265754595
         -0.00059749931097
         -0.000570675649215
         -0.000543794536497
         -0.000516855856404
         -0.000489859550726
         -0.00046280544484
         -0.000435693422332
         -0.000408523366787
         -0.000381295190891
         -0.00035400869092
         -0.000326663808664
         -0.000299260398606
         -0.000271798315225
         -0.000244277471211
         -0.000216697706492
         -0.000189058904652
         -0.00016136096383
         -0.000133603709401
         -0.000105787061329
         -7.79108668212e-05
         -4.99750058225e-05
         -2.19793455472e-05
         6.07623542237e-06
         3.41918675986e-05
         6.23676824034e-05
         9.0603803983e-05
         0.000118900366942
         0.000147257494973
         0.000175675319042
         0.000204153984669
         0.000232693593716
         0.000261294277152
         0.000289956195047
         0.000318679463817
         0.00034746422898
         0.000376310577849
         0.000405218685046
         0.000434188666986
         0.000463220669189
         0.000492314808071
         0.000521471200045
         0.00055069004884
         0.000579971354455
         0.000609315407928
         0.000638722267468
         0.000668192049488
         0.000697724928614
         0.000727320963051
         0.000756980443839
         0.00078670331277
         0.000816489860881
         0.000846340146381
         0.000876254343893
         0.000906232569832
         0.000936274940614
         0.00096638163086
         0.000996552756988
         0.00102678849362
         0.00105708895717
         0.00108745414764
         0.00111788441427
         0.00114837987348
         0.00117894052528
         0.0012095667189
         0.00124025833793
         0.00127101573162
         0.00130183889996
         0.00133272807579
         0.00136368325911
         0.00139470479917
         0.00142579281237
         0.00145694729872
         0.00148816849105
         0.00151945638936
         0.0015508113429
         0.00158223346807
         0.00161372276489
         0.00164527958259
         0.00167690380476
         0.00170859578066
         0.00174035562668
         0.00177218345925
         0.00180407927837
         0.0018360435497
         0.00186807615682
         0.00190017733257
         0.00193234719336
         0.0019645858556
         0.00199689366855
         0.00202927063219
         0.00206171674654
         0.00209423247725
         0.00212681759149
         0.00215947255492
         0.00219219760038
         0.00222499249503
         0.00225785770454
         0.00229079299606
         0.00232379906811
         0.00235687568784
         0.00239002308808
         0.00242324150167
         0.00245653092861
         0.00248989183456
         0.00252332398668
         0.00255682761781
         0.00259040296078
         0.00262405024841
         0.00265776948072
         0.00269156112336
         0.00272542494349
         0.00275936117396
         0.00279337004758
         0.0028274517972
         0.00286160642281
         0.00289583439007
         0.00293013523333
         0.0029645098839
         0.00299895787612
         0.00303347967565
         0.0030680752825
         0.00310274492949
         0.00313748884946
         0.00317230727524
         0.00320719997399
         0.0032421676442
         0.00327721005306
         0.00331232720055
         0.00334751978517
         0.00338278780691
         0.00341813103296
         0.00345355016179
         0.00348904496059
         0.00352461566217
         0.00356026249938
         0.00359598593786
         0.00363178551197
         0.00366766192019
         0.00370361492969
         0.00373964500614
         0.00377575214952
         0.00381193659268
         0.00384819856845
         0.00388453807682
         0.00392095558345
         0.00395745085552
         0.00399402435869
         0.00403067562729
         0.00406740605831
         0.00410421472043
         0.0041411020793
         0.00417806860059
         0.00421511428431
         0.00425223913044
         0.00428944360465
         0.00432672770694
         0.00436409143731
         0.00440153526142
         0.00443905917928
         0.00447666365653
         0.00451434822753
         0.00455211382359
         0.00458995997906
         0.00462788715959
         0.00466589583084
         0.00470398552716
         0.0047421567142
         0.00478040985763
         0.00481874449179
         0.00485716154799
         0.00489566102624
         0.00493424246088
         0.00497290678322
         0.00501165352762
         0.00505048315972
         0.00508939614519
         0.00512839248404
         0.00516747217625
         0.0052066356875
         0.00524588301778
         0.00528521416709
         0.00532462960109
         0.00536412931979
         0.00540371378884
         0.00544338300824
         0.005483136978
         0.00552297569811
         0.0055629000999
         0.00560291018337
         0.00564300548285
         0.00568318692967
         0.00572345405817
         0.00576380733401
         0.00580424722284
         0.00584477372468
         0.00588538683951
         0.005926087033
         0.0059668738395
         0.00600774865597
         0.00604871055111
         0.00608975999057
         0.00613089790568
         0.0061721233651
         0.00621343730018
         0.00625483924523
         0.00629633013159
         0.00633790995926
         0.00637957872823
         0.00642133643851
         0.00646318355575
         0.00650512054563
         0.00654714694247
         0.0065892636776
         0.00663147028536
         0.0066737672314
         0.0067161549814
         0.00675863306969
         0.0068012024276
         0.00684386258945
         0.00688661448658
         0.00692945765331
         0.00697239255533
         0.00701541919261
         0.00705853803083
         0.00710174906999
         0.00714505277574
         0.00718844914809
         0.00723193818703
         0.0072755208239
         0.00731919612736
         0.00736296549439
         0.00740682799369
         0.00745078455657
         0.00749483564869
         0.00753898033872
         0.00758322002366
         0.00762755423784
         0.00767198344693
         0.00771650765091
         0.0077611268498
         0.00780584197491
         0.00785065256059
         0.00789555907249
         0.00794056244195
         0.00798566173762
         0.00803085695952
         0.00807614903897
         0.00812153890729
         0.00816702470183
         0.00821260921657
         0.00825829058886
         0.00830406975001
         0.00834994670004
         0.00839592237025
         0.00844199582934
         0.00848816800863
         0.0085344389081
         0.00858080945909
         0.00862727873027
         0.00867384765297
         0.00872051715851
         0.00876728538424
         0.00881415419281
         0.00886112265289
         0.00890819262713
         0.00895536225289
         0.00900263432413
         0.00905000604689
         0.00909748021513
         0.00914505589753
         0.0091927330941
         0.00924051180482
         0.00928839389235
         0.00933637749404
         0.00938446447253
         0.00943265389651
         0.00948094669729
         0.00952934287488
         0.0095778433606
         0.00962644722313
         0.00967515446246
         0.00972396600991
         0.00977288279682
         0.00982190389186
         0.00987103022635
         0.00992026086897
         0.00996959768236
         0.0100190397352
         0.0100685879588
         0.0101182414219
         0.010168001987
         0.010217868723
         0.010267842561
         0.0103179235011
         0.010368110612
         0.0104184057564
         0.0104688089341
         0.0105193192139
         0.0105699384585
         0.0106206657365
         0.0106715010479
         0.0107224453241
         0.0107734994963
         0.0108246626332
         0.0108759347349
         0.0109273167327
         0.0109788086265
         0.0110304113477
         0.011082123965
         0.0111339474097
         0.0111858816817
         0.0112379277125
         0.0112900845706
         0.0113423531875
         0.0113947335631
         0.0114472256973
         0.011499831453
         0.0115525489673
         0.0116053791717
         0.0116583220661
         0.0117113795131
         0.0117645496503
         0.01181783434
         0.0118712317199
         0.0119247445837
         0.0119783720002
         0.0120321139693
         0.0120859704912
         0.012139942497
         0.0121940299869
         0.012248233892
         0.0123025532812
         0.0123569890857
         0.0124115413055
         0.0124662099406
         0.0125209968537
         0.0125759001821
         0.0126309208572
         0.0126860588789
         0.0127413161099
         0.0127966906875
         0.0128521844745
         0.0129077965394
         0.0129635278136
         0.013019378297
         0.0130753479898
         0.0131314378232
         0.0131876477972
         0.0132439788431
         0.0133004290983
         0.0133570013568
         0.0134136937559
         0.0134705081582
         0.0135274436325
         0.01358450111
         0.0136416805908
         0.0136989830062
         0.0137564074248
         0.0138139557093
         0.0138716259971
         0.0139294201508
         0.0139873381704
         0.0140453809872
         0.0141035467386
         0.0141618372872
         0.0142202526331
         0.0142787937075
         0.0143374595791
         0.014396250248
         0.0144551675767
         0.0145142115653
         0.0145733812824
         0.0146326776594
         0.0146921006963
         0.0147516513243
         0.0148113295436
         0.0148711344227
         0.0149310687557
         0.0149911306798
         0.0150513211265
         0.0151116400957
         0.0151720885187
         0.0152326663956
         0.0152933746576
         0.0153542114422
         0.0154151795432
         0.0154762780294
         0.0155375069007
         0.0155988670886
         0.0156603585929
         0.0157219804823
         0.0157837364823
         0.0158456228673
         0.0159076433629
         0.0159697942436
         0.0160320810974
         0.0160944983363
         0.0161570515484
         0.0162197370082
         0.0162825584412
         0.0163455121219
         0.0164086017758
         0.0164718274027
         0.0165351871401
         0.0165986828506
         0.0166623145342
         0.0167260821909
         0.0167899858207
         0.0168540272862
         0.0169182047248
         0.0169825199991
         0.0170469731092
         0.0171115640551
         0.0171762928367
         0.0172411613166
         0.0173061676323
         0.0173713136464
         0.0174365993589
         0.0175020229071
         0.0175675880164
         0.0176332946867
         0.0176991391927
         0.0177651271224
         0.0178312547505
         0.0178975239396
         0.0179639365524
         0.0180304907262
         0.0180971864611
         0.0181640256196
         0.0182310082018
         0.0182981323451
         0.0183654017746
         0.0184328146279
         0.0185003727674
         0.0185680743307
         0.0186359211802
         0.0187039133161
         0.0187720507383
         0.0188403334469
         0.0189087633044
         0.0189773403108
         0.0190460626036
         0.0191149320453
         0.0191839504987
         0.0192531142384
         0.0193224288523
         0.0193918906152
         0.0194614995271
         0.0195312593132
         0.019601168111
         0.0196712259203
         0.0197414346039
         0.0198117922992
         0.0198823008686
         0.019952962175
         0.020023772493
         0.0200947355479
         0.0201658494771
         0.0202371161431
         0.0203085355461
         0.0203801076859
         0.0204518344253
         0.020523712039
         0.0205957461149
         0.0206679329276
         0.0207402743399
         0.0208127703518
         0.0208854228258
         0.0209582298994
         0.0210311915725
         0.0211043115705
         0.0211775861681
         0.0212510190904
         0.021324608475
         0.0213983561844
         0.0214722603559
         0.0215463228524
         0.0216205455363
         0.021694926545
         0.0217694658786
         0.0218441653997
         0.0219190251082
         0.0219940431416
         0.0220692232251
         0.0221445653588
         0.0222200676799
         0.0222957301885
         0.0223715566099
         0.0224475450814
         0.022523695603
         0.0226000081748
         0.022676486522
         0.0227531269193
         0.0228299312294
         0.0229069013149
         0.0229840353131
         0.0230613332242
         0.0231387987733
         0.0232164282352
         0.0232942253351
         0.0233721882105
         0.0234503187239
         0.0235286150128
         0.0236070789397
         0.0236857123673
         0.023764513433
         0.0238434821367
         0.0239226222038
         0.024001929909
         0.0240814071149
         0.0241610556841
         0.024240873754
         0.0243208631873
         0.024401023984
         0.024481356144
         0.0245618596673
         0.0246425364166
         0.0247233845294
         0.0248044077307
         0.0248856022954
         0.0249669719487
         0.0250485148281
         0.0251302327961
         0.0252121258527
         0.025294193998
         0.0253764372319
         0.0254588574171
         0.0255414545536
         0.0256242267787
         0.0257071778178
         0.0257903058082
         0.0258736107498
         0.0259570945054
         0.0260407589376
         0.0261246003211
         0.0262086205184
         0.0262928232551
         0.026377202943
         0.0264617651701
         0.0265465080738
         0.0266314335167
         0.0267165396363
         0.026801828295
         0.026887299493
         0.0269729532301
         0.0270587895066
         0.0271448101848
         0.027231015265
         0.027317404747
         0.0274039786309
         0.0274907387793
         0.0275776851922
         0.027664816007
         0.027752134949
         0.0278396401554
         0.0279273316264
         0.0280152112246
         0.0281032789499
         0.028191536665
         0.0282799825072
         0.0283686164767
         0.0284574404359
         0.0285464562476
         0.0286356601864
         0.0287250578403
         0.0288146454841
         0.0289044231176
         0.0289943944663
         0.02908455953
         0.0291749164462
         0.0292654670775
         0.0293562114239
         0.0294471494853
         0.0295382831246
         0.0296296104789
         0.0297211334109
         0.0298128537834
         0.0299047697335
         0.0299968812615
         0.0300891920924
         0.0301816985011
         0.0302744042128
         0.0303673092276
         0.0304604116827
         0.0305537134409
         0.0306472145021
         0.030740916729
         0.0308348182589
         0.0309289228171
         0.0310232266784
         0.031117733568
         0.0312124416232
         0.0313073545694
         0.0314024686813
         0.0314977876842
         0.0315933078527
         0.0316890366375
         0.031784966588
         0.0318811051548
