aces_1.0.0/luts/V3 LogC_400_to_linear.spi1d
Version 1
From 0.000000 1.000000
Length 4096
Components 1
{
         -0.0166540257633
         -0.00593131128699
         -0.00591869605705
         -0.00590605288744
         -0.00589338177815
         -0.00588068319485
         -0.0058679562062
         -0.00585520174354
         -0.00584241934121
         -0.00582960899919
         -0.00581677025184
         -0.00580390309915
         -0.00579100847244
         -0.00577808497474
         -0.00576513307169
         -0.00575215322897
         -0.00573914451525
         -0.00572610739619
         -0.00571304187179
         -0.00569994747639
         -0.00568682420999
         -0.00567367253825
         -0.00566049152985
         -0.00564728211612
         -0.00563404336572
         -0.00562077574432
         -0.00560747878626
         -0.0055941529572
         -0.00558079779148
         -0.0055674132891
         -0.00555399945006
         -0.00554055627435
         -0.00552708329633
         -0.00551358098164
         -0.00550004933029
         -0.00548648787662
         -0.00547289615497
         -0.00545927509665
         -0.00544562423602
         -0.0054319431074
         -0.00541823217645
         -0.00540449097753
         -0.00539071951061
         -0.00537691824138
         -0.0053630862385
         -0.0053492244333
         -0.00533533189446
         -0.00532140908763
         -0.00530745554715
         -0.00529347127303
         -0.00527945673093
         -0.00526541098952
         -0.00525133451447
         -0.00523722730577
         -0.00522308936343
         -0.00520892022178
         -0.00519471988082
         -0.00518048834056
         -0.00516622560099
         -0.00515193166211
         -0.00513760652393
         -0.00512324972078
         -0.00510886125267
         -0.00509444158524
         -0.00507999025285
         -0.00506550725549
         -0.00505099212751
         -0.00503644533455
         -0.00502186687663
         -0.00500725628808
         -0.0049926135689
         -0.00497793871909
         -0.00496323173866
         -0.00494849262759
         -0.00493372092023
         -0.00491891708225
         -0.00490408064798
         -0.00488921161741
         -0.00487430999056
         -0.00485937530175
         -0.00484440848231
         -0.00482940860093
         -0.00481437565759
         -0.0047993096523
         -0.00478421105072
         -0.00476907892153
         -0.00475391373038
         -0.00473871547729
         -0.00472348369658
         -0.00470821838826
         -0.00469291955233
         -0.00467758765444
         -0.00466222176328
         -0.00464682187885
         -0.00463138846681
         -0.00461592152715
         -0.00460042012855
         -0.00458488520235
         -0.00456931581721
         -0.00455371243879
         -0.00453807460144
         -0.00452240277082
         -0.00450669648126
         -0.00449095573276
         -0.00447518052533
         -0.00445937039331
         -0.00444352580234
         -0.00442764675245
         -0.00441173231229
         -0.0043957834132
         -0.00437979912385
         -0.00436377990991
         -0.00434772577137
         -0.00433163624257
         -0.00431551132351
         -0.00429935147986
         -0.00428315578029
         -0.00426692469046
         -0.00425065774471
         -0.0042343554087
         -0.00421801721677
         -0.00420164316893
         -0.0041852327995
         -0.00416878703982
         -0.00415230495855
         -0.00413578655571
         -0.00411923229694
         -0.0041026417166
         -0.00408601434901
         -0.00406935065985
         -0.0040526506491
         -0.00403591385111
         -0.00401914026588
         -0.00400232989341
         -0.0039854827337
         -0.00396859832108
         -0.00395167712122
         -0.00393471866846
         -0.00391772342846
         -0.00390069046989
         -0.00388362025842
         -0.00386651279405
         -0.00384936761111
         -0.00383218470961
         -0.00381496432237
         -0.00379770598374
         -0.00378040992655
         -0.00376307591796
         -0.00374570372514
         -0.00372829358093
         -0.0037108452525
         -0.00369335850701
         -0.00367583357729
         -0.00365826999769
         -0.00364066800103
         -0.00362302735448
         -0.00360534805804
         -0.00358763011172
         -0.00356987304986
         -0.00355207710527
         -0.00353424227796
         -0.00351636810228
         -0.00349845481105
         -0.00348050217144
         -0.00346251018345
         -0.00344447884709
         -0.00342640792951
         -0.00340829719789
         -0.00339014688507
         -0.00337195652537
         -0.00335372658446
         -0.00333545636386
         -0.00331714632921
         -0.00329879601486
         -0.00328040542081
         -0.00326197454706
         -0.00324350316077
         -0.00322499126196
         -0.00320643861778
         -0.00318784546107
         -0.003169211559
         -0.00315053667873
         -0.00313182082027
         -0.00311306398362
         -0.00309426593594
         -0.00307542667724
         -0.00305654597469
         -0.00303762406111
         -0.00301866047084
         -0.00299965543672
         -0.00298060849309
         -0.00296151987277
         -0.00294238934293
         -0.00292321690358
         -0.00290400255471
         -0.00288474583067
         -0.00286544696428
         -0.00284610572271
         -0.00282672210597
         -0.00280729588121
         -0.00278782704845
         -0.00276831537485
         -0.00274876109324
         -0.0027291639708
         -0.00270952377468
         -0.0026898405049
         -0.00267011392862
         -0.00265034427866
         -0.00263053108938
         -0.0026106745936
         -0.00259077432565
         -0.00257083051838
         -0.00255084293894
         -0.00253081158735
         -0.00251073623076
         -0.00249061686918
         -0.00247045326978
         -0.00245024566539
         -0.00242999359034
         -0.00240969704464
         -0.00238935602829
         -0.00236897030845
         -0.00234853988513
         -0.00232806475833
         -0.00230754469521
         -0.00228697946295
         -0.00226636929438
         -0.00224571372382
         -0.00222501298413
         -0.00220426684245
         -0.00218347506598
         -0.00216263788752
         -0.00214175484143
         -0.0021208259277
         -0.00209985114634
         -0.00207883049734
         -0.00205776351504
         -0.00203665043227
         -0.00201549101621
         -0.00199428526685
         -0.00197303295135
         -0.00195173395332
         -0.00193038827274
         -0.0019089957932
         -0.00188755628187
         -0.00186606985517
         -0.00184453628026
         -0.00182295544073
         -0.00180132722016
         -0.00177965150215
         -0.00175792840309
         -0.00173615745734
         -0.00171433889773
         -0.00169247249141
         -0.00167055800557
         -0.0016485954402
         -0.0016265847953
         -0.00160452583805
         -0.00158241845202
         -0.00156026263721
         -0.0015380581608
         -0.00151580490638
         -0.00149350287393
         -0.00147115194704
         -0.00144875200931
         -0.00142630294431
         -0.00140380463563
         -0.00138125685044
         -0.00135865970515
         -0.00133601296693
         -0.00131331663579
         -0.00129057036247
         -0.0012677742634
         -0.00124492810573
         -0.00122203188948
         -0.00119908549823
         -0.00117608869914
         -0.0011530413758
         -0.00112994364463
         -0.00110679515637
         -0.00108359591104
         -0.0010603456758
         -0.00103704456706
         -0.00101369223557
         -0.000990288797766
         -0.000966833962593
         -0.000943327613641
         -0.000919769750908
         -0.00089616025798
         -0.000872498902027
         -0.000848785624839
         -0.000825020368211
         -0.000801202957518
         -0.000777333334554
         -0.000753411324695
         -0.000729436811525
         -0.000705409736838
         -0.000681329984218
         -0.000657197320834
         -0.000633011804894
         -0.000608773145359
         -0.000584481400438
         -0.000560136279091
         -0.00053573778132
         -0.000511285790708
         -0.000486780161737
         -0.000462220748886
         -0.000437607464846
         -0.000412940164097
         -0.00038821878843
         -0.000363443163224
         -0.000338613172062
         -0.000313728727633
         -0.000288789684419
         -0.000263795926003
         -0.000238747350522
         -0.00021364382701
         -0.000188485224498
         -0.000163271441124
         -0.000138002345921
         -0.000112677800644
         -8.72977107065e-05
         -6.18619451416e-05
         -3.63703729818e-05
         -1.08228841782e-05
         1.47806495079e-05
         4.04403508583e-05
         6.61563462927e-05
         9.19287485885e-05
         0.000117757692351
         0.000143643293995
         0.000169585691765
         0.000195585002075
         0.000221641341341
         0.000247754825978
         0.000273925630609
         0.000300153827993
         0.000326439563651
         0.000352782953996
         0.000379184144549
         0.000405643251725
         0.000432160391938
         0.000458735710708
         0.000485369353555
         0.00051206140779
         0.000538812018931
         0.000565621303394
         0.000592489377595
         0.000619416416157
         0.000646402535494
         0.000673447852023
         0.000700552482158
         0.000727716600522
         0.000754940323532
         0.000782223709393
         0.000809566990938
         0.000836970226374
         0.000864433590323
         0.000891957199201
         0.000919541227631
         0.000947185733821
         0.000974890892394
         0.00100265676156
         0.00103048363235
         0.00105837150477
         0.00108632061165
         0.00111433095299
         0.00114240276162
         0.00117053627037
         0.00119873136282
         0.00122698827181
         0.00125530723017
         0.00128368835431
         0.00131213176064
         0.00134063744918
         0.00136920576915
         0.00139783672057
         0.00142653041985
         0.00145528721623
         0.0014841069933
         0.00151298998389
         0.00154193642084
         0.00157094618771
         0.00160001975019
         0.00162915710825
         0.00165835826192
         0.00168762356043
         0.00171695300378
         0.0017463468248
         0.00177580513991
         0.00180532806553
         0.00183491571806
         0.00186456833035
         0.0018942860188
         0.00192406889983
         0.00195391708985
         0.00198383070529
         0.00201380997896
         0.00204385491088
         0.0020739659667
         0.00210414291359
         0.00213438621722
         0.00216469564475
         0.00219507189468
         0.00222551450133
         0.00225602393039
         0.00228660041466
         0.00231724372134
         0.0023479545489
         0.00237873266451
         0.00240957830101
         0.0024404914584
         0.00247147260234
         0.00250252149999
         0.00253363861702
         0.00256482418627
         0.00259607797489
         0.00262740021572
         0.00265879137442
         0.00269025145099
         0.00272178044543
         0.00275337859057
         0.00278504588641
         0.00281678303145
         0.00284858956002
         0.00288046570495
         0.00291241216473
         0.00294442847371
         0.00297651509754
         0.00300867203623
         0.0030408995226
         0.00307319755666
         0.00310556683689
         0.00313800689764
         0.00317051797174
         0.00320310052484
         0.00323575455695
         0.0032684803009
         0.00330127775669
         0.00333414715715
         0.0033670887351
         0.00340010249056
         0.00343318865635
         0.00346634746529
         0.0034995789174
         0.00353288347833
         0.00356626091525
         0.00359971169382
         0.00363323581405
         0.00366683327593
         0.00370050477795
         0.00373424985446
         0.00376806920394
         0.00380196259357
         0.00383593025617
         0.00386997265741
         0.00390408956446
         0.00393828144297
         0.00397254806012
         0.0040068901144
         0.0040413076058
         0.00407580053434
         0.0041103689
         0.00414501316845
         0.00417973380536
         0.00421453034505
         0.00424940278754
         0.00428435252979
         0.00431937817484
         0.00435448111966
         0.0043896608986
         0.0044249179773
         0.00446025235578
         0.0044956644997
         0.00453115394339
         0.00456672161818
         0.0046023670584
         0.00463809072971
         0.00467389263213
         0.0047097732313
         0.00474573252723
         0.00478177051991
         0.00481788767502
         0.0048540844582
         0.00489035993814
         0.00492671551183
         0.00496315071359
         0.0049996660091
         0.00503626093268
         0.00507293641567
         0.00510969245806
         0.00514652905986
         0.00518344668671
         0.00522044487298
         0.00525752454996
         0.00529468525201
         0.00533192791045
         0.00536925205961
         0.00540665816516
         0.00544414576143
         0.00548171624541
         0.00551936915144
         0.00555710447952
         0.00559492222965
         0.00563282333314
         0.00567080779001
         0.00570887513459
         0.0057470262982
         0.00578526081517
         0.00582357961684
         0.00586198223755
         0.00590046914294
         0.00593904079869
         0.00597769673914
         0.00601643742993
         0.00605526287109
         0.00609417399392
         0.00613317033276
         0.00617225188762
         0.00621141958982
         0.00625067297369
         0.00629001297057
         0.00632943864912
         0.00636895094067
         0.00640855031088
         0.00644823629409
         0.0064880088903
         0.00652786949649
         0.00656781718135
         0.00660785241053
         0.00664797564968
         0.00668818689883
         0.00672848615795
         0.00676887389272
         0.0068093505688
         0.00684991572052
         0.00689056981355
         0.00693131331354
         0.00697214575484
         0.00701306806877
         0.00705408025533
         0.00709518231452
         0.00713637471199
         0.00717765698209
         0.00721903052181
         0.00726049439982
         0.00730204908177
         0.00734369503334
         0.00738543272018
         0.00742726167664
         0.00746918236837
         0.00751119526103
         0.00755329988897
         0.0075954971835
         0.00763778667897
         0.0076801693067
         0.00772264506668
         0.00776521395892
         0.00780787598342
         0.00785063114017
         0.00789348129183
         0.00793642457575
         0.00797946192324
         0.00802259426564
         0.00806582067162
         0.00810914300382
         0.0081525593996
         0.00819607079029
         0.0082396781072
         0.00828338135034
         0.0083271805197
         0.00837107468396
         0.0084150666371
         0.00845915358514
         0.00850333832204
         0.0085476199165
         0.0085919983685
         0.00863647460938
         0.0086810477078
         0.00872571859509
         0.00877048820257
         0.00881535559893
         0.00886032171547
         0.00890538562089
         0.00895054917783
         0.00899581145495
         0.00904117338359
         0.00908663403243
         0.0091321952641
         0.00917785614729
         0.00922361761332
         0.00926947873086
         0.00931544136256
         0.00936150364578
         0.00940766744316
         0.0094539327547
         0.0095002995804
         0.00954676792026
         0.0095933387056
         0.0096400110051
         0.00968678575009
         0.00973366387188
         0.00978064350784
         0.00982772745192
         0.00987491384149
         0.00992220453918
         0.00996959861368
         0.010017096065
         0.0100646987557
         0.0101124048233
         0.0101602161303
         0.0102081326768
         0.0102561535314
         0.0103042796254
         0.0103525118902
         0.0104008503258
         0.0104492940009
         0.010497844778
         0.0105465007946
         0.0105952648446
         0.0106441350654
         0.0106931133196
         0.0107421977445
         0.0107913911343
         0.0108406916261
         0.0108901001513
         0.0109396176413
         0.010989244096
         0.0110389785841
         0.011088822037
         0.0111387753859
         0.0111888386309
         0.0112390108407
         0.0112892938778
         0.011339686811
         0.0113901905715
         0.0114408051595
         0.0114915305749
         0.0115423668176
         0.011593314819
         0.0116443745792
         0.0116955470294
         0.0117468312383
         0.0117982281372
         0.0118497377262
         0.0119013600051
         0.0119530959055
         0.0120049444959
         0.0120569076389
         0.0121089844033
         0.0121611757204
         0.0122134815902
         0.0122659020126
         0.0123184369877
         0.0123710883781
         0.0124238543212
         0.0124767357484
         0.0125297345221
         0.0125828487799
         0.0126360794529
         0.0126894265413
         0.0127428909764
         0.0127964727581
         0.0128501718864
         0.0129039892927
         0.0129579249769
         0.0130119780079
         0.0130661502481
         0.0131204416975
         0.013174851425
         0.0132293812931
         0.0132840303704
         0.0133387986571
         0.0133936880156
         0.0134486975148
         0.0135038271546
         0.0135590787977
         0.0136144505814
         0.0136699443683
         0.0137255601585
         0.0137812979519
         0.0138371577486
         0.0138931404799
         0.0139492452145
         0.0140054738149
         0.0140618253499
         0.0141183007509
         0.0141748990864
         0.0142316222191
         0.014288470149
         0.0143454428762
         0.0144025404006
         0.0144597627223
         0.0145171107724
         0.0145745845512
         0.0146321849898
         0.0146899111569
         0.0147477649152
         0.0148057444021
         0.0148638514802
         0.0149220861495
         0.0149804484099
         0.0150389391929
         0.0150975575671
         0.0151563053951
         0.0152151817456
         0.0152741866186
         0.0153333218768
         0.0153925865889
         0.0154519807547
         0.0155115053058
         0.0155711611733
         0.015630947426
         0.0156908649951
         0.0157509129494
         0.0158110950142
         0.0158714074641
         0.0159318521619
         0.0159924291074
         0.0160531401634
         0.0161139834672
         0.0161749608815
         0.0162360724062
         0.0162973161787
         0.0163586959243
         0.0164202097803
         0.0164818596095
         0.0165436435491
         0.0166055615991
         0.0166676174849
         0.0167298093438
         0.0167921371758
         0.0168546028435
         0.0169172044843
         0.0169799439609
         0.0170428194106
         0.0171058345586
         0.0171689875424
         0.0172322802246
         0.0172957107425
         0.0173592790961
         0.0174229890108
         0.0174868367612
         0.0175508260727
         0.0176149550825
         0.0176792256534
         0.0177436359227
         0.017808187753
         0.0178728811443
         0.0179377179593
         0.0180026944727
         0.0180678162724
         0.0181330796331
         0.0181984845549
         0.018264034763
         0.0183297283947
         0.0183955673128
         0.0184615496546
         0.01852767542
         0.0185939483345
         0.0186603665352
         0.0187269300222
         0.0187936387956
         0.018860494718
         0.0189274959266
         0.0189946461469
         0.0190619416535
         0.0191293861717
         0.0191969778389
         0.0192647185177
         0.0193326082081
         0.0194006450474
         0.019468832761
         0.0195371694863
         0.0196056552231
         0.0196742936969
         0.0197430811822
         0.0198120195419
         0.0198811087757
         0.0199503488839
         0.0200197435915
         0.0200892873108
         0.0201589856297
         0.0202288366854
         0.0202988404781
         0.0203689988703
         0.0204393099993
         0.020509775728
         0.0205803960562
         0.0206511709839
         0.0207221023738
         0.0207931883633
         0.0208644289523
         0.0209358278662
         0.0210073832422
         0.0210790950805
         0.0211509633809
         0.0212229918689
         0.021295176819
         0.0213675200939
         0.0214400216937
         0.0215126816183
         0.0215855035931
         0.0216584838927
         0.0217316225171
         0.0218049231917
         0.0218783859164
         0.0219520088285
         0.0220257919282
         0.0220997389406
         0.0221738461405
         0.0222481172532
         0.0223225522786
         0.0223971493542
         0.0224719084799
         0.0225468333811
         0.022621922195
         0.0226971767843
         0.0227725952864
         0.0228481795639
         0.0229239296168
         0.0229998473078
         0.0230759289116
         0.023152180016
         0.0232285968959
         0.0233051814139
         0.0233819335699
         0.0234588552266
         0.0235359445214
         0.0236132033169
         0.0236906316131
         0.0237682294101
         0.0238459985703
         0.0239239372313
         0.0240020472556
         0.0240803286433
         0.024158783257
         0.0242374073714
         0.0243162047118
         0.0243951752782
         0.0244743209332
         0.0245536379516
         0.024633128196
         0.0247127953917
         0.0247926358134
         0.0248726513237
         0.0249528419226
         0.0250332094729
         0.0251137539744
         0.0251944735646
         0.0252753701061
         0.0253564454615
         0.0254376977682
         0.0255191288888
         0.0256007388234
         0.0256825275719
         0.0257644951344
         0.0258466433734
         0.0259289704263
         0.0260114800185
         0.0260941684246
         0.0261770393699
         0.0262600928545
         0.0263433288783
         0.0264267455786
         0.0265103466809
         0.0265941303223
         0.0266780983657
         0.0267622508109
         0.0268465857953
         0.0269311089069
         0.0270158145577
         0.0271007083356
         0.0271857865155
         0.0272710528225
         0.027356505394
         0.0274421460927
         0.0275279749185
         0.0276139900088
         0.027700195089
         0.0277865901589
         0.0278731733561
         0.027959946543
         0.0280469115824
         0.0281340666115
         0.0282214116305
         0.0283089503646
         0.0283966790885
         0.0284846015275
         0.0285727158189
         0.0286610238254
         0.0287495274097
         0.0288382228464
         0.0289271138608
         0.0290161985904
         0.0291054807603
         0.0291949566454
         0.0292846299708
         0.0293745007366
         0.0294645689428
         0.0295548327267
         0.0296452958137
         0.029735956341
         0.0298268161714
         0.0299178771675
         0.0300091356039
         0.030100595206
         0.0301922559738
         0.0302841160446
         0.0303761791438
         0.0304684434086
         0.0305609107018
         0.0306535810232
         0.030746454373
         0.0308395307511
         0.0309328120202
         0.0310262963176
         0.0311199873686
         0.0312138851732
         0.0313079878688
         0.0314022935927
