aces_1.0.0/luts/V3 LogC_320_to_linear.spi1d
Version 1
From 0.000000 1.000000
Length 4096
Components 1
{
         -0.0164589677006
         -0.00636554183438
         -0.00635250564665
         -0.00633944151923
         -0.00632634898648
         -0.00631322804838
         -0.00630007870495
         -0.00628690049052
         -0.00627369433641
         -0.00626045884565
         -0.00624719494954
         -0.00623390264809
         -0.00622058100998
         -0.00620723096654
         -0.00619385158643
         -0.00618044333532
         -0.00616700621322
         -0.00615353975445
         -0.00614004395902
         -0.00612651882693
         -0.00611296482384
         -0.00609938101843
         -0.00608576834202
         -0.00607212539762
         -0.00605845358223
         -0.00604475149885
         -0.00603102007881
         -0.00601725885645
         -0.00600346783176
         -0.00598964653909
         -0.0059757954441
         -0.00596191454679
         -0.00594800338149
         -0.00593406241387
         -0.00592009071261
         -0.00590608874336
         -0.00589205697179
         -0.00587799400091
         -0.00586390122771
         -0.00584977772087
         -0.00583562348038
         -0.00582143850625
         -0.00580722279847
         -0.00579297635704
         -0.00577869871631
         -0.00576439034194
         -0.00575005123392
         -0.00573568046093
         -0.0057212789543
         -0.00570684624836
         -0.00569238187745
         -0.00567788630724
         -0.00566335953772
         -0.00564880110323
         -0.00563421100378
         -0.00561958970502
         -0.00560493627563
         -0.00559025118127
         -0.00557553442195
         -0.005560785532
         -0.00554600451142
         -0.00553119182587
         -0.00551634700969
         -0.00550146959722
         -0.00548656005412
         -0.0054716183804
         -0.00545664411038
         -0.00544163770974
         -0.0054265987128
         -0.00541152665392
         -0.0053964224644
         -0.00538128521293
         -0.00536611536518
         -0.00535091245547
         -0.00533567648381
         -0.00532040791586
         -0.0053051058203
         -0.00528977066278
         -0.00527440197766
         -0.00525900023058
         -0.00524356542155
         -0.00522809661925
         -0.00521259475499
         -0.00519705889747
         -0.00518148951232
         -0.00516588613391
         -0.00515024922788
         -0.00513457832858
         -0.005118873436
         -0.00510313455015
         -0.00508736167103
         -0.00507155433297
         -0.00505571300164
         -0.00503983674571
         -0.00502392649651
         -0.00500798178837
         -0.00499200262129
         -0.00497598852962
         -0.00495993997902
         -0.00494385650381
         -0.00492773810402
         -0.00491158477962
         -0.00489539606497
         -0.00487917289138
         -0.00486291432753
         -0.00484662037343
         -0.00483029102907
         -0.00481392629445
         -0.00479752616957
         -0.00478109065443
         -0.00476461928338
         -0.00474811252207
         -0.00473156990483
         -0.00471499096602
         -0.00469837663695
         -0.0046817259863
         -0.00466503901407
         -0.00464831618592
         -0.00463155703619
         -0.00461476156488
         -0.00459792977199
         -0.00458106119186
         -0.00456415629014
         -0.00454721460119
         -0.00453023659065
         -0.00451322132722
         -0.00449616927654
         -0.00447907997295
         -0.00446195388213
         -0.00444479100406
         -0.00442759040743
         -0.0044103525579
         -0.00439307792112
         -0.00437576510012
         -0.00435841502622
         -0.00434102723375
         -0.00432360218838
         -0.00430613895878
         -0.00428863801062
         -0.00427109887823
         -0.00425352202728
         -0.00423590652645
         -0.00421825330704
         -0.00420056190342
         -0.0041828318499
         -0.00416506361216
         -0.00414725672454
         -0.00412941118702
         -0.00411152699962
         -0.00409360416234
         -0.0040756422095
         -0.00405764160678
         -0.00403960142285
         -0.00402152258903
         -0.00400340463966
         -0.00398524710909
         -0.00396705046296
         -0.00394881423563
         -0.00393053842708
         -0.00391222303733
         -0.00389386806637
         -0.00387547304854
         -0.0038570384495
         -0.00383856357075
         -0.00382004887797
         -0.00380149390548
         -0.00378289888613
         -0.00376426335424
         -0.00374558730982
         -0.0037268709857
         -0.00370811414905
         -0.00368931656703
         -0.00367047800682
         -0.00365159893408
         -0.00363267865032
         -0.00361371762119
         -0.00359471538104
         -0.00357567192987
         -0.00355658703484
         -0.00353746092878
         -0.00351829337887
         -0.00349908415228
         -0.003479833249
         -0.00346054066904
         -0.00344120641239
         -0.00342183001339
         -0.00340241170488
         -0.00338295125403
         -0.00336344866082
         -0.00334390392527
         -0.00332431658171
         -0.00330468686298
         -0.00328501453623
         -0.00326529960148
         -0.00324554182589
         -0.00322574144229
         -0.00320589798503
         -0.00318601145409
         -0.00316608184949
         -0.00314610917121
         -0.00312609295361
         -0.0031060334295
         -0.00308593036607
         -0.00306578399613
         -0.00304559362121
         -0.00302535970695
         -0.00300508178771
         -0.00298475986347
         -0.00296439393423
         -0.00294398376718
         -0.00292352936231
         -0.00290303071961
         -0.00288248760626
         -0.00286190002225
         -0.00284126773477
         -0.00282059051096
         -0.00279986881651
         -0.00277910195291
         -0.002758290153
         -0.00273743318394
         -0.00271653104573
         -0.00269558350556
         -0.0026745905634
         -0.00265355221927
         -0.00263246824034
         -0.00261133839376
         -0.00259016291238
         -0.00256894156337
         -0.00254767388105
         -0.0025263603311
         -0.00250500068069
         -0.00248359446414
         -0.00246214191429
         -0.00244064303115
         -0.00241909734905
         -0.00239750486799
         -0.0023758658208
         -0.00235417974181
         -0.00233244663104
         -0.00231066648848
         -0.00228883884847
         -0.00226696417667
         -0.00224504200742
         -0.00222307234071
         -0.00220105494373
         -0.00217898981646
         -0.00215687695891
         -0.00213471590541
         -0.00211250712164
         -0.00209024990909
         -0.00206794473343
         -0.00204559089616
         -0.00202318886295
         -0.00200073816814
         -0.00197823857889
         -0.00195569056086
         -0.00193309341557
         -0.00191044737585
         -0.00188775220886
         -0.00186500779819
         -0.00184221414384
         -0.00181937101297
         -0.00179647840559
         -0.00177353608888
         -0.00175054406282
         -0.001727502211
         -0.00170441041701
         -0.00168126856443
         -0.00165807653684
         -0.00163483421784
         -0.001611541491
         -0.00158819823992
         -0.00156480434816
         -0.00154135981575
         -0.00151786440983
         -0.00149431813043
         -0.00147072074469
         -0.00144707213622
         -0.00142337242141
         -0.00139962113462
         -0.00137581850868
         -0.00135196419433
         -0.00132805819158
         -0.00130410026759
         -0.00128009053878
         -0.00125602865592
         -0.00123191461898
         -0.00120774831157
         -0.00118352961726
         -0.00115925841965
         -0.00113493460231
         -0.00111055804882
         -0.00108612864278
         -0.00106164626777
         -0.00103711080737
         -0.00101252214517
         -0.000987880164757
         -0.000963184749708
         -0.00093843578361
         -0.000913633208256
         -0.000888776849024
         -0.00086386653129
         -0.000838902255055
         -0.000813883903902
         -0.000788811245002
         -0.000763684220146
         -0.000738502771128
         -0.000713266665116
         -0.00068797590211
         -0.00066263024928
         -0.000637229706626
         -0.000611774041317
         -0.000586263195146
         -0.000560697051696
         -0.000535075494554
         -0.000509398349095
         -0.000483665528009
         -0.000457876943983
         -0.000432032422395
         -0.000406131905038
         -0.000380175188184
         -0.000354162213625
         -0.000328092864947
         -0.000301966967527
         -0.000275784434052
         -0.000249545119004
         -0.00022324892052
         -0.000196895722183
         -0.000170485378476
         -0.000144017772982
         -0.00011749278201
         -9.09102818696e-05
         -6.42701488687e-05
         -3.75722593162e-05
         -1.08164849735e-05
         1.59973005793e-05
         4.2869221943e-05
         6.97994037182e-05
         9.67879750533e-05
         0.000123835052364
         0.000150940788444
         0.000178105270606
         0.000205328658922
         0.000232611084357
         0.000259952648776
         0.000287353497697
         0.000314813747536
         0.000342333514709
         0.000369912973838
         0.000397552241338
         0.000425251404522
         0.000453010638012
         0.000480830058223
         0.000508709810674
         0.000536649953574
         0.000564650748856
         0.000592712196521
         0.000620834471192
         0.000649017747492
         0.000677262141835
         0.000705567770638
         0.000733934750315
         0.00076236325549
         0.000790853402577
         0.000819405249786
         0.000848019088153
         0.000876694917679
         0.000905432912987
         0.000934233248699
         0.000963096041232
         0.000992021407001
         0.00102100940421
         0.0010500602657
         0.00107917422429
         0.00110835116357
         0.00113759143278
         0.00116689514834
         0.00119626231026
         0.00122569326777
         0.00125518790446
         0.00128474656958
         0.00131436926313
         0.00134405621793
         0.00137380755041
         0.00140362326056
         0.00143350381404
         0.00146344897803
         0.00149345921818
         0.00152353441808
         0.00155367481057
         0.00158388062846
         0.00161415187176
         0.00164448877331
         0.00167489144951
         0.00170536001679
         0.00173589470796
         0.00176649552304
         0.00179716281127
         0.00182789645623
         0.00185869680718
         0.0018895638641
         0.00192049797624
         0.0019514990272
         0.00198256736621
         0.0020137031097
         0.00204490614124
         0.00207617692649
         0.0021075156983
         0.00213892222382
         0.00217039696872
         0.00220193970017
         0.00223355111666
         0.00226523098536
         0.0022969795391
         0.00232879677787
         0.00236068316735
         0.00239263870753
         0.00242466339841
         0.00245675747283
         0.00248892139643
         0.0025211549364
         0.00255345832556
         0.00258583156392
         0.00261827534996
         0.00265078921802
         0.00268337363377
         0.00271602883004
         0.00274875480682
         0.00278155156411
         0.00281441956758
         0.00284735881723
         0.00288036931306
         0.00291345152073
         0.00294660544023
         0.0029798313044
         0.00301312911324
         0.00304649933241
         0.00307994172908
         0.00311345653608
         0.00314704421908
         0.00318070454523
         0.0032144379802
         0.003248244524
         0.00328212417662
         0.00331607740372
         0.00335010443814
         0.00338420504704
         0.00341837969609
         0.00345262838528
         0.00348695111461
         0.00352134858258
         0.00355582055636
         0.00359036703594
         0.00362498871982
         0.00365968537517
         0.00369445723481
         0.00372930453159
         0.00376422726549
         0.00379922566935
         0.00383430020884
         0.00386945065111
         0.003904677229
         0.00393998017535
         0.00397535972297
         0.00401081610471
         0.00404634932056
         0.00408195937052
         0.00411764672026
         0.00415341183543
         0.00418925378472
         0.0042251739651
         0.00426117191091
         0.00429724762216
         0.00433340203017
         0.00436963466927
         0.00440594553947
         0.00444233557209
         0.00447880430147
         0.00451535219327
         0.00455197924748
         0.00458868546411
         0.00462547177449
         0.00466233724728
         0.00469928327948
         0.00473630893975
         0.00477341515943
         0.00481060147285
         0.00484786881134
         0.00488521670923
         0.00492264563218
         0.00496015558019
         0.00499774701893
         0.0050354199484
         0.00507317483425
         0.00511101121083
         0.00514892954379
         0.00518693029881
         0.00522501347587
         0.00526317907497
         0.00530142756179
         0.00533975893632
         0.00537817366421
         0.00541667127982
         0.00545525224879
         0.0054939170368
         0.0055326661095
         0.00557149853557
         0.005610415712
         0.00564941670746
         0.00568850245327
         0.00572767341509
         0.00576692866161
         0.00580626912415
         0.00584569526836
         0.00588520662859
         0.0059248036705
         0.00596448639408
         0.006004255265
         0.00604411074892
         0.00608405238017
         0.00612408015877
         0.00616419548169
         0.0062043974176
         0.00624468643218
         0.00628506252542
         0.00632552662864
         0.00636607827619
         0.00640671793371
         0.00644744560122
         0.00648826174438
         0.00652916636318
         0.00657015945762
         0.00661124195904
         0.00665241293609
         0.00669367332011
         0.0067350231111
         0.00677646277472
         0.00681799231097
         0.00685961171985
         0.00690132146701
         0.00694312155247
         0.00698501197621
         0.00702699366957
         0.00706906616688
         0.0071112299338
         0.00715348543599
         0.0071958322078
         0.00723827071488
         0.00728080142289
         0.00732342433184
         0.00736613944173
         0.00740894721821
         0.00745184812695
         0.00749484170228
         0.00753792887554
         0.00758110918105
         0.00762438308448
         0.00766775058582
         0.00771121261641
         0.00775476871058
         0.00779841886833
         0.00784216448665
         0.00788600370288
         0.00792993884534
         0.0079739689827
         0.00801809504628
         0.00806231610477
         0.00810663402081
         0.00815104693174
         0.00819555670023
         0.00824016332626
         0.00828486587852
         0.00832966528833
         0.00837456248701
         0.00841955654323
         0.00846464838833
         0.00850983802229
         0.00855512544513
         0.00860051158816
         0.00864599552006
         0.00869157817215
         0.00873725954443
         0.00878304056823
         0.00882892031223
         0.00887489970773
         0.00892097875476
         0.0089671574533
         0.00901343673468
         0.00905981659889
         0.00910629611462
         0.00915287714452
         0.00919955875725
         0.00924634188414
         0.00929322652519
         0.00934021174908
         0.00938730034977
         0.00943448953331
         0.00948178209364
         0.00952917709947
         0.00957667455077
         0.00962427537888
         0.00967197865248
         0.0097197862342
         0.00976769719273
         0.00981571152806
         0.00986383110285
         0.00991205405444
         0.00996038131416
         0.0100088138133
         0.0100573515519
         0.01010599453
         0.0101547427475
         0.0102035962045
         0.0102525558323
         0.0103016225621
         0.0103507945314
         0.0104000736028
         0.0104494597763
         0.0104989521205
         0.0105485524982
         0.010598259978
         0.0106480754912
         0.0106979990378
         0.0107480306178
         0.0107981711626
         0.0108484197408
         0.0108987782151
         0.0109492447227
         0.0109998211265
         0.0110505074263
         0.0111013036221
         0.0111522097141
         0.0112032266334
         0.0112543534487
         0.0113055910915
         0.011356940493
         0.0114084007218
         0.0114599727094
         0.0115116564557
         0.0115634519607
         0.0116153601557
         0.0116673810408
         0.0117195146158
         0.0117717608809
         0.0118241207674
         0.0118765942752
         0.0119291814044
         0.0119818821549
         0.0120346974581
         0.012087627314
         0.0121406726539
         0.0121938316151
         0.0122471069917
         0.0123004969209
         0.0123540032655
         0.0124076250941
         0.0124613633379
         0.0125152189285
         0.012569190003
         0.0126232793555
         0.0126774851233
         0.0127318082377
         0.0127862496302
         0.0128408093005
         0.0128954863176
         0.0129502825439
         0.0130051979795
         0.0130602316931
         0.0131153855473
         0.0131706576794
         0.0132260508835
         0.0132815632969
         0.0133371967822
         0.0133929504082
         0.013448825106
         0.0135048208758
         0.0135609386489
         0.0136171774939
         0.0136735383421
         0.0137300211936
         0.0137866269797
         0.0138433547691
         0.0139002064243
         0.0139571810141
         0.0140142785385
         0.0140715008602
         0.0141288461164
         0.0141863171011
         0.0142439119518
         0.0143016315997
         0.0143594760448
         0.0144174462184
         0.0144755421206
         0.0145337637514
         0.014592112042
         0.0146505869925
         0.0147091886029
         0.0147679168731
         0.0148267727345
         0.0148857561871
         0.014944867231
         0.0150041067973
         0.0150634748861
         0.0151229714975
         0.0151825966313
         0.0152423512191
         0.0153022361919
         0.0153622506186
         0.0154223944992
         0.0154826696962
         0.0155430752784
         0.0156036112458
         0.0156642794609
         0.0157250780612
         0.0157860089093
         0.0158470720053
         0.015908267349
         0.0159695968032
         0.0160310566425
         0.016092652455
         0.0161543805152
         0.0162162408233
         0.0162782371044
         0.016340367496
         0.0164026319981
         0.0164650324732
         0.0165275689214
         0.0165902394801
         0.0166530460119
         0.0167159885168
         0.0167790688574
         0.0168422851712
         0.016905637458
         0.0169691275805
         0.0170327574015
         0.0170965231955
         0.0171604268253
         0.0172244701535
         0.0172886513174
         0.0173529740423
         0.017417434603
         0.017482034862
         0.0175467748195
         0.0176116544753
         0.0176766756922
         0.0177418384701
         0.017807142809
         0.0178725868464
         0.0179381743073
         0.0180039033294
         0.0180697757751
         0.0181357897818
         0.0182019472122
         0.018268249929
         0.0183346942067
         0.0184012837708
         0.0184680167586
         0.0185348950326
         0.0186019167304
         0.0186690855771
         0.0187363997102
         0.0188038591295
         0.0188714656979
         0.0189392194152
         0.0190071184188
         0.0190751645714
         0.0191433597356
         0.0192117020488
         0.0192801915109
         0.0193488318473
         0.0194176193327
         0.0194865558296
         0.0195556413382
         0.0196248777211
         0.0196942649782
         0.0197638012469
         0.0198334883898
         0.0199033264071
         0.0199733171612
         0.0200434587896
         0.0201137531549
         0.0201841983944
         0.0202547982335
         0.0203255489469
         0.0203964542598
         0.0204675141722
         0.0205387268215
         0.0206100940704
         0.0206816177815
         0.0207532942295
         0.0208251271397
         0.0208971165121
         0.020969260484
         0.0210415609181
         0.021114019677
         0.0211866348982
         0.0212594065815
         0.0213323365897
         0.0214054249227
         0.0214786715806
         0.0215520765632
         0.0216256417334
         0.0216993652284
         0.0217732489109
         0.0218472946435
         0.021921498701
         0.0219958648086
         0.0220703911036
         0.0221450794488
         0.0222199298441
         0.0222949422896
         0.0223701167852
         0.0224454551935
         0.0225209575146
         0.0225966218859
         0.0226724520326
         0.022748446092
         0.0228246040642
         0.0229009278119
         0.0229774173349
         0.0230540726334
         0.0231308937073
         0.0232078805566
         0.023285035044
         0.0233623571694
         0.0234398469329
         0.0235175043344
         0.0235953293741
         0.0236733257771
         0.0237514879555
         0.0238298214972
         0.0239083245397
         0.0239869989455
         0.024065842852
         0.0241448562592
         0.0242240428925
         0.024303400889
         0.024382930249
         0.0244626328349
         0.0245425086468
         0.0246225558221
         0.0247027780861
         0.024783173576
         0.0248637441546
         0.0249444879591
         0.025025408715
         0.0251065026969
         0.02518777363
         0.0252692215145
         0.0253508444875
         0.0254326462746
         0.0255146250129
         0.0255967807025
         0.025679115206
         0.0257616266608
         0.0258443187922
         0.0259271897376
         0.0260102394968
         0.0260934699327
         0.0261768810451
         0.0262604728341
         0.0263442452997
         0.0264282003045
         0.0265123359859
         0.0265966560692
         0.026681156829
         0.0267658419907
         0.0268507115543
         0.0269357636571
         0.0270210020244
         0.027106422931
         0.027192030102
         0.0272778235376
         0.027363801375
         0.0274499673396
         0.0275363195688
         0.0276228580624
         0.0277095846832
         0.0277964994311
         0.0278836023062
         0.0279708951712
         0.0280583761632
         0.0281460471451
         0.0282339081168
         0.0283219590783
         0.0284102018923
         0.0284986365587
         0.0285872612149
         0.0286760795861
         0.0287650898099
         0.0288542937487
         0.02894368954
         0.0290332809091
         0.0291230659932
         0.0292130447924
         0.0293032191694
         0.0293935891241
         0.0294841546565
         0.0295749176294
         0.0296658761799
         0.0297570321709
         0.0298483874649
         0.0299399383366
         0.0300316885114
         0.0301236379892
         0.03021578677
         0.0303081367165
         0.0304006841034
         0.0304934345186
         0.0305863842368
         0.0306795369834
         0.0307728908956
         0.0308664478362
         0.0309602059424
         0.0310541689396
         0.0311483349651
         0.0312427058816
         0.0313372798264
         0.0314320623875
         0.0315270461142
         0.0316222384572
