aces_1.0.0/luts/V3_LogC_160_to_linear.spi1d
Version 1
From 0.000000 1.000000
Length 1024
Components 1
{
         -0.0158811360598
         -0.00753567134961
         -0.00747767556459
         -0.00741919176653
         -0.00736021716148
         -0.00730074709281
         -0.00724077736959
         -0.00718030380085
         -0.00711932172999
         -0.00705782789737
         -0.00699581718072
         -0.0069332853891
         -0.0068702287972
         -0.00680664181709
         -0.00674252072349
         -0.00667786132544
         -0.00661265850067
         -0.00654690759256
         -0.00648060441017
         -0.00641374429688
         -0.00634632259607
         -0.00627833418548
         -0.00620977487415
         -0.00614063953981
         -0.00607092306018
         -0.00600062124431
         -0.00592972850427
         -0.0058582406491
         -0.00578615162522
         -0.00571345724165
         -0.00564015191048
         -0.00556623097509
         -0.00549168884754
         -0.00541652040556
         -0.00534072052687
         -0.00526428408921
         -0.00518720503896
         -0.00510947871953
         -0.00503109954298
         -0.0049520614557
         -0.00487235980108
         -0.00479198805988
         -0.00471094157547
         -0.00462921382859
         -0.00454679923132
         -0.00446369266137
         -0.00437988806516
         -0.00429537892342
         -0.00421016011387
         -0.00412422511727
         -0.00403756834567
         -0.00395018327981
         -0.00386206433177
         -0.00377320498228
         -0.00368359917775
         -0.00359324039891
         -0.00350212259218
         -0.00341023923829
         -0.00331758405082
         -0.00322415027767
         -0.00312993163243
         -0.003034921363
         -0.00293911295012
         -0.00284249940887
         -0.00274507445283
         -0.00264683086425
         -0.00254776189104
         -0.00244786054827
         -0.00234712008387
         -0.00224553328007
         -0.00214309268631
         -0.00203979178332
         -0.00193562288769
         -0.00183057889808
         -0.00172465236392
         -0.00161783583462
         -0.00151012197603
         -0.00140150310472
         -0.00129197177012
         -0.00118152017239
         -0.00107014074456
         -0.000957825453952
         -0.000844566617161
         -0.000730356259737
         -0.000615186349023
         -0.000499048852362
         -0.000381935707992
         -0.000263838621322
         -0.000144749341416
         -2.46595700446e-05
         9.64391147136e-05
         0.000218555200263
         0.000341697217664
         0.000465873803478
         0.000591093616094
         0.000717365473974
         0.000844698166475
         0.000973100599367
         0.00110258185305
         0.00123315083329
         0.0013648167951
         0.00149758893531
         0.00163147656713
         0.00176648900378
         0.00190263579134
         0.00203992635943
         0.00217837025411
         0.00231797737069
         0.00245875725523
         0.00260072015226
         0.00274387537502
         0.00288823363371
         0.0030338044744
         0.00318059837446
         0.0033286253456
         0.00347789609805
         0.00362842110917
         0.00378021039069
         0.00393327511847
         0.00408762600273
         0.00424327328801
         0.00440022815019
         0.00455850176513
         0.00471810530871
         0.00487904949114
         0.00504134595394
         0.00520500587299
         0.00537004088983
         0.00553646218032
         0.00570428185165
         0.0058735110797
         0.00604416243732
         0.00621624710038
         0.0063897781074
         0.00656476663426
         0.00674122525379
         0.00691916653886
         0.00709860259667
         0.00727954600006
         0.00746200978756
         0.00764600653201
         0.00783154927194
         0.00801865011454
         0.00820732396096
         0.00839758198708
         0.00858943909407
         0.0087829073891
         0.00897800177336
         0.00917473435402
         0.00937312096357
         0.00957317277789
         0.00977490656078
         0.00997833441943
         0.0101834721863
         0.0103903329
         0.0105989314616
         0.0108092818409
         0.0110214008018
         0.0112353004515
         0.0114509984851
         0.0116685079411
         0.0118878446519
         0.0121090244502
         0.012332062237
         0.0125569738448
         0.0127837751061
         0.0130124818534
         0.0132431099191
         0.0134756760672
         0.0137101951987
         0.0139466850087
         0.0141851622611
         0.0144256418571
         0.014668142423
         0.0149126807228
         0.0151592725888
         0.0154079366475
         0.0156586896628
         0.0159115493298
         0.0161665342748
         0.0164236612618
         0.0166829470545
         0.016944412142
         0.0172080732882
         0.0174739509821
         0.0177420601249
         0.0180124230683
         0.0182850584388
         0.0185599830002
         0.0188372172415
         0.019116781652
         0.0193986929953
         0.0196829736233
         0.019969644025
         0.0202587209642
         0.0205502267927
         0.0208441819996
         0.0211406070739
         0.0214395225048
         0.0217409487814
         0.0220449082553
         0.0223514214158
         0.0226605087519
         0.0229721926153
         0.0232864953578
         0.0236034393311
         0.0239230450243
         0.0242453366518
         0.0245703365654
         0.0248980652541
         0.025228548795
         0.0255618076771
         0.0258978679776
         0.0262367501855
         0.0265784803778
         0.0269230809063
         0.0272705759853
         0.0276209916919
         0.0279743503779
         0.0283306781203
         0.0286899991333
         0.0290523394942
         0.0294177252799
         0.0297861788422
         0.0301577281207
         0.0305323991925
         0.0309102181345
         0.0312912128866
         0.0316754058003
         0.0320628285408
         0.0324535034597
         0.0328474603593
         0.0332447290421
         0.0336453355849
         0.0340493097901
         0.0344566740096
         0.0348674617708
         0.0352817028761
         0.0356994196773
         0.0361206494272
         0.0365454182029
         0.0369737520814
         0.0374056883156
         0.0378412529826
         0.0382804758847
         0.0387233868241
         0.0391700230539
         0.0396204069257
         0.0400745794177
         0.040532566607
         0.0409943982959
         0.0414601117373
         0.0419297367334
         0.0424033105373
         0.042880859226
         0.0433624237776
         0.0438480302691
         0.0443377196789
         0.0448315218091
         0.0453294701874
         0.045831605792
         0.0463379584253
         0.04684856534
         0.0473634637892
         0.0478826835752
         0.0484062694013
         0.04893425107
         0.0494666695595
         0.0500035621226
         0.0505449660122
         0.0510909184813
         0.0516414567828
         0.0521966181695
         0.052756447345
         0.0533209778368
         0.0538902506232
         0.0544643066823
         0.0550431832671
         0.055626925081
         0.0562155731022
         0.0568091645837
         0.0574077442288
         0.0580113530159
         0.0586200319231
         0.0592338219285
         0.059852771461
         0.0604769214988
         0.06110631302
         0.0617409944534
         0.0623810067773
         0.0630263984203
         0.0636772066355
         0.0643334910274
         0.0649952813983
         0.0656626373529
         0.0663355961442
         0.0670142099261
         0.0676985234022
         0.0683885887265
         0.0690844506025
         0.0697861611843
         0.0704937577248
         0.0712073072791
         0.0719268545508
         0.0726524367929
         0.0733841210604
         0.0741219520569
         0.0748659819365
         0.0756162628531
         0.076372846961
         0.0771357864141
         0.0779051333666
         0.078680947423
         0.0794632807374
         0.0802521854639
         0.0810477137566
         0.0818499326706
         0.0826588869095
         0.0834746360779
         0.0842972397804
         0.0851267576218
         0.085963241756
         0.0868067517877
         0.0876573547721
         0.0885150954127
         0.0893800482154
         0.0902522653341
         0.0911318138242
         0.0920187458396
         0.0929131358862
         0.093815036118
         0.0947245135903
         0.0956416279078
         0.0965664535761
         0.0974990427494
         0.0984394773841
         0.0993878021836
         0.100344099104
         0.101308427751
         0.102280862629
         0.103261463344
         0.104250304401
         0.105247452855
         0.106252975762
         0.107266955078
         0.108289442956
         0.109320528805
         0.110360272229
         0.111408747733
         0.112466037273
         0.113532207906
         0.114607341588
         0.115691497922
         0.116784766316
         0.117887221277
         0.118998937309
         0.120119996369
         0.121250472963
         0.122390441597
         0.123539991677
         0.12469919771
         0.125868141651
         0.127046912909
         0.128235578537
         0.129434242845
         0.130642965436
         0.131861850619
         0.1330909729
         0.134330421686
         0.135580271482
         0.136840641499
         0.138111591339
         0.139393210411
         0.140685617924
         0.141988858581
         0.143303066492
         0.144628316164
         0.145964682102
         0.147312298417
         0.148671224713
         0.150041565299
         0.151423409581
         0.152816876769
         0.15422205627
         0.15563903749
         0.157067909837
         0.158508807421
         0.159961789846
         0.161426991224
         0.162904500961
         0.164394423366
         0.165896862745
         0.167411923409
         0.168939709663
         0.170480340719
         0.172033905983
         0.173600524664
         0.175180315971
         0.176773369312
         0.178379803896
         0.179999738932
         0.181633278728
         0.183280557394
         0.184941664338
         0.186616718769
         0.188305854797
         0.190009191632
         0.191726818681
         0.193458884954
         0.195205509663
         0.196966797113
         0.198742896318
         0.200533911586
         0.202339962125
         0.204161196947
         0.205997735262
         0.207849696279
         0.209717214108
         0.211600422859
         0.213499456644
         0.215414449573
         0.217345520854
         0.2192928195
         0.221256479621
         0.223236635327
         0.22523342073
         0.227246999741
         0.229277476668
         0.231325030327
         0.233389765024
         0.235471859574
         0.237571448088
         0.239688664675
         0.241823688149
         0.24397662282
         0.246147662401
         0.248336941004
         0.250544607639
         0.252770811319
         0.255015730858
         0.257279515266
         0.259562313557
         0.261864304543
         0.264185607433
         0.266526430845
         0.26888692379
         0.271267235279
         0.273667544127
         0.276088029146
         0.27852883935
         0.280990153551
         0.283472150564
         0.285975009203
         0.288498878479
         0.291043967009
         0.293610423803
         0.296198457479
         0.298808246851
         0.301439940929
         0.304093748331
         0.30676984787
         0.30946841836
         0.312189668417
         0.314933776855
         0.317700952291
         0.320491373539
         0.323305249214
         0.326142758131
         0.329004079103
         0.33188945055
         0.334799081087
         0.337733149529
         0.340691864491
         0.343675434589
         0.346684068441
         0.349718004465
         0.352777391672
         0.355862498283
         0.358973532915
         0.362110704184
         0.365274220705
         0.368464320898
         0.371681213379
         0.374925136566
         0.378196328878
         0.381494998932
         0.384821355343
         0.388175666332
         0.391558170319
         0.394969105721
         0.398408681154
         0.401877135038
         0.405374765396
         0.408901751041
         0.412458389997
         0.416044890881
         0.419661521912
         0.423308551311
         0.426986217499
         0.430694788694
         0.434434503317
         0.438205629587
         0.442008465528
         0.445843219757
         0.449710220098
         0.453609675169
         0.457541912794
         0.461507171392
         0.46550577879
         0.469537943602
         0.473603993654
         0.477704226971
         0.481838881969
         0.486008256674
         0.490212708712
         0.494452446699
         0.498727798462
         0.503039121628
         0.507386624813
         0.511770665646
         0.516191482544
         0.520649492741
         0.525144994259
         0.529678165913
         0.534249484539
         0.538859248161
         0.543507695198
         0.548195183277
         0.552922070026
         0.557688653469
         0.562495291233
         0.567342281342
         0.572230041027
         0.577158808708
         0.582129061222
         0.587141036987
         0.592195093632
         0.597291648388
         0.602430999279
         0.607613503933
         0.612839579582
         0.618109583855
         0.623423814774
         0.628782689571
         0.634186625481
         0.639635980129
         0.64513105154
         0.650672316551
         0.65626013279
         0.661894917488
         0.667577028275
         0.673306882381
         0.679084897041
         0.684911370277
         0.690786898136
         0.696711719036
         0.702686309814
         0.708711147308
         0.714786589146
         0.720913052559
         0.727090954781
         0.733320832253
         0.739602982998
         0.745937943459
         0.752326130867
         0.75876802206
         0.765263974667
         0.771814525127
         0.778420090675
         0.785081207752
         0.791798233986
         0.798571705818
         0.805402040482
         0.812289834023
         0.819235444069
         0.826239407063
         0.833302259445
         0.840424418449
         0.847606420517
         0.854848742485
         0.862151920795
         0.869516432285
         0.876942873001
         0.884431660175
         0.891983389854
         0.899598538876
         0.907277703285
         0.915021359921
         0.922830045223
         0.93070435524
         0.938644826412
         0.946651995182
         0.954726457596
         0.962868750095
         0.971079409122
         0.979359090328
         0.987708330154
         0.996127724648
         1.00461781025
         1.01317930222
         1.02181267738
         1.0305185318
         1.03929758072
         1.04815042019
         1.05707752705
         1.06607973576
         1.07515752316
         1.0843116045
         1.09354257584
         1.10285103321
         1.11223781109
         1.12170338631
         1.13124847412
         1.14087378979
         1.15058004856
         1.16036772728
         1.17023766041
         1.1801905632
         1.19022703171
         1.20034778118
         1.21055364609
         1.22084522247
         1.23122322559
         1.24168848991
         1.25224161148
         1.26288342476
         1.273614645
         1.28443610668
         1.29534828663
         1.30635225773
         1.31744873524
         1.3286383152
         1.33992195129
         1.35130047798
         1.36277449131
         1.37434494495
         1.38601255417
         1.39777827263
         1.40964269638
         1.42160689831
         1.43367159367
         1.44583773613
         1.45810592175
         1.47047734261
         1.48295259476
         1.49553275108
         1.50821852684
         1.5210108757
         1.53391063213
         1.54691886902
         1.56003642082
         1.57326412201
         1.58660292625
         1.60005378723
         1.61361765862
         1.62729549408
         1.64108836651
         1.65499699116
         1.66902244091
         1.68316578865
         1.69742798805
         1.71180987358
         1.72631275654
         1.74093735218
         1.7556848526
         1.77055621147
         1.78555262089
         1.80067491531
         1.81592428684
         1.83130180836
         1.84680855274
         1.86244547367
         1.87821388245
         1.89411461353
         1.91014909744
         1.92631816864
         1.94262313843
         1.95906507969
         1.97564518452
         1.99236452579
         2.00922441483
         2.02622580528
         2.04337024689
         2.0606584549
         2.07809209824
         2.09567213058
         2.11339998245
         2.13127660751
         2.14930343628
         2.16748189926
         2.18581295013
         2.20429801941
         2.22293829918
         2.24173521996
         2.26069021225
         2.27980422974
         2.29907894135
         2.31851553917
         2.33811545372
         2.35788011551
         2.37781071663
         2.39790892601
         2.41817593575
         2.43861317635
         2.45922207832
         2.48000407219
         2.50096058846
         2.52209353447
         2.54340362549
         2.56489300728
         2.58656287193
         2.60841464996
         2.63045024872
         2.65267086029
         2.67507815361
         2.69767355919
         2.72045898438
         2.74343585968
         2.76660561562
         2.78997015953
         2.81353092194
         2.83728957176
         2.86124801636
         2.88540768623
         2.90977025032
         2.93433737755
         2.95911121368
         2.98409295082
         3.00928473473
         3.03468799591
         3.06030464172
         3.08613657951
         3.11218571663
         3.13845348358
         3.16494202614
         3.19165301323
         3.21858859062
         3.24575018883
         3.27314019203
         3.30076026917
         3.32861232758
         3.35669851303
         3.38502049446
         3.41358065605
         3.44238042831
         3.47142243385
         3.5007083416
         3.53024029732
         3.56002020836
         3.59005045891
         3.62033319473
         3.65087008476
         3.68166351318
         3.71271562576
         3.74402880669
         3.7756049633
         3.8074464798
         3.83955526352
         3.87193417549
         3.90458488464
         3.93750977516
         3.97071146965
         4.00419187546
         4.03795385361
         4.07199954987
         4.10633087158
         4.14095115662
         4.17586183548
         4.21106624603
         4.24656581879
         4.2823638916
         4.31846284866
         4.35486507416
         4.39157295227
         4.42858934402
         4.46591711044
         4.50355768204
         4.5415148735
         4.57979106903
         4.6183886528
         4.65731096268
         4.69655990601
         4.73613834381
         4.77604961395
         4.81629610062
         4.85688066483
         4.89780664444
         4.93907594681
         4.98069190979
         5.02265787125
         5.06497621536
         5.10765028
         5.15068244934
         5.19407653809
         5.23783493042
         5.2819609642
         5.32645797729
         5.37132835388
         5.4165763855
         5.46220397949
         5.50821495056
         5.55461263657
         5.60140037537
         5.64858102798
         5.69615793228
         5.74413442612
         5.79251432419
         5.84130048752
         5.89049625397
         5.94010591507
         5.99013185501
         6.04057836533
         6.09144878387
         6.14274597168
         6.19447469711
         6.2466378212
         6.29923915863
         6.35228252411
         6.40577173233
         6.45971012115
         6.51410150528
         6.56895017624
         6.62425947189
         6.68003320694
         6.73627567291
         6.79299068451
         6.85018253326
         6.90785455704
         6.96601104736
         7.02465581894
         7.08379364014
         7.14342832565
         7.20356416702
         7.26420497894
         7.32535552979
         7.38701963425
         7.44920158386
         7.511906147
         7.5751376152
         7.63890028
         7.70319843292
         7.76803684235
         7.83342027664
         7.89935255051
         7.96583890915
         8.0328836441
         8.10049247742
         8.16866874695
         8.23741817474
         8.3067445755
         8.37665367126
         8.44715023041
         8.51823806763
         8.58992481232
         8.66221237183
         8.73510837555
         8.80861568451
         8.88274097443
         8.95748996735
         9.03286552429
         9.10887527466
         9.18552303314
         9.26281547546
         9.34075641632
         9.41935253143
         9.49860954285
         9.57853126526
         9.65912532806
         9.74039649963
         9.82235050201
         9.90499210358
         9.98832893372
         10.0723657608
         10.1571083069
         10.242562294
         10.3287353516
         10.4156312943
         10.5032577515
         10.5916213989
         10.6807260513
         10.7705793381
         10.8611879349
         10.9525585175
         11.0446958542
         11.1376075745
         11.2312994003
         11.3257780075
         11.4210510254
         11.5171251297
         11.6140050888
         11.7116994858
         11.8102149963
         11.9095582962
         12.0097360611
         12.1107549667
         12.2126226425
         12.3153467178
         12.4189329147
         12.5233898163
         12.6287240982
         12.7349443436
         12.8420562744
         12.9500675201
         13.0589866638
         13.1688213348
         13.2795782089
         13.3912658691
         13.5038919449
         13.6174640656
         13.7319898605
         13.8474779129
         13.9639368057
         14.0813741684
         14.1997976303
         14.3192157745
         14.4396381378
         14.5610713959
         14.6835250854
         14.8070077896
         14.9315280914
         15.057094574
         15.1837148666
         15.3114004135
         15.4401578903
         15.5699968338
         15.7009267807
         15.8329572678
         15.9660968781
         16.1003551483
         16.2357406616
         16.3722629547
         16.5099334717
         16.6487598419
         16.7887535095
         16.9299221039
         17.0722789764
         17.2158298492
         17.3605861664
         17.5065612793
         17.65376091
         17.8021965027
         17.9518795013
         18.1028213501
         18.2550296783
         18.4085178375
         18.5632953644
         18.719373703
         18.8767623901
         19.0354747772
         19.1955184937
         19.3569087982
         19.5196533203
         19.6837654114
         19.8492584229
         20.0161399841
         20.1844234467
         20.3541202545
         20.5252437592
         20.6978034973
         20.8718147278
         21.0472869873
         21.2242336273
         21.4026679993
         21.5825996399
         21.764043808
         21.9470119476
         22.1315174103
         22.3175735474
         22.505191803
         22.6943874359
         22.8851718903
         23.0775585175
         23.2715625763
         23.4671955109
         23.66447258
         23.863407135
         24.0640144348
         24.2663059235
         24.4702949524
         24.6760005951
         24.8834323883
         25.0926094055
         25.3035411835
         25.5162467957
         25.7307376862
         25.9470329285
         26.1651439667
         26.3850860596
         26.6068782806
         26.830532074
         27.0560665131
         27.2834949493
         27.512834549
