aces_1.0.0/luts/V3_LogC_320_to_linear.spi1d
Version 1
From 0.000000 1.000000
Length 1024
Components 1
{
         -0.0164589677006
         -0.00632631033659
         -0.00627361657098
         -0.00622046366334
         -0.00616684835404
         -0.00611276598647
         -0.00605821236968
         -0.00600318424404
         -0.00594767695293
         -0.00589168583974
         -0.00583520764485
         -0.00577823771164
         -0.00572077138349
         -0.00566280493513
         -0.00560433417559
         -0.00554535351694
         -0.00548585969955
         -0.00542584806681
         -0.00536531349644
         -0.00530425226316
         -0.00524265877903
         -0.00518052978441
         -0.00511785922572
         -0.005054642912
         -0.0049908766523
         -0.00492655485868
         -0.00486167287454
         -0.00479622650892
         -0.00473020970821
         -0.00466361828148
         -0.00459644710645
         -0.00452869106084
         -0.00446034502238
         -0.00439140386879
         -0.00432186247781
         -0.00425171572715
         -0.00418095802888
         -0.00410958426073
         -0.00403758883476
         -0.0039649666287
         -0.00389171228744
         -0.00381781999022
         -0.00374328438193
         -0.0036680996418
         -0.00359226041473
         -0.00351576064713
         -0.00343859498389
         -0.00336075737141
         -0.00328224198893
         -0.00320304301567
         -0.00312315439805
         -0.0030425703153
         -0.00296128424816
         -0.00287929060869
         -0.00279658311047
         -0.00271315546706
         -0.00262900139205
         -0.002544114599
         -0.00245848856866
         -0.0023721170146
         -0.00228499341756
         -0.00219711125828
         -0.00210846401751
         -0.00201904471032
         -0.00192884681746
         -0.00183786370326
         -0.00174608826637
         -0.00165351387113
         -0.00156013329979
         -0.00146593968384
         -0.00137092592195
         -0.00127508491278
         -0.00117840932216
         -0.00108089193236
         -0.000982525525615
         -0.000883302651346
         -0.000783215800766
         -0.000682257465087
         -0.000580420077313
         -0.00047769601224
         -0.000374077499146
         -0.000269556767307
         -0.000164125973242
         -5.77771606913e-05
         4.94976338814e-05
         0.000157706483151
         0.000266857532552
         0.000376958952984
         0.000488019053591
         0.000600046128966
         0.000713048677426
         0.000827035168186
         0.000942014099564
         0.00105799420271
         0.00117498415057
         0.00129299273249
         0.00141202891245
         0.00153210142162
         0.00165321945678
         0.00177539209835
         0.00189862854313
         0.00202293787152
         0.00214832974598
         0.00227481336333
         0.00240239826962
         0.00253109424375
         0.00266091059893
         0.00279185734689
         0.00292394426651
         0.00305718113668
         0.00319157820195
         0.00332714547403
         0.00346389319748
         0.00360183161683
         0.00374097120948
         0.00388132198714
         0.00402289489284
         0.0041657006368
         0.0043097496964
         0.00445505324751
         0.00460162153468
         0.00474946619943
         0.00489859841764
         0.00504902889952
         0.0052007692866
         0.00535383075476
         0.00550822494552
         0.00566396396607
         0.00582105852664
         0.0059795207344
         0.00613936316222
         0.00630059698597
         0.00646323524415
         0.00662728911266
         0.00679277162999
         0.00695969490334
         0.00712807150558
         0.0072979144752
         0.00746923591942
         0.00764204934239
         0.00781636778265
         0.00799220334738
         0.00816957000643
         0.00834848172963
         0.00852895062417
         0.00871099065989
         0.00889461673796
         0.00907984096557
         0.00926667824388
         0.0094551416114
         0.00964524690062
         0.00983700715005
         0.0100304363295
         0.0102255502716
         0.0104223638773
         0.0106208901852
         0.0108211450279
         0.0110231442377
         0.0112269017845
         0.0114324335009
         0.0116397552192
         0.0118488818407
         0.0120598291978
         0.0122726131231
         0.0124872503802
         0.0127037558705
         0.0129221472889
         0.0131424395368
         0.0133646503091
         0.0135887954384
         0.0138148926198
         0.0140429576859
         0.014273009263
         0.0145050641149
         0.0147391390055
         0.0149752525613
         0.0152134215459
         0.0154536645859
         0.0156959984452
         0.015940444544
         0.0161870177835
         0.0164357367903
         0.016686623916
         0.0169396940619
         0.0171949677169
         0.0174524635077
         0.0177122019231
         0.0179742015898
         0.0182384829968
         0.0185050666332
         0.0187739692628
         0.0190452151
         0.0193188209087
         0.0195948109031
         0.0198732018471
         0.0201540179551
         0.0204372797161
         0.0207230076194
         0.0210112221539
         0.0213019475341
         0.021595204249
         0.0218910146505
         0.0221893992275
         0.0224903821945
         0.0227939877659
         0.0231002345681
         0.0234091486782
         0.0237207524478
         0.0240350700915
         0.0243521239609
         0.0246719382703
         0.024994539097
         0.0253199469298
         0.0256481878459
         0.0259792879224
         0.0263132695109
         0.0266501605511
         0.0269899852574
         0.0273327678442
         0.0276785343885
         0.0280273128301
         0.0283791273832
         0.0287340059876
         0.0290919747204
         0.0294530596584
         0.0298172887415
         0.0301846880466
         0.030555287376
         0.0309291146696
         0.0313061960042
         0.0316865593195
         0.0320702381432
         0.032457254827
         0.0328476391733
         0.0332414247096
         0.0336386412382
         0.0340393148363
         0.034443475306
         0.0348511561751
         0.0352623872459
         0.0356772020459
         0.036095622927
         0.0365176908672
         0.0369434319437
         0.037372879684
         0.0378060676157
         0.0382430292666
         0.0386837907135
         0.0391283929348
         0.039576869458
         0.0400292463601
         0.0404855646193
         0.040945854038
         0.0414101518691
         0.0418784916401
         0.042350910604
         0.0428274422884
         0.0433081239462
         0.0437929928303
         0.044282078743
         0.0447754263878
         0.0452730692923
         0.0457750447094
         0.0462813898921
         0.0467921458185
         0.0473073497415
         0.047827038914
         0.0483512505889
         0.0488800294697
         0.0494134090841
         0.0499514378607
         0.0504941493273
         0.0510415844619
         0.0515937879682
         0.0521507970989
         0.0527126602829
         0.0532794110477
         0.0538510978222
         0.0544277653098
         0.0550094507635
         0.0555962026119
         0.0561880618334
         0.0567850768566
         0.0573872886598
         0.0579947456717
         0.0586074888706
         0.0592255704105
         0.0598490312696
         0.0604779236019
         0.0611122883856
         0.0617521777749
         0.0623976401985
         0.0630487203598
         0.0637054666877
         0.064367942512
         0.0650361776352
         0.0657102316618
         0.0663901567459
         0.067075997591
         0.0677678138018
         0.0684656575322
         0.0691695734859
         0.0698796212673
         0.0705958455801
         0.0713183134794
         0.0720470622182
         0.0727821663022
         0.0735236629844
         0.0742716193199
         0.0750260949135
         0.075787127018
         0.0765547975898
         0.0773291438818
         0.0781102329493
         0.0788981318474
         0.0796928852797
         0.0804945528507
         0.0813032090664
         0.0821188986301
         0.0829416960478
         0.083771660924
         0.0846088454127
         0.0854533240199
         0.0863051563501
         0.0871644020081
         0.0880311280489
         0.0889054015279
         0.0897872895002
         0.0906768590212
         0.0915741696954
         0.0924792960286
         0.0933922976255
         0.0943132564425
         0.0952422320843
         0.0961792916059
         0.097124516964
         0.0980779677629
         0.0990397185087
         0.100009851158
         0.100988425314
         0.101975522935
         0.102971211076
         0.103975571692
         0.104988671839
         0.106010600924
         0.107041426003
         0.108081229031
         0.109130077064
         0.110188066959
         0.111255265772
         0.112331755459
         0.113417617977
         0.114512935281
         0.115617789328
         0.116732262075
         0.117856442928
         0.118990413845
         0.12013424933
         0.121288053691
         0.122451901436
         0.12362588197
         0.124810084701
         0.126004591584
         0.12720951438
         0.128424912691
         0.129650905728
         0.130887567997
         0.132135003805
         0.133393287659
         0.134662538767
         0.135942846537
         0.137234285474
         0.138536974788
         0.139851018786
         0.141176491976
         0.142513513565
         0.143862172961
         0.145222574472
         0.146594822407
         0.147979021072
         0.149375259876
         0.150783672929
         0.152204334736
         0.153637379408
         0.155082896352
         0.156540989876
         0.15801179409
         0.159495398402
         0.160991922021
         0.162501469254
         0.164024174213
         0.165560126305
         0.167109459639
         0.168672278523
         0.170248702168
         0.171838849783
         0.173442855477
         0.17506082356
         0.17669287324
         0.178339138627
         0.179999738932
         0.181674793363
         0.18336443603
         0.185068786144
         0.186787977815
         0.188522130251
         0.190271392465
         0.192035898566
         0.193815752864
         0.195611104369
         0.197422087193
         0.199248850346
         0.201091498137
         0.202950209379
         0.204825103283
         0.206716313958
         0.208623990417
         0.21054828167
         0.212489321828
         0.214447274804
         0.216422274709
         0.218414455652
         0.220423996449
         0.222451031208
         0.224495723844
         0.226558208466
         0.228638648987
         0.23073720932
         0.232854053378
         0.234989315271
         0.237143173814
         0.239315778017
         0.241507306695
         0.24371792376
         0.245947778225
         0.248197048903
         0.250465899706
         0.252754509449
         0.255063056946
         0.257391691208
         0.259740620852
         0.262109994888
         0.264499992132
         0.266910791397
         0.269342601299
         0.27179557085
         0.274269908667
         0.276765793562
         0.27928340435
         0.281822919846
         0.284384578466
         0.286968499422
         0.289574950933
         0.292204111814
         0.294856131077
         0.297531247139
         0.300229668617
         0.302951574326
         0.305697202682
         0.3084667027
         0.311260342598
         0.314078301191
         0.316920787096
         0.319788038731
         0.322680264711
         0.325597643852
         0.328540444374
         0.331508845091
         0.334503114223
         0.337523460388
         0.340570092201
         0.343643248081
         0.346743166447
         0.349870085716
         0.353024214506
         0.356205821037
         0.359415113926
         0.362652361393
         0.365917801857
         0.369211673737
         0.37253421545
         0.375885695219
         0.379266351461
         0.382676452398
         0.386116236448
         0.389585971832
         0.393085896969
         0.396616339684
         0.400177508593
         0.403769671917
         0.407393097878
         0.4110481143
         0.4147349298
         0.418453842402
         0.422205150127
         0.425989121199
         0.429806023836
         0.433656185865
         0.437539845705
         0.441457331181
         0.445408940315
         0.44939494133
         0.45341566205
         0.457471370697
         0.461562424898
         0.465689063072
         0.469851642847
         0.474050492048
         0.478285878897
         0.482558131218
         0.48686760664
         0.491214603186
         0.495599448681
         0.500022470951
         0.504483997822
         0.508984386921
         0.513523936272
         0.518103003502
         0.522722005844
         0.527381181717
         0.532080888748
         0.53682154417
         0.541603505611
         0.546427071095
         0.551292657852
         0.556200623512
         0.561151325703
         0.566145122051
         0.571182370186
         0.576263487339
         0.581388890743
         0.586558878422
         0.591773867607
         0.597034275532
         0.602340519428
         0.607692956924
         0.613092005253
         0.618538022041
         0.624031484127
         0.629572749138
         0.635162293911
         0.640800535679
         0.646487832069
         0.65222465992
         0.658011436462
         0.66384857893
         0.669736564159
         0.675675809383
         0.681666791439
         0.687709927559
         0.693805634975
         0.69995445013
         0.706156849861
         0.712413191795
         0.718724012375
         0.725089848042
         0.731511056423
         0.737988173962
         0.744521677494
         0.751112103462
         0.757759928703
         0.76446557045
         0.771229684353
         0.77805262804
         0.784934997559
         0.791877269745
         0.798880040646
         0.805943787098
         0.813068985939
         0.820256233215
         0.827506065369
         0.834819078445
         0.842195689678
         0.849636554718
         0.857142210007
         0.864713251591
         0.872350215912
         0.880053639412
         0.887824118137
         0.895662307739
         0.903568685055
         0.91154396534
         0.919588625431
         0.927703380585
         0.935888767242
         0.944145441055
         0.95247399807
         0.960875093937
         0.969349324703
         0.97789734602
         0.986519813538
         0.995217323303
         1.00399053097
         1.01284015179
         1.02176690102
         1.03077125549
         1.03985416889
         1.04901599884
         1.05825769901
         1.06757986546
         1.07698321342
         1.08646833897
         1.09603619576
         1.10568726063
         1.11542236805
         1.12524223328
         1.13514769077
         1.14513933659
         1.15521788597
         1.1653842926
         1.17563927174
         1.18598341942
         1.19641768932
         1.20694279671
         1.21755957603
         1.22826886177
         1.23907124996
         1.24996781349
         1.26095914841
         1.27204632759
         1.28322994709
         1.29451096058
         1.30589020252
         1.31736850739
         1.32894670963
         1.34062576294
         1.35240650177
         1.3642898798
         1.37627673149
         1.38836789131
         1.40056431293
         1.41286695004
         1.42527675629
         1.43779456615
         1.45042145252
         1.46315813065
         1.47600579262
         1.48896539211
         1.5020377636
         1.51522397995
         1.52852487564
         1.54194176197
         1.55547535419
         1.56912684441
         1.58289718628
         1.5967874527
         1.61079871655
         1.62493181229
         1.63918805122
         1.65356850624
         1.6680740118
         1.68270599842
         1.69746530056
         1.7123529911
         1.72737050056
         1.74251866341
         1.75779879093
         1.77321183681
         1.78875923157
         1.80444192886
         1.82026124001
         1.83621823788
         1.85231411457
         1.86855018139
         1.88492774963
         1.90144777298
         1.91811168194
         1.9349206686
         1.95187604427
         1.96897900105
         1.98623085022
         2.00363302231
         2.02118659019
         2.03889322281
         2.05675387383
         2.07476997375
         2.09294295311
         2.1112742424
         2.12976527214
         2.148416996
         2.16723132133
         2.18620944023
         2.2053527832
         2.22466278076
         2.24414110184
         2.2637887001
         2.28360772133
         2.30359911919
         2.32376456261
         2.3441054821
         2.36462378502
         2.38532066345
         2.40619754791
         2.42725634575
         2.44849872589
         2.46992588043
         2.4915394783
         2.51334142685
         2.53533315659
         2.55751633644
         2.57989263535
         2.60246396065
         2.62523174286
         2.64819765091
         2.67136359215
         2.6947312355
         2.71830224991
         2.74207854271
         2.76606202126
         2.79025411606
         2.81465697289
         2.83927249908
         2.86410212517
         2.88914775848
         2.91441178322
         2.93989562988
         2.96560144424
         2.99153113365
         3.01768636703
         3.04406952858
         3.07068252563
         3.09752702713
         3.12460541725
         3.15191936493
         3.17947125435
         3.20726299286
         3.23529696465
         3.26357483864
         3.2920987606
         3.32087135315
         3.3498942852
         3.37916994095
         3.40870070457
         3.43848824501
         3.46853542328
         3.49884414673
         3.52941679955
         3.5602555275
         3.59136295319
         3.62274098396
         3.65439248085
         3.6863193512
         3.71852445602
         3.7510099411
         3.78377819061
         3.81683158875
         3.85017299652
         3.88380479813
         3.91772913933
         3.95194911957
         3.98646688461
         4.02128553391
         4.05640697479
         4.09183454514
         4.12757015228
         4.16361713409
         4.19997787476
         4.23665571213
         4.27365255356
         4.31097126007
         4.34861516953
         4.38658666611
         4.42488908768
         4.46352481842
         4.5024971962
         4.54180860519
         4.58146238327
         4.62146186829
         4.66180896759
         4.70250749588
         4.74356079102
         4.78497123718
         4.82674217224
         4.86887693405
         4.91137886047
         4.95425033569
         4.99749565125
         5.04111719131
         5.08511829376
         5.12950277328
         5.17427396774
         5.21943473816
         5.26498842239
         5.31093931198
         5.35728979111
         5.40404415131
         5.45120573044
         5.49877786636
         5.54676389694
         5.59516811371
         5.64399385452
         5.69324445724
         5.74292373657
         5.79303598404
         5.84358453751
         5.89457273483
         5.94600534439
         5.99788570404
         6.05021762848
         6.10300540924
         6.15625286102
         6.20996379852
         6.26414251328
         6.31879281998
         6.37391901016
         6.42952537537
         6.48561573029
         6.54219436646
         6.59926605225
         6.65683412552
         6.71490383148
         6.77347898483
         6.83256435394
         6.89216423035
         6.95228290558
         7.01292467117
         7.07409477234
         7.13579750061
         7.19803762436
         7.26081943512
         7.3241481781
         7.38802814484
         7.4524641037
         7.51746177673
         7.58302497864
         7.64915895462
         7.71586847305
         7.78315925598
         7.85103607178
         7.91950368881
         7.98856735229
         8.05823230743
         8.12850475311
         8.19938755035
         8.27088928223
         8.34301185608
         8.41576385498
         8.48914813995
         8.56317234039
         8.637840271
         8.71315860748
         8.7891330719
         8.86576843262
         8.94307231903
         9.02104759216
         9.09970283508
         9.17904281616
         9.25907421112
         9.33980178833
         9.42123222351
         9.50337123871
         9.58622646332
         9.66980266571
         9.75410652161
         9.83914375305
         9.92492198944
         10.0114479065
         10.0987262726
         10.1867647171
         10.2755699158
         10.3651485443
         10.4555063248
         10.5466518402
         10.6385908127
         10.7313299179
         10.8248758316
         10.9192371368
         11.0144205093
         11.1104316711
         11.2072792053
         11.3049707413
         11.403512001
         11.5029115677
         11.6031761169
         11.7043142319
         11.8063325882
         11.909239769
         12.01304245
         12.1177492142
         12.223367691
         12.3299055099
         12.437371254
         12.5457725525
         12.6551179886
         12.7654151917
         12.8766727448
         12.988899231
         13.1021032333
         13.2162923813
         13.3314762115
         13.4476623535
         13.5648603439
         13.6830797195
         13.8023271561
         13.9226131439
         14.0439472198
         14.1663370132
         14.2897930145
         14.4143238068
         14.539937973
         14.6666469574
         14.794459343
         14.9233837128
         15.0534315109
         15.1846113205
         15.3169326782
         15.4504070282
         15.5850429535
         15.7208518982
         15.8578424454
         15.9960269928
         16.1354141235
         16.276014328
         16.4178390503
         16.5608997345
         16.70520401
         16.8507671356
         16.9975948334
         17.1457042694
         17.2951011658
         17.4457988739
         17.5978088379
         17.7511444092
         17.9058132172
         18.0618286133
         18.2192020416
         18.3779468536
         18.5380744934
         18.6995944977
         18.8625221252
         19.0268669128
         19.1926441193
         19.3598651886
         19.5285415649
         19.6986865997
         19.8703136444
         20.0434341431
         20.2180614471
         20.3942108154
         20.571893692
         20.7511234283
         20.9319133759
         21.114276886
         21.2982292175
         21.4837837219
         21.6709537506
         21.859752655
         22.050195694
         22.2422962189
         22.4360713959
         22.6315326691
         22.8286952972
         23.0275745392
         23.228187561
         23.4305458069
         23.6346645355
         23.8405628204
         24.0482521057
         24.2577514648
         24.4690742493
         24.6822376251
         24.8972568512
         25.1141471863
         25.3329277039
         25.5536117554
         25.776216507
         26.0007610321
         26.2272605896
         26.4557323456
         26.6861934662
         26.9186611176
         27.1531524658
         27.3896865845
         27.6282787323
         27.8689498901
         28.1117153168
         28.3565940857
         28.6036071777
         28.8527698517
         29.104101181
         29.3576221466
         29.6133499146
         29.8713054657
         30.1315059662
         30.3939723969
         30.6587238312
         30.9257793427
         31.1951618195
         31.4668903351
         31.740983963
         32.0174636841
         32.2963523865
         32.5776672363
         32.8614311218
