aces_1.0.0/luts/V3_LogC_3200_to_linear.spi1d
Version 1
From 0.000000 1.000000
Length 1024
Components 1
{
         -0.0187212731689
         -0.000678413314745
         -0.000642647210043
         -0.000606526853517
         -0.000570048694499
         -0.000533209298737
         -0.00049600499915
         -0.000458432157757
         -0.000420487223892
         -0.00038216644316
         -0.000343466119375
         -0.000304382469039
         -0.000264911708655
         -0.000225050011068
         -0.000184793490916
         -0.000144138248288
         -0.000103080339613
         -6.16157558397e-05
         -1.97404842766e-05
         2.25495477935e-05
         6.52584494674e-05
         0.000108390362584
         0.000151949483552
         0.000195940039703
         0.000240366309299
         0.00028523261426
         0.000330543291057
         0.000376302748919
         0.000422515469836
         0.000469185877591
         0.000516318541486
         0.000563918030821
         0.000611989002209
         0.000660536112264
         0.000709564017598
         0.000759077549446
         0.000809081480838
         0.000859580701217
         0.000910580100026
         0.000962084624916
         0.00101409933995
         0.00106662907638
         0.0011196793057
         0.00117325480096
         0.00122736103367
         0.00128200324252
         0.00133718654979
         0.00139291642699
         0.00144919834565
         0.00150603766087
         0.00156343996059
         0.00162141083274
         0.00167995586526
         0.00173908076249
         0.00179879134521
         0.00185909331776
         0.00191999250092
         0.00198149494827
         0.00204360648058
         0.00210633315146
         0.00216968124732
         0.00223365658894
         0.00229826569557
         0.00236351485364
         0.00242941011675
         0.00249595823698
         0.00256316526793
         0.00263103796169
         0.00269958307035
         0.00276880711317
         0.0028387166094
         0.00290931854397
         0.00298061990179
         0.00305262743495
         0.00312534812838
         0.00319878919981
         0.00327295763418
         0.00334786064923
         0.00342350546271
         0.00349989975803
         0.00357705052011
         0.00365496543236
         0.0037336521782
         0.0038131182082
         0.00389337120578
         0.00397441908717
         0.00405627023429
         0.00413893163204
         0.00422241166234
         0.00430671870708
         0.00439186068252
         0.00447784597054
         0.00456468295306
         0.00465238001198
         0.00474094599485
         0.00483038881794
         0.00492071779445
         0.00501194130629
         0.00510406820104
         0.0051971077919
         0.00529106892645
         0.00538596045226
         0.0054817921482
         0.00557857286185
         0.00567631190643
         0.00577501952648
         0.00587470456958
         0.0059753768146
         0.00607704650611
         0.00617972295731
         0.00628341641277
         0.00638813711703
         0.00649389484897
         0.00660069985315
         0.00670856283978
         0.00681749451905
         0.00692750466987
         0.00703860493377
         0.00715080508962
         0.00726411724463
         0.00737855117768
         0.0074941185303
         0.00761083047837
         0.00772869866341
         0.00784773379564
         0.00796794891357
         0.00808935426176
         0.00821196194738
         0.00833578407764
         0.00846083182842
         0.00858711916953
         0.00871465727687
         0.00884345825762
         0.00897353515029
         0.00910490006208
         0.00923756696284
         0.00937154702842
         0.00950685422868
         0.00964350160211
         0.00978150311857
         0.00992087088525
         0.010061618872
         0.0102037610486
         0.010347311385
         0.0104922829196
         0.0106386914849
         0.0107865491882
         0.0109358718619
         0.0110866725445
         0.0112389679998
         0.0113927712664
         0.0115480981767
         0.0117049636319
         0.0118633825332
         0.012023370713
         0.0121849440038
         0.0123481163755
         0.0125129055232
         0.0126793272793
         0.0128473965451
         0.0130171310157
         0.0131885465235
         0.0133616598323
         0.0135364886373
         0.0137130478397
         0.0138913560659
         0.014071431011
         0.0142532885075
         0.0144369481131
         0.0146224265918
         0.0148097416386
         0.0149989128113
         0.0151899568737
         0.0153828933835
         0.0155777409673
         0.0157745182514
         0.015973245725
         0.0161739401519
         0.0163766220212
         0.0165813118219
         0.0167880300432
         0.0169967953116
         0.017207628116
         0.0174205489457
         0.0176355782896
         0.0178527384996
         0.0180720482022
         0.0182935316116
         0.0185172073543
         0.0187430996448
         0.0189712289721
         0.0192016176879
         0.0194342881441
         0.0196692626923
         0.019906565547
         0.0201462190598
         0.0203882455826
         0.0206326693296
         0.0208795145154
         0.0211288034916
         0.0213805623353
         0.0216348152608
         0.0218915846199
         0.0221508983523
         0.0224127806723
         0.0226772576571
         0.0229443535209
         0.0232140943408
         0.0234865080565
         0.0237616188824
         0.0240394547582
         0.0243200417608
         0.02460340783
         0.0248895827681
         0.0251785907894
         0.0254704598337
         0.025765221566
         0.0260629020631
         0.0263635311276
         0.0266671385616
         0.0269737523049
         0.0272834040225
         0.0275961216539
         0.0279119368643
         0.0282308794558
         0.0285529810935
         0.028878275305
         0.0292067881674
         0.0295385569334
         0.0298736114055
         0.0302119851112
         0.0305537097156
         0.0308988187462
         0.0312473457307
         0.0315993241966
         0.0319547913969
         0.0323137752712
         0.0326763167977
         0.0330424495041
         0.0334122106433
         0.0337856300175
         0.0341627523303
         0.034543607384
         0.0349282361567
         0.0353166721761
         0.0357089564204
         0.0361051261425
         0.0365052185953
         0.0369092784822
         0.0373173356056
         0.037729434669
         0.0381456166506
         0.0385659225285
         0.0389903895557
         0.0394190624356
         0.0398519784212
         0.0402891822159
         0.0407307185233
         0.0411766283214
         0.0416269525886
         0.0420817360282
         0.0425410270691
         0.0430048666894
         0.0434732995927
         0.0439463742077
         0.0444241315126
         0.0449066236615
         0.0453938916326
         0.0458859875798
         0.0463829562068
         0.0468848496675
         0.0473917126656
         0.0479035973549
         0.048420548439
         0.0489426217973
         0.0494698695838
         0.0500023365021
         0.0505400747061
         0.0510831438005
         0.0516315884888
         0.0521854646504
         0.0527448281646
         0.0533097349107
         0.0538802333176
         0.0544563829899
         0.0550382398069
         0.055625859648
         0.0562192983925
         0.0568186156452
         0.0574238710105
         0.0580351166427
         0.0586524195969
         0.0592758357525
         0.0599054284394
         0.0605412572622
         0.0611833818257
         0.0618318654597
         0.0624867752194
         0.0631481707096
         0.0638161152601
         0.0644906759262
         0.0651719197631
         0.0658599063754
         0.066554710269
         0.067256398499
         0.0679650306702
         0.0686806887388
         0.0694034323096
         0.0701333358884
         0.0708704665303
         0.0716148987412
         0.0723666995764
         0.0731259509921
         0.0738927274942
         0.0746670886874
         0.0754491314292
         0.0762389078736
         0.0770365148783
         0.0778420194983
         0.0786555036902
         0.0794770419598
         0.0803067162633
         0.0811446160078
         0.0819908082485
         0.0828453823924
         0.0837084203959
         0.0845800116658
         0.0854602307081
         0.0863491669297
         0.0872469097376
         0.0881535485387
         0.0890691578388
         0.0899938419461
         0.0909276902676
         0.0918707773089
         0.092823214829
         0.0937850773335
         0.0947564691305
         0.0957374870777
         0.0967282131314
         0.0977287590504
         0.0987392142415
         0.0997596755624
         0.100790247321
         0.101831018925
         0.102882109582
         0.103943601251
         0.105015613139
         0.106098242104
         0.107191592455
         0.108295768499
         0.109410881996
         0.110537044704
         0.111674360931
         0.112822942436
         0.113982900977
         0.115154340863
         0.116337388754
         0.117532156408
         0.118738755584
         0.119957305491
         0.121187925339
         0.122430734336
         0.123685851693
         0.124953404069
         0.126233503222
         0.127526283264
         0.128831878304
         0.130150392652
         0.131481975317
         0.13282674551
         0.13418482244
         0.13555637002
         0.136941492558
         0.138340324163
         0.13975302875
         0.141179710627
         0.142620533705
         0.144075632095
         0.145545125008
         0.147029191256
         0.148527950048
         0.150041550398
         0.151570141315
         0.153113871813
         0.154672890902
         0.156247362494
         0.157837420702
         0.159443229437
         0.161064937711
         0.162702724338
         0.164356708527
         0.166027098894
         0.167714014649
         0.169417649508
         0.17113815248
         0.172875702381
         0.174630463123
         0.176402598619
         0.178192287683
         0.179999709129
         0.18182502687
         0.183668419719
         0.185530081391
         0.1874101758
         0.18930888176
         0.191226407886
         0.193162918091
         0.195118620992
         0.197093680501
         0.199088305235
         0.20110270381
         0.203137025237
         0.205191522837
         0.20726634562
         0.209361732006
         0.21147787571
         0.213614970446
         0.215773239732
         0.217952877283
         0.220154106617
         0.22237713635
         0.224622189999
         0.22688947618
         0.229179218411
         0.231491655111
         0.233826979995
         0.23618543148
         0.238567247987
         0.240972653031
         0.243401885033
         0.245855182409
         0.24833278358
         0.250834912062
         0.253361821175
         0.255913764238
         0.258490979671
         0.261093735695
         0.263722270727
         0.266376823187
         0.269057661295
         0.271765083075
         0.274499297142
         0.277260601521
         0.280049264431
         0.282865524292
         0.285709679127
         0.288582026958
         0.291482806206
         0.294412344694
         0.297370880842
         0.300358712673
         0.30337613821
         0.306423455477
         0.309500962496
         0.312608927488
         0.315747708082
         0.318917542696
         0.322118788958
         0.32535174489
         0.328616738319
         0.331914037466
         0.33524402976
         0.338606983423
         0.342003256083
         0.345433145761
         0.34889703989
         0.35239520669
         0.355928063393
         0.35949587822
         0.363099038601
         0.366737902164
         0.370412796736
         0.374124079943
         0.377872109413
         0.38165730238
         0.385479956865
         0.389340490103
         0.39323925972
         0.397176623344
         0.401152998209
         0.405168771744
         0.409224301577
         0.41332000494
         0.417456269264
         0.421633511782
         0.425852149725
         0.430112540722
         0.434415131807
         0.438760340214
         0.443148583174
         0.447580307722
         0.452055901289
         0.456575840712
         0.461140543222
         0.465750455856
         0.47040605545
         0.475107729435
         0.479855984449
         0.484651267529
         0.48949405551
         0.494384795427
         0.499323993921
         0.504312098026
         0.509349644184
         0.514437019825
         0.519574820995
         0.524763524532
         0.530003607273
         0.535295605659
         0.540639996529
         0.546037316322
         0.551488101482
         0.556992888451
         0.562552154064
         0.568166553974
         0.573836505413
         0.579562664032
         0.585345506668
         0.591185629368
         0.597083568573
         0.603039979935
         0.60905534029
         0.61513030529
         0.621265411377
         0.627461314201
         0.63371860981
         0.640037834644
         0.646419644356
         0.652864694595
         0.659373581409
         0.665946900845
         0.672585368156
         0.679289579391
         0.686060190201
         0.692897856236
         0.699803233147
         0.70677703619
         0.713819861412
         0.720932483673
         0.728115558624
         0.735369741917
         0.742695808411
         0.750094413757
         0.757566332817
         0.765112221241
         0.772732913494
         0.780429005623
         0.788201391697
         0.796050727367
         0.803977787495
         0.811983406544
         0.82006829977
         0.828233242035
         0.836479067802
         0.844806611538
         0.853216588497
         0.86170989275
         0.870287299156
         0.878949642181
         0.887697815895
         0.896532654762
         0.905454933643
         0.914465665817
         0.92356556654
         0.93275564909
         0.942036747932
         0.951409757137
         0.960875630379
         0.970435261726
         0.98008954525
         0.989839434624
         0.999685943127
         1.00962996483
         1.01967251301
         1.02981448174
         1.04005682468
         1.05040073395
         1.06084704399
         1.0713968277
         1.08205115795
         1.09281098843
         1.10367739201
         1.11465132236
         1.12573409081
         1.13692653179
         1.14822983742
         1.15964519978
         1.17117357254
         1.18281602859
         1.19457387924
         1.20644819736
         1.21844017506
         1.2305508852
         1.24278151989
         1.25513327122
         1.26760745049
         1.28020513058
         1.2929276228
         1.30577600002
         1.31875181198
         1.33185601234
         1.34509003162
         1.35845518112
         1.37195265293
         1.38558387756
         1.39935004711
         1.41325259209
         1.42729282379
         1.44147217274
         1.45579195023
         1.47025346756
         1.48485827446
         1.49960780144
         1.51450335979
         1.52954638004
         1.54473853111
         1.56008112431
         1.57557559013
         1.59122359753
         1.607026577
         1.62298607826
         1.63910365105
         1.65538084507
         1.67181932926
         1.68842053413
         1.70518624783
         1.72211802006
         1.73921740055
         1.75648629665
         1.77392613888
         1.79153871536
         1.80932569504
         1.82728898525
         1.84543001652
         1.8637509346
         1.88225317001
         1.9009386301
         1.91980922222
         1.9388667345
         1.9581130743
         1.97754991055
         1.997179389
         2.01700305939
         2.03702330589
         2.05724191666
         2.07766056061
         2.09828162193
         2.11910676956
         2.14013814926
         2.1613779068
         2.18282818794
         2.20449066162
         2.22636795044
         2.24846172333
         2.27077436447
         2.29330825806
         2.31606507301
         2.33904743195
         2.3622572422
         2.38569712639
         2.40936899185
         2.4332754612
         2.45741868019
         2.48180103302
         2.50642466545
         2.53129243851
         2.55640649796
         2.58176922798
         2.60738325119
         2.63325095177
         2.65937495232
         2.68575739861
         2.71240139008
         2.73930931091
         2.7664835453
         2.79392719269
         2.82164239883
         2.84963226318
         2.87789940834
         2.90644645691
         2.93527626991
         2.96439146996
         2.9937953949
         3.02349019051
         3.05347943306
         3.08376550674
         3.114351511
         3.14524054527
         3.17643547058
         3.20793938637
         3.23975539207
         3.27188658714
         3.3043358326
         3.33710646629
         3.3702018261
         3.40362501144
         3.43737912178
         3.47146773338
         3.50589370728
         3.54066085815
         3.57577228546
         3.61123156548
         3.64704203606
         3.68320727348
         3.7197303772
         3.75661563873
         3.79386591911
         3.83148527145
         3.86947727203
         3.90784549713
         3.94659376144
         3.98572587967
         4.0252456665
         4.06515693665
         4.10546302795
         4.1461687088
         4.18727731705
         4.22879362106
         4.27072048187
         4.31306314468
         4.35582494736
         4.39901018143
         4.44262361526
         4.48666858673
         4.5311498642
         4.5760717392
         4.62143850327
         4.66725492477
         4.71352481842
         4.76025295258
         4.80744409561
         4.85510253906
         4.9032330513
         4.9518404007
         5.00092887878
         5.05050373077
         5.10056972504
         5.15113162994
         5.20219421387
         5.25376272202
         5.30584144592
         5.35843658447
         5.4115524292
         5.46519422531
         5.51936769485
         5.5740776062
         5.62932920456
         5.68512821198
         5.74147987366
         5.79838943481
         5.85586309433
         5.91390562057
         5.97252321243
         6.03172159195
         6.09150600433
         6.15188264847
         6.2128572464
         6.27443599701
         6.33662462234
         6.39942884445
         6.46285533905
         6.52691030502
         6.59159946442
         6.65692949295
         6.72290658951
         6.78953695297
         6.85682725906
         6.9247841835
         6.99341392517
         7.06272363663
         7.13271999359
         7.20340967178
         7.27479934692
         7.34689617157
         7.41970682144
         7.49323892593
         7.56749916077
         7.64249515533
         7.71823358536
         7.79472255707
         7.87196874619
         7.94998025894
         8.02876472473
         8.10832881927
         8.18868160248
         8.26982975006
         8.35178184509
         8.43454647064
         8.51813030243
         8.60254096985
         8.68778896332
         8.77388095856
         8.86082553864
         8.94863128662
         9.03730678558
         9.12686061859
         9.21730136871
         9.30863761902
         9.40087890625
         9.49403381348
         9.58811092377
         9.68312072754
         9.77907085419
         9.87597179413
         9.97383213043
         10.0726613998
         10.1724700928
         10.273267746
         10.3750629425
         10.4778661728
         10.5816888809
         10.6865386963
         10.7924280167
         10.8993654251
         11.0073623657
         11.1164283752
         11.2265748978
         11.3378133774
         11.4501523972
         11.5636043549
         11.6781806946
         11.7938909531
         11.9107475281
         12.0287618637
         12.1479454041
         12.2683086395
         12.3898639679
         12.5126237869
         12.6365995407
         12.7618026733
         12.8882465363
         13.0159425735
         13.144903183
         13.2751407623
         13.406668663
         13.5395002365
         13.6736459732
         13.8091211319
         13.9459381104
         14.08411026
         14.2236509323
         14.3645734787
         14.5068912506
         14.6506195068
         14.7957715988
         14.942360878
         15.0904016495
         15.2399091721
         15.3908977509
         15.543381691
         15.6973752975
         15.852894783
         16.0099544525
         16.1685695648
         16.3287563324
         16.490530014
         16.6539039612
         16.8188972473
         16.9855251312
         17.1538028717
         17.3237476349
         17.4953765869
         17.6687049866
         17.8437480927
         18.020526886
         18.1990566254
         18.3793544769
         18.5614376068
         18.7453250885
         18.9310321808
         19.1185798645
         19.3079853058
         19.4992656708
         19.6924419403
         19.8875312805
         20.0845527649
         20.2835254669
         20.4844684601
         20.6874027252
         20.8923454285
         21.099319458
         21.3083438873
         21.5194377899
         21.7326221466
         21.9479179382
         22.165348053
         22.384929657
         22.6066875458
         22.8306407928
         23.0568122864
         23.2852249146
         23.5158977509
         23.7488574982
         23.98412323
         24.2217197418
         24.4616699219
         24.7039966583
         24.9487228394
         25.1958732605
         25.4454727173
         25.6975440979
         25.9521102905
         26.2091999054
         26.4688358307
         26.7310409546
         26.9958457947
         27.2632713318
         27.5333480835
         27.8060970306
         28.0815505981
         28.3597297668
         28.6406650543
         28.9243831635
         29.2109107971
         29.5002784729
         29.792509079
         30.0876369476
         30.3856868744
         30.6866874695
         30.9906711578
         31.2976646423
         31.6077003479
         31.9208049774
         32.2370109558
         32.556350708
         32.8788528442
         33.2045478821
         33.5334701538
         33.8656463623
         34.2011184692
         34.5399093628
         34.8820571899
         35.227596283
         35.5765533447
         35.9289703369
         36.2848739624
         36.6443061829
         37.0072975159
         37.3738822937
         37.744102478
         38.1179847717
         38.4955711365
         38.8768997192
         39.2620048523
         39.6509246826
         40.0436935425
         40.4403533936
         40.8409423828
         41.2455024719
         41.6540641785
         42.0666770935
         42.4833755493
         42.9042015076
         43.3291931152
         43.7583961487
         44.1918487549
         44.6295967102
         45.0716781616
         45.5181388855
         45.9690246582
         46.4243736267
         46.8842315674
         47.3486442566
         47.8176574707
         48.2913169861
         48.7696685791
         49.2527580261
         49.7406311035
         50.2333374023
         50.730922699
         51.2334365845
         51.7409286499
         52.2534446716
         52.7710380554
         53.2937583923
         53.8216590881
         54.3547859192
         54.8931922913
         55.4369316101
         55.9860572815
         56.5406227112
         57.1006774902
         57.6662826538
         58.237487793
         58.8143539429
         59.3969306946
         59.9852790833
         60.5794525146
         61.1795120239
         61.7855186462
         62.3975219727
         63.0155906677
         63.6397781372
         64.270149231
         64.9067687988
         65.5496902466
