aces_1.0.0/luts/V3_LogC_400_to_linear.spi1d
Version 1
From 0.000000 1.000000
Length 1024
Components 1
{
         -0.0166540257633
         -0.00589334452525
         -0.00584234436974
         -0.00579089485109
         -0.00573899177834
         -0.00568663189188
         -0.00563381006941
         -0.00558052351698
         -0.00552676711231
         -0.00547253713012
         -0.00541782937944
         -0.00536263966933
         -0.00530696380883
         -0.00525079714134
         -0.00519413594157
         -0.00513697555289
         -0.0050793113187
         -0.00502113904804
         -0.00496245454997
         -0.00490325270221
         -0.00484352977946
         -0.00478328019381
         -0.00472249975428
         -0.00466118380427
         -0.00459932815284
         -0.00453692721203
         -0.00447397632524
         -0.00441047083586
         -0.00434640608728
         -0.00428177649155
         -0.00421657785773
         -0.00415080459788
         -0.00408445205539
         -0.00401751510799
         -0.00394998816773
         -0.00388186611235
         -0.0038131440524
         -0.00374381663278
         -0.00367387826554
         -0.0036033235956
         -0.00353214750066
         -0.00346034439281
         -0.00338790845126
         -0.00331483455375
         -0.00324111664668
         -0.00316674937494
         -0.00309172691777
         -0.00301604345441
         -0.00293969316408
         -0.00286267022602
         -0.00278496881947
         -0.00270658265799
         -0.00262750592083
         -0.00254773255438
         -0.00246725627221
         -0.00238607102074
         -0.00230417051353
         -0.00222154823132
         -0.00213819835335
         -0.0020541138947
         -0.00196928880177
         -0.00188371620607
         -0.00179738970473
         -0.0017103026621
         -0.00162244832609
         -0.00153382006101
         -0.00144441088196
         -0.00135421403684
         -0.00126322242431
         -0.00117142917588
         -0.00107882730663
         -0.000985409482382
         -0.000891168601811
         -0.000796097447164
         -0.000700188684277
         -0.000603434978984
         -0.00050582876429
         -0.00040736264782
         -0.000308029004373
         -0.000207820208743
         -0.000106728519313
         -4.74618627777e-06
         9.81346456683e-05
         0.000201921895496
         0.000306623551296
         0.000412247667555
         0.000518802378792
         0.000626295804977
         0.000734736386221
         0.000844132271595
         0.000954492017627
         0.00106582406443
         0.00117813702673
         0.00129143951926
         0.00140574015677
         0.00152104790322
         0.00163737148978
         0.00175471988041
         0.00187310227193
         0.00199252762832
         0.00211300514638
         0.00223454413936
         0.00235715392046
         0.00248084380291
         0.00260562356561
         0.00273150252178
         0.00285849068314
         0.00298659759574
         0.00311583327129
         0.0032462074887
         0.0033777304925
         0.00351041206159
         0.00364426267333
         0.00377929257229
         0.003915512003
         0.00405293144286
         0.00419156206772
         0.00433141365647
         0.00447249785066
         0.00461482442915
         0.00475840549916
         0.00490325130522
         0.00504937348887
         0.00519678276032
         0.0053454907611
         0.00549550913274
         0.00564684905112
         0.00579952215776
         0.00595354102552
         0.00610891636461
         0.00626566028222
         0.00642378581688
         0.00658330414444
         0.00674422783777
         0.00690656946972
         0.00707034161314
         0.00723555637524
         0.00740222679451
         0.00757036544383
         0.00773998582736
         0.0079111000523
         0.00808372255415
         0.00825786590576
         0.00843354314566
         0.00861076824367
         0.00878955423832
         0.00896991603076
         0.00915186665952
         0.00933542102575
         0.00952059123665
         0.00970739405602
         0.00989584252238
         0.0100859506056
         0.0102777341381
         0.0104712070897
         0.0106663843617
         0.0108632817864
         0.0110619133338
         0.0112622957677
         0.0114644430578
         0.0116683710366
         0.0118740964681
         0.0120816342533
         0.0122910002246
         0.0125022102147
         0.0127152819186
         0.0129302302375
         0.0131470728666
         0.0133658256382
         0.0135865062475
         0.0138091305271
         0.014033716172
         0.0142602808774
         0.014488841407
         0.0147194163874
         0.014952021651
         0.0151866767555
         0.0154233993962
         0.0156622081995
         0.0159031189978
         0.0161461550742
         0.0163913294673
         0.0166386663914
         0.0168881807476
         0.0171398948878
         0.0173938255757
         0.0176499933004
         0.0179084185511
         0.0181691218168
         0.0184321198612
         0.0186974350363
         0.0189650896937
         0.0192351005971
         0.0195074919611
         0.0197822824121
         0.0200594943017
         0.0203391462564
         0.0206212643534
         0.020905867219
         0.0211929790676
         0.0214826185256
         0.0217748098075
         0.0220695771277
         0.0223669391125
         0.0226669237018
         0.0229695495218
         0.0232748407871
         0.0235828235745
         0.0238935183734
         0.0242069512606
         0.0245231464505
         0.024842126295
         0.025163916871
         0.0254885423928
         0.0258160270751
         0.0261463988572
         0.0264796800911
         0.0268158968538
         0.0271550770849
         0.0274972449988
         0.0278424285352
         0.0281906519085
         0.028541944921
         0.0288963317871
         0.0292538404465
         0.0296145007014
         0.0299783367664
         0.0303453784436
         0.0307156555355
         0.0310891922563
         0.0314660221338
         0.0318461731076
         0.0322296693921
         0.0326165482402
         0.0330068320036
         0.0334005579352
         0.0337977483869
         0.0341984443367
         0.0346026644111
         0.0350104495883
         0.0354218259454
         0.0358368270099
         0.0362554863095
         0.0366778299212
         0.0371038988233
         0.0375337190926
         0.0379673279822
         0.0384047552943
         0.0388460345566
         0.0392912067473
         0.0397402979434
         0.0401933453977
         0.0406503863633
         0.0411114506423
         0.0415765829384
         0.0420458093286
         0.0425191670656
         0.0429967008531
         0.0434784367681
         0.0439644195139
         0.0444546863437
         0.0449492707849
         0.0454482100904
         0.0459515489638
         0.0464593209326
         0.0469715632498
         0.0474883243442
         0.0480096340179
         0.0485355369747
         0.0490660741925
         0.0496012866497
         0.0501412153244
         0.0506858974695
         0.0512353815138
         0.0517897047102
         0.0523489117622
         0.0529130473733
         0.0534821525216
         0.0540562719107
         0.0546354502439
         0.0552197284997
         0.0558091551065
         0.0564037784934
         0.0570036359131
         0.0576087795198
         0.0582192577422
         0.0588351115584
         0.0594563931227
         0.0600831471384
         0.0607154220343
         0.0613532662392
         0.0619967356324
         0.0626458674669
         0.0633007213473
         0.0639613494277
         0.0646277889609
         0.0653001070023
         0.0659783482552
         0.0666625648737
         0.0673528015614
         0.0680491253734
         0.0687515884638
         0.0694602355361
         0.070175126195
         0.070896320045
         0.0716238617897
         0.0723578110337
         0.0730982348323
         0.0738451778889
         0.0745986998081
         0.0753588676453
         0.0761257261038
         0.0768993422389
         0.0776797756553
         0.0784670785069
         0.0792613252997
         0.0800625681877
         0.0808708742261
         0.0816862955689
         0.0825088992715
         0.083338752389
         0.0841759219766
         0.0850204601884
         0.0858724415302
         0.0867319330573
         0.0875989943743
         0.0884736925364
         0.0893561020494
         0.0902462825179
         0.0911443084478
         0.0920502394438
         0.0929641574621
         0.0938861295581
         0.0948162153363
         0.0957545042038
         0.0967010557652
         0.0976559519768
         0.0986192524433
         0.0995910465717
         0.100571401417
         0.101560391486
         0.102558098733
         0.103564590216
         0.104579955339
         0.10560426116
         0.106637597084
         0.107680030167
         0.108731657267
         0.109792537987
         0.110862776637
         0.111942432821
         0.113031610847
         0.114130377769
         0.115238830447
         0.116357050836
         0.117485113442
         0.118623122573
         0.119771152735
         0.120929300785
         0.122097656131
         0.123276300728
         0.124465331435
         0.125664830208
         0.126874908805
         0.128095641732
         0.129327133298
         0.130569472909
         0.131822749972
         0.133087083697
         0.13436254859
         0.135649248958
         0.136947289109
         0.138256773353
         0.139577776194
         0.140910431743
         0.142254829407
         0.143611058593
         0.144979253411
         0.146359488368
         0.147751882672
         0.149156555533
         0.150573596358
         0.152003124356
         0.153445243835
         0.154900074005
         0.156367719173
         0.15784829855
         0.159341916442
         0.160848706961
         0.162368759513
         0.163902208209
         0.165449157357
         0.167009741068
         0.16858407855
         0.170172289014
         0.171774491668
         0.173390805721
         0.175021365285
         0.176666274667
         0.17832569778
         0.17999972403
         0.181688517332
         0.183392167091
         0.185110837221
         0.186844661832
         0.188593745232
         0.190358251333
         0.192138284445
         0.19393402338
         0.195745557547
         0.197573080659
         0.199416682124
         0.201276540756
         0.203152775764
         0.20504553616
         0.206954985857
         0.208881258965
         0.210824489594
         0.212784856558
         0.214762479067
         0.216757535934
         0.218770176172
         0.220800533891
         0.222848787904
         0.224915087223
         0.22699958086
         0.229102447629
         0.231223851442
         0.233363926411
         0.235522866249
         0.23770083487
         0.239897981286
         0.24211448431
         0.244350522757
         0.246606260538
         0.248881861567
         0.25117751956
         0.253493398428
         0.255829691887
         0.258186578751
         0.260564208031
         0.262962788343
         0.265382498503
         0.267823547125
         0.270286083221
         0.272770315409
         0.275276422501
         0.277804642916
         0.280355125666
         0.282928049564
         0.285523682833
         0.288142174482
         0.29078373313
         0.293448537588
         0.296136856079
         0.298848837614
         0.301584720612
         0.304344713688
         0.307129025459
         0.309937864542
         0.312771439552
         0.315629988909
         0.318513721228
         0.321422845125
         0.324357628822
         0.327318251133
         0.330304950476
         0.333317995071
         0.336357563734
         0.339423894882
         0.342517256737
         0.345637887716
         0.348785996437
         0.35196185112
         0.355165660381
         0.358397722244
         0.361658245325
         0.364947527647
         0.368265748024
         0.371613234282
         0.374990195036
         0.378396898508
         0.381833642721
         0.385300636292
         0.388798207045
         0.392326563597
         0.395886033773
         0.399476826191
         0.403099298477
         0.406753659248
         0.410440206528
         0.414159268141
         0.417911082506
         0.421695917845
         0.425514131784
         0.429365992546
         0.433251768351
         0.437171787024
         0.441126346588
         0.445115745068
         0.449140310287
         0.453200310469
         0.457296073437
         0.461427927017
         0.465596199036
         0.469801187515
         0.474043220282
         0.47832262516
         0.482639729977
         0.486994892359
         0.49138841033
         0.495820611715
         0.500291883945
         0.504802584648
         0.509352982044
         0.513943493366
         0.518574416637
         0.52324616909
         0.527959048748
         0.532713472843
         0.537509799004
         0.542348384857
         0.547229588032
         0.552153766155
         0.55712133646
         0.562132716179
         0.567188203335
         0.572288274765
         0.577433228493
         0.582623541355
         0.58785957098
         0.5931417346
         0.598470449448
         0.603846132755
         0.609269142151
         0.614739894867
         0.620258927345
         0.625826537609
         0.631443202496
         0.637109339237
         0.642825424671
         0.64859187603
         0.654409110546
         0.660277605057
         0.666197836399
         0.672170162201
         0.678195118904
         0.684273183346
         0.690404772758
         0.696590423584
         0.702830553055
         0.709125638008
         0.715476214886
         0.721882760525
         0.728345692158
         0.734865605831
         0.741442918777
         0.748078227043
         0.754771947861
         0.761524677277
         0.768336892128
         0.775209128857
         0.782141923904
         0.789135813713
         0.79619127512
         0.803308904171
         0.810489296913
         0.817732870579
         0.825040340424
         0.83241212368
         0.839848875999
         0.847351193428
         0.854919552803
         0.862554609776
         0.870256960392
         0.878027141094
         0.885865807533
         0.893773496151
         0.901750862598
         0.909798502922
         0.917917072773
         0.926107168198
         0.934369444847
         0.942704439163
         0.951112926006
         0.959595501423
         0.968152761459
         0.976785480976
         0.985494196415
         0.994279682636
         1.00314259529
         1.01208353043
         1.0211032629
         1.03020238876
         1.03938174248
         1.0486420393
         1.05798387527
         1.06740796566
         1.07691514492
         1.0865060091
         1.09618151188
         1.10594213009
         1.11578881741
         1.12572216988
         1.13574314117
         1.14585232735
         1.15605056286
         1.16633868217
         1.17671751976
         1.18718767166
         1.19775021076
         1.2084056139
         1.21915507317
         1.22999918461
         1.24093878269
         1.25197482109
         1.26310813427
         1.27433943748
         1.28566968441
         1.29709982872
         1.30863070488
         1.32026302814
         1.33199799061
         1.34383618832
         1.35577881336
         1.367826581
         1.37998056412
         1.39224159718
         1.40461063385
         1.41708874702
         1.42967665195
         1.44237554073
         1.45518624783
         1.46810984612
         1.48114740849
         1.49429965019
         1.50756788254
         1.5209530592
         1.53445613384
         1.54807806015
         1.56182014942
         1.57568323612
         1.58966851234
         1.60377693176
         1.61800968647
         1.63236784935
         1.64685249329
         1.66146469116
         1.67620575428
         1.69107663631
         1.70607852936
         1.72121250629
         1.73647999763
         1.75188183784
         1.76741945744
         1.78309392929
         1.79890656471
         1.81485843658
         1.83095097542
         1.84718513489
         1.86356246471
         1.88008391857
         1.89675104618
         1.91356503963
         1.93052709103
         1.94763863087
         1.96490097046
         1.9823153019
         1.9998831749
         2.01760578156
         2.03548455238
         2.05352067947
         2.07171583176
         2.09007120132
         2.10858845711
         2.1272687912
         2.14611363411
         2.16512465477
         2.18430304527
         2.20365047455
         2.22316837311
         2.24285817146
         2.26272130013
         2.28275966644
         2.30297446251
         2.32336735725
         2.34394001961
         2.36469388008
         2.3856306076
         2.40675163269
         2.42805886269
         2.44955396652
         2.47123813629
         2.49311351776
         2.51518177986
         2.53744411469
         2.55990290642
         2.58255934715
         2.60541558266
         2.62847328186
         2.65173387527
         2.67519950867
         2.69887185097
         2.72275280952
         2.74684405327
         2.77114772797
         2.79566526413
         2.82039904594
         2.84535050392
         2.87052202225
         2.89591526985
         2.92153215408
         2.94737482071
         2.97344517708
         2.99974513054
         3.02627682686
         3.0530424118
         3.08004355431
         3.10728287697
         3.13476204872
         3.16248321533
         3.19044876099
         3.21866059303
         3.24712109566
         3.27583217621
         3.30479621887
         3.33401560783
         3.36349248886
         3.3932287693
         3.42322731018
         3.45349001884
         3.4840195179
         3.51481771469
         3.54588747025
         3.57723093033
         3.60885047913
         3.64074850082
         3.67292761803
         3.70539045334
         3.73813915253
         3.7711763382
         3.80450463295
         3.83812642097
         3.87204456329
         3.90626168251
         3.94078016281
         3.9756026268
         4.01073217392
         4.04617071152
         4.08192205429
         4.11798810959
         4.15437173843
         4.19107627869
         4.22810411453
         4.26545810699
         4.3031411171
         4.34115600586
         4.37950611115
         4.41819381714
         4.45722293854
         4.49659538269
         4.53631496429
         4.57638406754
         4.61680650711
         4.65758514404
         4.69872331619
         4.74022340775
         4.7820892334
         4.82432413101
         4.86693096161
         4.90991306305
         4.95327425003
         4.99701738358
         5.04114580154
         5.0856628418
         5.13057231903
         5.17587709427
         5.22158145905
         5.26768827438
         5.31420135498
         5.3611240387
         5.40846061707
         5.45621395111
         5.50438785553
         5.55298614502
         5.60201311111
         5.65147161484
         5.70136594772
         5.75169992447
         5.80247735977
         5.85370206833
         5.90537786484
         5.95750951767
         6.01009988785
         6.06315374374
         6.11667537689
         6.17066812515
         6.2251367569
         6.28008556366
         6.3355178833
         6.39143896103
         6.44785308838
         6.50476360321
         6.56217575073
         6.62009382248
         6.67852210999
         6.73746490479
         6.79692745209
         6.85691356659
         6.91742801666
         6.97847604752
         7.04006195068
         7.1021900177
         7.16486549377
         7.22809362411
         7.29187870026
         7.35622549057
         7.42113924026
         7.48662471771
         7.55268764496
         7.61933231354
         7.68656396866
         7.75438833237
         7.82281017303
         7.89183473587
         7.96146726608
         8.03171348572
         8.10257911682
         8.17406845093
         8.24618721008
         8.31894207001
         8.39233779907
         8.46638011932
         8.54107475281
         8.61642742157
         8.69244384766
         8.76913070679
         8.84649276733
         8.92453575134
         9.00326728821
         9.0826921463
         9.16281700134
         9.24364757538
         9.32518959045
         9.40745067596
         9.49043655396
         9.57415390015
         9.65860843658
         9.74380683899
         9.82975578308
         9.91646289825
         10.0039329529
         10.0921735764
         10.1811923981
         10.2709951401
         10.3615894318
         10.4529809952
         10.5451784134
         10.6381883621
         10.7320175171
         10.826672554
         10.922162056
         11.0184936523
         11.1156730652
         11.2137088776
         11.3126087189
         11.4123792648
         11.5130290985
         11.6145658493
         11.7169971466
         11.8203306198
         11.924574852
         12.0297374725
         12.1358270645
         12.2428503036
         12.3508167267
         12.4597349167
         12.5696125031
         12.6804580688
         12.7922801971
         12.905087471
         13.0188884735
         13.1336927414
         13.2495079041
         13.3663434982
         13.484208107
         13.6031122208
         13.7230634689
         13.8440704346
         13.9661445618
         14.0892944336
         14.2135286331
         14.3388576508
         14.4652910233
         14.5928382874
         14.7215089798
         14.851313591
         14.9822616577
         15.1143636703
         15.2476291656
         15.382068634
         15.5176935196
         15.6545124054
         15.7925367355
         15.9317779541
         16.0722446442
         16.2139492035
         16.3569030762
         16.501115799
         16.6466007233
         16.7933654785
         16.9414234161
         17.0907859802
         17.2414646149
         17.3934707642
         17.5468158722
         17.7015132904
         17.8575725555
         18.015007019
         18.173828125
         18.3340492249
         18.4956798553
         18.6587371826
         18.8232288361
         18.9891719818
         19.1565761566
         19.3254547119
         19.4958209991
         19.6676902771
         19.8410720825
         20.0159816742
         20.1924324036
         20.3704376221
         20.5500106812
         20.7311668396
         20.9139175415
         21.098279953
         21.2842655182
         21.4718894958
         21.6611671448
         21.8521137238
         22.0447406769
         22.2390651703
         22.4351024628
         22.6328659058
         22.8323726654
         23.0336360931
         23.2366733551
         23.4414997101
         23.6481304169
         23.8565807343
         24.0668697357
         24.2790088654
         24.493019104
         24.7089138031
         24.9267101288
         25.1464271545
         25.3680782318
         25.5916824341
         25.8172569275
         26.0448188782
         26.2743854523
         26.5059757233
         26.73960495
         26.9752941132
         27.2130584717
         27.452917099
         27.6948890686
         27.938993454
         28.1852493286
         28.4336738586
         28.6842880249
         28.9371089935
         29.1921577454
         29.4494533539
         29.7090167999
         29.9708652496
         30.2350234985
         30.5015068054
         30.7703380585
         31.0415382385
         31.3151283264
         31.5911273956
         31.8695602417
         32.1504440308
         32.4338035583
         32.7196617126
         33.0080337524
         33.2989501953
         33.5924263
         33.8884925842
         34.1871643066
         34.4884681702
