aces_1.0.0/luts/V3_LogC_1600_to_linear.spi1d
Version 1
From 0.000000 1.000000
Length 1024
Components 1
{
         -0.0179774928838
         -0.00267249741592
         -0.00263179093599
         -0.00259069749154
         -0.00254921335727
         -0.00250733434223
         -0.00246505718678
         -0.00242237816565
         -0.00237929285504
         -0.00233579799533
         -0.00229188939556
         -0.00224756309763
         -0.00220281537622
         -0.0021576420404
         -0.00211203889921
         -0.00206600222737
         -0.00201952760108
         -0.00197261106223
         -0.00192524818704
         -0.00187743490096
         -0.00182916689664
         -0.00178043975029
         -0.00173124927096
         -0.00168159080204
         -0.00163146015257
         -0.00158085266594
         -0.00152976391837
         -0.00147818913683
         -0.00142612401396
         -0.00137356354389
         -0.00132050330285
         -0.00126693840139
         -0.00121286395006
         -0.00115827529225
         -0.00110316742212
         -0.0010475354502
         -0.000991374254227
         -0.000934679061174
         -0.000877444574144
         -0.000819665787276
         -0.000761337403674
         -0.000702454359271
         -0.000643011182547
         -0.000583002751227
         -0.000522423535585
         -0.000461268122308
         -0.000399531127186
         -0.000337206933182
         -0.000274289981462
         -0.000210774640436
         -0.000146655205754
         -8.19259439595e-05
         -1.65810506587e-05
         4.93853294756e-05
         0.00011597910634
         0.000183206255315
         0.000251072779065
         0.000319584796671
         0.000388748390833
         0.000458569818875
         0.000529055309016
         0.000600211147685
         0.000672043766826
         0.000744559569284
         0.000817765074316
         0.000891666801181
         0.00096627138555
         0.00104158557951
         0.00111761607695
         0.00119436962996
         0.00127185322344
         0.00135007372592
         0.0014290381223
         0.00150875363033
         0.00158922735136
         0.0016704662703
         0.00175247795414
         0.00183526962064
         0.00191884872038
         0.00200322270393
         0.0020883991383
         0.00217438582331
         0.00226119020954
         0.00234882021323
         0.00243728351779
         0.0025265882723
         0.002616742393
         0.00270775402896
         0.00279963132925
         0.00289238221012
         0.00298601551913
         0.00308053917252
         0.00317596178502
         0.0032722922042
         0.00336953857914
         0.00346770975739
         0.00356681481935
         0.00366686237976
         0.00376786151901
         0.00386982131749
         0.00397275062278
         0.00407665921375
         0.00418155593798
         0.00428745010868
         0.00439435150474
         0.00450226990506
         0.00461121462286
         0.00472119543701
         0.00483222212642
         0.00494430493563
         0.00505745364353
         0.00517167849466
         0.00528698973358
         0.00540339760482
         0.00552091281861
         0.00563954561949
         0.00575930671766
         0.00588020682335
         0.00600225664675
         0.00612546736374
         0.0062498501502
         0.00637541571632
         0.00650217570364
         0.00663014082238
         0.00675932364538
         0.0068897344172
         0.00702138617635
         0.00715428963304
         0.00728845736012
         0.00742390099913
         0.00756063265726
         0.00769866490737
         0.00783800985664
         0.0079786805436
         0.00812068860978
         0.00826404802501
         0.00840876996517
         0.00855486933142
         0.00870235729963
         0.00885124877095
         0.00900155585259
         0.00915329251438
         0.00930647179484
         0.00946110859513
         0.00961721688509
         0.00977480877191
         0.00993390008807
         0.0100945038721
         0.0102566350251
         0.0104203093797
         0.0105855390429
         0.0107523407787
         0.0109207294881
         0.0110907191411
         0.01126232557
         0.0114355646074
         0.0116104502231
         0.0117870001122
         0.011965229176
         0.0121451523155
         0.0123267881572
         0.012510150671
         0.0126952566206
         0.0128821237013
         0.0130707686767
         0.0132612064481
         0.0134534565732
         0.0136475348845
         0.0138434590772
         0.014041245915
         0.0142409149557
         0.0144424820319
         0.0146459667012
         0.0148513875902
         0.0150587605312
         0.0152681069449
         0.0154794435948
         0.0156927909702
         0.0159081667662
         0.0161255914718
         0.0163450837135
         0.0165666639805
         0.0167903527617
         0.0170161668211
         0.017244130373
         0.0174742601812
         0.0177065804601
         0.0179411098361
         0.0181778687984
         0.0184168796986
         0.0186581648886
         0.0189017448574
         0.0191476400942
         0.0193958748132
         0.0196464713663
         0.0198994502425
         0.0201548356563
         0.0204126499593
         0.0206729155034
         0.0209356583655
         0.0212008990347
         0.0214686617255
         0.0217389706522
         0.0220118518919
         0.0222873277962
         0.0225654244423
         0.0228461641818
         0.0231295749545
         0.0234156828374
         0.0237045101821
         0.0239960849285
         0.0242904331535
         0.0245875790715
         0.0248875524849
         0.0251903794706
         0.0254960861057
         0.0258047003299
         0.0261162500829
         0.0264307614416
         0.0267482660711
         0.0270687881857
         0.0273923613131
         0.0277190096676
         0.0280487667769
         0.028381658718
         0.0287177171558
         0.0290569718927
         0.029399452731
         0.0297451913357
         0.030094217509
         0.0304465647787
         0.030802262947
         0.0311613418162
         0.0315238386393
         0.0318897813559
         0.0322592034936
         0.0326321423054
         0.0330086275935
         0.0333886928856
         0.0337723717093
         0.0341597013175
         0.0345507115126
         0.0349454432726
         0.0353439301252
         0.0357462055981
         0.0361523069441
         0.0365622714162
         0.0369761362672
         0.0373939350247
         0.037815708667
         0.0382414907217
         0.0386713258922
         0.0391052477062
         0.0395432971418
         0.039985511452
         0.0404319316149
         0.040882602334
         0.0413375534117
         0.0417968332767
         0.0422604829073
         0.0427285395563
         0.0432010516524
         0.0436780527234
         0.0441595949233
         0.0446457155049
         0.0451364591718
         0.0456318706274
         0.0461319945753
         0.0466368719935
         0.0471465550363
         0.0476610846817
         0.0481805056334
         0.0487048700452
         0.0492342188954
         0.0497686043382
         0.0503080710769
         0.0508526675403
         0.0514024458826
         0.0519574508071
         0.052517734468
         0.0530833490193
         0.0536543428898
         0.0542307645082
         0.0548126734793
         0.0554001107812
         0.0559931397438
         0.0565918087959
         0.0571961700916
         0.0578062795103
         0.0584221892059
         0.0590439625084
         0.0596716441214
         0.0603052973747
         0.0609449781477
         0.0615907423198
         0.0622426494956
         0.0629007518291
         0.063565120101
         0.0642358064651
         0.0649128630757
         0.0655963644385
         0.0662863701582
         0.0669829323888
         0.0676861256361
         0.0683960020542
         0.0691126361489
         0.0698360800743
         0.0705664083362
         0.0713036805391
         0.0720479637384
         0.0727993249893
         0.073557831347
         0.0743235573173
         0.0750965625048
         0.0758769214153
         0.0766647011042
         0.0774599760771
         0.0782628133893
         0.0790732800961
         0.0798914581537
         0.0807174220681
         0.0815512388945
         0.0823929905891
         0.0832427442074
         0.084100574255
         0.0849665701389
         0.0858407989144
         0.0867233425379
         0.0876142829657
         0.0885136947036
         0.0894216671586
         0.090338267386
         0.0912635847926
         0.0921977087855
         0.0931407138705
         0.094092682004
         0.0950537100434
         0.0960238799453
         0.0970032736659
         0.0979919880629
         0.0989900976419
         0.0999977067113
         0.101014897227
         0.102041758597
         0.103078387678
         0.104124873877
         0.105181321502
         0.10624781251
         0.107324443758
         0.108411319554
         0.109508529305
         0.11061616987
         0.111734353006
         0.11286316812
         0.114002719522
         0.115153111517
         0.116314440966
         0.117486812174
         0.118670344353
         0.119865126908
         0.121071271598
         0.122288890183
         0.12351808697
         0.124758973718
         0.126011669636
         0.127276271582
         0.128552898765
         0.129841670394
         0.131142705679
         0.132456108928
         0.133782014251
         0.135120525956
         0.136471763253
         0.137835845351
         0.139212906361
         0.140603065491
         0.142006456852
         0.143423184752
         0.144853383303
         0.146297186613
         0.147754728794
         0.149226129055
         0.150711521506
         0.15221105516
         0.153724834323
         0.155253008008
         0.156795725226
         0.158353120089
         0.159925311804
         0.161512479186
         0.163114726543
         0.164732202888
         0.166365072131
         0.168013483286
         0.169677555561
         0.171357467771
         0.173053354025
         0.174765363336
         0.176493659616
         0.178238391876
         0.179999709129
         0.181777790189
         0.183572784066
         0.185384839773
         0.187214136124
         0.18906083703
         0.190925091505
         0.192807078362
         0.194706961513
         0.196624919772
         0.198561117053
         0.200515732169
         0.202488943934
         0.204480916262
         0.206491827965
         0.208521872759
         0.210571214557
         0.212640061975
         0.214728578925
         0.216836959124
         0.218965381384
         0.221114069223
         0.223283171654
         0.225472912192
         0.227683484554
         0.229915082455
         0.232167899609
         0.234442144632
         0.236738011241
         0.239055722952
         0.24139547348
         0.243757486343
         0.246141955256
         0.248549103737
         0.250979155302
         0.253432303667
         0.255908787251
         0.258408814669
         0.260932654142
         0.263480454683
         0.266052514315
         0.268649041653
         0.271270245314
         0.273916393518
         0.276587694883
         0.279284417629
         0.282006770372
         0.284755021334
         0.287529408932
         0.290330201387
         0.293157607317
         0.296011924744
         0.298893362284
         0.301802247763
         0.304738759995
         0.307703226805
         0.31069585681
         0.313716977835
         0.316766828299
         0.319845676422
         0.322953820229
         0.326091527939
         0.329259067774
         0.332456707954
         0.335684806108
         0.338943570852
         0.342233359814
         0.345554411411
         0.348907053471
         0.352291584015
         0.35570833087
         0.359157532454
         0.362639576197
         0.366154700518
         0.369703292847
         0.373285621405
         0.376902014017
         0.38055279851
         0.384238302708
         0.387958884239
         0.391714811325
         0.395506501198
         0.399334222078
         0.403198391199
         0.407099276781
         0.411037266254
         0.415012717247
         0.419025957584
         0.423077404499
         0.427167356014
         0.43129619956
         0.435464352369
         0.439672112465
         0.443919897079
         0.448208093643
         0.452537059784
         0.456907212734
         0.461318910122
         0.465772598982
         0.47026860714
         0.474807411432
         0.479389369488
         0.484014898539
         0.488684415817
         0.493398368359
         0.498157143593
         0.502961158752
         0.507810890675
         0.512706756592
         0.517649173737
         0.522638559341
         0.527675449848
         0.532760202885
         0.537893354893
         0.543075323105
         0.548306584358
         0.553587555885
         0.558918774128
         0.564300715923
         0.569733858109
         0.575218617916
         0.580755591393
         0.58634519577
         0.591987967491
         0.597684442997
         0.60343503952
         0.609240353107
         0.6151009202
         0.621017158031
         0.626989722252
         0.633019030094
         0.639105737209
         0.645250320435
         0.651453316212
         0.657715320587
         0.664036929607
         0.67041862011
         0.67686098814
         0.68336468935
         0.689930200577
         0.696558177471
         0.703249156475
         0.71000379324
         0.716822683811
         0.723706424236
         0.730655610561
         0.737670898438
         0.744752943516
         0.751902282238
         0.759119689465
         0.766405701637
         0.773760974407
         0.781186282635
         0.788682162762
         0.796249330044
         0.803888499737
         0.811600267887
         0.819385409355
         0.827244639397
         0.835178554058
         0.843187987804
         0.851273536682
         0.859436035156
         0.867676138878
         0.875994622707
         0.8843922019
         0.892869651318
         0.901427745819
         0.910067260265
         0.918788909912
         0.927593529224
         0.936481893063
         0.945454776287
         0.954512953758
         0.96365737915
         0.972888708115
         0.982207834721
         0.991615653038
         1.00111293793
         1.01070046425
         1.02037918568
         1.03015005589
         1.04001379013
         1.04997134209
         1.06002366543
         1.07017147541
         1.08041584492
         1.09075772762
         1.10119783878
         1.11173737049
         1.122377038
         1.13311803341
         1.14396107197
         1.15490722656
         1.16595757008
         1.17711293697
         1.18837440014
         1.19974303246
         1.2112197876
         1.22280561924
         1.23450171947
         1.24630904198
         1.25822865963
         1.27026164532
         1.28240907192
         1.29467201233
         1.30705153942
         1.3195489645
         1.33216512203
         1.34490132332
         1.35775864124
         1.37073814869
         1.38384127617
         1.39706885815
         1.41042232513
         1.42390286922
         1.4375115633
         1.45124959946
         1.4651184082
         1.47911906242
         1.49325287342
         1.5075211525
         1.52192509174
         1.53646612167
         1.55114531517
         1.56596422195
         1.58092403412
         1.59602618217
         1.61127185822
         1.62666261196
         1.64219963551
         1.65788459778
         1.67371857166
         1.68970322609
         1.70583999157
         1.7221300602
         1.73857522011
         1.7551766634
         1.771936059
         1.78885483742
         1.80593454838
         1.82317662239
         1.8405828476
         1.85815441608
         1.87589323521
         1.89380073547
         1.91187858582
         1.93012833595
         1.94855165482
         1.96715021133
         1.98592567444
         2.00487971306
         2.02401399612
         2.04333019257
         2.06283020973
         2.08251571655
         2.10238838196
         2.12244987488
         2.14270234108
         2.16314744949
         2.18378710747
         2.20462298393
         2.22565698624
         2.24689102173
         2.26832699776
         2.28996682167
         2.31181263924
         2.33386611938
         2.35612940788
         2.37860441208
         2.40129303932
         2.42419743538
         2.44731998444
         2.470662117
         2.49422645569
         2.51801490784
         2.5420293808
         2.56627249718
         2.59074616432
         2.615452528
         2.6403939724
         2.66557240486
         2.690990448
         2.71665024757
         2.74255418777
         2.76870441437
         2.79510331154
         2.82175326347
         2.84865665436
         2.8758161068
         2.90323376656
         2.93091201782
         2.95885372162
         2.98706126213
         3.01553678513
         3.04428339005
         3.07330322266
         3.10259914398
         3.13217377663
         3.16202950478
         3.19216942787
         3.2225959301
         3.25331163406
         3.28431963921
         3.31562256813
         3.34722304344
         3.37912416458
         3.41132879257
         3.44383955002
         3.47665953636
         3.50979185104
         3.54323911667
         3.57700443268
         3.61109113693
         3.64550185204
         3.68023991585
         3.71530818939
         3.75071024895
         3.78644895554
         3.8225274086
         3.85894918442
         3.89571714401
         3.93283510208
         3.97030591965
         4.00813293457
         4.04631996155
         4.08487033844
         4.12378692627
         4.16307401657
         4.20273447037
         4.24277210236
         4.28319072723
         4.32399368286
         4.36518478394
         4.40676784515
         4.44874620438
         4.4911236763
         4.53390455246
         4.57709169388
         4.62069034576
         4.6647028923
         4.7091345787
         4.75398874283
         4.79926919937
         4.84498071671
         4.89112710953
         4.9377117157
         4.98473978043
         5.03221511841
         5.08014202118
         5.12852478027
         5.17736768723
         5.22667503357
         5.27645158768
         5.32670116425
         5.37742900848
         5.42863941193
         5.48033618927
         5.5325255394
         5.58521080017
         5.63839673996
         5.69208908081
         5.74629211426
         5.80101060867
         5.85624933243
         5.91201353073
         5.96830797195
         6.02513790131
         6.08250808716
         6.14042425156
         6.19889116287
         6.25791406631
         6.31749868393
         6.37764978409
         6.438372612
         6.49967336655
         6.56155729294
         6.62402963638
         6.68709564209
         6.75076198578
         6.81503391266
         6.87991666794
         6.94541692734
         7.01153993607
         7.07829189301
         7.14567899704
         7.21370697021
         7.28238153458
         7.35170936584
         7.4216966629
         7.49234962463
         7.56367444992
         7.63567781448
         7.70836591721
         7.78174543381
         7.85582256317
         7.93060445786
         8.00609779358
         8.08230876923
         8.15924453735
         8.23691272736
         8.31531906128
         8.39447116852
         8.47437572479
         8.5550403595
         8.63647270203
         8.71867847443
         8.80166721344
         8.88544464111
         8.97001934052
         9.05539798737
         9.14158916473
         9.22859954834
         9.31643772125
         9.40511131287
         9.49462795258
         9.58499717712
         9.67622470856
         9.76832008362
         9.8612909317
         9.95514678955
         10.0498952866
         10.1455450058
         10.2421035767
         10.3395814896
         10.4379854202
         10.5373258591
         10.6376113892
         10.7388505936
         10.841053009
         10.944226265
         11.0483818054
         11.1535282135
         11.2596740723
         11.3668289185
         11.4750041962
         11.5842075348
         11.6944494247
         11.8057394028
         11.918088913
         12.0315065384
         12.1460027695
         12.2615880966
         12.3782720566
         12.4960670471
         12.6149816513
         12.7350263596
         12.8562145233
         12.978553772
         13.102057457
         13.2267360687
         13.3526000977
         13.4796609879
         13.6079301834
         13.7374191284
         13.8681402206
         14.0001049042
         14.1333236694
         14.2678108215
         14.4035758972
         14.5406322479
         14.6789932251
         14.8186693192
         14.9596738815
         15.10201931
         15.245718956
         15.3907852173
         15.5372304916
         15.6850700378
         15.8343143463
         15.9849786758
         16.1370754242
         16.2906188965
         16.4456233978
         16.6021022797
         16.7600688934
         16.9195384979
         17.0805244446
         17.2430400848
         17.4071025848
         17.572725296
         17.7399234772
         17.9087123871
         18.0791053772
         18.2511196136
         18.4247703552
         18.6000709534
         18.7770404816
         18.9556922913
         19.1360435486
         19.3181114197
         19.501909256
         19.687456131
         19.8747673035
         20.0638580322
         20.2547492981
         20.4474563599
         20.6419963837
         20.8383846283
         21.0366420746
         21.2367858887
         21.4388313293
         21.6427993774
         21.8487071991
         22.0565738678
         22.266418457
         22.4782562256
         22.692111969
         22.9079990387
         23.1259403229
         23.345954895
         23.5680599213
         23.7922801971
         24.0186309814
         24.2471351624
         24.4778137207
         24.7106838226
         24.9457702637
         25.1830921173
         25.4226722717
         25.6645298004
         25.9086875916
         26.1551685333
         26.4039936066
         26.6551837921
         26.9087638855
         27.1647567749
         27.4231834412
         27.6840686798
         27.9474334717
         28.2133045197
         28.4817028046
         28.7526550293
         29.026184082
         29.3023147583
         29.5810718536
         29.8624801636
         30.1465644836
         30.4333496094
         30.722864151
         31.0151309967
         31.3101787567
         31.6080322266
         31.9087181091
         32.2122650146
         32.5186958313
         32.8280448914
         33.140335083
         33.4555931091
         33.7738494873
         34.0951347351
         34.4194755554
         34.7469024658
         35.0774421692
         35.4111251831
         35.7479820251
         36.0880432129
         36.4313354492
         36.7778968811
         37.1277542114
         37.4809379578
         37.8374786377
         38.1974105835
         38.5607681274
         38.9275817871
         39.2978820801
         39.6717071533
         40.0490837097
         40.4300537109
         40.8146438599
         41.2028923035
         41.594833374
         41.9905052185
         42.3899383545
         42.7931671143
         43.2002334595
         43.6111717224
         44.02602005
         44.4448127747
         44.8675880432
         45.2943840027
         45.7252388
         46.1601905823
         46.599281311
         47.0425453186
         47.4900283813
         47.9417648315
         48.3978004456
         48.8581695557
         49.3229217529
         49.7920913696
         50.2657241821
         50.7438621521
         51.2265472412
         51.7138214111
