aces_1.0.0/luts/V3_LogC_500_to_linear.spi1d
Version 1
From 0.000000 1.000000
Length 1024
Components 1
{
         -0.0168537572026
         -0.0166762266308
         -0.0164986941963
         -0.0163211636245
         -0.0161436330527
         -0.0159661024809
         -0.0157885719091
         -0.0156110413373
         -0.0154335098341
         -0.0152559792623
         -0.0150784486905
         -0.0149009181187
         -0.0147233875468
         -0.0145458560437
         -0.0143683254719
         -0.0141907949001
         -0.0140132643282
         -0.0138357328251
         -0.0136582022533
         -0.0134806716815
         -0.0133031411096
         -0.0131256096065
         -0.0129480790347
         -0.0127705484629
         -0.012593017891
         -0.0124154863879
         -0.0122379558161
         -0.0120604252443
         -0.0118828946725
         -0.0117053631693
         -0.0115278325975
         -0.0113503020257
         -0.0111727714539
         -0.0109952399507
         -0.0108177093789
         -0.0106401788071
         -0.0104626482353
         -0.0102851167321
         -0.0101075861603
         -0.00993005558848
         -0.00975252501667
         -0.00957499351352
         -0.00939746294171
         -0.00921993236989
         -0.00904240179807
         -0.00886487029493
         -0.00868733972311
         -0.00850980915129
         -0.00833227857947
         -0.00815474800766
         -0.00797721650451
         -0.0077996859327
         -0.00762215536088
         -0.0074446243234
         -0.00726709375158
         -0.0070895627141
         -0.00691203214228
         -0.0067345011048
         -0.00655697053298
         -0.0063794394955
         -0.00620190892369
         -0.00602437788621
         -0.00584684731439
         -0.00566931627691
         -0.00549178570509
         -0.00531425466761
         -0.00513672409579
         -0.00495919305831
         -0.00478166248649
         -0.00460413144901
         -0.0044266008772
         -0.00424906983972
         -0.0040715392679
         -0.00389400846325
         -0.0037164776586
         -0.00353894685395
         -0.0033614160493
         -0.00318388524465
         -0.00300635444
         -0.00282882363535
         -0.00265129283071
         -0.00247376202606
         -0.00229623122141
         -0.00211870041676
         -0.00194116961211
         -0.00176363880746
         -0.00158610800281
         -0.00140857719816
         -0.00123104639351
         -0.00105351558886
         -0.000875984842423
         -0.000698454037774
         -0.000520923233125
         -0.00034339245758
         -0.000165861652931
         1.16691489893e-05
         0.000189199941815
         0.000366730731912
         0.000544261536561
         0.00072179234121
         0.000899323145859
         0.00107685395051
         0.00125438475516
         0.00143191555981
         0.00160944636445
         0.0017869771691
         0.00196450785734
         0.00214203866199
         0.00231956946664
         0.00249710027128
         0.00267463107593
         0.00285216188058
         0.00302969268523
         0.00320722348988
         0.00338475429453
         0.00356228509918
         0.00373981590383
         0.00391734670848
         0.00409487728029
         0.00427240831777
         0.00444993888959
         0.00462746992707
         0.00480500049889
         0.00498253153637
         0.00516006210819
         0.00533759314567
         0.00551512371749
         0.00569265475497
         0.00587018532678
         0.00604771636426
         0.00622524693608
         0.00640277797356
         0.00658030854538
         0.00675783958286
         0.00693537015468
         0.00711290119216
         0.00729043176398
         0.00746796280146
         0.00764549337327
         0.00782302394509
         0.00800055544823
         0.00817808602005
         0.00835561659187
         0.00853314716369
         0.00871067866683
         0.00888820923865
         0.00906576961279
         0.00924440100789
         0.00942462496459
         0.00960645545274
         0.00978990644217
         0.00997499376535
         0.0101617313921
         0.0103501342237
         0.0105402171612
         0.0107319941744
         0.0109254810959
         0.0111206928268
         0.0113176461309
         0.0115163549781
         0.0117168352008
         0.0119191035628
         0.0121231749654
         0.0123290652409
         0.0125367920846
         0.0127463713288
         0.0129578178748
         0.0131711512804
         0.0133863855153
         0.0136035392061
         0.0138226291165
         0.0140436729416
         0.014266686514
         0.0144916893914
         0.0147186983377
         0.0149477310479
         0.0151788052171
         0.0154119404033
         0.0156471543014
         0.0158844646066
         0.0161238927394
         0.0163654536009
         0.0166091695428
         0.0168550573289
         0.0171031374484
         0.0173534303904
         0.0176059547812
         0.01786073111
         0.0181177780032
         0.01837711595
         0.018638767302
         0.0189027525485
         0.0191690903157
         0.0194378029555
         0.019708910957
         0.0199824366719
         0.0202584024519
         0.0205368269235
         0.0208177343011
         0.0211011469364
         0.0213870853186
         0.0216755736619
         0.0219666343182
         0.0222602896392
         0.0225565638393
         0.0228554792702
         0.0231570601463
         0.023461330682
         0.0237683132291
         0.0240780320019
         0.0243905130774
         0.02470578067
         0.0250238589942
         0.0253447722644
         0.0256685484201
         0.0259952098131
         0.0263247843832
         0.0266572982073
         0.0269927754998
         0.0273312442005
         0.0276727322489
         0.0280172638595
         0.028364866972
         0.028715569526
         0.0290693994612
         0.0294263828546
         0.0297865513712
         0.0301499292254
         0.0305165480822
         0.0308864358813
         0.0312596186996
         0.03163613379
         0.0320160016418
         0.0323992595077
         0.0327859334648
         0.0331760533154
         0.0335696525872
         0.0339667610824
         0.0343674123287
         0.0347716324031
         0.0351794585586
         0.0355909205973
         0.036006052047
         0.03642488271
         0.0368474498391
         0.0372737832367
         0.0377039201558
         0.0381378866732
         0.0385757274926
         0.0390174724162
         0.0394631549716
         0.0399128086865
         0.040366474539
         0.0408241823316
         0.0412859730422
         0.0417518801987
         0.0422219447792
         0.0426961965859
         0.0431746803224
         0.043657425791
         0.0441444776952
         0.0446358732879
         0.045131649822
         0.0456318445504
         0.0461365021765
         0.0466456562281
         0.0471593514085
         0.047677628696
         0.0482005216181
         0.048728082329
         0.0492603443563
         0.0497973524034
         0.0503391474485
         0.0508857741952
         0.0514372736216
         0.0519936941564
         0.0525550693274
         0.0531214550138
         0.0536928884685
         0.0542694181204
         0.0548510849476
         0.0554379411042
         0.0560300275683
         0.0566273964942
         0.0572300888598
         0.0578381568193
         0.0584516450763
         0.0590706020594
         0.0596950799227
         0.0603251233697
         0.0609607845545
         0.0616021156311
         0.062249161303
         0.0629019811749
         0.0635606199503
         0.0642251297832
         0.0648955628276
         0.0655719712377
         0.066254414618
         0.0669429451227
         0.0676376149058
         0.0683384686708
         0.0690455809236
         0.0697589963675
         0.0704787671566
         0.0712049603462
         0.0719376280904
         0.0726768299937
         0.0734226182103
         0.0741750597954
         0.074934206903
         0.0757001265883
         0.0764728710055
         0.0772525072098
         0.0780390948057
         0.0788327008486
         0.0796333774924
         0.0804411917925
         0.081256210804
         0.0820784941316
         0.0829081088305
         0.0837451219559
         0.084589600563
         0.0854416042566
         0.0863012075424
         0.0871684700251
         0.0880434736609
         0.0889262706041
         0.089816942811
         0.0907155573368
         0.0916221812367
         0.0925368890166
         0.0934597551823
         0.0943908467889
         0.0953302383423
         0.0962780043483
         0.0972342267632
         0.0981989726424
         0.0991723164916
         0.100154347718
         0.101145125926
         0.102144740522
         0.103153273463
         0.104170791805
         0.105197384953
         0.106233127415
         0.107278108597
         0.108332403004
         0.109396107495
         0.110469289124
         0.111552037299
         0.112644441426
         0.113746583462
         0.114858552814
         0.115980438888
         0.117112323642
         0.118254303932
         0.119406469166
         0.1205689013
         0.121741704643
         0.122924953699
         0.124118760228
         0.125323206186
         0.126538395882
         0.127764418721
         0.129001379013
         0.130249366164
         0.131508469582
         0.132778808475
         0.13406047225
         0.135353565216
         0.13665817678
         0.13797442615
         0.139302417636
         0.140642255545
         0.141994029284
         0.143357843161
         0.144733831286
         0.146122083068
         0.147522717714
         0.148935839534
         0.150361567736
         0.151799991727
         0.153251245618
         0.154715448618
         0.156192705035
         0.157683119178
         0.159186825156
         0.160703957081
         0.162234589458
         0.163778886199
         0.165336951613
         0.16690890491
         0.168494865298
         0.17009498179
         0.171709358692
         0.173338130116
         0.174981415272
         0.17663936317
         0.178312093019
         0.17999972403
         0.181702420115
         0.183420285583
         0.185153469443
         0.186902105808
         0.188666328788
         0.190446287394
         0.192242130637
         0.194053962827
         0.195881962776
         0.197726249695
         0.199586987495
         0.20146432519
         0.203358381987
         0.2052693367
         0.207197338343
         0.209142521024
         0.211105048656
         0.213085070252
         0.215082749724
         0.217098236084
         0.219131693244
         0.221183285117
         0.223253160715
         0.225341498852
         0.22744846344
         0.229574203491
         0.23171889782
         0.233882710338
         0.23606581986
         0.238268405199
         0.240490615368
         0.242732644081
         0.244994655252
         0.247276842594
         0.249579384923
         0.25190243125
         0.254246205091
         0.256610900164
         0.258996635675
         0.261403679848
         0.26383215189
         0.26628229022
         0.268754303455
         0.271248310804
         0.273764580488
         0.276303291321
         0.278864622116
         0.28144878149
         0.284056007862
         0.286686450243
         0.289340376854
         0.292017936707
         0.294719398022
         0.297444939613
         0.300194770098
         0.302969127893
         0.305768191814
         0.308592259884
         0.311441481113
         0.314316093922
         0.317216366529
         0.320142477751
         0.323094695807
         0.326073229313
         0.329078316689
         0.332110196352
         0.335169106722
         0.338255286217
         0.341368973255
         0.344510436058
         0.347679913044
         0.350877642632
         0.354103893042
         0.357358902693
         0.360642939806
         0.3639562428
         0.367299109697
         0.370671749115
         0.374074488878
         0.377507567406
         0.380971223116
         0.384465783834
         0.387991517782
         0.391548663378
         0.395137548447
         0.398758411407
         0.402411550283
         0.406097263098
         0.409815847874
         0.413567602634
         0.417352795601
         0.421171724796
         0.425024718046
         0.428912073374
         0.432834059
         0.436791032553
         0.440783292055
         0.44481113553
         0.448874890804
         0.452974885702
         0.45711144805
         0.46128487587
         0.465495496988
         0.469743698835
         0.474029749632
         0.478354036808
         0.482716858387
         0.487118601799
         0.491559565067
         0.496040135622
         0.500560641289
         0.505121469498
         0.509722948074
         0.514365494251
         0.519049406052
         0.523775041103
         0.528542876244
         0.533353209496
         0.538206398487
         0.543102860451
         0.548043012619
         0.55302721262
         0.558055818081
         0.563129246235
         0.568247973919
         0.573412299156
         0.578622639179
         0.583879470825
         0.589183211327
         0.594534158707
         0.599932849407
         0.605379700661
         0.6108751297
         0.616419494152
         0.62201333046
         0.627657055855
         0.63335108757
         0.639095842838
         0.644891858101
         0.650739550591
         0.656639397144
         0.662591814995
         0.668597340584
         0.674656391144
         0.680769443512
         0.68693703413
         0.693159580231
         0.699437618256
         0.705771625042
         0.712162137032
         0.718609631062
         0.725114583969
         0.731677532196
         0.738299012184
         0.744979560375
         0.751719594002
         0.758519768715
         0.765380620956
         0.772302567959
         0.779286265373
         0.786332190037
         0.793440997601
         0.800613164902
         0.807849287987
         0.815149903297
         0.82251560688
         0.829946994781
         0.837444663048
         0.845009148121
         0.852641105652
         0.860341072083
         0.868109762669
         0.875947654247
         0.883855462074
         0.891833782196
         0.899883210659
         0.908004403114
         0.916198015213
         0.924464702606
         0.93280506134
         0.941219806671
         0.94970959425
         0.958275020123
         0.96691685915
         0.975635766983
         0.984432339668
         0.993307411671
         1.00226163864
         1.01129555702
         1.02041018009
         1.02960598469
         1.03888380527
         1.04824435711
         1.05768835545
         1.06721663475
         1.07682979107
         1.08652865887
         1.0963139534
         1.10618650913
         1.11614716053
         1.12619662285
         1.13633561134
         1.14656507969
         1.15688574314
         1.16729831696
         1.17780387402
         1.18840301037
         1.19909667969
         1.20988571644
         1.22077083588
         1.23175311089
         1.24283337593
         1.25401234627
         1.26529097557
         1.2766700983
         1.28815078735
         1.29973375797
         1.31142008305
         1.32321059704
         1.33510625362
         1.34710788727
         1.35921657085
         1.37143325806
         1.38375878334
         1.39619421959
         1.40874063969
         1.42139875889
         1.4341698885
         1.44705486298
         1.460054636
         1.47317039967
         1.48640298843
         1.49975371361
         1.51322340965
         1.52681314945
         1.5405241251
         1.55435729027
         1.56831383705
         1.58239471912
         1.59660124779
         1.61093449593
         1.62539541721
         1.63998532295
         1.65470540524
         1.66955661774
         1.68454027176
         1.69965755939
         1.71490955353
         1.73029756546
         1.74582278728
         1.76148641109
         1.77728974819
         1.79323399067
         1.80932033062
         1.82555007935
         1.84192466736
         1.85844516754
         1.8751128912
         1.89192938805
         1.90889573097
         1.92601323128
         1.94328355789
         1.9607077837
         1.97828733921
         1.99602365494
         2.01391816139
         2.03197216988
         2.0501871109
         2.06856441498
         2.08710575104
         2.10581231117
         2.12468552589
         2.14372706413
         2.16293859482
         2.18232131004
         2.20187664032
         2.221606493
         2.24151229858
         2.26159548759
         2.28185796738
         2.30230093002
         2.32292604446
         2.34373521805
         2.36472988129
         2.38591170311
         2.40728235245
         2.42884373665
         2.45059728622
         2.4725446701
         2.49468779564
         2.51702833176
         2.53956818581
         2.5623087883
         2.585252285
         2.60840034485
         2.63175487518
         2.65531754494
         2.67909026146
         2.7030749321
         2.7272734642
         2.75168776512
         2.7763197422
         2.80117154121
         2.82624459267
         2.85154128075
         2.87706375122
         2.9028134346
         2.92879295349
         2.95500397682
         2.98144888878
         3.00812935829
         3.03504776955
         3.06220626831
         3.08960676193
         3.1172516346
         3.14514303207
         3.17328310013
         3.20167422295
         3.23031830788
         3.25921773911
         3.28837490082
         3.31779193878
         3.3474714756
         3.37741541862
         3.40762639046
         3.43810677528
         3.46885895729
         3.49988532066
         3.53118824959
         3.56277036667
         3.59463405609
         3.62678170204
         3.65921616554
         3.69193983078
         3.72495508194
         3.75826478004
         3.7918715477
         3.82577776909
         3.85998630524
         3.89450001717
         3.92932152748
         3.96445322037
         3.99989843369
         4.0356593132
         4.07173919678
         4.10814094543
         4.1448674202
         4.18192100525
         4.21930503845
         4.25702238083
         4.2950758934
         4.33346891403
         4.37220430374
         4.41128444672
         4.45071363449
         4.49049425125
         4.53062963486
         4.57112264633
         4.61197710037
         4.65319538116
         4.69478130341
         4.73673820496
         4.77906894684
         4.82177686691
         4.86486625671
         4.90833950043
         4.95219993591
         4.99645185471
         5.04109859467
         5.08614301682
         5.13158893585
         5.17744016647
         5.22370052338
         5.27037286758
         5.31746196747
         5.36497020721
         5.41290235519
         5.4612622261
         5.51005268097
         5.55927848816
         5.60894298553
         5.65905046463
         5.70960474014
         5.76060962677
         5.81206941605
         5.86398792267
         5.91636943817
         5.96921777725
         6.02253723145
         6.07633256912
         6.13060712814
         6.18536567688
         6.24061250687
         6.29635190964
         6.35258865356
         6.40932655334
         6.46656990051
         6.52432394028
         6.58259296417
         6.64138174057
         6.700694561
         6.76053619385
         6.82091093063
         6.88182449341
         6.94328117371
         7.00528526306
         7.06784296036
         7.13095760345
         7.19463539124
         7.25888109207
         7.32369947433
         7.38909578323
         7.45507526398
         7.52164268494
         7.588804245
         7.65656375885
         7.72492790222
         7.79390192032
         7.86349058151
         7.93369960785
         8.00453472137
         8.0760011673
         8.14810466766
         8.22085189819
         8.29424762726
         8.36829662323
         8.4430065155
         8.51838302612
         8.59443092346
         8.67115783691
         8.74856758118
         8.82666778564
         8.90546512604
         8.98496437073
         9.06517314911
         9.14609622955
         9.22774124146
         9.31011390686
         9.39322090149
         9.47706890106
         9.56166553497
         9.64701557159
         9.73312664032
         9.82000541687
         9.90765857697
         9.99609375
         10.0853176117
         10.1753358841
         10.2661581039
         10.3577890396
         10.4502372742
         10.543510437
         10.6376142502
         10.7325582504
         10.8283481598
         10.9249916077
         11.0224971771
         11.1208724976
         11.2201242447
         11.3202619553
         11.4212913513
         11.5232219696
         11.6260614395
         11.7298173904
         11.8344993591
         11.9401140213
         12.0466709137
         12.1541776657
         12.2626419067
         12.3720741272
         12.4824819565
         12.5938749313
         12.7062597275
         12.819647789
         12.9340457916
         13.0494642258
         13.1659116745
         13.2833976746
         13.401930809
         13.5215215683
         13.6421775818
         13.7639093399
         13.8867273331
         14.0106401443
         14.1356573105
         14.2617893219
         14.3890457153
         14.5174369812
         14.6469736099
         14.7776641846
         14.9095211029
         15.042552948
         15.1767702103
         15.3121852875
         15.4488077164
         15.5866470337
         15.7257165909
         15.8660259247
         16.0075855255
         16.1504077911
         16.2945041656
         16.4398841858
         16.586561203
         16.734544754
         16.8838500977
         17.0344848633
         17.1864624023
         17.3397960663
         17.4944953918
         17.6505756378
         17.8080463409
         17.96692276
         18.1272144318
         18.2889347076
         18.4520988464
         18.6167163849
         18.7828006744
         18.9503669739
         19.1194286346
         19.2899951935
         19.4620838165
         19.6357059479
         19.8108768463
         19.9876098633
         20.1659183502
         20.3458175659
         20.5273189545
         20.710439682
         20.8951931
         21.0815925598
         21.2696552277
         21.459394455
         21.6508255005
         21.843963623
         22.0388221741
         22.2354202271
         22.4337692261
         22.6338882446
         22.8357906342
         23.0394935608
         23.2450141907
         23.4523658752
         23.6615657806
         23.872631073
         24.0855789185
         24.3004245758
         24.5171852112
         24.7358798981
         24.9565238953
         25.1791362762
         25.4037322998
         25.6303310394
         25.8589496613
         26.0896072388
         26.3223228455
         26.5571117401
         26.7939929962
         27.0329875946
         27.2741127014
         27.5173892975
         27.7628326416
         28.0104656219
         28.2603054047
         28.5123748779
         28.7666893005
         29.023273468
         29.2821445465
         29.5433235168
         29.8068313599
         30.072687149
         30.3409156799
         30.6115341187
         30.8845653534
         31.1600322723
         31.437953949
         31.7183551788
         32.0012550354
         32.2866783142
         32.5746459961
         32.8651809692
         33.1583061218
         33.454044342
         33.7524223328
         34.0534553528
         34.3571777344
         34.6636047363
         34.9727668762
         35.2846832275
         35.5993804932
         35.916885376
         36.2372207642
         36.5604095459
         36.8864822388
         37.215461731
         37.5473747253
         37.8822479248
