aces_1.0.0/luts/V3_LogC_800_to_linear.spi1d
Version 1
From 0.000000 1.000000
Length 1024
Components 1
{
         -0.017290500924
         -0.0171083882451
         -0.0169262755662
         -0.0167441628873
         -0.0165620502084
         -0.0163799375296
         -0.0161978248507
         -0.0160157121718
         -0.0158335994929
         -0.015651486814
         -0.0154693750665
         -0.0152872623876
         -0.0151051497087
         -0.0149230370298
         -0.0147409243509
         -0.014558811672
         -0.0143766989931
         -0.0141945863143
         -0.0140124736354
         -0.0138303609565
         -0.0136482482776
         -0.0134661355987
         -0.0132840229198
         -0.0131019102409
         -0.0129197975621
         -0.0127376848832
         -0.0125555722043
         -0.0123734595254
         -0.0121913468465
         -0.0120092341676
         -0.0118271214887
         -0.0116450088099
         -0.011462896131
         -0.0112807834521
         -0.0110986707732
         -0.0109165580943
         -0.0107344454154
         -0.0105523327366
         -0.0103702200577
         -0.0101881073788
         -0.0100059946999
         -0.00982388202101
         -0.00964176934212
         -0.00945965666324
         -0.00927754398435
         -0.00909543130547
         -0.00891331862658
         -0.0087312059477
         -0.00854909326881
         -0.00836698058993
         -0.00818486791104
         -0.00800275523216
         -0.00782064255327
         -0.00763852940872
         -0.00745641672984
         -0.00727430405095
         -0.00709219137207
         -0.00691007869318
         -0.0067279660143
         -0.00654585333541
         -0.00636374065652
         -0.00618162797764
         -0.00599951529875
         -0.00581740261987
         -0.00563528994098
         -0.0054531772621
         -0.00527106458321
         -0.00508895190433
         -0.00490683922544
         -0.00472472654656
         -0.00454261386767
         -0.00436050118878
         -0.0041783885099
         -0.00399627583101
         -0.00381416315213
         -0.00363205047324
         -0.00344993779436
         -0.00326782511547
         -0.00308571243659
         -0.0029035997577
         -0.00272148707882
         -0.00253937439993
         -0.00235726172104
         -0.00217514904216
         -0.00199303636327
         -0.00181092356797
         -0.00162881088909
         -0.0014466982102
         -0.00126458553132
         -0.00108247285243
         -0.000900360173546
         -0.000718247436453
         -0.000536134757567
         -0.000354022107786
         -0.000171909414348
         1.02032754512e-05
         0.000192315957975
         0.00037442863686
         0.000556541315746
         0.000738653994631
         0.000920766673516
         0.00110287941061
         0.0012849920895
         0.00146710476838
         0.00164921744727
         0.00183133012615
         0.00201344280504
         0.00219555548392
         0.00237766816281
         0.00255978084169
         0.00274189352058
         0.00292400619946
         0.00310611887835
         0.00328823155724
         0.00347034423612
         0.00365245691501
         0.00383456959389
         0.00401668250561
         0.00419879518449
         0.00438090786338
         0.00456302054226
         0.00474513322115
         0.00492724590003
         0.00510935857892
         0.00529147125781
         0.00547358393669
         0.00565569661558
         0.00583780929446
         0.00601992197335
         0.00620203465223
         0.00638414733112
         0.00656626001
         0.00674837268889
         0.00693048536777
         0.00711259804666
         0.00729471072555
         0.00747682340443
         0.00765893608332
         0.0078410487622
         0.00802316144109
         0.00820527411997
         0.00838738679886
         0.00856949947774
         0.00875161215663
         0.00893372483552
         0.0091158375144
         0.00929795019329
         0.00948006287217
         0.00966217555106
         0.00984428822994
         0.0100264009088
         0.0102085135877
         0.0103906262666
         0.0105727389455
         0.0107555240393
         0.0109399724752
         0.0111261084676
         0.0113139469177
         0.0115035027266
         0.0116947935894
         0.0118878334761
         0.0120826400816
         0.012279227376
         0.0124776139855
         0.0126778148115
         0.0128798466176
         0.013083727099
         0.0132894720882
         0.0134970992804
         0.0137066254392
         0.01391806826
         0.0141314454377
         0.0143467746675
         0.0145640727133
         0.0147833591327
         0.0150046506897
         0.0152279669419
         0.0154533255845
         0.0156807471067
         0.0159102473408
         0.016141846776
         0.0163755659014
         0.0166114214808
         0.0168494358659
         0.0170896258205
         0.0173320136964
         0.0175766199827
         0.0178234614432
         0.0180725622922
         0.0183239411563
         0.0185776203871
         0.0188336186111
         0.0190919600427
         0.0193526633084
         0.0196157507598
         0.0198812466115
         0.0201491694897
         0.020419543609
         0.0206923913211
         0.0209677349776
         0.0212455969304
         0.0215259995311
         0.0218089688569
         0.0220945253968
         0.0223826933652
         0.0226734988391
         0.0229669641703
         0.0232631135732
         0.0235619712621
         0.0238635633141
         0.0241679139435
         0.0244750473648
         0.0247849915177
         0.0250977706164
         0.0254134107381
         0.0257319379598
         0.0260533802211
         0.0263777617365
         0.026705108583
         0.0270354524255
         0.0273688174784
         0.0277052298188
         0.0280447211117
         0.0283873192966
         0.028733048588
         0.0290819406509
         0.0294340252876
         0.0297893304378
         0.0301478859037
         0.0305097196251
         0.0308748651296
         0.0312433484942
         0.0316152051091
         0.0319904610515
         0.0323691479862
         0.0327513031662
         0.0331369526684
         0.0335261262953
         0.033918865025
         0.0343151912093
         0.0347151458263
         0.0351187586784
         0.0355260632932
         0.0359370931983
         0.0363518819213
         0.0367704667151
         0.0371928811073
         0.0376191549003
         0.0380493327975
         0.0384834446013
         0.0389215238392
         0.0393636152148
         0.0398097485304
         0.0402599610388
         0.0407142937183
         0.0411727800965
         0.0416354611516
         0.0421023778617
         0.0425735600293
         0.043049056083
         0.0435288995504
         0.0440131351352
         0.0445017963648
         0.044994931668
         0.0454925745726
         0.0459947697818
         0.0465015619993
         0.0470129847527
         0.0475290901959
         0.0480499118567
         0.048575501889
         0.0491058975458
         0.0496411435306
         0.0501812882721
         0.0507263727486
         0.0512764453888
         0.0518315471709
         0.0523917265236
         0.0529570281506
         0.0535275042057
         0.0541031993926
         0.0546841584146
         0.0552704297006
         0.0558620654047
         0.0564591139555
         0.0570616237819
         0.0576696433127
         0.0582832247019
         0.0589024201035
         0.0595272779465
         0.06015785411
         0.0607941970229
         0.0614363588393
         0.0620843954384
         0.0627383589745
         0.063398309052
         0.0640642940998
         0.064736366272
         0.0654145926237
         0.0660990178585
         0.066789701581
         0.0674867108464
         0.0681900903583
         0.0688999071717
         0.0696162134409
         0.070339076221
         0.0710685476661
         0.0718046873808
         0.0725475698709
         0.07329723984
         0.0740537717938
         0.074817225337
         0.0755876600742
         0.0763651430607
         0.077149733901
         0.0779415071011
         0.0787405222654
         0.0795468389988
         0.0803605392575
         0.0811816826463
         0.0820103287697
         0.0828465595841
         0.0836904421449
         0.0845420435071
         0.0854014307261
         0.0862686857581
         0.0871438682079
         0.0880270600319
         0.0889183282852
         0.0898177474737
         0.0907253921032
         0.09164134413
         0.0925656706095
         0.0934984534979
         0.0944397747517
         0.095389701426
         0.0963483154774
         0.0973156988621
         0.0982919335365
         0.0992770940065
         0.100271269679
         0.10127453506
         0.102286987007
         0.103308692575
         0.10433974117
         0.105380229652
         0.106430225074
         0.107489831746
         0.108559131622
         0.109638214111
         0.110727161169
         0.111826069653
         0.112935036421
         0.114054143429
         0.115183480084
         0.116323158145
         0.117473259568
         0.118633873761
         0.119805112481
         0.120987057686
         0.122179821134
         0.123383492231
         0.124598167837
         0.125823959708
         0.127060964704
         0.12830927968
         0.129569023848
         0.130840286613
         0.132123172283
         0.133417800069
         0.134724274278
         0.136042684317
         0.137373164296
         0.138715803623
         0.140070736408
         0.141438066959
         0.142817884684
         0.144210338593
         0.145615532994
         0.147033572197
         0.148464590311
         0.149908691645
         0.151366010308
         0.15283665061
         0.15432074666
         0.155818417668
         0.157329782844
         0.158854976296
         0.160394117236
         0.161947354674
         0.163514778018
         0.16509655118
         0.166692793369
         0.168303638697
         0.169929206371
         0.171569645405
         0.173225104809
         0.174895688891
         0.176581576467
         0.178282871842
         0.17999972403
         0.181732282043
         0.18348069489
         0.185245096684
         0.187025636435
         0.188822463155
         0.190635740757
         0.19246558845
         0.194312170148
         0.196175649762
         0.198056191206
         0.199953913689
         0.201868996024
         0.203801602125
         0.205751881003
         0.207720011473
         0.209706127644
         0.211710423231
         0.213733047247
         0.215774178505
         0.217833980918
         0.219912618399
         0.222010269761
         0.224127113819
         0.226263314486
         0.228419065475
         0.230594530702
         0.232789888978
         0.23500533402
         0.237241044641
         0.239497214556
         0.241774007678
         0.244071632624
         0.246390268207
         0.248730123043
         0.251091390848
         0.253474235535
         0.255878865719
         0.258305519819
         0.26075437665
         0.263225615025
         0.26571944356
         0.268236100674
         0.270775794983
         0.273338705301
         0.275925070047
         0.278535068035
         0.281168967485
         0.283826947212
         0.286509215832
         0.289216041565
         0.291947633028
         0.29470422864
         0.297486007214
         0.300293236971
         0.30312615633
         0.305984973907
         0.308869957924
         0.311781316996
         0.314719319344
         0.317684173584
         0.32067617774
         0.323695540428
         0.326742529869
         0.329817354679
         0.332920342684
         0.336051702499
         0.339211702347
         0.342400610447
         0.345618695021
         0.348866194487
         0.35214343667
         0.355450630188
         0.358788073063
         0.362156063318
         0.365554839373
         0.368984699249
         0.372445970774
         0.375938862562
         0.379463732243
         0.383020818233
         0.386610478163
         0.390232950449
         0.393888562918
         0.397577613592
         0.401300400496
         0.405057251453
         0.408848464489
         0.412674337626
         0.416535228491
         0.420431435108
         0.424363285303
         0.428331077099
         0.432335197926
         0.436375916004
         0.440453618765
         0.444568604231
         0.44872123003
         0.45291185379
         0.457140803337
         0.461408436298
         0.465715110302
         0.470061153173
         0.474446982145
         0.478872925043
         0.483339339495
         0.48784661293
         0.492395102978
         0.49698522687
         0.501617312431
         0.506291806698
         0.511009037495
         0.51576936245
         0.520573318005
         0.525421142578
         0.530313372612
         0.535250306129
         0.540232419968
         0.545260131359
         0.550333797932
         0.555453896523
         0.560620844364
         0.565834999084
         0.571096897125
         0.576406896114
         0.581765472889
         0.587173104286
         0.592630147934
         0.598137140274
         0.603694498539
         0.609302699566
         0.614962160587
         0.620673418045
         0.626436948776
         0.632253170013
         0.638122558594
         0.644045650959
         0.650022983551
         0.656054913998
         0.66214209795
         0.668284893036
         0.674483895302
         0.68073964119
         0.687052547932
         0.693423271179
         0.699852228165
         0.70633995533
         0.712887108326
         0.719494104385
         0.726161539555
         0.732889950275
         0.739679932594
         0.746531963348
         0.753446757793
         0.760424733162
         0.76746660471
         0.774572849274
         0.781744062901
         0.788980901241
         0.796283960342
         0.80365383625
         0.811091065407
         0.818596363068
         0.826170325279
         0.833813548088
         0.841526687145
         0.849310398102
         0.857165277004
         0.865091979504
         0.87309128046
         0.881163656712
         0.889309942722
         0.897530734539
         0.905826687813
         0.914198517799
         0.922646999359
         0.931172668934
         0.939776420593
         0.948458790779
         0.957220613956
         0.966062605381
         0.974985420704
         0.98398989439
         0.993076741695
         1.00224673748
         1.01150047779
         1.02083897591
         1.03026294708
         1.03977298737
         1.04937016964
         1.05905497074
         1.06882846355
         1.07869136333
         1.08864438534
         1.09868860245
         1.10882461071
         1.11905324459
         1.12937557697
         1.13979232311
         1.15030431747
         1.16091239452
         1.17161762714
         1.18242073059
         1.19332265854
         1.20432424545
         1.21542656422
         1.2266304493
         1.23793673515
         1.24934649467
         1.26086056232
         1.27248001099
         1.28420567513
         1.29603874683
         1.30797994137
         1.32003033161
         1.33219099045
         1.34446287155
         1.35684704781
         1.36934447289
         1.38195621967
         1.39468336105
         1.40752696991
         1.42048799992
         1.43356752396
         1.44676673412
         1.4600867033
         1.47352850437
         1.48709321022
         1.50078201294
         1.51459610462
         1.52853655815
         1.54260444641
         1.5568010807
         1.57112753391
         1.58558499813
         1.60017478466
         1.61489796638
         1.62975585461
         1.64474964142
         1.65988063812
         1.6751499176
         1.69055902958
         1.70610892773
         1.72180116177
         1.73763692379
         1.7536175251
         1.769744277
         1.78601861
         1.8024418354
         1.8190151453
         1.83574020863
         1.85261809826
         1.86965048313
         1.88683867455
         1.90418410301
         1.92168807983
         1.93935227394
         1.95717799664
         1.97516679764
         1.99332010746
         2.01163959503
         2.03012657166
         2.04878258705
         2.06760931015
         2.08660817146
         2.10578107834
         2.12512898445
         2.14465403557
         2.16435790062
         2.1842417717
         2.20430755615
         2.22455692291
         2.24499154091
         2.26561284065
         2.28642296791
         2.30742359161
         2.32861614227
         2.35000252724
         2.37158465385
         2.39336395264
         2.41534280777
         2.43752241135
         2.45990514755
         2.4824924469
         2.50528645515
         2.52828884125
         2.55150175095
         2.57492685318
         2.59856629372
         2.62242221832
         2.64649605751
         2.67079019547
         2.69530653954
         2.72004723549
         2.74501419067
         2.77020931244
         2.79563522339
         2.82129359245
         2.8471865654
         2.87331652641
         2.89968538284
         2.92629551888
         2.95314908028
         2.98024821281
         3.00759530067
         3.03519248962
         3.06304192543
         3.09114646912
         3.11950778961
         3.14812874794
         3.17701148987
         3.20615816116
         3.23557186127
         3.26525425911
         3.29520845413
         3.32543635368
         3.35594105721
         3.38672447205
         3.41778969765
         3.44913911819
         3.48077511787
         3.51270055771
         3.5449180603
         3.57743024826
         3.6102399826
         3.64334964752
         3.67676210403
         3.71048045158
         3.74450707436
         3.77884483337
         3.81349682808
         3.84846591949
         3.88375473022
         3.91936635971
         3.95530366898
         3.99156975746
         4.02816772461
         4.06510019302
         4.10237073898
         4.13998174667
         4.17793703079
         4.2162399292
         4.25489282608
         4.2938990593
         4.33326244354
         4.37298583984
         4.41307258606
         4.45352602005
         4.49434947968
         4.5355463028
         4.57711982727
         4.6190738678
         4.66141176224
         4.70413684845
         4.74725246429
         4.79076290131
         4.83467102051
         4.8789806366
         4.92369604111
         4.96882009506
         5.01435709
         5.06031036377
         5.10668420792
         5.15348243713
         5.20070838928
         5.2483663559
         5.29646062851
         5.34499454498
         5.39397239685
         5.44339799881
         5.49327611923
         5.54361057281
         5.59440517426
         5.64566421509
         5.69739246368
         5.74959421158
         5.80227279663
         5.85543346405
         5.90908050537
         5.96321821213
         6.01785135269
         6.07298374176
         6.12862062454
         6.18476676941
         6.24142599106
         6.29860401154
         6.35630464554
         6.41453313828
         6.47329425812
         6.53259325027
         6.59243392944
         6.65282249451
         6.71376371384
         6.77526187897
         6.83732271194
         6.89995145798
         6.96315288544
         7.02693223953
         7.09129524231
         7.15624666214
         7.22179269791
         7.28793811798
         7.35468816757
         7.4220495224
         7.490026474
         7.55862569809
         7.62785196304
         7.69771146774
         7.76821041107
         7.83935403824
         7.91114807129
         7.98359918594
         8.05671310425
         8.13049602509
         8.20495319366
         8.28009128571
         8.3559179306
         8.43243694305
         8.50965595245
         8.58758163452
         8.66622066498
         8.74557876587
         8.82566261292
         8.90647888184
         8.98803424835
         9.07033538818
         9.15338993073
         9.2372045517
         9.32178497314
         9.40713977814
         9.49327468872
         9.58019733429
         9.66791629791
         9.75643634796
         9.84576702118
         9.93591403961
         10.0268859863
         10.1186904907
         10.2113342285
         10.3048257828
         10.3991718292
         10.4943819046
         10.5904626846
         10.6874217987
         10.7852678299
         10.8840093613
         10.9836530685
         11.0842094421
         11.1856851578
         11.2880887985
         11.3914299011
         11.495716095
         11.6009559631
         11.7071580887
         11.8143320084
         11.9224863052
         12.0316295624
         12.1417722702
         12.2529211044
         12.3650875092
         12.4782800674
         12.5925073624
         12.7077798843
         12.8241071701
         12.9414978027
         13.0599622726
         13.1795110703
         13.3001527786
         13.4218978882
         13.5447568893
         13.6687402725
         13.7938575745
         13.9201183319
         14.0475349426
         14.1761169434
         14.3058748245
         14.4368200302
         14.5689630508
         14.7023143768
         14.8368854523
         14.9726877213
         15.1097326279
         15.2480306625
         15.3875932693
         15.5284328461
         15.6705608368
         15.8139896393
         15.958729744
         16.1047935486
         16.2521934509
         16.4009418488
         16.5510501862
         16.7025337219
         16.8554000854
         17.0096664429
         17.1653442383
         17.3224449158
         17.4809837341
         17.6409721375
         17.8024234772
         17.9653530121
         18.1297721863
         18.2956943512
         18.4631347656
         18.632106781
         18.8026256561
         18.9747028351
         19.148355484
         19.323595047
         19.5004386902
         19.678899765
         19.8589916229
         20.0407333374
         20.2241363525
         20.4092159271
         20.5959911346
         20.7844715118
         20.9746780396
         21.1666240692
         21.360326767
         21.5557994843
         21.7530612946
         21.9521274567
         22.1530151367
         22.3557395935
         22.5603179932
         22.7667675018
         22.975107193
         23.1853504181
         23.397518158
         23.6116275787
         23.8276939392
         24.0457363129
         24.2657737732
         24.4878253937
         24.7119064331
         24.9380378723
         25.1662368774
         25.3965244293
         25.6289176941
         25.8634376526
         26.1001014709
         26.33893013
         26.5799446106
         26.8231639862
         27.0686073303
         27.3162956238
         27.5662498474
         27.8184890747
         28.0730381012
         28.329914093
         28.5891399384
         28.850736618
         29.1147270203
         29.3811321259
         29.6499729156
         29.9212741852
         30.1950569153
         30.4713439941
         30.7501583099
         31.0315227509
         31.3154602051
         31.6019954681
         31.8911514282
         32.1829528809
         32.4774246216
         32.7745895386
         33.07447052
         33.3770942688
         33.6824874878
         33.9906768799
         34.3016815186
         34.6155319214
         34.9322547913
         35.2518730164
         35.5744171143
         35.8999099731
         36.2283782959
         36.5598564148
         36.8943634033
         37.2319297791
         37.5725822449
         37.9163551331
         38.2632675171
         38.6133575439
         38.9666481018
         39.3231697083
         39.6829528809
         40.0460281372
         40.4124259949
         40.7821731567
         41.1553001404
         41.5318450928
         41.9118309021
         42.2952919006
         42.6822624207
