aces_1.0.0/luts/V3_LogC_2000_to_linear.spi1d
Version 1
From 0.000000 1.000000
Length 1024
Components 1
{
         -0.0182104073465
         -0.0180186461657
         -0.017826884985
         -0.0176351238042
         -0.0174433626235
         -0.0172516014427
         -0.0170598402619
         -0.0168680790812
         -0.0166763179004
         -0.0164845567197
         -0.0162927955389
         -0.0161010343581
         -0.0159092731774
         -0.0157175119966
         -0.0155257498845
         -0.0153339887038
         -0.015142227523
         -0.0149504663423
         -0.0147587051615
         -0.0145669439808
         -0.0143751828
         -0.0141834216192
         -0.0139916604385
         -0.0137998992577
         -0.0136081371456
         -0.0134163759649
         -0.0132246147841
         -0.0130328536034
         -0.0128410924226
         -0.0126493312418
         -0.0124575700611
         -0.0122658088803
         -0.0120740476996
         -0.0118822865188
         -0.0116905244067
         -0.011498763226
         -0.0113070020452
         -0.0111152408645
         -0.0109234796837
         -0.0107317185029
         -0.0105399573222
         -0.0103481961414
         -0.0101564349607
         -0.0099646737799
         -0.00977291259915
         -0.00958115048707
         -0.00938938930631
         -0.00919762812555
         -0.00900586694479
         -0.00881410576403
         -0.00862234458327
         -0.00843058340251
         -0.00823882222176
         -0.008047061041
         -0.00785529986024
         -0.00766353821382
         -0.00747177703306
         -0.0072800158523
         -0.00708825420588
         -0.00689649302512
         -0.00670473184437
         -0.00651297066361
         -0.00632120948285
         -0.00612944830209
         -0.00593768665567
         -0.00574592547491
         -0.00555416429415
         -0.00536240311339
         -0.00517064193264
         -0.00497888028622
         -0.00478711910546
         -0.0045953579247
         -0.00440359674394
         -0.00421183556318
         -0.00402007438242
         -0.00382831296884
         -0.00363655155525
         -0.00344479037449
         -0.00325302919373
         -0.00306126778014
         -0.00286950659938
         -0.00267774518579
         -0.00248598400503
         -0.00229422282428
         -0.00210246141069
         -0.00191070022993
         -0.00171893893275
         -0.00152717763558
         -0.00133541645482
         -0.00114365515765
         -0.000951893860474
         -0.000760132621508
         -0.000568371324334
         -0.000376610056264
         -0.000184848788194
         6.91247396389e-06
         0.000198673747946
         0.000390435016016
         0.000582196284086
         0.000773957523052
         0.000965718820225
         0.00115748005919
         0.00134924135637
         0.00154100265354
         0.0017327638343
         0.00192452513147
         0.00211628642865
         0.0023080476094
         0.00249980902299
         0.00269157020375
         0.00288333138451
         0.0030750927981
         0.00326685397886
         0.00345861539245
         0.0036503765732
         0.00384213775396
         0.00403389893472
         0.00422566058114
         0.0044174217619
         0.00460918294266
         0.00480094412342
         0.00499270530418
         0.00518446648493
         0.00537622813135
         0.00556798931211
         0.00575975049287
         0.00595151167363
         0.00614327285439
         0.00633503450081
         0.00652679568157
         0.00671855686232
         0.00691031804308
         0.00710207922384
         0.00729384087026
         0.00748560205102
         0.00767736323178
         0.00786912441254
         0.0080608855933
         0.00825264677405
         0.00844440795481
         0.00863616913557
         0.00882793124765
         0.00901969242841
         0.00921145360917
         0.00940321478993
         0.00959497597069
         0.00978673715144
         0.0099784983322
         0.010170259513
         0.0103620206937
         0.0105537818745
         0.0107455430552
         0.0109373051673
         0.0111290663481
         0.0113208275288
         0.0115125887096
         0.0117043498904
         0.0118961110711
         0.0120878722519
         0.0122796334326
         0.0124713946134
         0.0126631557941
         0.0128549169749
         0.013046679087
         0.0132384402677
         0.0134302014485
         0.0136219626293
         0.01381372381
         0.0140058733523
         0.0141997588798
         0.0143955126405
         0.0145931523293
         0.0147926965728
         0.0149941630661
         0.0151975704357
         0.015402937308
         0.0156102832407
         0.015819625929
         0.016030985862
         0.0162443835288
         0.0164598356932
         0.0166773628443
         0.0168969873339
         0.0171187259257
         0.0173426009715
         0.017568634823
         0.017796844244
         0.018027253449
         0.0182598829269
         0.018494753167
         0.0187318846583
         0.0189713016152
         0.0192130263895
         0.0194570794702
         0.019703483209
         0.0199522599578
         0.0202034357935
         0.0204570293427
         0.0207130666822
         0.0209715720266
         0.0212325658649
         0.0214960761368
         0.0217621233314
         0.0220307353884
         0.0223019327968
         0.0225757453591
         0.0228521954268
         0.0231313072145
         0.0234131105244
         0.0236976277083
         0.0239848848432
         0.0242749098688
         0.0245677307248
         0.0248633716255
         0.0251618605107
         0.02546322532
         0.025767493993
         0.0260746926069
         0.0263848528266
         0.0266979988664
         0.0270141642541
         0.0273333732039
         0.0276556592435
         0.0279810503125
         0.0283095743507
         0.0286412648857
         0.0289761517197
         0.0293142646551
         0.0296556334943
         0.0300002917647
         0.0303482711315
         0.0306996032596
         0.0310543198138
         0.0314124524593
         0.0317740365863
         0.0321391038597
         0.0325076878071
         0.0328798256814
         0.0332555472851
         0.0336348861456
         0.0340178832412
         0.0344045683742
         0.0347949787974
         0.0351891517639
         0.0355871208012
         0.0359889231622
         0.0363945960999
         0.0368041805923
         0.0372177101672
         0.0376352220774
         0.0380567573011
         0.0384823530912
         0.038912050426
         0.0393458865583
         0.0397839024663
         0.0402261391282
         0.0406726375222
         0.0411234349012
         0.0415785759687
         0.0420381017029
         0.0425020568073
         0.0429704785347
         0.043443415314
         0.0439209081233
         0.0444030016661
         0.0448897369206
         0.0453811660409
         0.0458773262799
         0.0463782660663
         0.046884033829
         0.0473946742713
         0.0479102358222
         0.0484307594597
         0.0489563010633
         0.0494869053364
         0.050022624433
         0.0505635030568
         0.0511095896363
         0.0516609400511
         0.0522176027298
         0.0527796261013
         0.0533470660448
         0.0539199709892
         0.0544983968139
         0.0550823956728
         0.0556720197201
         0.0562673248351
         0.0568683631718
         0.057475194335
         0.0580878704786
         0.0587064512074
         0.0593309924006
         0.0599615462124
         0.060598179698
         0.0612409450114
         0.0618899017572
         0.0625451058149
         0.063206627965
         0.063874527812
         0.0645488575101
         0.0652296841145
         0.0659170672297
         0.0666110739112
         0.067311771214
         0.0680192112923
         0.0687334686518
         0.0694546103477
         0.0701827034354
         0.0709178075194
         0.071659989655
         0.072409324348
         0.0731658861041
         0.0739297270775
         0.0747009292245
         0.0754795596004
         0.0762657001615
         0.0770594030619
         0.0778607577085
         0.0786698386073
         0.0794867053628
         0.080311447382
         0.0811441317201
         0.0819848403335
         0.082833647728
         0.0836906284094
         0.0845558717847
         0.0854294523597
         0.0863114446402
         0.0872019305825
         0.0881009995937
         0.0890087336302
         0.0899252146482
         0.0908505171537
         0.0917847380042
         0.092727959156
         0.0936802700162
         0.0946417525411
         0.0956124961376
         0.0965925976634
         0.0975821390748
         0.0985812097788
         0.0995899140835
         0.100608326495
         0.101636558771
         0.102674692869
         0.103722833097
         0.104781068861
         0.10584949702
         0.106928221881
         0.108017340302
         0.109116949141
         0.110227145255
         0.111348047853
         0.112479746342
         0.11362234503
         0.114775955677
         0.115940675139
         0.117116622627
         0.118303894997
         0.119502604008
         0.120712868869
         0.121934786439
         0.123168475926
         0.12441405654
         0.125671640038
         0.12694132328
         0.128223255277
         0.129517525434
         0.130824267864
         0.132143616676
         0.133475661278
         0.134820535779
         0.13617837429
         0.13754928112
         0.138933420181
         0.140330865979
         0.141741797328
         0.143166318536
         0.144604548812
         0.146056652069
         0.147522732615
         0.149002954364
         0.150497421622
         0.152006283402
         0.153529688716
         0.155067771673
         0.156620681286
         0.158188536763
         0.159771502018
         0.161369726062
         0.162983343005
         0.16461250186
         0.166257366538
         0.167918071151
         0.169594764709
         0.171287626028
         0.172996789217
         0.174722418189
         0.176464676857
         0.178223729134
         0.179999709129
         0.181792810559
         0.183603182435
         0.185431003571
         0.187276422977
         0.189139634371
         0.191020786762
         0.192920073867
         0.194837644696
         0.196773692966
         0.198728397489
         0.200701937079
         0.202694490552
         0.20470623672
         0.206737354398
         0.208788052201
         0.210858508945
         0.212948903441
         0.215059444308
         0.217190310359
         0.21934171021
         0.221513837576
         0.223706901073
         0.225921079516
         0.228156596422
         0.230413645506
         0.232692435384
         0.234993189573
         0.237316101789
         0.239661410451
         0.242029294372
         0.244420006871
         0.246833741665
         0.24927072227
         0.251731187105
         0.254215359688
         0.256723463535
         0.259255737066
         0.261812418699
         0.264393717051
         0.266999870539
         0.269631147385
         0.272287786007
         0.274969995022
         0.27767804265
         0.280412197113
         0.283172696829
         0.285959780216
         0.288773715496
         0.291614770889
         0.294483184814
         0.297379255295
         0.300303190947
         0.303255319595
         0.30623587966
         0.309245169163
         0.312283456326
         0.315350979567
         0.318448096514
         0.321575015783
         0.324732095003
         0.327919572592
         0.331137746572
         0.334386944771
         0.337667435408
         0.340979516506
         0.344323545694
         0.347699761391
         0.351108521223
         0.354550093412
         0.358024865389
         0.361533075571
         0.365075111389
         0.368651241064
         0.372261852026
         0.375907242298
         0.379587739706
         0.38330373168
         0.387055486441
         0.390843391418
         0.394667804241
         0.398529052734
         0.402427494526
         0.406363517046
         0.41033744812
         0.414349645376
         0.418400526047
         0.422490417957
         0.426619708538
         0.430788785219
         0.434998035431
         0.439247846603
         0.443538576365
         0.447870671749
         0.452244490385
         0.456660419703
         0.461118936539
         0.465620368719
         0.470165193081
         0.474753797054
         0.479386627674
         0.484064072371
         0.488786578178
         0.493554592133
         0.498368531466
         0.503228843212
         0.508135974407
         0.51309043169
         0.518092572689
         0.523142933846
         0.528241932392
         0.533390045166
         0.538587749004
         0.543835580349
         0.549133956432
         0.554483354092
         0.559884250164
         0.565337240696
         0.57084274292
         0.576401293278
         0.582013428211
         0.587679564953
         0.593400359154
         0.599176228046
         0.605007708073
         0.610895454884
         0.616839885712
         0.622841536999
         0.628901064396
         0.63501894474
         0.641195774078
         0.647432148457
         0.653728544712
         0.660085678101
         0.666503965855
         0.672984182835
         0.679526746273
         0.686132371426
         0.692801654339
         0.699535191059
         0.706333577633
         0.713197469711
         0.720127522945
         0.727124273777
         0.734188497066
         0.741320729256
         0.7485216856
         0.755792021751
         0.76313239336
         0.770543515682
         0.778026044369
         0.785580635071
         0.793208003044
         0.800908863544
         0.808683872223
         0.816533863544
         0.824459433556
         0.832461357117
         0.840540409088
         0.848697245121
         0.85693269968
         0.865247488022
         0.873642385006
         0.882118165493
         0.890675604343
         0.899315476418
         0.90803861618
         0.916845738888
         0.925737738609
         0.93471544981
         0.943779587746
         0.952931106091
         0.9621707201
         0.971499443054
         0.980917990208
         0.99042725563
         1.00002813339
         1.00972151756
         1.01950836182
         1.02938938141
         1.03936564922
         1.04943811893
         1.0596075058
         1.0698748827
         1.08024120331
         1.0907074213
         1.10127437115
         1.11194324493
         1.12271487713
         1.13359022141
         1.14457035065
         1.15565633774
         1.16684901714
         1.17814970016
         1.18955910206
         1.20107841492
         1.21270883083
         1.22445118427
         1.23630678654
         1.24827647209
         1.26036155224
         1.27256309986
         1.28488206863
         1.29731988907
         1.30987739563
         1.32255589962
         1.33535659313
         1.34828066826
         1.36132919788
         1.3745033741
         1.38780450821
         1.40123391151
         1.41479253769
         1.42848181725
         1.44230306149
         1.4562574625
         1.47034621239
         1.48457074165
         1.49893224239
         1.51343226433
         1.52807188034
         1.54285252094
         1.55777561665
         1.57284235954
         1.58805441856
         1.6034129858
         1.61891949177
         1.63457536697
         1.65038216114
         1.66634118557
         1.68245387077
         1.69872188568
         1.7151466608
         1.73172962666
         1.74847233295
         1.76537644863
         1.78244328499
         1.79967463017
         1.81707191467
         1.83463692665
         1.85237109661
         1.87027609348
         1.8883535862
         1.90660524368
         1.92503285408
         1.9436378479
         1.96242213249
         1.98138749599
         2.00053548813
         2.01986789703
         2.03938651085
         2.05909347534
         2.0789899826
         2.09907841682
         2.11936020851
         2.13983726501
         2.16051197052
         2.18138551712
         2.20246052742
         2.22373819351
         2.245221138
         2.2669107914
         2.28880977631
         2.31091952324
         2.33324217796
         2.35577988625
         2.37853503227
         2.40150904655
         2.4247045517
         2.44812369347
         2.47176814079
         2.49564051628
         2.5197429657
         2.54407763481
         2.56864666939
         2.59345245361
         2.61849713326
         2.6437830925
         2.66931271553
         2.69508838654
         2.72111225128
         2.74738693237
         2.77391457558
         2.80069804192
         2.82773923874
         2.85504126549
         2.88260602951
         2.91043663025
         2.93853521347
         2.9669046402
         2.99554729462
         3.02446579933
         3.05366301537
         3.0831413269
         3.11290383339
         3.14295315742
         3.17329192162
         3.20392274857
         3.23484897614
         3.26607298851
         3.29759788513
         3.32942652702
         3.36156177521
         3.39400649071
         3.42676401138
         3.45983695984
         3.49322867393
         3.52694201469
         3.56098008156
         3.59534597397
         3.6300432682
         3.66507458687
         3.70044350624
         3.73615336418
         3.77220702171
         3.80860805511
         3.84535980225
         3.88246560097
         3.91992902756
         3.95775318146
         3.99594187737
         4.03449821472
         4.07342624664
         4.11272954941
         4.15241098404
         4.19247531891
         4.2329249382
         4.27376461029
         4.31499814987
         4.35662841797
         4.39865970612
         4.44109630585
         4.48394155502
         4.52719974518
         4.57087421417
         4.61496973038
         4.65949010849
         4.70443964005
         4.74982213974
         4.79564142227
         4.84190273285
         4.88860940933
         4.93576574326
         4.98337697983
         5.03144645691
         5.07997941971
         5.12897968292
         5.17845201492
         5.22840118408
         5.27883148193
         5.32974767685
         5.3811545372
         5.43305635452
         5.48545837402
         5.53836488724
         5.59178161621
         5.64571285248
         5.70016336441
         5.75513887405
         5.81064367294
         5.86668348312
         5.92326307297
         5.98038768768
         6.03806304932
         6.0962934494
         6.15508556366
         6.21444368362
         6.27437353134
         6.33488082886
         6.39597129822
         6.45765018463
         6.51992321014
         6.5827960968
         6.64627504349
         6.71036529541
         6.77507305145
         6.8404045105
         6.90636491776
         6.97296094894
         7.04019880295
         7.10808420181
         7.17662382126
         7.24582338333
         7.31569004059
         7.38622951508
         7.45744848251
         7.52935409546
         7.60195207596
         7.67524957657
         7.74925327301
         7.823969841
         7.89940643311
         7.97556972504
         8.05246639252
         8.13010406494
         8.2084903717
         8.28763103485
         8.36753463745
         8.44820785522
         8.52965831757
         8.61189365387
         8.69492053986
         8.77874851227
         8.86338329315
         8.94883346558
         9.03510761261
         9.12221240997
         9.21015548706
         9.29894733429
         9.38859367371
         9.47910404205
         9.57048606873
         9.66274929047
         9.755900383
         9.84994983673
         9.94490528107
         10.0407743454
         10.1375684738
         10.235294342
         10.3339614868
         10.4335803986
         10.534157753
         10.6357049942
         10.7382297516
         10.8417434692
         10.9462528229
         11.0517702103
         11.1583042145
         11.2658643723
         11.3744602203
         11.4841032028
         11.5948019028
         11.7065668106
         11.8194093704
         11.9333381653
         12.0483646393
         12.1645002365
         12.28175354
         12.4001379013
         12.5196619034
         12.6403369904
         12.76217556
         12.885187149
         13.0093841553
         13.1347780228
         13.2613801956
         13.3892011642
         13.5182542801
         13.6485500336
         13.7801017761
         13.9129209518
         14.0470190048
         14.1824092865
         14.3191041946
         14.457116127
         14.5964574814
         14.7371416092
         14.8791799545
         15.0225877762
         15.1673774719
         15.3135614395
         15.4611539841
         15.610168457
         15.7606182098
         15.9125175476
         16.0658798218
         16.2207202911
         16.3770542145
         16.5348911285
         16.6942501068
         16.8551445007
         17.0175895691
         17.1815986633
         17.3471889496
         17.5143737793
         17.6831684113
         17.8535900116
         18.0256538391
         18.1993751526
         18.3747711182
         18.5518550873
         18.7306461334
         18.9111595154
         19.0934104919
         19.2774200439
         19.4632015228
         19.6507720947
         19.8401489258
         20.0313510895
         20.224395752
         20.4193000793
         20.6160831451
         20.8147602081
         21.0153522491
         21.2178783417
         21.4223537445
         21.6287994385
         21.8372325897
         22.0476760864
         22.2601470947
         22.4746627808
         22.6912479401
         22.9099178314
         23.130695343
         23.3535995483
         23.5786514282
         23.8058700562
         24.0352783203
         24.2668991089
         24.500749588
         24.7368526459
         24.9752311707
         25.2159042358
         25.4588985443
         25.7042331696
         25.9519309998
         26.2020149231
         26.4545097351
         26.7094364166
         26.9668178558
         27.2266807556
         27.4890460968
         27.7539386749
         28.0213832855
         28.2914066315
         28.5640296936
         28.8392791748
         29.117181778
         29.3977603912
         29.6810417175
         29.9670524597
         30.2558193207
         30.5473690033
         30.8417263031
         31.1389198303
         31.4389762878
         31.7419242859
         32.0477905273
         32.3566055298
         32.6683921814
         32.9831848145
         33.3010101318
         33.6218948364
         33.9458732605
         34.2729721069
         34.603225708
         34.9366569519
         35.2733001709
         35.6131896973
         35.9563522339
         36.302822113
         36.6526260376
         37.0058059692
         37.3623847961
         37.7224006653
         38.0858802795
         38.4528656006
         38.823387146
         39.197479248
         39.5751724243
         39.9565048218
         40.3415107727
         40.7302284241
         41.1226882935
         41.5189323425
         41.9189910889
         42.3229064941
         42.7307090759
         43.1424446106
         43.5581474304
         43.9778518677
         44.401599884
         44.8294334412
         45.2613868713
         45.6975021362
         46.1378173828
         46.5823783875
         47.0312194824
         47.4843864441
         47.9419174194
         48.4038581848
         48.8702468872
         49.341129303
         49.8165512085
         50.2965507507
         50.7811737061
         51.2704696655
         51.7644767761
         52.2632446289
         52.7668151855
         53.2752380371
         53.7885627747
         54.3068275452
         54.8300895691
         55.3583908081
         55.891784668
         56.4303131104
