aces_1.0.0/config.ocio
ocio_profile_version: 1

search_path: luts
strictparsing: true
luma: [0.2126, 0.7152, 0.0722]

description: An ACES config generated from python

roles:
  color_picking: ACES2065-1
  color_timing: ACES2065-1
  compositing_log: ACES2065-1
  data: ACES2065-1
  default: ACES2065-1
  matte_paint: ACES2065-1
  reference: ACES2065-1
  scene_linear: ACES2065-1
  texture_paint: ACES2065-1

displays:
  DCDM:
    - !<View> {name: Output Transform, colorspace: DCDM}
    - !<View> {name: Linear, colorspace: ACES2065-1}
    - !<View> {name: Log, colorspace: ACEScc}
  DCDM (P3 gamut clip):
    - !<View> {name: Output Transform, colorspace: DCDM (P3 gamut clip)}
    - !<View> {name: Linear, colorspace: ACES2065-1}
    - !<View> {name: Log, colorspace: ACEScc}
  P3-D60:
    - !<View> {name: Output Transform, colorspace: P3-D60}
    - !<View> {name: Linear, colorspace: ACES2065-1}
    - !<View> {name: Log, colorspace: ACEScc}
  P3-D60 PQ (1000 nits):
    - !<View> {name: Output Transform, colorspace: P3-D60 PQ (1000 nits)}
    - !<View> {name: Linear, colorspace: ACES2065-1}
    - !<View> {name: Log, colorspace: ACEScc}
  P3-D60 PQ (2000 nits):
    - !<View> {name: Output Transform, colorspace: P3-D60 PQ (2000 nits)}
    - !<View> {name: Linear, colorspace: ACES2065-1}
    - !<View> {name: Log, colorspace: ACEScc}
  P3-D60 PQ (4000 nits):
    - !<View> {name: Output Transform, colorspace: P3-D60 PQ (4000 nits)}
    - !<View> {name: Linear, colorspace: ACES2065-1}
    - !<View> {name: Log, colorspace: ACEScc}
  P3-DCI:
    - !<View> {name: Output Transform, colorspace: P3-DCI}
    - !<View> {name: Linear, colorspace: ACES2065-1}
    - !<View> {name: Log, colorspace: ACEScc}
  Rec.2020 - Full:
    - !<View> {name: Output Transform, colorspace: Rec.2020 - Full}
    - !<View> {name: Linear, colorspace: ACES2065-1}
    - !<View> {name: Log, colorspace: ACEScc}
  Rec.2020 - Legal:
    - !<View> {name: Output Transform, colorspace: Rec.2020 - Legal}
    - !<View> {name: Linear, colorspace: ACES2065-1}
    - !<View> {name: Log, colorspace: ACEScc}
  Rec.709 (D60 sim.) - Full:
    - !<View> {name: Output Transform, colorspace: Rec.709 (D60 sim.) - Full}
    - !<View> {name: Linear, colorspace: ACES2065-1}
    - !<View> {name: Log, colorspace: ACEScc}
  Rec.709 (D60 sim.) - Legal:
    - !<View> {name: Output Transform, colorspace: Rec.709 (D60 sim.) - Legal}
    - !<View> {name: Linear, colorspace: ACES2065-1}
    - !<View> {name: Log, colorspace: ACEScc}
  Rec.709 - Full:
    - !<View> {name: Output Transform, colorspace: Rec.709 - Full}
    - !<View> {name: Linear, colorspace: ACES2065-1}
    - !<View> {name: Log, colorspace: ACEScc}
  Rec.709 - Legal:
    - !<View> {name: Output Transform, colorspace: Rec.709 - Legal}
    - !<View> {name: Linear, colorspace: ACES2065-1}
    - !<View> {name: Log, colorspace: ACEScc}
  sRGB (D60 sim.):
    - !<View> {name: Output Transform, colorspace: sRGB (D60 sim.)}
    - !<View> {name: Linear, colorspace: ACES2065-1}
    - !<View> {name: Log, colorspace: ACEScc}

active_displays: [DCDM, DCDM (P3 gamut clip), P3-D60, P3-D60 PQ (1000 nits), P3-D60 PQ (2000 nits), P3-D60 PQ (4000 nits), P3-DCI, Rec.2020 - Full, Rec.2020 - Legal, Rec.709 (D60 sim.) - Full, Rec.709 (D60 sim.) - Legal, Rec.709 - Full, Rec.709 - Legal, sRGB (D60 sim.)]
active_views: [Output Transform, Linear, Log]

colorspaces:
  - !<ColorSpace>
    name: ACES2065-1
    family: ACES
    equalitygroup: ""
    bitdepth: 32f
    description: |
      The Academy Color Encoding System reference color space
    isdata: false
    allocation: lg2
    allocationvars: [-8, 5, 0.00390625]

  - !<ColorSpace>
    name: lin_ap0
    family: Aliases
    equalitygroup: ""
    bitdepth: 32f
    description: |
      The Academy Color Encoding System reference color space
    isdata: false
    allocation: lg2
    allocationvars: [-8, 5, 0.00390625]
    to_reference: !<ColorSpaceTransform> {src: ACES2065-1, dst: ACES2065-1}
    from_reference: !<ColorSpaceTransform> {src: ACES2065-1, dst: ACES2065-1}

  - !<ColorSpace>
    name: aces
    family: Aliases
    equalitygroup: ""
    bitdepth: 32f
    description: |
      The Academy Color Encoding System reference color space
    isdata: false
    allocation: lg2
    allocationvars: [-8, 5, 0.00390625]
    to_reference: !<ColorSpaceTransform> {src: ACES2065-1, dst: ACES2065-1}
    from_reference: !<ColorSpaceTransform> {src: ACES2065-1, dst: ACES2065-1}

  - !<ColorSpace>
    name: ACEScc
    family: ACES
    equalitygroup: ""
    bitdepth: 32f
    description: |
      The ACEScc color space
    isdata: false
    allocation: uniform
    allocationvars: [-0.3584, 1.468]
    to_reference: !<GroupTransform>
      children:
        - !<FileTransform> {src: ACEScc_to_linear.spi1d, interpolation: linear}
        - !<MatrixTransform> {matrix: [0.695452, 0.140679, 0.163869, 0, 0.0447946, 0.859671, 0.0955343, 0, -0.00552588, 0.00402521, 1.0015, 0, 0, 0, 0, 1]}

  - !<ColorSpace>
    name: acescc_ap1
    family: Aliases
    equalitygroup: ""
    bitdepth: 32f
    description: |
      The ACEScc color space
    isdata: false
    allocation: uniform
    allocationvars: [-0.3584, 1.468]
    from_reference: !<ColorSpaceTransform> {src: ACES2065-1, dst: ACEScc}

  - !<ColorSpace>
    name: ACESproxy
    family: ACES
    equalitygroup: ""
    bitdepth: 32f
    description: |
      The ACESproxy color space
    isdata: false
    allocation: uniform
    allocationvars: [0, 1]
    to_reference: !<GroupTransform>
      children:
        - !<FileTransform> {src: ACESproxy_to_linear.spi1d, interpolation: linear}
        - !<MatrixTransform> {matrix: [0.695452, 0.140679, 0.163869, 0, 0.0447946, 0.859671, 0.0955343, 0, -0.00552588, 0.00402521, 1.0015, 0, 0, 0, 0, 1]}

  - !<ColorSpace>
    name: acesproxy_ap1
    family: Aliases
    equalitygroup: ""
    bitdepth: 32f
    description: |
      The ACESproxy color space
    isdata: false
    allocation: uniform
    allocationvars: [0, 1]
    from_reference: !<ColorSpaceTransform> {src: ACES2065-1, dst: ACESproxy}

  - !<ColorSpace>
    name: ACEScg
    family: ACES
    equalitygroup: ""
    bitdepth: 32f
    description: |
      The ACEScg color space
    isdata: false
    allocation: lg2
    allocationvars: [-8, 5, 0.00390625]
    to_reference: !<MatrixTransform> {matrix: [0.695452, 0.140679, 0.163869, 0, 0.0447946, 0.859671, 0.0955343, 0, -0.00552588, 0.00402521, 1.0015, 0, 0, 0, 0, 1]}

  - !<ColorSpace>
    name: lin_ap1
    family: Aliases
    equalitygroup: Linear - AP1
    bitdepth: 32f
    description: |
      The Linear - AP1 color space
    isdata: false
    allocation: lg2
    allocationvars: [-8, 5, 0.00390625]
    from_reference: !<ColorSpaceTransform> {src: ACES2065-1, dst: Linear - AP1}

  - !<ColorSpace>
    name: ADX10
    family: ADX
    equalitygroup: ""
    bitdepth: 10ui
    description: |
      ADX10 color space - used for film scans
    isdata: false
    allocation: uniform
    allocationvars: [0, 1]
    to_reference: !<GroupTransform>
      children:
        - !<MatrixTransform> {matrix: [2.046, 0, 0, 0, 0, 2.046, 0, 0, 0, 0, 2.046, 0, 0, 0, 0, 1], offset: [-0.19, -0.19, -0.19, 0]}
        - !<MatrixTransform> {matrix: [0.75573, 0.22197, 0.0223, 0, 0.05901, 0.96928, -0.02829, 0, 0.16134, 0.07406, 0.7646, 0, 0, 0, 0, 1]}
        - !<FileTransform> {src: ADX_CID_to_RLE.spi1d, interpolation: linear}
        - !<LogTransform> {base: 10, direction: inverse}
        - !<MatrixTransform> {matrix: [0.72286, 0.1263, 0.15084, 0, 0.11923, 0.76418, 0.11659, 0, 0.01427, 0.08213, 0.90359, 0, 0, 0, 0, 1]}

  - !<ColorSpace>
    name: ADX16
    family: ADX
    equalitygroup: ""
    bitdepth: 16ui
    description: |
      ADX16 color space - used for film scans
    isdata: false
    allocation: uniform
    allocationvars: [0, 1]
    to_reference: !<GroupTransform>
      children:
        - !<MatrixTransform> {matrix: [8.19188, 0, 0, 0, 0, 8.19188, 0, 0, 0, 0, 8.19188, 0, 0, 0, 0, 1], offset: [-0.19, -0.19, -0.19, 0]}
        - !<MatrixTransform> {matrix: [0.75573, 0.22197, 0.0223, 0, 0.05901, 0.96928, -0.02829, 0, 0.16134, 0.07406, 0.7646, 0, 0, 0, 0, 1]}
        - !<FileTransform> {src: ADX_CID_to_RLE.spi1d, interpolation: linear}
        - !<LogTransform> {base: 10, direction: inverse}
        - !<MatrixTransform> {matrix: [0.72286, 0.1263, 0.15084, 0, 0.11923, 0.76418, 0.11659, 0, 0.01427, 0.08213, 0.90359, 0, 0, 0, 0, 1]}

  - !<ColorSpace>
    name: LMT Shaper
    family: Utility
    equalitygroup: LMT Shaper
    bitdepth: 32f
    description: |
      The LMT Shaper color space
    isdata: false
    allocation: uniform
    allocationvars: [0, 1]
    to_reference: !<FileTransform> {src: LMT_Shaper_to_linear.spi1d, interpolation: linear}

  - !<ColorSpace>
    name: crv_lmtshaper
    family: Aliases
    equalitygroup: LMT Shaper
    bitdepth: 32f
    description: |
      The LMT Shaper color space
    isdata: false
    allocation: uniform
    allocationvars: [0, 1]
    from_reference: !<ColorSpaceTransform> {src: ACES2065-1, dst: LMT Shaper}

  - !<ColorSpace>
    name: Output Shaper
    family: Utility
    equalitygroup: Output Shaper
    bitdepth: 32f
    description: |
      The Output Shaper color space
    isdata: false
    allocation: uniform
    allocationvars: [0, 1]
    to_reference: !<FileTransform> {src: Output_Shaper_to_linear.spi1d, interpolation: linear}

  - !<ColorSpace>
    name: crv_outputshaper
    family: Aliases
    equalitygroup: Output Shaper
    bitdepth: 32f
    description: |
      The Output Shaper color space
    isdata: false
    allocation: uniform
    allocationvars: [0, 1]
    from_reference: !<ColorSpaceTransform> {src: ACES2065-1, dst: Output Shaper}

  - !<ColorSpace>
    name: ACES 1.0 to 0.1 emulation
    family: Look
    equalitygroup: ""
    bitdepth: 32f
    description: |
      The ACES Look Transform: ACES 1.0 to 0.1 emulation
    isdata: false
    allocation: lg2
    allocationvars: [-8, 5, 0.00390625]
    from_reference: !<GroupTransform>
      children:
        - !<FileTransform> {src: LMT_Shaper_to_linear.spi1d, interpolation: linear, direction: inverse}
        - !<FileTransform> {src: LMT_Shaper.ACES_1.0_to_0.1_emulation.spi3d, interpolation: tetrahedral}

  - !<ColorSpace>
    name: look_aces10to01emulation
    family: Aliases
    equalitygroup: ""
    bitdepth: 32f
    description: |
      The ACES Look Transform: ACES 1.0 to 0.1 emulation
    isdata: false
    allocation: lg2
    allocationvars: [-8, 5, 0.00390625]
    to_reference: !<ColorSpaceTransform> {src: ACES 1.0 to 0.1 emulation, dst: ACES2065-1}

  - !<ColorSpace>
    name: ACES 1.0 to 0.2 emulation
    family: Look
    equalitygroup: ""
    bitdepth: 32f
    description: |
      The ACES Look Transform: ACES 1.0 to 0.2 emulation
    isdata: false
    allocation: lg2
    allocationvars: [-8, 5, 0.00390625]
    from_reference: !<GroupTransform>
      children:
        - !<FileTransform> {src: LMT_Shaper_to_linear.spi1d, interpolation: linear, direction: inverse}
        - !<FileTransform> {src: LMT_Shaper.ACES_1.0_to_0.2_emulation.spi3d, interpolation: tetrahedral}

  - !<ColorSpace>
    name: look_aces10to02emulation
    family: Aliases
    equalitygroup: ""
    bitdepth: 32f
    description: |
      The ACES Look Transform: ACES 1.0 to 0.2 emulation
    isdata: false
    allocation: lg2
    allocationvars: [-8, 5, 0.00390625]
    to_reference: !<ColorSpaceTransform> {src: ACES 1.0 to 0.2 emulation, dst: ACES2065-1}

  - !<ColorSpace>
    name: ACES 1.0 to 0.7 emulation
    family: Look
    equalitygroup: ""
    bitdepth: 32f
    description: |
      The ACES Look Transform: ACES 1.0 to 0.7 emulation
    isdata: false
    allocation: lg2
    allocationvars: [-8, 5, 0.00390625]
    from_reference: !<GroupTransform>
      children:
        - !<FileTransform> {src: LMT_Shaper_to_linear.spi1d, interpolation: linear, direction: inverse}
        - !<FileTransform> {src: LMT_Shaper.ACES_1.0_to_0.7_emulation.spi3d, interpolation: tetrahedral}

  - !<ColorSpace>
    name: look_aces10to07emulation
    family: Aliases
    equalitygroup: ""
    bitdepth: 32f
    description: |
      The ACES Look Transform: ACES 1.0 to 0.7 emulation
    isdata: false
    allocation: lg2
    allocationvars: [-8, 5, 0.00390625]
    to_reference: !<ColorSpaceTransform> {src: ACES 1.0 to 0.7 emulation, dst: ACES2065-1}

  - !<ColorSpace>
    name: Output Shaper - AP1
    family: Utility
    equalitygroup: Output Shaper
    bitdepth: 32f
    description: |
      The Output Shaper color space
    isdata: false
    allocation: uniform
    allocationvars: [0, 1]
    to_reference: !<GroupTransform>
      children:
        - !<FileTransform> {src: Output_Shaper_to_linear.spi1d, interpolation: linear}
        - !<MatrixTransform> {matrix: [0.695452, 0.140679, 0.163869, 0, 0.0447946, 0.859671, 0.0955343, 0, -0.00552588, 0.00402521, 1.0015, 0, 0, 0, 0, 1]}

  - !<ColorSpace>
    name: outputshaper_ap1
    family: Aliases
    equalitygroup: Output Shaper
    bitdepth: 32f
    description: |
      The Output Shaper color space
    isdata: false
    allocation: uniform
    allocationvars: [0, 1]
    from_reference: !<ColorSpaceTransform> {src: ACES2065-1, dst: Output Shaper - AP1}

  - !<ColorSpace>
    name: Linear - Wide Gamut
    family: ARRI
    equalitygroup: ""
    bitdepth: 32f
    description: |
      Linear - Wide Gamut
    isdata: false
    allocation: lg2
    allocationvars: [-8, 5, 0.00390625]
    to_reference: !<MatrixTransform> {matrix: [0.680206, 0.236137, 0.083658, 0, 0.085415, 1.01747, -0.102886, 0, 0.002057, -0.062563, 1.06051, 0, 0, 0, 0, 1]}

  - !<ColorSpace>
    name: lin_arriwide
    family: Aliases
    equalitygroup: ""
    bitdepth: 32f
    description: |
      Linear - Wide Gamut
    isdata: false
    allocation: lg2
    allocationvars: [-8, 5, 0.00390625]
    from_reference: !<ColorSpaceTransform> {src: ACES2065-1, dst: Linear - Wide Gamut}

  - !<ColorSpace>
    name: DCDM (P3 gamut clip)
    family: Output
    equalitygroup: ""
    bitdepth: 32f
    description: |
      ACES 1.0 Output - DCDM (P3 gamut clip) Output Transform
    isdata: false
    allocation: uniform
    allocationvars: [0, 1]
    from_reference: !<GroupTransform>
      children:
        - !<FileTransform> {src: Output_Shaper_to_linear.spi1d, interpolation: linear, direction: inverse}
        - !<FileTransform> {src: Output_Shaper.RRT.a1.0.0.DCDM__P3_gamut_clip_.spi3d, interpolation: tetrahedral}

  - !<ColorSpace>
    name: out_dcdmp3gamutclip
    family: Aliases
    equalitygroup: ""
    bitdepth: 32f
    description: |
      ACES 1.0 Output - DCDM (P3 gamut clip) Output Transform
    isdata: false
    allocation: uniform
    allocationvars: [0, 1]
    to_reference: !<ColorSpaceTransform> {src: DCDM (P3 gamut clip), dst: ACES2065-1}

  - !<ColorSpace>
    name: DCDM
    family: Output
    equalitygroup: ""
    bitdepth: 32f
    description: |
      ACES 1.0 Output - DCDM Output Transform
    isdata: false
    allocation: uniform
    allocationvars: [0, 1]
    to_reference: !<GroupTransform>
      children:
        - !<FileTransform> {src: InvRRT.a1.0.0.DCDM.Output_Shaper.spi3d, interpolation: tetrahedral}
        - !<FileTransform> {src: Output_Shaper_to_linear.spi1d, interpolation: linear}
    from_reference: !<GroupTransform>
      children:
        - !<FileTransform> {src: Output_Shaper_to_linear.spi1d, interpolation: linear, direction: inverse}
        - !<FileTransform> {src: Output_Shaper.RRT.a1.0.0.DCDM.spi3d, interpolation: tetrahedral}

  - !<ColorSpace>
    name: out_dcdm
    family: Aliases
    equalitygroup: ""
    bitdepth: 32f
    description: |
      ACES 1.0 Output - DCDM Output Transform
    isdata: false
    allocation: uniform
    allocationvars: [0, 1]

  - !<ColorSpace>
    name: Rec.2020 - Full
    family: Output
    equalitygroup: ""
    bitdepth: 32f
    description: |
      ACES 1.0 Output - Rec.2020 - Full Output Transform
    isdata: false
    allocation: uniform
    allocationvars: [0, 1]
    to_reference: !<GroupTransform>
      children:
        - !<FileTransform> {src: InvRRT.a1.0.0.Rec.2020_-_Full.Output_Shaper.spi3d, interpolation: tetrahedral}
        - !<FileTransform> {src: Output_Shaper_to_linear.spi1d, interpolation: linear}
    from_reference: !<GroupTransform>
      children:
        - !<FileTransform> {src: Output_Shaper_to_linear.spi1d, interpolation: linear, direction: inverse}
        - !<FileTransform> {src: Output_Shaper.RRT.a1.0.0.Rec.2020_-_Full.spi3d, interpolation: tetrahedral}

  - !<ColorSpace>
    name: out_rec2020full
    family: Aliases
    equalitygroup: ""
    bitdepth: 32f
    description: |
      ACES 1.0 Output - Rec.2020 - Full Output Transform
    isdata: false
    allocation: uniform
    allocationvars: [0, 1]

  - !<ColorSpace>
    name: P3-D60 PQ (1000 nits)
    family: Output
    equalitygroup: ""
    bitdepth: 32f
    description: |
      ACES 1.0 Output - P3-D60 PQ (1000 nits) Output Transform
    isdata: false
    allocation: uniform
    allocationvars: [0, 1]
    to_reference: !<GroupTransform>
      children:
        - !<FileTransform> {src: InvRRT.a1.0.0.P3-D60_PQ__1000_nits_.Output_Shaper.spi3d, interpolation: tetrahedral}
        - !<FileTransform> {src: Output_Shaper_to_linear.spi1d, interpolation: linear}
    from_reference: !<GroupTransform>
      children:
        - !<FileTransform> {src: Output_Shaper_to_linear.spi1d, interpolation: linear, direction: inverse}
        - !<FileTransform> {src: Output_Shaper.RRT.a1.0.0.P3-D60_PQ__1000_nits_.spi3d, interpolation: tetrahedral}

  - !<ColorSpace>
    name: out_p3d60pq1000nits
    family: Aliases
    equalitygroup: ""
    bitdepth: 32f
    description: |
      ACES 1.0 Output - P3-D60 PQ (1000 nits) Output Transform
    isdata: false
    allocation: uniform
    allocationvars: [0, 1]

  - !<ColorSpace>
    name: P3-D60 PQ (2000 nits)
    family: Output
    equalitygroup: ""
    bitdepth: 32f
    description: |
      ACES 1.0 Output - P3-D60 PQ (2000 nits) Output Transform
    isdata: false
    allocation: uniform
    allocationvars: [0, 1]
    to_reference: !<GroupTransform>
      children:
        - !<FileTransform> {src: InvRRT.a1.0.0.P3-D60_PQ__2000_nits_.Output_Shaper.spi3d, interpolation: tetrahedral}
        - !<FileTransform> {src: Output_Shaper_to_linear.spi1d, interpolation: linear}
    from_reference: !<GroupTransform>
      children:
        - !<FileTransform> {src: Output_Shaper_to_linear.spi1d, interpolation: linear, direction: inverse}
        - !<FileTransform> {src: Output_Shaper.RRT.a1.0.0.P3-D60_PQ__2000_nits_.spi3d, interpolation: tetrahedral}

  - !<ColorSpace>
    name: out_p3d60pq2000nits
    family: Aliases
    equalitygroup: ""
    bitdepth: 32f
    description: |
      ACES 1.0 Output - P3-D60 PQ (2000 nits) Output Transform
    isdata: false
    allocation: uniform
    allocationvars: [0, 1]

  - !<ColorSpace>
    name: P3-D60
    family: Output
    equalitygroup: ""
    bitdepth: 32f
    description: |
      ACES 1.0 Output - P3-D60 Output Transform
    isdata: false
    allocation: uniform
    allocationvars: [0, 1]
    to_reference: !<GroupTransform>
      children:
        - !<FileTransform> {src: InvRRT.a1.0.0.P3-D60.Output_Shaper.spi3d, interpolation: tetrahedral}
        - !<FileTransform> {src: Output_Shaper_to_linear.spi1d, interpolation: linear}
    from_reference: !<GroupTransform>
      children:
        - !<FileTransform> {src: Output_Shaper_to_linear.spi1d, interpolation: linear, direction: inverse}
        - !<FileTransform> {src: Output_Shaper.RRT.a1.0.0.P3-D60.spi3d, interpolation: tetrahedral}

  - !<ColorSpace>
    name: out_p3d60
    family: Aliases
    equalitygroup: ""
    bitdepth: 32f
    description: |
      ACES 1.0 Output - P3-D60 Output Transform
    isdata: false
    allocation: uniform
    allocationvars: [0, 1]

  - !<ColorSpace>
    name: P3-D60 PQ (4000 nits)
    family: Output
    equalitygroup: ""
    bitdepth: 32f
    description: |
      ACES 1.0 Output - P3-D60 PQ (4000 nits) Output Transform
    isdata: false
    allocation: uniform
    allocationvars: [0, 1]
    to_reference: !<GroupTransform>
      children:
        - !<FileTransform> {src: InvRRT.a1.0.0.P3-D60_PQ__4000_nits_.Output_Shaper.spi3d, interpolation: tetrahedral}
        - !<FileTransform> {src: Output_Shaper_to_linear.spi1d, interpolation: linear}
    from_reference: !<GroupTransform>
      children:
        - !<FileTransform> {src: Output_Shaper_to_linear.spi1d, interpolation: linear, direction: inverse}
        - !<FileTransform> {src: Output_Shaper.RRT.a1.0.0.P3-D60_PQ__4000_nits_.spi3d, interpolation: tetrahedral}

  - !<ColorSpace>
    name: out_p3d60pq4000nits
    family: Aliases
    equalitygroup: ""
    bitdepth: 32f
    description: |
      ACES 1.0 Output - P3-D60 PQ (4000 nits) Output Transform
    isdata: false
    allocation: uniform
    allocationvars: [0, 1]

  - !<ColorSpace>
    name: P3-DCI
    family: Output
    equalitygroup: ""
    bitdepth: 32f
    description: |
      ACES 1.0 Output - P3-DCI Output Transform
    isdata: false
    allocation: uniform
    allocationvars: [0, 1]
    to_reference: !<GroupTransform>
      children:
        - !<FileTransform> {src: InvRRT.a1.0.0.P3-DCI.Output_Shaper.spi3d, interpolation: tetrahedral}
        - !<FileTransform> {src: Output_Shaper_to_linear.spi1d, interpolation: linear}
    from_reference: !<GroupTransform>
      children:
        - !<FileTransform> {src: Output_Shaper_to_linear.spi1d, interpolation: linear, direction: inverse}
        - !<FileTransform> {src: Output_Shaper.RRT.a1.0.0.P3-DCI.spi3d, interpolation: tetrahedral}

  - !<ColorSpace>
    name: out_p3dci
    family: Aliases
    equalitygroup: ""
    bitdepth: 32f
    description: |
      ACES 1.0 Output - P3-DCI Output Transform
    isdata: false
    allocation: uniform
    allocationvars: [0, 1]

  - !<ColorSpace>
    name: Rec.2020 - Legal
    family: Output
    equalitygroup: ""
    bitdepth: 32f
    description: |
      ACES 1.0 Output - Rec.2020 - Legal Output Transform
    isdata: false
    allocation: uniform
    allocationvars: [0, 1]
    to_reference: !<GroupTransform>
      children:
        - !<FileTransform> {src: InvRRT.a1.0.0.Rec.2020_-_Legal.Output_Shaper.spi3d, interpolation: tetrahedral}
        - !<FileTransform> {src: Output_Shaper_to_linear.spi1d, interpolation: linear}
    from_reference: !<GroupTransform>
      children:
        - !<FileTransform> {src: Output_Shaper_to_linear.spi1d, interpolation: linear, direction: inverse}
        - !<FileTransform> {src: Output_Shaper.RRT.a1.0.0.Rec.2020_-_Legal.spi3d, interpolation: tetrahedral}

  - !<ColorSpace>
    name: out_rec2020legal
    family: Aliases
    equalitygroup: ""
    bitdepth: 32f
    description: |
      ACES 1.0 Output - Rec.2020 - Legal Output Transform
    isdata: false
    allocation: uniform
    allocationvars: [0, 1]

  - !<ColorSpace>
    name: Rec.709 - Legal
    family: Output
    equalitygroup: ""
    bitdepth: 32f
    description: |
      ACES 1.0 Output - Rec.709 - Legal Output Transform
    isdata: false
    allocation: uniform
    allocationvars: [0, 1]
    to_reference: !<GroupTransform>
      children:
        - !<FileTransform> {src: InvRRT.a1.0.0.Rec.709_-_Legal.Output_Shaper.spi3d, interpolation: tetrahedral}
        - !<FileTransform> {src: Output_Shaper_to_linear.spi1d, interpolation: linear}
    from_reference: !<GroupTransform>
      children:
        - !<FileTransform> {src: Output_Shaper_to_linear.spi1d, interpolation: linear, direction: inverse}
        - !<FileTransform> {src: Output_Shaper.RRT.a1.0.0.Rec.709_-_Legal.spi3d, interpolation: tetrahedral}

  - !<ColorSpace>
    name: out_rec709legal
    family: Aliases
    equalitygroup: ""
    bitdepth: 32f
    description: |
      ACES 1.0 Output - Rec.709 - Legal Output Transform
    isdata: false
    allocation: uniform
    allocationvars: [0, 1]

  - !<ColorSpace>
    name: Rec.709 - Full
    family: Output
