aces_1.0.1/luts/ACESproxy_to_linear.spi1d
Version 1
From 0.000000 1.000000
Length 1024
Components 1
{
         0.00048828125
         0.000495097483508
         0.000502008828335
         0.000509016681463
         0.00051612209063
         0.000523327151313
         0.000530632212758
         0.000538039719686
         0.000545550254174
         0.00055316608632
         0.000560887798201
         0.000568717718124
         0.000576656486373
         0.000584706431255
         0.000592868484091
         0.000601144798566
         0.000609536189586
         0.000618045218289
         0.000626672757789
         0.000635420903563
         0.000644290819764
         0.000653284951113
         0.000662404287141
         0.000671651388984
         0.00068102707155
         0.000690533895977
         0.000700173666701
         0.000709947489668
         0.000719857809599
         0.000729906896595
         0.000740096205845
         0.000750427192543
         0.000760902534239
         0.000771524617448
         0.000782294897363
         0.000793215062004
         0.000804287614301
         0.000815515290014
         0.000826899893582
         0.000838443229441
         0.000850147160236
         0.000862014654558
         0.000874048098922
         0.000886249472387
         0.000898620928638
         0.000911164912395
         0.000923884566873
         0.000936781754717
         0.000949858454987
         0.000963117578067
         0.0009765625
         0.000990194967017
         0.00100401765667
         0.00101803266443
         0.00103224418126
         0.00104665430263
         0.00106126442552
         0.00107607862446
         0.00109110050835
         0.00110633217264
         0.0011217755964
         0.00113743462134
         0.00115331297275
         0.00116941286251
         0.00118573778309
         0.00120228959713
         0.00121907237917
         0.00123609043658
         0.00125334621407
         0.00127084180713
         0.00128858163953
         0.00130656990223
         0.00132480938919
         0.00134330277797
         0.0013620541431
         0.00138106779195
         0.0014003473334
         0.00141989497934
         0.0014397156192
         0.00145981379319
         0.00148019241169
         0.00150085438509
         0.00152180506848
         0.0015430492349
         0.00156458979473
         0.00158643012401
         0.0016085752286
         0.00163103058003
         0.00165379978716
         0.00167688645888
         0.00170029432047
         0.00172402930912
         0.00174809619784
         0.00177249894477
         0.00179724185728
         0.00182232982479
         0.00184776913375
         0.00187356350943
         0.00189971690997
         0.00192623515613
         0.001953125
         0.00198038993403
         0.00200803531334
         0.00203606532887
         0.00206448836252
         0.00209330860525
         0.00212252885103
         0.00215215724893
         0.00218220101669
         0.00221266434528
         0.00224355119281
         0.00227486924268
         0.00230662594549
         0.00233882572502
         0.00237147556618
         0.00240457919426
         0.00243814475834
         0.00247218087316
         0.00250669242814
         0.00254168361425
         0.00257716327906
         0.00261313980445
         0.00264961877838
         0.00268660555594
         0.0027241082862
         0.00276213558391
         0.0028006946668
         0.00283978995867
         0.0028794312384
         0.00291962758638
         0.00296038482338
         0.00300170877017
         0.00304361013696
         0.00308609846979
         0.00312917958945
         0.00317286024801
         0.0032171504572
         0.00326206116006
         0.00330759957433
         0.00335377291776
         0.00340058864094
         0.00344805861823
         0.00349619239569
         0.00354499788955
         0.00359448371455
         0.00364465964958
         0.00369553826749
         0.00374712701887
         0.00379943381995
         0.00385247031227
         0.00390625
         0.00396077940241
         0.00401607062668
         0.00407213158906
         0.00412897672504
         0.00418661441654
         0.00424505770206
         0.0043043163605
         0.00436440203339
         0.00442532682791
         0.00448710238561
         0.00454973941669
         0.00461325189099
         0.00467765145004
         0.00474294880405
         0.00480915838853
         0.00487629137933
         0.00494436174631
         0.00501338252798
         0.00508336722851
         0.00515432842076
         0.00522627960891
         0.00529923615977
         0.00537321111187
         0.00544821703807
         0.00552427116781
         0.00560138793662
         0.00567957991734
         0.00575886387378
         0.00583925517276
         0.0059207668528
         0.00600341754034
         0.00608722213656
         0.00617219693959
         0.00625835731626
         0.00634572049603
         0.00643430417404
         0.00652412232012
         0.00661519914865
         0.00670754350722
         0.00680117728189
         0.00689611863345
         0.00699238479137
         0.00708999391645
         0.0071889674291
         0.00728932069615
         0.00739107653499
         0.00749425124377
         0.0075988676399
         0.0077049434185
         0.0078125
         0.00792155880481
         0.00803214125335
         0.00814426317811
         0.00825795345008
         0.00837322883308
         0.00849011540413
         0.00860863272101
         0.00872880406678
         0.00885065365583
         0.00897420477122
         0.00909947883338
         0.00922650378197
         0.00935530290008
         0.0094858976081
         0.00961831677705
         0.00975258275867
         0.00988872349262
         0.010026765056
         0.010166734457
         0.0103086568415
         0.0104525592178
         0.0105984723195
         0.0107464222237
         0.0108964340761
         0.0110485423356
         0.0112027758732
         0.0113591598347
         0.0115177277476
         0.0116785103455
         0.0118415337056
         0.0120068350807
         0.0121744517237
         0.0123443938792
         0.0125167183578
         0.0126914409921
         0.0128686130047
         0.0130482446402
         0.0132303982973
         0.0134150842205
         0.0136023545638
         0.0137922344729
         0.0139847695827
         0.0141799841076
         0.0143779348582
         0.0145786413923
         0.01478215307
         0.0149885024875
         0.0151977352798
         0.015409886837
         0.015625
         0.0158431176096
         0.0160642825067
         0.0162885263562
         0.0165159069002
         0.0167464576662
         0.0169802308083
         0.0172172710299
         0.0174576081336
         0.0177013147622
         0.0179484095424
         0.01819896698
         0.0184530075639
         0.0187106058002
         0.0189717914909
         0.0192366335541
         0.0195051580667
         0.0197774469852
         0.0200535282493
         0.020333468914
         0.020617313683
         0.0209051184356
         0.0211969446391
         0.0214928444475
         0.0217928681523
         0.0220970846713
         0.0224055517465
         0.0227183196694
         0.0230354554951
         0.023357020691
         0.0236830674112
         0.0240136701614
         0.0243489034474
         0.0246887877584
         0.0250334367156
         0.0253828819841
         0.0257372260094
         0.0260964892805
         0.0264607965946
         0.0268301684409
         0.0272047091275
         0.0275844689459
         0.0279695391655
         0.0283599682152
         0.0287558697164
         0.0291572827846
         0.0295643061399
         0.0299770049751
         0.0303954705596
         0.030819773674
         0.03125
         0.0316862352192
         0.0321285650134
         0.0325770527124
         0.0330318138003
         0.0334929153323
         0.0339604616165
         0.0344345420599
         0.0349152162671
         0.0354026295245
         0.0358968190849
         0.03639793396
         0.0369060151279
         0.0374212116003
         0.0379435829818
         0.0384732671082
         0.0390103161335
         0.0395548939705
         0.0401070564985
         0.0406669378281
         0.0412346273661
         0.0418102368712
         0.0423938892782
         0.042985688895
         0.0435857363045
         0.0441941693425
         0.044811103493
         0.0454366393387
         0.0460709109902
         0.0467140413821
         0.0473661348224
         0.0480273403227
         0.0486977770925
         0.0493775755167
         0.05006685853
         0.0507657639682
         0.0514744520187
         0.0521929785609
         0.0529215931892
         0.0536603368819
         0.0544094182551
         0.0551689490676
         0.055939078331
         0.0567199513316
         0.0575117394328
         0.0583145655692
         0.0591286122799
         0.0599540099502
         0.0607909411192
         0.061639547348
         0.0625
         0.0633724704385
         0.0642571300268
         0.0651541054249
         0.0660636276007
         0.0669858306646
         0.067920923233
         0.0688690617681
         0.0698304325342
         0.0708052292466
         0.0717936605215
         0.0727958530188
         0.073812045157
         0.07484241575
         0.075887195766
         0.0769465193152
         0.0780206620693
         0.079109787941
         0.0802141204476
         0.0813338756561
         0.0824692547321
         0.0836204737425
         0.0847877785563
         0.08597137779
         0.087171472609
         0.088388338685
         0.089622206986
         0.0908732786775
         0.0921418219805
         0.0934280827641
         0.0947322696447
         0.0960546806455
         0.0973955541849
         0.0987551659346
         0.100133746862
         0.101531565189
         0.102948874235
         0.104385972023
         0.105843156576
         0.107320666313
         0.108818806708
         0.110337860882
         0.11187812686
         0.113439902663
         0.115023478866
         0.116629131138
         0.11825722456
         0.1199080199
         0.121581882238
         0.123279094696
         0.125
         0.126744940877
         0.128514260054
         0.13030821085
         0.132127255201
         0.133971661329
         0.135841846466
         0.137738123536
         0.13966087997
         0.141610488296
         0.143587321043
         0.145591706038
         0.147624090314
         0.1496848315
         0.151774391532
         0.15389303863
         0.15604133904
         0.158219575882
         0.160428225994
         0.162667751312
         0.164938509464
         0.167240947485
         0.169575557113
         0.17194275558
         0.174342945218
         0.17677667737
         0.179244413972
         0.181746557355
         0.184283643961
         0.186856165528
         0.189464539289
         0.192109361291
         0.194791138172
         0.197510331869
         0.200267493725
         0.203063130379
         0.20589774847
         0.208771944046
         0.211686313152
         0.214641332626
         0.217637613416
         0.220675721765
         0.223756253719
         0.226879805326
         0.230046957731
         0.233258262277
         0.23651444912
         0.239816039801
         0.243163764477
         0.246558189392
         0.25
         0.253489881754
         0.257028520107
         0.2606164217
         0.264254510403
         0.267943412066
         0.271683722734
         0.275476276875
         0.279321759939
         0.283220976591
         0.287174642086
         0.291183412075
         0.295248180628
         0.299369663
         0.303548783064
         0.307786077261
         0.31208267808
         0.316439151764
         0.320856481791
         0.325335502625
         0.329877018929
         0.33448189497
         0.339151114225
         0.34388551116
         0.348685890436
         0.35355335474
         0.358488827944
         0.36349311471
         0.368567287922
         0.373712390661
         0.378929078579
         0.384218782187
         0.389582276344
         0.395020663738
         0.400534927845
         0.406126260757
         0.411795496941
         0.417543888092
         0.423372626305
         0.429282665253
         0.435275226831
         0.441351473331
         0.447512567043
         0.453759610653
         0.460093796253
         0.466516554356
         0.473028898239
         0.479632079601
         0.486327528954
         0.493116378784
         0.5
         0.506979763508
         0.514057040215
         0.521232843399
         0.528509020805
         0.535886824131
         0.543367445469
         0.550952553749
         0.558643519878
         0.566441833973
         0.574349284172
         0.58236682415
         0.590496361256
         0.598739326
         0.607097566128
         0.615572154522
         0.624165415764
         0.632878303528
         0.641712963581
         0.650671005249
         0.659754037857
         0.668963849545
         0.678302228451
         0.68777102232
         0.697371780872
         0.70710670948
         0.716977655888
         0.72698622942
         0.737134575844
         0.747424662113
         0.757858157158
         0.768437445164
         0.779164552689
         0.790041327477
         0.801069974899
         0.812252521515
         0.823590993881
         0.835087776184
         0.846745252609
         0.858565330505
         0.870550453663
         0.882702887058
         0.895025014877
         0.907519102097
         0.920187830925
         0.933033049107
         0.946057796478
         0.959264159203
         0.972655057907
         0.986232757568
         1.0
         1.01395952702
         1.02811408043
         1.0424656868
         1.05701804161
         1.07177329063
         1.08673477173
         1.10190534592
         1.11728703976
         1.13288390636
         1.14869856834
         1.1647336483
         1.18099272251
         1.197478652
         1.21419513226
         1.23114430904
         1.24833071232
         1.26575660706
         1.28342580795
         1.3013420105
         1.31950807571
         1.33792757988
         1.3566044569
         1.37554204464
         1.39474356174
         1.41421341896
         1.43395531178
         1.45397245884
         1.47426915169
         1.49484932423
         1.51571631432
         1.53687489033
         1.55832910538
         1.58008265495
         1.6021399498
         1.62450504303
         1.64718198776
         1.67017555237
         1.69349050522
         1.71713066101
         1.74110090733
         1.76540577412
         1.79005002975
         1.81503820419
         1.84037566185
         1.86606609821
         1.89211559296
         1.91852831841
         1.94531011581
         1.97246551514
         2.0
         2.02791905403
         2.05622816086
         2.0849313736
         2.11403608322
         2.14354658127
         2.17346954346
         2.20381069183
         2.23457407951
         2.26576781273
         2.29739713669
         2.3294672966
         2.36198544502
         2.394957304
         2.42839026451
         2.46228861809
         2.49666142464
         2.53151321411
         2.56685161591
         2.602684021
         2.63901615143
         2.67585515976
         2.7132089138
         2.75108408928
         2.78948712349
         2.82842683792
         2.86791062355
         2.90794491768
         2.94853830338
         2.98969864845
         3.03143262863
         3.07374978065
         3.11665773392
         3.16016483307
         3.20427894592
         3.24900889397
         3.29436373711
         3.3403506279
         3.38698196411
         3.4342622757
         3.48220276833
         3.53081274033
         3.58010101318
         3.63007688522
         3.6807513237
         3.73213219643
         3.78423118591
         3.83705663681
         3.89062023163
         3.94493103027
         4.0
         4.05583810806
         4.11245632172
         4.16986274719
         4.22807216644
         4.28709316254
         4.34693908691
         4.40761995316
         4.46914768219
         4.53153467178
         4.59479284286
         4.65893316269
         4.72396993637
         4.78991508484
         4.85677957535
         4.92457818985
         4.99332237244
         5.06302642822
         5.13370370865
         5.20536804199
         5.27803230286
         5.35171031952
         5.42641782761
         5.50216817856
         5.57897424698
         5.65685367584
         5.7358212471
         5.81588983536
         5.89707660675
         5.97939729691
         6.06286525726
         6.14749956131
         6.23331546783
         6.32032966614
         6.40855789185
         6.49801778793
         6.58872747421
         6.6807012558
         6.77396392822
         6.86852455139
         6.96440553665
         7.06162548065
         7.16020202637
         7.26015377045
         7.3615026474
         7.46426439285
         7.56846237183
         7.67411327362
         7.78124046326
         7.88986206055
         8.0
         8.11167621613
         8.22491264343
         8.33972549438
         8.45614433289
         8.57418632507
         8.69387817383
         8.81523990631
         8.93829536438
         9.06306934357
         9.18958568573
         9.31786632538
         9.44793987274
         9.57983016968
         9.7135591507
         9.8491563797
         9.98664474487
         10.1260528564
         10.2674074173
         10.410736084
         10.5560646057
         10.703420639
         10.8528356552
         11.0043363571
         11.157948494
         11.3137073517
         11.4716424942
         11.6317796707
         11.7941532135
         11.9587945938
         12.1257305145
         12.2949991226
         12.4666309357
         12.6406593323
         12.8171157837
         12.9960355759
         13.1774549484
         13.3614025116
         13.5479278564
         13.7370491028
         13.9288110733
         14.1232509613
         14.3204040527
         14.5203075409
         14.7230052948
         14.9285287857
         15.1369247437
         15.3482265472
         15.5624809265
         15.7797241211
         16.0
         16.2233524323
         16.4498252869
         16.6794509888
         16.9122886658
         17.1483726501
         17.3877563477
         17.6304798126
         17.8765907288
         18.1261386871
         18.3791713715
         18.6357326508
         18.8958797455
         19.1596603394
         19.4271183014
         19.6983127594
         19.9732894897
         20.2521057129
         20.5348148346
         20.821472168
         21.1121292114
         21.4068412781
         21.7056713104
         22.0086727142
         22.3158969879
         22.6274147034
         22.9432849884
         23.2635593414
         23.588306427
         23.9175891876
         24.2514610291
         24.5899982452
         24.9332618713
         25.2813186646
         25.6342315674
         25.9920711517
         26.3549098969
         26.7228050232
         27.0958557129
         27.4740982056
         27.8576221466
         28.2465019226
         28.6408081055
         29.0406150818
         29.4460105896
         29.8570575714
         30.2738494873
         30.6964530945
         31.124961853
         31.5594482422
         32.0
         32.4467048645
         32.8996505737
         33.3589019775
         33.8245773315
         34.2967453003
         34.7755126953
         35.2609596252
         35.7531814575
         36.2522773743
         36.7583427429
         37.2714653015
         37.791759491
         38.3193206787
         38.8542366028
         39.3966255188
         39.9465789795
         40.5042114258
         41.0696296692
         41.6429443359
         42.2242584229
         42.8136825562
         43.4113426208
         44.0173454285
         44.6317939758
         45.2548294067
         45.8865814209
         46.5271186829
         47.1766242981
         47.8351783752
         48.5029449463
         49.1799964905
         49.8665542603
         50.5626373291
         51.2684783936
         51.9841423035
         52.7098388672
         53.4456100464
         54.1917114258
         54.948184967
         55.7152442932
         56.4929924011
         57.2816162109
         58.0812149048
         58.8920211792
         59.7141036987
         60.5476989746
         61.3928909302
         62.2499237061
         63.1188735962
         64.0
         64.8934173584
         65.7993011475
         66.7178344727
         67.6491546631
         68.593536377
         69.5510253906
         70.5219421387
         71.506362915
         72.5045852661
         73.5166854858
         74.54296875
         75.5835189819
         76.6386413574
         77.7084579468
         78.7932510376
         79.8931274414
         81.0084228516
         82.139251709
         83.2858886719
         84.4484863281
         85.6273651123
         86.8226547241
         88.0346908569
         89.2635803223
         90.5096588135
         91.7731628418
         93.0542373657
         94.3532485962
         95.6703567505
         97.0058898926
         98.359992981
         99.7331085205
         101.125274658
         102.536956787
         103.968284607
         105.419677734
         106.891220093
         108.383422852
         109.896369934
         111.430488586
         112.985984802
         114.563232422
         116.16242981
         117.784042358
         119.428207397
         121.095397949
         122.78578186
         124.499847412
         126.237747192
         128.0
         129.786834717
         131.598602295
         133.435668945
         135.298309326
         137.187072754
         139.102050781
         141.043884277
         143.01272583
         145.009170532
         147.033370972
         149.0859375
         151.167037964
         153.277282715
         155.416915894
         157.586502075
         159.786254883
         162.016845703
         164.278503418
         166.571777344
         168.896972656
         171.254730225
         173.645309448
         176.069381714
         178.527160645
         181.019317627
         183.546325684
         186.108474731
         188.706497192
         191.340713501
         194.011779785
         196.719985962
         199.466217041
         202.250549316
         205.073913574
         207.936569214
         210.839355469
         213.782440186
         216.766845703
         219.792739868
         222.860977173
         225.971969604
         229.126464844
         232.324859619
         235.568084717
         238.856414795
         242.190795898
         245.571563721
         248.999694824
         252.475494385
         256.0
         259.573669434
         263.19720459
         266.871337891
         270.596618652
         274.374145508
         278.204101562
         282.087768555
         286.02545166
         290.018341064
         294.066741943
         298.171875
         302.334075928
         306.55456543
         310.833831787
         315.17300415
         319.572509766
         324.033691406
         328.557006836
         333.143554688
         337.793945312
         342.509460449
         347.290618896
         352.138763428
         357.054321289
         362.038635254
         367.092651367
         372.216949463
         377.412994385
         382.681427002
         388.02355957
         393.439971924
         398.932434082
         404.501098633
         410.147827148
         415.873138428
         421.678710938
         427.564880371
         433.533691406
         439.585479736
         445.721954346
         451.943939209
         458.252929688
         464.649719238
         471.136169434
         477.71282959
         484.381591797
         491.143127441
         497.999389648
         504.95098877
         512.0
