aces_1.0.1/luts/ACEScc_to_linear.spi1d
Version 1
From -0.358400 1.468000
Length 1024
Components 1
{
         1.75969034899e-08
         6.868467608e-07
         1.3708121287e-06
         2.06972299566e-06
         2.78395259556e-06
         3.51383323505e-06
         4.25973803431e-06
         5.02198963659e-06
         5.80092455493e-06
         6.59693159832e-06
         7.41041276342e-06
         8.24172093417e-06
         9.0912271844e-06
         9.95934897219e-06
         1.0846524674e-05
         1.17531453725e-05
         1.26796121549e-05
         1.36264134198e-05
         1.45939629874e-05
         1.55826946866e-05
         1.65930905496e-05
         1.76256653504e-05
         1.86808756553e-05
         1.97591762117e-05
         2.08611127164e-05
         2.19872399612e-05
         2.31380454352e-05
         2.43140348175e-05
         2.55158010987e-05
         2.67439481831e-05
         2.79990108538e-05
         2.92815439025e-05
         3.05549001496e-05
         3.12246083922e-05
         3.19089667755e-05
         3.26083354594e-05
         3.33230454999e-05
         3.40534243151e-05
         3.47997847712e-05
         3.556250158e-05
         3.63419676432e-05
         3.7138517655e-05
         3.79524972232e-05
         3.87843138014e-05
         3.96343930333e-05
         4.05031023547e-05
         4.13908310293e-05
         4.22980047006e-05
         4.32250963058e-05
         4.41725096607e-05
         4.51406631328e-05
         4.61300223833e-05
         4.71411040053e-05
         4.81743554701e-05
         4.92302060593e-05
         5.03092051076e-05
         5.1411880122e-05
         5.25387367816e-05
         5.36902516615e-05
         5.48670068383e-05
         5.60696098546e-05
         5.72985227336e-05
         5.85543639318e-05
         5.98377519054e-05
         6.11492723692e-05
         6.24895183137e-05
         6.3859130023e-05
         6.52587987133e-05
         6.6689135565e-05
         6.81507954141e-05
         6.96444840287e-05
         7.11709508323e-05
         7.27308943169e-05
         7.43249547668e-05
         7.59540271247e-05
         7.7618737123e-05
         7.93200015323e-05
         8.10584897408e-05
         8.28351330711e-05
         8.46507246024e-05
         8.65060574142e-05
         8.84020337253e-05
         9.03396285139e-05
         9.23196348595e-05
         9.43431296037e-05
         9.64108767221e-05
         9.852401854e-05
         0.000100683479104
         0.000102890197013
         0.000105145292764
         0.000107449872303
         0.000109804968815
         0.000112211608212
         0.000114671063784
         0.000117184375995
         0.000119752810861
         0.000122377474327
         0.000125059785205
         0.000127800740302
         0.000130601925775
         0.000133464345708
         0.000136389659019
         0.000139378957101
         0.000142433869769
         0.000145555663039
         0.000148745966726
         0.000152006105054
         0.000155337766046
         0.000158742361236
         0.000162221695064
         0.000165777280927
         0.000169410704984
         0.000173123728018
         0.000176918285433
         0.000180796007044
         0.000184758595424
         0.000188808160601
         0.000192946317839
         0.000197175351786
         0.000201496892259
         0.000205913325772
         0.000210426573176
         0.000215038569877
         0.000219751658733
         0.000224568197154
         0.00022949014965
         0.000234520150116
         0.000239660206717
         0.000244913098868
         0.000250281125773
         0.000255766644841
         0.000261372362729
         0.000267101218924
         0.000272955541732
         0.000278938037809
         0.000285051617539
         0.000291299365927
         0.000297684135148
         0.000304208602756
         0.00031087626121
         0.00031768984627
         0.000324653025018
         0.000331768562319
         0.000339040387189
         0.000346471206285
         0.000354065181455
         0.000361825397704
         0.000369755900465
         0.000377860269509
         0.000386141880881
         0.000394605158363
         0.000403254118282
         0.000412092747865
         0.000421124743298
         0.000430354732089
         0.000439787225332
         0.000449426588602
         0.000459276838228
         0.000469343329314
         0.000479630049085
         0.000490142730996
         0.000500885245856
         0.000511863792781
         0.000523082562722
         0.000534547434654
         0.000546263356227
         0.000558236497454
         0.000570471631363
         0.000582975102589
         0.000595752557274
         0.000608810281847
         0.000622153864242
         0.000635790231172
         0.000649725086987
         0.00066396582406
         0.000678518728819
         0.000693390029483
         0.000708587875124
         0.00072411831934
         0.000739989569411
         0.000756208261009
         0.000772782776039
         0.000789720274042
         0.000807029486168
         0.000824717513751
         0.000842793670017
         0.000861265521962
         0.000880142906681
         0.000899433216546
         0.000919147045352
         0.000939292542171
         0.000959879893344
         0.000980918062851
         0.0010024177609
         0.00102438824251
         0.00104684091639
         0.00106978579424
         0.00109323265497
         0.00111719418783
         0.00114168017171
         0.00116670352872
         0.00119227473624
         0.00121840694919
         0.00124511145987
         0.00127240188885
         0.00130028976128
         0.00132878962904
         0.00135791301727
         0.00138767599128
         0.00141809042543
         0.00144917215221
         0.00148093409371
         0.0015133934794
         0.00154656311497
         0.00158046092838
         0.00161510054022
         0.00165050034411
         0.00168667628895
         0.00172364362516
         0.00176142272539
         0.00180002849083
         0.00183948199265
         0.00187979871407
         0.00192100007553
         0.00196310319006
         0.0020061309915
         0.0020501005929
         0.00209503434598
         0.00214095204137
         0.00218787766062
         0.00223583029583
         0.00228483579122
         0.00233491300605
         0.00238608988002
         0.00243838736787
         0.00249183177948
         0.00254644779488
         0.00260225939564
         0.00265929591842
         0.00271758134477
         0.00277714524418
         0.00283801252954
         0.00290021719411
         0.00296378182247
         0.00302874203771
         0.00309512461536
         0.00316296378151
         0.0032322879415
         0.00330313364975
         0.00337552907877
         0.00344951497391
         0.00352511904202
         0.00360238272697
         0.00368133792654
         0.0037620253861
         0.00384447956458
         0.00392874330282
         0.00401485292241
         0.00410284847021
         0.00419277464971
         0.00428467057645
         0.00437858095393
         0.00447455001995
         0.00457262201235
         0.00467284303159
         0.00477526290342
         0.0048799244687
         0.0049868831411
         0.00509618222713
         0.00520788133144
         0.00532202422619
         0.00543867237866
         0.0055578770116
         0.00567969214171
         0.00580417923629
         0.00593139324337
         0.0060613960959
         0.00619424879551
         0.00633000954986
         0.00646875239909
         0.00661053322256
         0.00675542000681
         0.00690348353237
         0.00705479225144
         0.00720941787586
         0.00736743211746
         0.00752891041338
         0.00769392633811
         0.007862563245
         0.00803488865495
         0.00821099895984
         0.00839096400887
         0.00857487786561
         0.0087628159672
         0.0089548798278
         0.00915115326643
         0.00935172382742
         0.00955669209361
         0.00976615399122
         0.00998020265251
         0.0101989498362
         0.0104224886745
         0.0106509262696
         0.0108843687922
         0.0111229317263
         0.01136671938
         0.0116158528253
         0.0118704475462
         0.012130619958
         0.0123965013772
         0.0126681998372
         0.0129458615556
         0.0132296029478
         0.0135195702314
         0.0138158826157
         0.0141187021509
         0.0144281527027
         0.0147443842143
         0.0150675466284
         0.0153977936134
         0.0157352779061
         0.0160801634192
         0.0164325945079
         0.0167927704751
         0.0171608291566
         0.0175369530916
         0.017921326682
         0.018314121291
         0.0187155269086
         0.019125726074
         0.0195449218154
         0.01997330226
         0.0204110704362
         0.0208584405482
         0.0213156118989
         0.0217828042805
         0.0222602337599
         0.0227481294423
         0.0232467148453
         0.0237562339753
         0.0242769159377
         0.0248090066016
         0.0253527648747
         0.0259084440768
         0.0264762956649
         0.0270565990359
         0.0276496205479
         0.028255648911
         0.0288749486208
         0.0295078214258
         0.0301545634866
         0.0308154840022
         0.0314908847213
         0.0321810878813
         0.0328864306211
         0.0336072295904
         0.0343438237906
         0.0350965559483
         0.0358657948673
         0.0366518869996
         0.0374552197754
         0.0382761582732
         0.0391150936484
         0.039972409606
         0.0408485159278
         0.0417438298464
         0.0426587536931
         0.0435937419534
         0.0445492193103
         0.045525636524
         0.0465234555304
         0.0475431419909
         0.0485851839185
         0.0496500581503
         0.0507382787764
         0.0518503449857
         0.0529868081212
         0.0541481599212
         0.0553349629045
         0.0565477795899
         0.0577871799469
         0.0590537451208
         0.0603480674326
         0.061670769006
         0.063022442162
         0.064403757453
         0.0658153519034
         0.067257873714
         0.068732008338
         0.0702384710312
         0.0717779621482
         0.0733511596918
         0.0749588534236
         0.0766017958522
         0.0782807320356
         0.0799964666367
         0.081749804318
         0.0835415497422
         0.0853725969791
         0.0872437730432
         0.0891559720039
         0.09111007303
         0.0931069925427
         0.0951476916671
         0.0972331166267
         0.0993642359972
         0.101542107761
         0.103767678142
         0.106042042375
         0.108366243541
         0.110741391778
         0.11316858232
         0.115648984909
         0.118183769286
         0.120774067938
         0.123421177268
         0.126126289368
         0.128890708089
         0.13171570003
         0.134602576494
         0.137552827597
         0.140567660332
         0.143648594618
         0.146797075868
         0.150014534593
         0.153302490711
         0.156662583351
         0.160096243024
         0.163605168462
         0.167191043496
         0.170855492353
         0.174600303173
         0.178427129984
         0.18233782053
         0.186334311962
         0.19041839242
         0.194591879845
         0.198856934905
         0.203215450048
         0.207669436932
         0.212221115828
         0.216872423887
         0.221625775099
         0.226483285427
         0.231447339058
         0.236520141363
         0.241704121232
         0.247001752257
         0.252415448427
         0.257947951555
         0.263601601124
         0.269379079342
         0.275283277035
         0.281316846609
         0.287482708693
         0.293783694506
         0.300222754478
         0.306803047657
         0.313527554274
         0.32039925456
         0.327421754599
         0.334598004818
         0.341931790113
         0.349426090717
         0.357084810734
         0.364911139011
         0.37290930748
         0.381082504988
         0.389435172081
         0.397970527411
         0.406693339348
         0.415607213974
         0.424716204405
         0.434025168419
         0.443537890911
         0.453259497881
         0.463193684816
         0.473345994949
         0.483720570803
         0.494322776794
         0.505157053471
         0.516228854656
         0.527543485165
         0.539106011391
         0.55092215538
         0.562997221947
         0.575336754322
         0.587947130203
         0.600833177567
         0.614002406597
         0.627459704876
         0.641212463379
         0.655266284943
         0.669628322124
         0.684304893017
         0.69930356741
         0.714630424976
         0.730293750763
         0.746299922466
         0.762657344341
         0.779373526573
         0.796455383301
         0.813912034035
         0.831750929356
         0.849981188774
         0.868610501289
         0.887649059296
         0.907103836536
         0.926985919476
         0.947302997112
         0.968066096306
         0.989283621311
         1.01096701622
         1.03312516212
         1.05576884747
         1.0789090395
         1.10255599022
         1.12672221661
         1.15141677856
         1.17665362358
         1.20244288445
         1.22879815102
         1.25573039055
         1.28325343132
         1.31137883663
         1.34012174606
         1.36949396133
         1.39951062202
         1.43018507957
         1.46153116226
         1.49356496334
         1.52630019188
         1.55975365639
         1.59393966198
         1.62887573242
         1.66457653046
         1.70106101036
         1.73834359646
         1.77644491196
         1.81537985802
         1.85516965389
         1.89583134651
         1.93738293648
         1.97984671593
         2.02324008942
         2.06758570671
         2.11290121078
         2.15921258926
         2.20653676987
         2.25489974022
         2.30432033539
         2.35482645035
         2.40643787384
         2.45918226242
         2.5130815506
         2.56816315651
         2.62445092201
         2.68197345734
         2.74075722694
         2.80082821846
         2.86221671104
         2.9249484539
         2.98905849457
         3.0545706749
         3.12152075768
         3.18993663788
         3.25985407829
         3.33130121231
         3.40431714058
         3.47893095016
         3.55518269539
         3.63310527802
         3.71273350716
         3.79410982132
         3.87726688385
         3.96224927902
         4.04909086227
         4.13783979416
         4.22853088379
         4.32121229172
         4.41592121124
         4.51271009445
         4.61161708832
         4.71269464493
         4.81598424911
         4.9215426445
         5.02941322327
         5.13964557648
         5.25229549408
         5.36741256714
         5.48505592346
         5.60527420044
         5.72813034058
         5.85367631912
         5.98197841644
         6.11308813095
         6.24707460403
         6.38399505615
         6.52391958237
         6.66691207886
         6.81303405762
         6.96236228943
         7.11495876312
         7.27090549469
         7.43026447296
         7.59312057495
         7.75954341888
         7.92961740494
         8.1034154892
         8.28102684021
         8.46252536774
         8.64800548553
         8.83754920959
         9.03125
         9.22920036316
         9.43147850037
         9.63819980621
         9.84944534302
         10.065322876
         10.2859315872
         10.5113782883
         10.7417593002
         10.9771986008
         11.2177906036
         11.4636631012
         11.7149162292
         11.9716863632
         12.2340812683
         12.5022239685
         12.7762460709
         13.056268692
         13.3424367905
         13.6348686218
         13.9337215424
         14.239109993
         14.5512046814
         14.8701295853
         15.1960554123
         15.5291013718
         15.869468689
         16.2172908783
         16.5727386475
         16.9359703064
         17.30717659
         17.6865177155
         18.0741596222
         18.4703083038
         18.8751316071
         19.2888412476
         19.71159935
         20.1436405182
         20.5851402283
         21.03632164
         21.4973869324
         21.9685668945
         22.4500637054
         22.9421234131
         23.4449577332
         23.9588279724
         24.4839553833
         25.0205802917
         25.5689849854
         26.1293945312
         26.7020988464
         27.2873363495
         27.8854255676
         28.4966011047
         29.1211929321
         29.7594528198
         30.4117259979
         31.0782699585
         31.7594490051
         32.4555549622
         33.1668968201
         33.8938484192
         34.6367111206
         35.3958854675
         36.1716690063
         36.9644813538
         37.7746505737
         38.602596283
         39.4486694336
         40.3133163452
         41.1968688965
         42.0998306274
         43.0225486755
         43.9655227661
         44.9291572571
         45.9138870239
         46.9202308655
         47.9486083984
         48.999546051
         50.0734863281
         51.1710128784
         52.2925453186
         53.4386978149
         54.6099395752
         55.8068771362
         57.0300178528
         58.2800140381
         59.5573921204
         60.8627357483
         62.1967430115
         63.559928894
         64.9530334473
         66.3766403198
         67.831489563
         69.3181915283
         70.8375091553
         72.3900756836
         73.9767379761
         75.5981063843
         77.255065918
         78.9483108521
         80.6787643433
         82.4470367432
         84.2540435791
         86.100692749
         87.9878997803
         89.9163665771
         91.8871154785
         93.9010238647
         95.9592285156
         98.0624084473
         100.211685181
         102.408065796
         104.652587891
         106.946296692
         109.290420532
         111.685775757
         114.133651733
         116.635314941
         119.191665649
         121.804046631
         124.473678589
         127.201980591
         129.989898682
         132.838973999
         135.750442505
         138.72593689
         141.766418457
         144.873580933
         148.048828125
         151.293899536
         154.609848022
         157.998519897
         161.461639404
         165.000457764
         168.616851807
         172.312515259
         176.089401245
         179.948791504
         183.892807007
         187.923278809
         192.042327881
         196.251403809
         200.552688599
         204.948287964
         209.440490723
         214.030899048
         218.721923828
         223.516052246
         228.414916992
         233.421203613
         238.537475586
         243.765640259
         249.10836792
         254.568115234
         260.147979736
         265.849761963
         271.676147461
         277.630950928
         283.715881348
         289.93460083
         296.28918457
         302.78314209
         309.419311523
         316.201416016
         323.131774902
         330.213928223
         337.451416016
         344.847839355
         352.406005859
         360.12991333
         368.022979736
         376.089599609
         384.332550049
         392.756591797
         401.364318848
         410.161743164
         419.151367188
         428.338684082
         437.726165771
         447.320556641
         457.124755859
         467.144287109
         477.382263184
         487.845855713
         498.538269043
         509.465545654
         520.630981445
         532.042602539
         543.703613281
         555.62097168
         567.798828125
         580.243286133
         592.960876465
         605.957885742
         619.238830566
         632.810852051
         646.680541992
         660.854980469
         675.339233398
         690.140930176
         705.266967773
         720.725585938
         736.522033691
         752.665649414
         769.161132812
         786.020141602
         803.247680664
         820.853881836
         838.84387207
         857.230163574
         876.018554688
         895.219604492
         914.839477539
         934.891601562
         955.382080078
         976.322814941
         997.721374512
         1019.58868408
         1041.9354248
         1064.7734375
         1088.11047363
         1111.95898438
         1136.33032227
         1161.23718262
         1186.68847656
         1212.69775391
         1239.27685547
         1266.44030762
         1294.19726562
         1322.56433105
         1351.55029297
         1381.17456055
         1411.44628906
         1442.38342285
         1473.99450684
         1506.30273438
         1539.31713867
         1573.05712891
         1607.53210449
         1642.76733398
         1678.77246094
         1715.5690918
         1753.16760254
         1791.59277344
         1830.86206055
         1870.98999023
         1911.99951172
         1953.9029541
         1996.73046875
         2040.4934082
         2085.21826172
         2130.91870117
         2177.62573242
         2225.35327148
         2274.13012695
         2323.97021484
         2374.90869141
         2426.9609375
         2480.15673828
         2534.51196289
         2590.06542969
         2646.83300781
         2704.84814453
         2764.13134766
         2824.71435547
         2886.62451172
         2949.89599609
         3014.55004883
         3080.62109375
         3148.14038086
         3217.14379883
         3287.65478516
         3359.71630859
         3433.34838867
         3508.60253906
         3585.50244141
         3664.09228516
         3744.39404297
         3826.46728516
         3910.33349609
         3996.04296875
         4083.62036133
         4173.12792969
         4264.59277344
         4358.06835938
         4453.57910156
         4551.19580078
         4650.94677734
         4752.89013672
         4857.06054688
         4963.515625
         5072.30224609
         5183.48095703
         5297.08984375
         5413.18798828
         5531.83105469
         5653.08154297
         5776.98242188
         5903.59912109
         6032.99023438
         6165.2265625
         6300.35205078
         6438.44921875
         6579.5546875
         6723.77050781
         6871.13671875
         7021.74365234
         7175.63232422
         7332.9140625
         7493.6328125
         7657.88330078
         7825.71386719
         7997.24511719
         8172.52246094
         8351.65429688
         8534.68945312
         8721.75878906
         8912.91796875
         9108.28027344
         9307.90917969
         9511.91503906
         9720.39160156
         9933.45019531
         10151.1660156
         10373.6523438
         10601.0166016
         10833.3789062
         11070.8164062
         11313.4736328
         11561.4208984
         11814.8193359
         12073.7851562
         12338.3945312
         12608.8369141
         12885.1875
         13167.6171875
         13456.2177734
         13751.1425781
         14052.53125
         14360.546875
         14675.2919922
         14996.9384766
         15325.6308594
         15661.5498047
         16004.8125
         16355.6171875
         16714.0703125
         17080.4199219
         17454.7773438
         17837.3652344
         18228.2890625
         18627.8300781
         19036.109375
         19453.3554688
         19879.6914062
         20315.4316406
         20760.6914062
         21215.7421875
         21680.7070312
         22155.921875
         22641.5234375
         23137.796875
         23644.9199219
         24163.15625
         24692.7460938
         25233.984375
         25787.046875
         26352.2324219
         26929.8027344
         27520.0722656
