aces_1.0.1/luts/CineonLog_to_linear.spi1d
Version 1
From 0.000000 1.000000
Length 1024
Components 1
{
         -0.00565081927925
         -0.00561025505885
         -0.00556937837973
         -0.00552818644792
         -0.00548667740077
         -0.00544484844431
         -0.00540269725025
         -0.0053602210246
         -0.00531741790473
         -0.00527428509668
         -0.0052308193408
         -0.00518701924011
         -0.00514288153499
         -0.00509840343148
         -0.00505358306691
         -0.00500841718167
         -0.00496290344745
         -0.00491703860462
         -0.00487082079053
         -0.00482424674556
         -0.00477731414139
         -0.00473001925275
         -0.00468236068264
         -0.00463433470577
         -0.00458593852818
         -0.0045371693559
         -0.00448802486062
         -0.00443850131705
         -0.00438859639689
         -0.00433830684051
         -0.00428762985393
         -0.0042365626432
         -0.00418510148302
         -0.00413324404508
         -0.00408098753542
         -0.00402832776308
         -0.00397526239976
         -0.00392178818583
         -0.00386790232733
         -0.00381360086612
         -0.00375888124108
         -0.00370373995975
         -0.00364817376249
         -0.00359217938967
         -0.0035357538145
         -0.00347889331169
         -0.00342159485444
         -0.00336385471746
         -0.00330566987395
         -0.00324703659862
         -0.00318795163184
         -0.00312841148116
         -0.00306841242127
         -0.00300795119256
         -0.00294702406973
         -0.00288562756032
         -0.00282375793904
         -0.00276141171344
         -0.00269858515821
         -0.00263527431525
         -0.00257147592492
         -0.00250718579628
         -0.00244240043685
         -0.00237711588852
         -0.002311328426
         -0.00224503385834
         -0.00217822869308
         -0.00211090873927
         -0.00204307027161
         -0.00197470886633
         -0.00190582079813
         -0.00183640199248
         -0.00176644837484
         -0.00169595575426
         -0.00162491993979
         -0.00155333685689
         -0.00148120231461
         -0.00140851188917
         -0.00133526138961
         -0.00126144650858
         -0.0011870629387
         -0.00111210625619
         -0.00103657203726
         -0.000960455858149
         -0.000883753236849
         -0.00080645957496
         -0.000728570390493
         -0.000650081085041
         -0.0005709870602
         -0.000491283659358
         -0.000410966080381
         -0.000330029724864
         -0.000248469761573
         -0.000166281373822
         -8.34597449284e-05
         0.0
         8.41027867864e-05
         0.000168853570358
         0.000254257349297
         0.000340319151292
         0.000427044025855
         0.000514437095262
         0.000602503539994
         0.00069124851143
         0.000780677248258
         0.000870794989169
         0.000961607147474
         0.00105311896186
         0.00114533584565
         0.00123826321214
         0.00133190653287
         0.00142627139576
         0.00152136338875
         0.00161718798336
         0.00171375088394
         0.00181105779484
         0.00190911453683
         0.00200792658143
         0.00210750009865
         0.00220784079283
         0.00230895471759
         0.00241084746085
         0.00251352530904
         0.00261699454859
         0.00272126076743
         0.00282633025199
         0.00293220952153
         0.00303890439682
         0.0031464213971
         0.00325476680882
         0.0033639469184
         0.00347396824509
         0.00358483730815
         0.00369656062685
         0.00380914472044
         0.00392259610817
         0.0040369220078
         0.00415212847292
         0.00426822248846
         0.004385211505
         0.00450310111046
         0.00462189968675
         0.00474161328748
         0.00486224936321
         0.00498381489888
         0.00510631687939
         0.005229763221
         0.00535415997729
         0.00547951599583
         0.00560583733022
         0.0057331318967
         0.00586140761152
         0.00599067145959
         0.00612093089148
         0.00625219475478
         0.00638446910307
         0.00651776324958
         0.00665208417922
         0.00678744027391
         0.00692383898422
         0.00706128869206
         0.00719979731366
         0.00733937323093
         0.00748002436012
         0.00762175954878
         0.0077645862475
         0.00790851376951
         0.0080535504967
         0.00819970387965
         0.00834698416293
         0.00849539879709
         0.00864495709538
         0.0087956674397
         0.00894753914326
         0.00910058151931
         0.00925480294973
         0.00941021181643
         0.00956681836396
         0.00972463190556
         0.00988366082311
         0.0100439153612
         0.010205404833
         0.0103681385517
         0.0105321258307
         0.0106973769143
         0.010863901116
         0.0110317077488
         0.0112008079886
         0.0113712111488
         0.0115429265425
         0.0117159662768
         0.0118903378025
         0.0120660532266
         0.0122431227937
         0.0124215567484
         0.0126013653353
         0.0127825597301
         0.0129651492462
         0.0131491459906
         0.0133345611393
         0.0135214040056
         0.0137096866965
         0.013899420388
         0.0140906153247
         0.0142832836136
         0.0144774364308
         0.0146730849519
         0.0148702412844
         0.0150689166039
         0.0152691230178
         0.0154708707705
         0.0156741738319
         0.0158790443093
         0.0160854905844
         0.0162935294211
         0.0165031719953
         0.0167144276202
         0.0169273130596
         0.0171418376267
         0.0173580143601
         0.0175758581609
         0.0177953783423
         0.0180165916681
         0.0182395093143
         0.0184641443193
         0.0186905097216
         0.0189186185598
         0.0191484857351
         0.0193801242858
         0.0196135472506
         0.0198487695307
         0.0200858023018
         0.0203246641904
         0.0205653645098
         0.0208079181612
         0.0210523437709
         0.0212986506522
         0.0215468555689
         0.0217969715595
         0.0220490172505
         0.0223030038178
         0.0225589461625
         0.0228168610483
         0.0230767633766
         0.023338669911
         0.0236025918275
         0.0238685477525
         0.0241365544498
         0.0244066249579
         0.0246787760407
         0.0249530244619
         0.0252293851227
         0.0255078747869
         0.0257885120809
         0.0260713100433
         0.0263562873006
         0.0266434606165
         0.0269328467548
         0.0272244624794
         0.027518324554
         0.0278144497424
         0.0281128585339
         0.0284135658294
         0.0287165902555
         0.029021948576
         0.0293296594173
         0.0296397414058
         0.0299522131681
         0.0302670933306
         0.0305843986571
         0.030904147774
         0.0312263611704
         0.0315510556102
         0.0318782553077
         0.0322079733014
         0.0325402319431
         0.0328750535846
         0.0332124531269
         0.0335524491966
         0.0338950678706
         0.0342403277755
         0.0345882438123
         0.0349388420582
         0.0352921448648
         0.0356481671333
         0.0360069312155
         0.0363684594631
         0.0367327742279
         0.0370998978615
         0.0374698489904
         0.0378426499665
         0.0382183231413
         0.0385968908668
         0.0389783754945
         0.0393627993762
         0.0397501848638
         0.0401405543089
         0.0405339337885
         0.0409303419292
         0.0413298048079
         0.0417323485017
         0.042137991637
         0.0425467565656
         0.042958676815
         0.0433737672865
         0.0437920577824
         0.0442135706544
         0.0446383282542
         0.0450663603842
         0.0454976931214
         0.0459323488176
         0.0463703498244
         0.0468117259443
         0.0472565069795
         0.0477047115564
         0.0481563694775
         0.048611510545
         0.0490701533854
         0.0495323352516
         0.04999807477
         0.0504674017429
         0.0509403459728
         0.0514169372618
         0.0518971979618
         0.0523811578751
         0.0528688468039
         0.0533602945507
         0.0538555271924
         0.0543545782566
         0.0548574738204
         0.0553642436862
         0.0558749176562
         0.0563895255327
         0.0569080971181
         0.0574306696653
         0.0579572618008
         0.0584879145026
         0.0590226575732
         0.0595615170896
         0.0601045303047
         0.060651730746
         0.0612031407654
         0.0617588050663
         0.0623187460005
         0.0628830045462
         0.0634516105056
         0.0640245974064
         0.0646019950509
         0.065183840692
         0.0657701790333
         0.0663610249758
         0.0669564306736
         0.0675564184785
         0.0681610330939
         0.0687703043222
         0.0693842694163
         0.0700029581785
         0.0706264227629
         0.0712546929717
         0.0718877986073
         0.0725257843733
         0.0731686800718
         0.0738165378571
         0.0744693800807
         0.0751272588968
         0.0757902041078
         0.0764582529664
         0.0771314501762
         0.0778098404408
         0.0784934535623
         0.0791823342443
         0.0798765197396
         0.0805760547519
         0.0812809839845
         0.0819913446903
         0.0827071741223
         0.083428516984
         0.0841554254293
         0.0848879292607
         0.0856260731816
         0.0863699093461
         0.0871194824576
         0.0878748223186
         0.0886359810829
         0.0894030109048
         0.0901759490371
         0.0909548401833
         0.0917397290468
         0.0925306677818
         0.0933277085423
         0.0941308811307
         0.0949402451515
         0.0957558453083
         0.0965777263045
         0.0974059477448
         0.0982405394316
         0.0990815684199
         0.0999290794134
         0.100783117115
         0.10164373368
         0.102510981262
         0.103384912014
         0.104265578091
         0.105153024197
         0.106047317386
         0.106948494911
         0.107856616378
         0.10877173394
         0.109693899751
         0.110623173416
         0.111559607089
         0.112503252923
         0.113454177976
         0.114412419498
         0.115378051996
         0.116351120174
         0.117331683636
         0.118319809437
         0.119315542281
         0.120318949223
         0.121330089867
         0.122349016368
         0.123375795782
         0.124410487711
         0.125453144312
         0.126503840089
         0.127562642097
         0.12862958014
         0.129704758525
         0.130788207054
         0.131880015135
         0.13298022747
         0.134088918567
         0.135206148028
         0.136331990361
         0.13746650517
         0.13860976696
         0.139761820436
         0.140922769904
         0.142092660069
         0.143271550536
         0.144459545612
         0.1456566751
         0.146863028407
         0.14807869494
         0.149303719401
         0.150538176298
         0.151782140136
         0.153035700321
         0.154298916459
         0.155571863055
         0.156854614615
         0.158147260547
         0.159449845552
         0.160762488842
         0.162085235119
         0.16341817379
         0.164761379361
         0.166114941239
         0.16747893393
         0.16885343194
         0.170238509774
         0.171634271741
         0.173040792346
         0.174458131194
         0.175886407495
         0.177325680852
         0.178776040673
         0.180237591267
         0.181710377336
         0.18319453299
         0.184690117836
         0.186197221279
         0.187715932727
         0.189246356487
         0.190788567066
         0.192342653871
         0.193908721209
         0.195486858487
         0.197077155113
         0.198679700494
         0.200294598937
         0.201921924949
         0.203561797738
         0.205214306712
         0.206879556179
         0.208557620645
         0.210248619318
         0.211952656507
         0.213669806719
         0.215400204062
         0.217143923044
         0.218901082873
         0.220671772957
         0.222456112504
         0.224254190922
         0.226066142321
         0.227892041206
         0.229732006788
         0.231586143374
         0.233454585075
         0.235337406397
         0.237234741449
         0.239146694541
         0.241073384881
         0.243014901876
         0.244971394539
         0.246942952275
         0.248929709196
         0.250931769609
         0.252949267626
         0.254982292652
         0.257030963898
         0.259095460176
         0.261175841093
         0.263272255659
         0.265384823084
         0.267513662577
         0.269658923149
         0.271820694208
         0.273999124765
         0.27619433403
         0.278406471014
         0.280635625124
         0.282881975174
         0.285145640373
         0.287426739931
         0.289725393057
         0.292041778564
         0.294376015663
         0.296728223562
         0.299098581076
         0.30148717761
         0.30389419198
         0.306319743395
         0.308763980865
         0.311227053404
         0.313709080219
         0.316210269928
         0.318730711937
         0.32127058506
         0.323830008507
         0.326409161091
         0.329008191824
         0.331627219915
         0.334266453981
         0.336926013231
         0.339606076479
         0.342306792736
         0.345028311014
         0.347770780325
         0.350534379482
         0.3533192873
         0.35612565279
         0.358953654766
         0.361803412437
         0.36467513442
         0.367568999529
         0.370485156775
         0.373423784971
         0.376385033131
         0.379369139671
         0.382376194
         0.385406434536
         0.38846001029
         0.391537129879
         0.394637972116
         0.397762686014
         0.400911480188
         0.404084533453
         0.407282024622
         0.410504162312
         0.413751125336
         0.417023092508
         0.420320272446
         0.423642873764
         0.426991075277
         0.430365055799
         0.433765053749
         0.437191218138
         0.440643817186
         0.444122970104
         0.447628974915
         0.451161980629
         0.454722195864
         0.458309859037
         0.461925148964
         0.465568304062
         0.469239503145
         0.472939014435
         0.476667016745
         0.480423748493
         0.484209448099
         0.488024294376
         0.491868525743
         0.495742380619
         0.499646097422
         0.503579854965
         0.507543981075
         0.511538624763
         0.515564024448
         0.519620418549
         0.523708105087
         0.527827322483
         0.531978189945
         0.536161124706
         0.540376245975
         0.544623851776
         0.548904180527
         0.553217470646
         0.557564020157
         0.561944067478
         0.566357791424
         0.570805609226
         0.575287640095
         0.579804241657
         0.584355652332
         0.588942110538
         0.593563854694
         0.598221302032
         0.602914571762
         0.607644021511
         0.612409889698
         0.617212533951
         0.622052133083
         0.626929044724
         0.63184350729
         0.636795818806
         0.641786336899
         0.646815299988
         0.651882946491
         0.656989693642
         0.662135779858
         0.667321503162
         0.672547221184
         0.67781317234
         0.68311971426
         0.688467144966
         0.693855702877
         0.69928586483
         0.704757809639
         0.710271954536
         0.715828597546
         0.72142803669
         0.727070569992
         0.732756614685
         0.738486468792
         0.744260489941
         0.750078976154
         0.755942285061
         0.761850774288
         0.767804801464
         0.773804724216
         0.779850840569
         0.785943567753
         0.792083203793
         0.79827016592
         0.804504811764
         0.810787439346
         0.817118525505
         0.823498368263
         0.829927384853
         0.836405932903
         0.842934370041
         0.849513113499
         0.856142580509
         0.862823069096
         0.869555056095
         0.87633895874
         0.883175075054
         0.890063881874
         0.897005736828
         0.904001116753
         0.911050379276
         0.918153941631
         0.925312280655
         0.932525753975
         0.939794778824
         0.947119832039
         0.954501330853
         0.961939632893
         0.969435334206
         0.976988732815
         0.984600365162
         0.992270648479
         1.0
         1.00778889656
         1.0156378746
         1.02354729176
         1.03151762486
         1.03954935074
         1.04764294624
         1.05579900742
         1.06401777267
         1.07229995728
         1.08064591885
         1.08905625343
         1.09753131866
         1.10607171059
         1.11467790604
         1.12335038185
         1.13208961487
         1.14089632034
         1.1497708559
         1.15871369839
         1.16772544384
         1.17680668831
         1.18595778942
         1.19517958164
         1.20447230339
         1.21383666992
         1.22327315807
         1.23278224468
         1.24236476421
         1.2520210743
         1.26175177097
         1.27155745029
         1.2814385891
         1.29139602184
         1.30142998695
         1.3115414381
         1.32173073292
         1.33199846745
         1.34234535694
         1.35277199745
         1.36327898502
         1.3738669157
         1.38453638554
         1.39528810978
         1.40612268448
         1.41704058647
         1.42804276943
         1.4391297102
         1.45030200481
         1.46156048775
         1.47290563583
         1.48433816433
         1.49585878849
         1.50746822357
         1.51916706562
         1.53095602989
         1.54283595085
         1.55480730534
         1.56687092781
         1.57902741432
         1.59127771854
         1.60362231731
         1.61606192589
         1.62859749794
         1.64122962952
         1.65395915508
         1.66678667068
         1.67971313
         1.69273900986
         1.70586538315
         1.71909284592
         1.73242223263
         1.74585437775
         1.75938999653
         1.77302980423
         1.78677475452
         1.80062568188
         1.81458330154
         1.82864844799
         1.84282195568
         1.85710465908
         1.87149739265
         1.88600099087
         1.90061640739
         1.91534435749
         1.93018591404
         1.94514167309
         1.96021270752
         1.97539997101
         1.9907040596
         2.00612616539
         2.02166724205
         2.03732776642
         2.05310916901
         2.06901216507
         2.08503746986
         2.1011865139
         2.11745977402
         2.13385844231
         2.15038371086
         2.16703605652
         2.18381667137
         2.20072674751
         2.2177670002
         2.23493862152
         2.25224256516
         2.26967978477
         2.28725123405
         2.30495834351
         2.32280158997
         2.34078240395
         2.35890197754
         2.37716078758
         2.39556050301
         2.41410207748
         2.43278646469
         2.4516146183
         2.47058796883
         2.48970746994
         2.50897431374
         2.52838969231
         2.54795455933
         2.56767010689
         2.58753752708
         2.60755825043
         2.62773299217
         2.64806342125
         2.66855025291
         2.6891951561
         2.70999884605
         2.73096299171
         2.75208878517
         2.7733771801
         2.79482960701
         2.81644749641
         2.83823180199
         2.86018395424
         2.88230514526
         2.90459680557
         2.92706036568
         2.94969701767
         2.97250795364
         2.99549460411
         3.01865839958
         3.04200077057
         3.06552290916
         3.08922624588
         3.11311221123
         3.13718223572
         3.16143774986
         3.18588018417
         3.21051096916
         3.23533153534
         3.2603430748
         3.28554773331
         3.31094622612
         3.33654069901
         3.36233210564
         3.38832235336
         3.4145128727
         3.44090509415
         3.46750068665
         3.49430131912
         3.52130842209
         3.54852342606
         3.57594823837
         3.60358452797
         3.63143348694
         3.65949702263
         3.68777704239
         3.71627473831
         3.74499201775
         3.77393054962
         3.80309224129
         3.83247828484
         3.86209106445
         3.89193177223
         3.92200255394
         3.95230484009
         3.98284077644
         4.01361179352
         4.04462003708
         4.07586717606
         4.1073551178
         4.13908576965
         4.17106056213
         4.20328187943
         4.23575162888
         4.268471241
         4.30144357681
         4.33466911316
         4.3681511879
         4.40189123154
         4.43589115143
         4.47015285492
         4.5046787262
         4.53947019577
         4.57453012466
         4.60986042023
         4.64546251297
         4.68133878708
         4.71749210358
         4.75392341614
         4.79063558578
         4.82763051987
         4.86491060257
         4.90247821808
         4.94033479691
         4.97848320007
         5.01692581177
         5.05566453934
         5.09470129013
         5.13403940201
         5.17368030548
         5.21362638474
         5.25388050079
         5.29444503784
         5.33532190323
         5.37651348114
         5.4180226326
         5.45985174179
         5.50200271606
         5.54447889328
         5.58728218079
         5.63041543961
         5.67388057709
         5.71768093109
         5.7618188858
         5.80629634857
         5.85111713409
         5.89628314972
         5.94179677963
         5.98766136169
         6.03387928009
         6.08045339584
         6.12738609314
         6.17468070984
         6.22233963013
         6.27036571503
         6.31876182556
         6.36753082275
         6.41667556763
         6.4661989212
         6.51610374451
         6.5663933754
         6.61707019806
         6.66813755035
         6.7195982933
         6.77145576477
         6.82371282578
         6.87637233734
         6.92943763733
         6.98291158676
         7.03679800034
         7.09109926224
         7.14581871033
         7.2009601593
         7.25652647018
         7.312520504
         7.36894655228
         7.42580699921
         7.48310518265
         7.54084539413
         7.59903049469
         7.65766334534
         7.71674871445
         7.77628850937
         7.83628749847
         7.89674901962
         7.95767593384
         8.01907253265
         8.08094215393
         8.14328861237
         8.20611476898
         8.26942539215
         8.33322429657
         8.39751434326
         8.46229934692
         8.52758407593
         8.5933713913
         8.6596660614
         8.72647094727
         8.79379177094
         8.86162948608
         8.92999172211
         8.99887943268
         9.06829833984
         9.13825130463
         9.20874404907
         9.27978038788
         9.35136318207
         9.42349815369
         9.49618816376
         9.56943893433
         9.64325332642
         9.71763706207
         9.79259395599
         9.86812782288
         9.94424438477
         10.0209465027
         10.0982408524
