aces_1.0.1/luts/Dolby_PQ_10000_to_linear.spi1d
Version 1
From 0.000000 1.000000
Length 1024
Components 3
{
         0.0 0.0 0.0
         4.04224483646e-05 4.04224483646e-05 4.04224483646e-05
         0.000131113745738 0.000131113745738 0.000131113745738
         0.000262370012933 0.000262370012933 0.000262370012933
         0.000431513821241 0.000431513821241 0.000431513821241
         0.000637466378976 0.000637466378976 0.000637466378976
         0.000879827479366 0.000879827479366 0.000879827479366
         0.00115854456089 0.00115854456089 0.00115854456089
         0.00147379050031 0.00147379050031 0.00147379050031
         0.00182588538155 0.00182588538155 0.00182588538155
         0.00221525668167 0.00221525668167 0.00221525668167
         0.00264240126126 0.00264240126126 0.00264240126126
         0.00310787069611 0.00310787069611 0.00310787069611
         0.00361227942631 0.00361227942631 0.00361227942631
         0.00415628915653 0.00415628915653 0.00415628915653
         0.00474052317441 0.00474052317441 0.00474052317441
         0.0053656231612 0.0053656231612 0.0053656231612
         0.00603245850652 0.00603245850652 0.00603245850652
         0.00674160942435 0.00674160942435 0.00674160942435
         0.00749403703958 0.00749403703958 0.00749403703958
         0.00829033926129 0.00829033926129 0.00829033926129
         0.0091312630102 0.0091312630102 0.0091312630102
         0.0100178560242 0.0100178560242 0.0100178560242
         0.0109507702291 0.0109507702291 0.0109507702291
         0.0119307618588 0.0119307618588 0.0119307618588
         0.01295881439 0.01295881439 0.01295881439
         0.0140358246863 0.0140358246863 0.0140358246863
         0.0151626588777 0.0151626588777 0.0151626588777
         0.0163399446756 0.0163399446756 0.0163399446756
         0.0175688434392 0.0175688434392 0.0175688434392
         0.018850363791 0.018850363791 0.018850363791
         0.0201850868762 0.0201850868762 0.0201850868762
         0.0215741805732 0.0215741805732 0.0215741805732
         0.023018470034 0.023018470034 0.023018470034
         0.0245192088187 0.0245192088187 0.0245192088187
         0.0260767303407 0.0260767303407 0.0260767303407
         0.0276926606894 0.0276926606894 0.0276926606894
         0.0293676611036 0.0293676611036 0.0293676611036
         0.0311023239046 0.0311023239046 0.0311023239046
         0.0328988656402 0.0328988656402 0.0328988656402
         0.0347571708262 0.0347571708262 0.0347571708262
         0.0366785898805 0.0366785898805 0.0366785898805
         0.0386641398072 0.0386641398072 0.0386641398072
         0.0407149083912 0.0407149083912 0.0407149083912
         0.0428324118257 0.0428324118257 0.0428324118257
         0.0450173765421 0.0450173765421 0.0450173765421
         0.0472709648311 0.0472709648311 0.0472709648311
         0.0495932810009 0.0495932810009 0.0495932810009
         0.0519873313606 0.0519873313606 0.0519873313606
         0.0544526465237 0.0544526465237 0.0544526465237
         0.0569911301136 0.0569911301136 0.0569911301136
         0.0596030578017 0.0596030578017 0.0596030578017
         0.062290545553 0.062290545553 0.062290545553
         0.0650551989675 0.0650551989675 0.0650551989675
         0.0678974613547 0.0678974613547 0.0678974613547
         0.0708171650767 0.0708171650767 0.0708171650767
         0.0738179758191 0.0738179758191 0.0738179758191
         0.076900921762 0.076900921762 0.076900921762
         0.0800645127892 0.0800645127892 0.0800645127892
         0.0833131372929 0.0833131372929 0.0833131372929
         0.0866453945637 0.0866453945637 0.0866453945637
         0.090065293014 0.090065293014 0.090065293014
         0.0935723856091 0.0935723856091 0.0935723856091
         0.0971679836512 0.0971679836512 0.0971679836512
         0.1008534953 0.1008534953 0.1008534953
         0.10463014245 0.10463014245 0.10463014245
         0.108501598239 0.108501598239 0.108501598239
         0.112465769053 0.112465769053 0.112465769053
         0.116524226964 0.116524226964 0.116524226964
         0.120680823922 0.120680823922 0.120680823922
         0.124935470521 0.124935470521 0.124935470521
         0.129290372133 0.129290372133 0.129290372133
         0.133745118976 0.133745118976 0.133745118976
         0.13830421865 0.13830421865 0.13830421865
         0.142965897918 0.142965897918 0.142965897918
         0.147734507918 0.147734507918 0.147734507918
         0.152608066797 0.152608066797 0.152608066797
         0.157591432333 0.157591432333 0.157591432333
         0.162684485316 0.162684485316 0.162684485316
         0.167887851596 0.167887851596 0.167887851596
         0.173204049468 0.173204049468 0.173204049468
         0.17863664031 0.17863664031 0.17863664031
         0.184185251594 0.184185251594 0.184185251594
         0.189851254225 0.189851254225 0.189851254225
         0.195633307099 0.195633307099 0.195633307099
         0.201539382339 0.201539382339 0.201539382339
         0.207569554448 0.207569554448 0.207569554448
         0.21372063458 0.21372063458 0.21372063458
         0.21999630332 0.21999630332 0.21999630332
         0.226404517889 0.226404517889 0.226404517889
         0.232938185334 0.232938185334 0.232938185334
         0.239601448178 0.239601448178 0.239601448178
         0.246403232217 0.246403232217 0.246403232217
         0.253335028887 0.253335028887 0.253335028887
         0.260402262211 0.260402262211 0.260402262211
         0.267609477043 0.267609477043 0.267609477043
         0.274957090616 0.274957090616 0.274957090616
         0.282441169024 0.282441169024 0.282441169024
         0.290077000856 0.290077000856 0.290077000856
         0.297849714756 0.297849714756 0.297849714756
         0.305774956942 0.305774956942 0.305774956942
         0.313843905926 0.313843905926 0.313843905926
         0.322067201138 0.322067201138 0.322067201138
         0.330445617437 0.330445617437 0.330445617437
         0.338974446058 0.338974446058 0.338974446058
         0.347659945488 0.347659945488 0.347659945488
         0.356509596109 0.356509596109 0.356509596109
         0.365517735481 0.365517735481 0.365517735481
         0.374683588743 0.374683588743 0.374683588743
         0.384017050266 0.384017050266 0.384017050266
         0.393523514271 0.393523514271 0.393523514271
         0.403190761805 0.403190761805 0.403190761805
         0.413026213646 0.413026213646 0.413026213646
         0.423047214746 0.423047214746 0.423047214746
         0.433229863644 0.433229863644 0.433229863644
         0.443590581417 0.443590581417 0.443590581417
         0.454139322042 0.454139322042 0.454139322042
         0.464869230986 0.464869230986 0.464869230986
         0.475780785084 0.475780785084 0.475780785084
         0.486875683069 0.486875683069 0.486875683069
         0.498160630465 0.498160630465 0.498160630465
         0.509640693665 0.509640693665 0.509640693665
         0.521315157413 0.521315157413 0.521315157413
         0.533175587654 0.533175587654 0.533175587654
         0.545231640339 0.545231640339 0.545231640339
         0.557495892048 0.557495892048 0.557495892048
         0.569958925247 0.569958925247 0.569958925247
         0.582632422447 0.582632422447 0.582632422447
         0.595507860184 0.595507860184 0.595507860184
         0.608595490456 0.608595490456 0.608595490456
         0.621896326542 0.621896326542 0.621896326542
         0.635414898396 0.635414898396 0.635414898396
         0.649150371552 0.649150371552 0.649150371552
         0.663103878498 0.663103878498 0.663103878498
         0.677275896072 0.677275896072 0.677275896072
         0.691669583321 0.691669583321 0.691669583321
         0.706296563148 0.706296563148 0.706296563148
         0.721148490906 0.721148490906 0.721148490906
         0.736238479614 0.736238479614 0.736238479614
         0.751567661762 0.751567661762 0.751567661762
         0.767137229443 0.767137229443 0.767137229443
         0.782936215401 0.782936215401 0.782936215401
         0.798977553844 0.798977553844 0.798977553844
         0.815282702446 0.815282702446 0.815282702446
         0.831832945347 0.831832945347 0.831832945347
         0.848634719849 0.848634719849 0.848634719849
         0.865683495998 0.865683495998 0.865683495998
         0.883005023003 0.883005023003 0.883005023003
         0.900559127331 0.900559127331 0.900559127331
         0.918403327465 0.918403327465 0.918403327465
         0.936507403851 0.936507403851 0.936507403851
         0.954882919788 0.954882919788 0.954882919788
         0.973519682884 0.973519682884 0.973519682884
         0.992455661297 0.992455661297 0.992455661297
         1.01165568829 1.01165568829 1.01165568829
         1.03113543987 1.03113543987 1.03113543987
         1.05092573166 1.05092573166 1.05092573166
         1.07097840309 1.07097840309 1.07097840309
         1.09134578705 1.09134578705 1.09134578705
         1.11200225353 1.11200225353 1.11200225353
         1.13292920589 1.13292920589 1.13292920589
         1.15419685841 1.15419685841 1.15419685841
         1.17573773861 1.17573773861 1.17573773861
         1.19760012627 1.19760012627 1.19760012627
         1.21978914738 1.21978914738 1.21978914738
         1.24228012562 1.24228012562 1.24228012562
         1.2650988102 1.2650988102 1.2650988102
         1.28822469711 1.28822469711 1.28822469711
         1.31168615818 1.31168615818 1.31168615818
         1.33548152447 1.33548152447 1.33548152447
         1.35961663723 1.35961663723 1.35961663723
         1.38406550884 1.38406550884 1.38406550884
         1.40885782242 1.40885782242 1.40885782242
         1.43402433395 1.43402433395 1.43402433395
         1.45951032639 1.45951032639 1.45951032639
         1.48538017273 1.48538017273 1.48538017273
         1.51156771183 1.51156771183 1.51156771183
         1.53811311722 1.53811311722 1.53811311722
         1.56505000591 1.56505000591 1.56505000591
         1.59234642982 1.59234642982 1.59234642982
         1.62000238895 1.62000238895 1.62000238895
         1.64806425571 1.64806425571 1.64806425571
         1.67649018764 1.67649018764 1.67649018764
         1.70524859428 1.70524859428 1.70524859428
         1.73445403576 1.73445403576 1.73445403576
         1.7640734911 1.7640734911 1.7640734911
         1.79402840137 1.79402840137 1.79402840137
         1.82440567017 1.82440567017 1.82440567017
         1.8551595211 1.8551595211 1.8551595211
         1.88638138771 1.88638138771 1.88638138771
         1.91794836521 1.91794836521 1.91794836521
         1.94999098778 1.94999098778 1.94999098778
         1.98246502876 1.98246502876 1.98246502876
         2.01533412933 2.01533412933 2.01533412933
         2.04860091209 2.04860091209 2.04860091209
         2.08235216141 2.08235216141 2.08235216141
         2.11650872231 2.11650872231 2.11650872231
         2.15111041069 2.15111041069 2.15111041069
         2.18621444702 2.18621444702 2.18621444702
         2.22173070908 2.22173070908 2.22173070908
         2.25770664215 2.25770664215 2.25770664215
         2.29414653778 2.29414653778 2.29414653778
         2.33105015755 2.33105015755 2.33105015755
         2.3684797287 2.3684797287 2.3684797287
         2.40632486343 2.40632486343 2.40632486343
         2.44465327263 2.44465327263 2.44465327263
         2.48350763321 2.48350763321 2.48350763321
         2.52279663086 2.52279663086 2.52279663086
         2.5626282692 2.5626282692 2.5626282692
         2.60294771194 2.60294771194 2.60294771194
         2.6438229084 2.6438229084 2.6438229084
         2.68512845039 2.68512845039 2.68512845039
         2.72700715065 2.72700715065 2.72700715065
         2.76937818527 2.76937818527 2.76937818527
         2.81232261658 2.81232261658 2.81232261658
         2.85578417778 2.85578417778 2.85578417778
         2.89975380898 2.89975380898 2.89975380898
         2.9443128109 2.9443128109 2.9443128109
         2.98938751221 2.98938751221 2.98938751221
         3.03505706787 3.03505706787 3.03505706787
         3.08125972748 3.08125972748 3.08125972748
         3.12805652618 3.12805652618 3.12805652618
         3.17539310455 3.17539310455 3.17539310455
         3.22334218025 3.22334218025 3.22334218025
         3.27183628082 3.27183628082 3.27183628082
         3.32095146179 3.32095146179 3.32095146179
         3.37069392204 3.37069392204 3.37069392204
         3.42098355293 3.42098355293 3.42098355293
         3.47191667557 3.47191667557 3.47191667557
         3.52349257469 3.52349257469 3.52349257469
         3.57563304901 3.57563304901 3.57563304901
         3.62842273712 3.62842273712 3.62842273712
         3.68186903 3.68186903 3.68186903
         3.73597550392 3.73597550392 3.73597550392
         3.79065918922 3.79065918922 3.79065918922
         3.84602165222 3.84602165222 3.84602165222
         3.90205740929 3.90205740929 3.90205740929
         3.95877528191 3.95877528191 3.95877528191
         4.01607990265 4.01607990265 4.01607990265
         4.07408332825 4.07408332825 4.07408332825
         4.13288879395 4.13288879395 4.13288879395
         4.19228363037 4.19228363037 4.19228363037
         4.25239181519 4.25239181519 4.25239181519
         4.31332015991 4.31332015991 4.31332015991
         4.3748626709 4.3748626709 4.3748626709
         4.43713331223 4.43713331223 4.43713331223
         4.50012731552 4.50012731552 4.50012731552
         4.5638628006 4.5638628006 4.5638628006
         4.6283288002 4.6283288002 4.6283288002
         4.69354724884 4.69354724884 4.69354724884
         4.75963544846 4.75963544846 4.75963544846
         4.82635784149 4.82635784149 4.82635784149
         4.89397621155 4.89397621155 4.89397621155
         4.96223640442 4.96223640442 4.96223640442
         5.03126001358 5.03126001358 5.03126001358
         5.10120105743 5.10120105743 5.10120105743
         5.171916008 5.171916008 5.171916008
         5.24342679977 5.24342679977 5.24342679977
         5.31573390961 5.31573390961 5.31573390961
         5.38897800446 5.38897800446 5.38897800446
         5.46290254593 5.46290254593 5.46290254593
         5.53777360916 5.53777360916 5.53777360916
         5.61346817017 5.61346817017 5.61346817017
         5.68997383118 5.68997383118 5.68997383118
         5.76746749878 5.76746749878 5.76746749878
         5.84580039978 5.84580039978 5.84580039978
         5.92497873306 5.92497873306 5.92497873306
         6.00515508652 6.00515508652 6.00515508652
         6.08603477478 6.08603477478 6.08603477478
         6.16792917252 6.16792917252 6.16792917252
         6.25069141388 6.25069141388 6.25069141388
         6.33449602127 6.33449602127 6.33449602127
         6.41934013367 6.41934013367 6.41934013367
         6.50489473343 6.50489473343 6.50489473343
         6.59153699875 6.59153699875 6.59153699875
         6.67905855179 6.67905855179 6.67905855179
         6.76766490936 6.76766490936 6.76766490936
         6.85699510574 6.85699510574 6.85699510574
         6.94761705399 6.94761705399 6.94761705399
         7.03914690018 7.03914690018 7.03914690018
         7.13161706924 7.13161706924 7.13161706924
         7.22520399094 7.22520399094 7.22520399094
         7.31974840164 7.31974840164 7.31974840164
         7.41542243958 7.41542243958 7.41542243958
         7.51207017899 7.51207017899 7.51207017899
         7.60986423492 7.60986423492 7.60986423492
         7.70862674713 7.70862674713 7.70862674713
         7.80857038498 7.80857038498 7.80857038498
         7.90949440002 7.90949440002 7.90949440002
         8.01162528992 8.01162528992 8.01162528992
         8.11495113373 8.11495113373 8.11495113373
         8.21929550171 8.21929550171 8.21929550171
         8.32487678528 8.32487678528 8.32487678528
         8.43146896362 8.43146896362 8.43146896362
         8.53906822205 8.53906822205 8.53906822205
         8.64793395996 8.64793395996 8.64793395996
         8.75806999207 8.75806999207 8.75806999207
         8.86949443817 8.86949443817 8.86949443817
         8.98196411133 8.98196411133 8.98196411133
         9.09573459625 9.09573459625 9.09573459625
         9.21055698395 9.21055698395 9.21055698395
         9.32670116425 9.32670116425 9.32670116425
         9.44418621063 9.44418621063 9.44418621063
         9.56301689148 9.56301689148 9.56301689148
         9.68293190002 9.68293190002 9.68293190002
         9.80424118042 9.80424118042 9.80424118042
         9.92690467834 9.92690467834 9.92690467834
         10.0506677628 10.0506677628 10.0506677628
         10.1758527756 10.1758527756 10.1758527756
         10.3024311066 10.3024311066 10.3024311066
         10.430150032 10.430150032 10.430150032
         10.559299469 10.559299469 10.559299469
         10.6898946762 10.6898946762 10.6898946762
         10.8219442368 10.8219442368 10.8219442368
         10.9554700851 10.9554700851 10.9554700851
         11.0901451111 11.0901451111 11.0901451111
         11.2263393402 11.2263393402 11.2263393402
         11.3640127182 11.3640127182 11.3640127182
         11.5028820038 11.5028820038 11.5028820038
         11.643620491 11.643620491 11.643620491
         11.7855463028 11.7855463028 11.7855463028
         11.9290218353 11.9290218353 11.9290218353
         12.0740613937 12.0740613937 12.0740613937
         12.220700264 12.220700264 12.220700264
         12.3685598373 12.3685598373 12.3685598373
         12.5183525085 12.5183525085 12.5183525085
         12.6694154739 12.6694154739 12.6694154739
         12.8221244812 12.8221244812 12.8221244812
         12.976433754 12.976433754 12.976433754
         13.1324224472 13.1324224472 13.1324224472
         13.2896776199 13.2896776199 13.2896776199
         13.4489955902 13.4489955902 13.4489955902
         13.6100034714 13.6100034714 13.6100034714
         13.7723274231 13.7723274231 13.7723274231
         13.9367513657 13.9367513657 13.9367513657
         14.1025075912 14.1025075912 14.1025075912
         14.2700004578 14.2700004578 14.2700004578
         14.4392786026 14.4392786026 14.4392786026
         14.6102714539 14.6102714539 14.6102714539
         14.7830896378 14.7830896378 14.7830896378
         14.9576854706 14.9576854706 14.9576854706
         15.1341314316 15.1341314316 15.1341314316
         15.3123483658 15.3123483658 15.3123483658
         15.4924478531 15.4924478531 15.4924478531
         15.6743822098 15.6743822098 15.6743822098
         15.8577280045 15.8577280045 15.8577280045
         16.0434417725 16.0434417725 16.0434417725
         16.2309989929 16.2309989929 16.2309989929
         16.4200286865 16.4200286865 16.4200286865
         16.61195755 16.61195755 16.61195755
         16.8048267365 16.8048267365 16.8048267365
         17.0001659393 17.0001659393 17.0001659393
         17.1969585419 17.1969585419 17.1969585419
         17.396270752 17.396270752 17.396270752
         17.5975666046 17.5975666046 17.5975666046
         17.8008728027 17.8008728027 17.8008728027
         18.006231308 18.006231308 18.006231308
         18.213634491 18.213634491 18.213634491
         18.4230804443 18.4230804443 18.4230804443
         18.6346416473 18.6346416473 18.6346416473
         18.848279953 18.848279953 18.848279953
         19.0640029907 19.0640029907 19.0640029907
         19.2818851471 19.2818851471 19.2818851471
         19.5025100708 19.5025100708 19.5025100708
         19.724653244 19.724653244 19.724653244
         19.949634552 19.949634552 19.949634552
         20.1761493683 20.1761493683 20.1761493683
         20.405500412 20.405500412 20.405500412
         20.6371097565 20.6371097565 20.6371097565
         20.8709373474 20.8709373474 20.8709373474
         21.1063861847 21.1063861847 21.1063861847
         21.3453941345 21.3453941345 21.3453941345
         21.5860939026 21.5860939026 21.5860939026
         21.8290805817 21.8290805817 21.8290805817
         22.0750312805 22.0750312805 22.0750312805
         22.3226890564 22.3226890564 22.3226890564
         22.5734157562 22.5734157562 22.5734157562
         22.8264923096 22.8264923096 22.8264923096
         23.0819530487 23.0819530487 23.0819530487
         23.3406105042 23.3406105042 23.3406105042
         23.6002235413 23.6002235413 23.6002235413
         23.8637886047 23.8637886047 23.8637886047
         24.1297416687 24.1297416687 24.1297416687
         24.3982887268 24.3982887268 24.3982887268
         24.6693077087 24.6693077087 24.6693077087
         24.9428272247 24.9428272247 24.9428272247
         25.2197628021 25.2197628021 25.2197628021
         25.4983901978 25.4983901978 25.4983901978
         25.7804851532 25.7804851532 25.7804851532
         26.0651493073 26.0651493073 26.0651493073
         26.3524608612 26.3524608612 26.3524608612
         26.6423969269 26.6423969269 26.6423969269
         26.9358348846 26.9358348846 26.9358348846
         27.2310962677 27.2310962677 27.2310962677
         27.530828476 27.530828476 27.530828476
         27.8324241638 27.8324241638 27.8324241638
         28.136713028 28.136713028 28.136713028
         28.4446582794 28.4446582794 28.4446582794
         28.7545471191 28.7545471191 28.7545471191
         29.0690593719 29.0690593719 29.0690593719
         29.3854446411 29.3854446411 29.3854446411
         29.7056446075 29.7056446075 29.7056446075
         30.0287456512 30.0287456512 30.0287456512
         30.3547668457 30.3547668457 30.3547668457
         30.6836414337 30.6836414337 30.6836414337
         31.016456604 31.016456604 31.016456604
         31.3512115479 31.3512115479 31.3512115479
         31.6910018921 31.6910018921 31.6910018921
         32.0327758789 32.0327758789 32.0327758789
         32.3785934448 32.3785934448 32.3785934448
         32.7274208069 32.7274208069 32.7274208069
         33.0794219971 33.0794219971 33.0794219971
         33.4355125427 33.4355125427 33.4355125427
         33.7936782837 33.7936782837 33.7936782837
         34.1571617126 34.1571617126 34.1571617126
         34.5226707458 34.5226707458 34.5226707458
         34.8913841248 34.8913841248 34.8913841248
         35.2644348145 35.2644348145 35.2644348145
         35.6418838501 35.6418838501 35.6418838501
         36.0214691162 36.0214691162 36.0214691162
         36.4055137634 36.4055137634 36.4055137634
         36.792804718 36.792804718 36.792804718
         37.184627533 37.184627533 37.184627533
         37.5798492432 37.5798492432 37.5798492432
         37.9784736633 37.9784736633 37.9784736633
         38.3817481995 38.3817481995 38.3817481995
         38.7871513367 38.7871513367 38.7871513367
         39.1986351013 39.1986351013 39.1986351013
         39.6122627258 39.6122627258 39.6122627258
         40.030708313 40.030708313 40.030708313
         40.4526939392 40.4526939392 40.4526939392
         40.8782539368 40.8782539368 40.8782539368
         41.308757782 41.308757782 41.308757782
         41.7442398071 41.7442398071 41.7442398071
         42.1819381714 42.1819381714 42.1819381714
         42.624797821 42.624797821 42.624797821
         43.0712585449 43.0712585449 43.0712585449
         43.5228538513 43.5228538513 43.5228538513
         43.9782562256 43.9782562256 43.9782562256
         44.4374198914 44.4374198914 44.4374198914
         44.9018783569 44.9018783569 44.9018783569
         45.3701896667 45.3701896667 45.3701896667
         45.8423728943 45.8423728943 45.8423728943
         46.3199577332 46.3199577332 46.3199577332
         46.803024292 46.803024292 46.803024292
         47.2883911133 47.2883911133 47.2883911133
         47.7794342041 47.7794342041 47.7794342041
         48.2760848999 48.2760848999 48.2760848999
         48.7750587463 48.7750587463 48.7750587463
         49.2814826965 49.2814826965 49.2814826965
         49.7902374268 49.7902374268 49.7902374268
         50.3049125671 50.3049125671 50.3049125671
         50.8253288269 50.8253288269 50.8253288269
         51.350063324 51.350063324 51.350063324
         51.8789176941 51.8789176941 51.8789176941
         52.4120063782 52.4120063782 52.4120063782
         52.9512481689 52.9512481689 52.9512481689
         53.4964790344 53.4964790344 53.4964790344
