aces_1.0.1/luts/Dolby_PQ_2000_nits_Shaper_to_linear.spi1d
Version 1
From 0.000000 1.000000
Length 4096
Components 3
{
         4.39453142462e-05 4.39453142462e-05 4.39453142462e-05
         4.40811527369e-05 4.40811527369e-05 4.40811527369e-05
         4.44012621301e-05 4.44012621301e-05 4.44012621301e-05
         4.48579630756e-05 4.48579630756e-05 4.48579630756e-05
         4.54336150142e-05 4.54336150142e-05 4.54336150142e-05
         4.61183517473e-05 4.61183517473e-05 4.61183517473e-05
         4.69058541057e-05 4.69058541057e-05 4.69058541057e-05
         4.77917274111e-05 4.77917274111e-05 4.77917274111e-05
         4.87726465508e-05 4.87726465508e-05 4.87726465508e-05
         4.9846181355e-05 4.9846181355e-05 4.9846181355e-05
         5.10103927809e-05 5.10103927809e-05 5.10103927809e-05
         5.22637856193e-05 5.22637856193e-05 5.22637856193e-05
         5.36050938535e-05 5.36050938535e-05 5.36050938535e-05
         5.50333279534e-05 5.50333279534e-05 5.50333279534e-05
         5.65476475458e-05 5.65476475458e-05 5.65476475458e-05
         5.81475142098e-05 5.81475142098e-05 5.81475142098e-05
         5.98323167651e-05 5.98323167651e-05 5.98323167651e-05
         6.16017932771e-05 6.16017932771e-05 6.16017932771e-05
         6.34554889984e-05 6.34554889984e-05 6.34554889984e-05
         6.53931419947e-05 6.53931419947e-05 6.53931419947e-05
         6.74146140227e-05 6.74146140227e-05 6.74146140227e-05
         6.95198468748e-05 6.95198468748e-05 6.95198468748e-05
         7.17087023077e-05 7.17087023077e-05 7.17087023077e-05
         7.39810930099e-05 7.39810930099e-05 7.39810930099e-05
         7.6336771599e-05 7.6336771599e-05 7.6336771599e-05
         7.87763710832e-05 7.87763710832e-05 7.87763710832e-05
         8.12996513559e-05 8.12996513559e-05 8.12996513559e-05
         8.39063868625e-05 8.39063868625e-05 8.39063868625e-05
         8.65974870976e-05 8.65974870976e-05 8.65974870976e-05
         8.93721444299e-05 8.93721444299e-05 8.93721444299e-05
         9.22315957723e-05 9.22315957723e-05 9.22315957723e-05
         9.51749607339e-05 9.51749607339e-05 9.51749607339e-05
         9.82028359431e-05 9.82028359431e-05 9.82028359431e-05
         0.00010131529416 0.00010131529416 0.00010131529416
         0.000104512837424 0.000104512837424 0.000104512837424
         0.000107796207885 0.000107796207885 0.000107796207885
         0.000111164503323 0.000111164503323 0.000111164503323
         0.000114618880616 0.000114618880616 0.000114618880616
         0.000118158495752 0.000118158495752 0.000118158495752
         0.000121785546071 0.000121785546071 0.000121785546071
         0.000125498248963 0.000125498248963 0.000125498248963
         0.000129298365209 0.000129298365209 0.000129298365209
         0.000133185501909 0.000133185501909 0.000133185501909
         0.000137160604936 0.000137160604936 0.000137160604936
         0.000141223266837 0.000141223266837 0.000141223266837
         0.000145372818224 0.000145372818224 0.000145372818224
         0.000149612431414 0.000149612431414 0.000149612431414
         0.000153940243763 0.000153940243763 0.000153940243763
         0.000158356997417 0.000158356997417 0.000158356997417
         0.000162864977028 0.000162864977028 0.000162864977028
         0.000167460282682 0.000167460282682 0.000167460282682
         0.000172148284037 0.000172148284037 0.000172148284037
         0.000176926274435 0.000176926274435 0.000176926274435
         0.000181793526281 0.000181793526281 0.000181793526281
         0.000186754390597 0.000186754390597 0.000186754390597
         0.000191805025679 0.000191805025679 0.000191805025679
         0.000196950335521 0.000196950335521 0.000196950335521
         0.000202186434763 0.000202186434763 0.000202186434763
         0.000207515244256 0.000207515244256 0.000207515244256
         0.000212937840843 0.000212937840843 0.000212937840843
         0.00021845381707 0.00021845381707 0.00021845381707
         0.000224064060603 0.000224064060603 0.000224064060603
         0.000229769750149 0.000229769750149 0.000229769750149
         0.000235570187215 0.000235570187215 0.000235570187215
         0.000241465386353 0.000241465386353 0.000241465386353
         0.000247457064688 0.000247457064688 0.000247457064688
         0.000253544189036 0.000253544189036 0.000253544189036
         0.0002597294515 0.0002597294515 0.0002597294515
         0.000266008864855 0.000266008864855 0.000266008864855
         0.000272389530437 0.000272389530437 0.000272389530437
         0.000278866034932 0.000278866034932 0.000278866034932
         0.000285440881271 0.000285440881271 0.000285440881271
         0.00029211450601 0.00029211450601 0.00029211450601
         0.000298889179248 0.000298889179248 0.000298889179248
         0.000305759953335 0.000305759953335 0.000305759953335
         0.000312734977342 0.000312734977342 0.000312734977342
         0.000319806393236 0.000319806393236 0.000319806393236
         0.000326982990373 0.000326982990373 0.000326982990373
         0.00033425987931 0.00033425987931 0.00033425987931
         0.000341635895893 0.000341635895893 0.000341635895893
         0.000349116628058 0.000349116628058 0.000349116628058
         0.000356701260898 0.000356701260898 0.000356701260898
         0.000364384439308 0.000364384439308 0.000364384439308
         0.000372176873498 0.000372176873498 0.000372176873498
         0.000380073674023 0.000380073674023 0.000380073674023
         0.000388068903703 0.000388068903703 0.000388068903703
         0.000396174553316 0.000396174553316 0.000396174553316
         0.000404383870773 0.000404383870773 0.000404383870773
         0.00041270168731 0.00041270168731 0.00041270168731
         0.000421127653681 0.000421127653681 0.000421127653681
         0.000429654377513 0.000429654377513 0.000429654377513
         0.000438290066086 0.000438290066086 0.000438290066086
         0.000447039317805 0.000447039317805 0.000447039317805
         0.000455892295577 0.000455892295577 0.000455892295577
         0.000464855576865 0.000464855576865 0.000464855576865
         0.000473930558655 0.000473930558655 0.000473930558655
         0.000483109150082 0.000483109150082 0.000483109150082
         0.000492402701639 0.000492402701639 0.000492402701639
         0.000501803297084 0.000501803297084 0.000501803297084
         0.00051132281078 0.00051132281078 0.00051132281078
         0.000520947796758 0.000520947796758 0.000520947796758
         0.000530689372681 0.000530689372681 0.000530689372681
         0.000540547422133 0.000540547422133 0.000540547422133
         0.000550507800654 0.000550507800654 0.000550507800654
         0.000560587912332 0.000560587912332 0.000560587912332
         0.000570782460272 0.000570782460272 0.000570782460272
         0.000581094296649 0.000581094296649 0.000581094296649
         0.000591519696172 0.000591519696172 0.000591519696172
         0.00060206168564 0.00060206168564 0.00060206168564
         0.000612713978626 0.000612713978626 0.000612713978626
         0.000623488973361 0.000623488973361 0.000623488973361
         0.000634387251921 0.000634387251921 0.000634387251921
         0.000645391875878 0.000645391875878 0.000645391875878
         0.000656524556689 0.000656524556689 0.000656524556689
         0.000667770102154 0.000667770102154 0.000667770102154
         0.000679135962855 0.000679135962855 0.000679135962855
         0.000690621323884 0.000690621323884 0.000690621323884
         0.000702232529875 0.000702232529875 0.000702232529875
         0.000713961140718 0.000713961140718 0.000713961140718
         0.000725807214621 0.000725807214621 0.000725807214621
         0.000737786758691 0.000737786758691 0.000737786758691
         0.000749881903175 0.000749881903175 0.000749881903175
         0.000762097595725 0.000762097595725 0.000762097595725
         0.000774439133238 0.000774439133238 0.000774439133238
         0.000786910473835 0.000786910473835 0.000786910473835
         0.000799503352027 0.000799503352027 0.000799503352027
         0.000812216894701 0.000812216894701 0.000812216894701
         0.000825061753858 0.000825061753858 0.000825061753858
         0.00083803437883 0.00083803437883 0.00083803437883
         0.000851126329508 0.000851126329508 0.000851126329508
         0.000864357105456 0.000864357105456 0.000864357105456
         0.000877715297975 0.000877715297975 0.000877715297975
         0.000891189498361 0.000891189498361 0.000891189498361
         0.000904799206182 0.000904799206182 0.000904799206182
         0.000918538717087 0.000918538717087 0.000918538717087
         0.000932411872782 0.000932411872782 0.000932411872782
         0.000946407555602 0.000946407555602 0.000946407555602
         0.000960543809924 0.000960543809924 0.000960543809924
         0.000974811497144 0.000974811497144 0.000974811497144
         0.000989203574136 0.000989203574136 0.000989203574136
         0.0010037397733 0.0010037397733 0.0010037397733
         0.0010183986742 0.0010183986742 0.0010183986742
         0.00103320379276 0.00103320379276 0.00103320379276
         0.0010481281206 0.0010481281206 0.0010481281206
         0.0010631972691 0.0010631972691 0.0010631972691
         0.00107841391582 0.00107841391582 0.00107841391582
         0.00109374686144 0.00109374686144 0.00109374686144
         0.00110922148451 0.00110922148451 0.00110922148451
         0.00112484151032 0.00112484151032 0.00112484151032
         0.00114059122279 0.00114059122279 0.00114059122279
         0.00115649891086 0.00115649891086 0.00115649891086
         0.00117252010386 0.00117252010386 0.00117252010386
         0.00118869775906 0.00118869775906 0.00118869775906
         0.00120500137564 0.00120500137564 0.00120500137564
         0.00122146331705 0.00122146331705 0.00122146331705
         0.00123806565534 0.00123806565534 0.00123806565534
         0.00125479430426 0.00125479430426 0.00125479430426
         0.00127167929895 0.00127167929895 0.00127167929895
         0.00128870189656 0.00128870189656 0.00128870189656
         0.0013058638433 0.0013058638433 0.0013058638433
         0.00132320204284 0.00132320204284 0.00132320204284
         0.0013406414073 0.0013406414073 0.0013406414073
         0.00135825481266 0.00135825481266 0.00135825481266
         0.00137600570451 0.00137600570451 0.00137600570451
         0.00139390863478 0.00139390863478 0.00139390863478
         0.00141195137985 0.00141195137985 0.00141195137985
         0.00143012730405 0.00143012730405 0.00143012730405
         0.00144847598858 0.00144847598858 0.00144847598858
         0.00146697997116 0.00146697997116 0.00146697997116
         0.0014856189955 0.0014856189955 0.0014856189955
         0.00150441122241 0.00150441122241 0.00150441122241
         0.00152335688472 0.00152335688472 0.00152335688472
         0.00154244888108 0.00154244888108 0.00154244888108
         0.00156169745605 0.00156169745605 0.00156169745605
         0.00158110167831 0.00158110167831 0.00158110167831
         0.0016006504884 0.0016006504884 0.0016006504884
         0.00162037485279 0.00162037485279 0.00162037485279
         0.00164023134857 0.00164023134857 0.00164023134857
         0.00166025734507 0.00166025734507 0.00166025734507
         0.00168043014128 0.00168043014128 0.00168043014128
         0.00170078210067 0.00170078210067 0.00170078210067
         0.00172125606332 0.00172125606332 0.00172125606332
         0.00174190313555 0.00174190313555 0.00174190313555
         0.00176272238605 0.00176272238605 0.00176272238605
         0.00178369064815 0.00178369064815 0.00178369064815
         0.00180482934229 0.00180482934229 0.00180482934229
         0.0018260863144 0.0018260863144 0.0018260863144
         0.0018475727411 0.0018475727411 0.0018475727411
         0.00186917500105 0.00186917500105 0.00186917500105
         0.00189095083624 0.00189095083624 0.00189095083624
         0.00191289710347 0.00191289710347 0.00191289710347
         0.00193498597946 0.00193498597946 0.00193498597946
         0.00195724796504 0.00195724796504 0.00195724796504
         0.00197967793792 0.00197967793792 0.00197967793792
         0.00200228090398 0.00200228090398 0.00200228090398
         0.00202505523339 0.00202505523339 0.00202505523339
         0.00204796902835 0.00204796902835 0.00204796902835
         0.00207108166069 0.00207108166069 0.00207108166069
         0.00209433748387 0.00209433748387 0.00209433748387
         0.00211775605567 0.00211775605567 0.00211775605567
         0.00214138044976 0.00214138044976 0.00214138044976
         0.0021651382558 0.0021651382558 0.0021651382558
         0.00218910141848 0.00218910141848 0.00218910141848
         0.00221322686411 0.00221322686411 0.00221322686411
         0.00223752553575 0.00223752553575 0.00223752553575
         0.00226199207827 0.00226199207827 0.00226199207827
         0.00228662509471 0.00228662509471 0.00228662509471
         0.00231142481789 0.00231142481789 0.00231142481789
         0.00233642105013 0.00233642105013 0.00233642105013
         0.00236158864573 0.00236158864573 0.00236158864573
         0.00238692061976 0.00238692061976 0.00238692061976
         0.0024124563206 0.0024124563206 0.0024124563206
         0.00243815663271 0.00243815663271 0.00243815663271
         0.00246401852928 0.00246401852928 0.00246401852928
         0.00249004876241 0.00249004876241 0.00249004876241
         0.00251631555147 0.00251631555147 0.00251631555147
         0.00254271039739 0.00254271039739 0.00254271039739
         0.00256930687465 0.00256930687465 0.00256930687465
         0.00259606190957 0.00259606190957 0.00259606190957
         0.00262302579358 0.00262302579358 0.00262302579358
         0.00265018409118 0.00265018409118 0.00265018409118
         0.00267750886269 0.00267750886269 0.00267750886269
         0.0027050350327 0.0027050350327 0.0027050350327
         0.00273271626793 0.00273271626793 0.00273271626793
         0.00276060588658 0.00276060588658 0.00276060588658
         0.00278865080327 0.00278865080327 0.00278865080327
         0.00281690456904 0.00281690456904 0.00281690456904
         0.00284535810351 0.00284535810351 0.00284535810351
         0.00287400302477 0.00287400302477 0.00287400302477
         0.00290281511843 0.00290281511843 0.00290281511843
         0.00293182791211 0.00293182791211 0.00293182791211
         0.00296104163863 0.00296104163863 0.00296104163863
         0.00299041089602 0.00299041089602 0.00299041089602
         0.00302002951503 0.00302002951503 0.00302002951503
         0.00304980413057 0.00304980413057 0.00304980413057
         0.00307977665216 0.00307977665216 0.00307977665216
         0.00310994894244 0.00310994894244 0.00310994894244
         0.00314032612368 0.00314032612368 0.00314032612368
         0.00317085604183 0.00317085604183 0.00317085604183
         0.00320163695142 0.00320163695142 0.00320163695142
         0.00323261716403 0.00323261716403 0.00323261716403
         0.00326374615543 0.00326374615543 0.00326374615543
         0.00329507980496 0.00329507980496 0.00329507980496
         0.00332666561007 0.00332666561007 0.00332666561007
         0.00335839833133 0.00335839833133 0.00335839833133
         0.00339038670063 0.00339038670063 0.00339038670063
         0.00342251756229 0.00342251756229 0.00342251756229
         0.00345485541038 0.00345485541038 0.00345485541038
         0.00348744401708 0.00348744401708 0.00348744401708
         0.00352017604746 0.00352017604746 0.00352017604746
         0.00355322426185 0.00355322426185 0.00355322426185
         0.00358635256998 0.00358635256998 0.00358635256998
         0.00361974583939 0.00361974583939 0.00361974583939
         0.00365333957598 0.00365333957598 0.00365333957598
         0.00368712563068 0.00368712563068 0.00368712563068
         0.00372116616927 0.00372116616927 0.00372116616927
         0.00375535245985 0.00375535245985 0.00375535245985
         0.00378979695961 0.00378979695961 0.00378979695961
         0.00382444099523 0.00382444099523 0.00382444099523
         0.00385928316973 0.00385928316973 0.00385928316973
         0.00389438378625 0.00389438378625 0.00389438378625
         0.00392961548641 0.00392961548641 0.00392961548641
         0.00396511331201 0.00396511331201 0.00396511331201
         0.00400080997497 0.00400080997497 0.00400080997497
         0.0040367632173 0.0040367632173 0.0040367632173
         0.00407285382971 0.00407285382971 0.00407285382971
         0.00410920381546 0.00410920381546 0.00410920381546
         0.00414580805227 0.00414580805227 0.00414580805227
         0.00418262230232 0.00418262230232 0.00418262230232
         0.00421955808997 0.00421955808997 0.00421955808997
         0.00425682635978 0.00425682635978 0.00425682635978
         0.00429429113865 0.00429429113865 0.00429429113865
         0.00433202600107 0.00433202600107 0.00433202600107
         0.00436987867579 0.00436987867579 0.00436987867579
         0.00440799957141 0.00440799957141 0.00440799957141
         0.00444631511346 0.00444631511346 0.00444631511346
         0.00448488770053 0.00448488770053 0.00448488770053
         0.00452373363078 0.00452373363078 0.00452373363078
         0.00456270342693 0.00456270342693 0.00456270342693
         0.00460201501846 0.00460201501846 0.00460201501846
         0.00464143138379 0.00464143138379 0.00464143138379
         0.00468120770529 0.00468120770529 0.00468120770529
         0.00472108554095 0.00472108554095 0.00472108554095
         0.00476123765111 0.00476123765111 0.00476123765111
         0.00480166310444 0.00480166310444 0.00480166310444
         0.00484227482229 0.00484227482229 0.00484227482229
         0.0048831612803 0.0048831612803 0.0048831612803
         0.00492430990562 0.00492430990562 0.00492430990562
         0.00496556749567 0.00496556749567 0.00496556749567
         0.00500718783587 0.00500718783587 0.00500718783587
         0.00504898093641 0.00504898093641 0.00504898093641
         0.00509106367826 0.00509106367826 0.00509106367826
         0.00513332756236 0.00513332756236 0.00513332756236
         0.00517585407943 0.00517585407943 0.00517585407943
         0.00521857570857 0.00521857570857 0.00521857570857
         0.00526156974956 0.00526156974956 0.00526156974956
         0.00530484318733 0.00530484318733 0.00530484318733
         0.00534837786108 0.00534837786108 0.00534837786108
         0.00539210485294 0.00539210485294 0.00539210485294
         0.00543601345271 0.00543601345271 0.00543601345271
         0.00548019446433 0.00548019446433 0.00548019446433
         0.00552475452423 0.00552475452423 0.00552475452423
         0.00556938815862 0.00556938815862 0.00556938815862
         0.00561439944431 0.00561439944431 0.00561439944431
         0.0056595900096 0.0056595900096 0.0056595900096
         0.00570505438372 0.00570505438372 0.00570505438372
         0.00575070641935 0.00575070641935 0.00575070641935
         0.00579672679305 0.00579672679305 0.00579672679305
         0.00584293529391 0.00584293529391 0.00584293529391
         0.00588931608945 0.00588931608945 0.00588931608945
         0.00593607872725 0.00593607872725 0.00593607872725
         0.00598310679197 0.00598310679197 0.00598310679197
         0.00603032065555 0.00603032065555 0.00603032065555
         0.00607771566138 0.00607771566138 0.00607771566138
         0.00612548459321 0.00612548459321 0.00612548459321
         0.00617353152484 0.00617353152484 0.00617353152484
         0.00622176053002 0.00622176053002 0.00622176053002
         0.00627027126029 0.00627027126029 0.00627027126029
         0.0063190581277 0.0063190581277 0.0063190581277
         0.00636800657958 0.00636800657958 0.00636800657958
         0.00641735410318 0.00641735410318 0.00641735410318
         0.00646697590128 0.00646697590128 0.00646697590128
         0.00651678116992 0.00651678116992 0.00651678116992
         0.00656686490402 0.00656686490402 0.00656686490402
         0.00661722430959 0.00661722430959 0.00661722430959
         0.00666786869988 0.00666786869988 0.00666786869988
         0.006718786899 0.006718786899 0.006718786899
         0.00676988391206 0.00676988391206 0.00676988391206
         0.00682125473395 0.00682125473395 0.00682125473395
         0.00687303533778 0.00687303533778 0.00687303533778
         0.00692496914417 0.00692496914417 0.00692496914417
         0.00697730854154 0.00697730854154 0.00697730854154
         0.00702982256189 0.00702982256189 0.00702982256189
         0.00708248093724 0.00708248093724 0.00708248093724
         0.00713554769754 0.00713554769754 0.00713554769754
         0.00718892039731 0.00718892039731 0.00718892039731
         0.00724255107343 0.00724255107343 0.00724255107343
         0.00729648116976 0.00729648116976 0.00729648116976
         0.00735068926588 0.00735068926588 0.00735068926588
         0.0074050645344 0.0074050645344 0.0074050645344
         0.00745983701199 0.00745983701199 0.00745983701199
         0.0075149089098 0.0075149089098 0.0075149089098
         0.00757012004033 0.00757012004033 0.00757012004033
         0.00762575259432 0.00762575259432 0.00762575259432
         0.00768169062212 0.00768169062212 0.00768169062212
         0.00773775903508 0.00773775903508 0.00773775903508
         0.00779413292184 0.00779413292184 0.00779413292184
         0.00785090960562 0.00785090960562 0.00785090960562
         0.00790798757225 0.00790798757225 0.00790798757225
         0.00796521827579 0.00796521827579 0.00796521827579
         0.00802285689861 0.00802285689861 0.00802285689861
         0.00808064825833 0.00808064825833 0.00808064825833
         0.00813886616379 0.00813886616379 0.00813886616379
         0.0081973709166 0.0081973709166 0.0081973709166
         0.00825617648661 0.00825617648661 0.00825617648661
         0.00831526052207 0.00831526052207 0.00831526052207
         0.0083744879812 0.0083744879812 0.0083744879812
         0.00843429006636 0.00843429006636 0.00843429006636
         0.00849423743784 0.00849423743784 0.00849423743784
         0.00855432637036 0.00855432637036 0.00855432637036
         0.00861499272287 0.00861499272287 0.00861499272287
         0.00867582391948 0.00867582391948 0.00867582391948
         0.00873691029847 0.00873691029847 0.00873691029847
         0.00879846792668 0.00879846792668 0.00879846792668
         0.00886013545096 0.00886013545096 0.00886013545096
         0.00892224907875 0.00892224907875 0.00892224907875
         0.0089846663177 0.0089846663177 0.0089846663177
         0.00904721394181 0.00904721394181 0.00904721394181
         0.00911036413163 0.00911036413163 0.00911036413163
         0.00917364563793 0.00917364563793 0.00917364563793
         0.00923705194145 0.00923705194145 0.00923705194145
         0.00930106081069 0.00930106081069 0.00930106081069
         0.00936522334814 0.00936522334814 0.00936522334814
         0.00942981615663 0.00942981615663 0.00942981615663
         0.00949471909553 0.00949471909553 0.00949471909553
         0.00955989211798 0.00955989211798 0.00955989211798
         0.00962537620217 0.00962537620217 0.00962537620217
         0.00969113130122 0.00969113130122 0.00969113130122
         0.0097571881488 0.0097571881488 0.0097571881488
         0.0098237125203 0.0098237125203 0.0098237125203
         0.00989051628858 0.00989051628858 0.00989051628858
         0.00995743088424 0.00995743088424 0.00995743088424
         0.0100248111412 0.0100248111412 0.0100248111412
         0.0100926607847 0.0100926607847 0.0100926607847
         0.0101606519893 0.0101606519893 0.0101606519893
         0.0102290846407 0.0102290846407 0.0102290846407
         0.010297819972 0.010297819972 0.010297819972
         0.0103668319061 0.0103668319061 0.0103668319061
         0.0104361465201 0.0104361465201 0.0104361465201
         0.0105057368055 0.0105057368055 0.0105057368055
         0.0105758281425 0.0105758281425 0.0105758281425
         0.0106461988762 0.0106461988762 0.0106461988762
         0.0107168424875 0.0107168424875 0.0107168424875
         0.0107877925038 0.0107877925038 0.0107877925038
