aces_1.0.1/luts/Dolby_PQ_48_nits_Shaper_to_linear.spi1d
Version 1
From 0.000000 1.000000
Length 4096
Components 3
{
         0.00198873784393 0.00198873784393 0.00198873784393
         0.00198874389753 0.00198874389753 0.00198874389753
         0.0019887581002 0.0019887581002 0.0019887581002
         0.00198877812363 0.00198877812363 0.00198877812363
         0.00198880350217 0.00198880350217 0.00198880350217
         0.00198883377016 0.00198883377016 0.00198883377016
         0.00198886869475 0.00198886869475 0.00198886869475
         0.0019889078103 0.0019889078103 0.0019889078103
         0.0019889511168 0.0019889511168 0.0019889511168
         0.00198899861425 0.00198899861425 0.00198899861425
         0.00198905006982 0.00198905006982 0.00198905006982
         0.00198910548352 0.00198910548352 0.00198910548352
         0.0019891646225 0.0019891646225 0.0019891646225
         0.0019892277196 0.0019892277196 0.0019892277196
         0.00198929477483 0.00198929477483 0.00198929477483
         0.00198936532252 0.00198936532252 0.00198936532252
         0.00198943982832 0.00198943982832 0.00198943982832
         0.00198951805942 0.00198951805942 0.00198951805942
         0.0019896000158 0.0019896000158 0.0019896000158
         0.00198968569748 0.00198968569748 0.00198968569748
         0.00198977487162 0.00198977487162 0.00198977487162
         0.00198986800388 0.00198986800388 0.00198986800388
         0.00198996462859 0.00198996462859 0.00198996462859
         0.0019900649786 0.0019900649786 0.0019900649786
         0.00199016928673 0.00199016928673 0.00199016928673
         0.00199027708732 0.00199027708732 0.00199027708732
         0.00199038838036 0.00199038838036 0.00199038838036
         0.00199050363153 0.00199050363153 0.00199050363153
         0.00199062260799 0.00199062260799 0.00199062260799
         0.00199074530974 0.00199074530974 0.00199074530974
         0.00199087150395 0.00199087150395 0.00199087150395
         0.00199100165628 0.00199100165628 0.00199100165628
         0.0019911355339 0.0019911355339 0.0019911355339
         0.00199127290398 0.00199127290398 0.00199127290398
         0.00199141423218 0.00199141423218 0.00199141423218
         0.00199155928567 0.00199155928567 0.00199155928567
         0.00199170806445 0.00199170806445 0.00199170806445
         0.00199186080135 0.00199186080135 0.00199186080135
         0.00199201726355 0.00199201726355 0.00199201726355
         0.00199217745103 0.00199217745103 0.00199217745103
         0.00199234159663 0.00199234159663 0.00199234159663
         0.00199250946753 0.00199250946753 0.00199250946753
         0.00199268129654 0.00199268129654 0.00199268129654
         0.00199285685085 0.00199285685085 0.00199285685085
         0.00199303636327 0.00199303636327 0.00199303636327
         0.00199321983382 0.00199321983382 0.00199321983382
         0.00199340702966 0.00199340702966 0.00199340702966
         0.00199359841645 0.00199359841645 0.00199359841645
         0.00199379352853 0.00199379352853 0.00199379352853
         0.00199399283156 0.00199399283156 0.00199399283156
         0.00199419585988 0.00199419585988 0.00199419585988
         0.00199440307915 0.00199440307915 0.00199440307915
         0.00199461402372 0.00199461402372 0.00199461402372
         0.00199482915923 0.00199482915923 0.00199482915923
         0.0019950484857 0.0019950484857 0.0019950484857
         0.00199527153745 0.00199527153745 0.00199527153745
         0.00199549901299 0.00199549901299 0.00199549901299
         0.00199573021382 0.00199573021382 0.00199573021382
         0.00199596583843 0.00199596583843 0.00199596583843
         0.00199620542116 0.00199620542116 0.00199620542116
         0.00199644919485 0.00199644919485 0.00199644919485
         0.00199669715948 0.00199669715948 0.00199669715948
         0.00199694931507 0.00199694931507 0.00199694931507
         0.00199720542878 0.00199720542878 0.00199720542878
         0.00199746596627 0.00199746596627 0.00199746596627
         0.00199773069471 0.00199773069471 0.00199773069471
         0.00199799984694 0.00199799984694 0.00199799984694
         0.00199827319011 0.00199827319011 0.00199827319011
         0.00199855049141 0.00199855049141 0.00199855049141
         0.00199883244932 0.00199883244932 0.00199883244932
         0.00199911859818 0.00199911859818 0.00199911859818
         0.00199940917082 0.00199940917082 0.00199940917082
         0.00199970416725 0.00199970416725 0.00199970416725
         0.00200000358745 0.00200000358745 0.00200000358745
         0.00200030719861 0.00200030719861 0.00200030719861
         0.00200061523356 0.00200061523356 0.00200061523356
         0.00200092792511 0.00200092792511 0.00200092792511
         0.00200124504045 0.00200124504045 0.00200124504045
         0.00200156657957 0.00200156657957 0.00200156657957
         0.00200189254247 0.00200189254247 0.00200189254247
         0.00200222292915 0.00200222292915 0.00200222292915
         0.00200255820528 0.00200255820528 0.00200255820528
         0.00200289767236 0.00200289767236 0.00200289767236
         0.00200324202888 0.00200324202888 0.00200324202888
         0.00200359104201 0.00200359104201 0.00200359104201
         0.0020039442461 0.0020039442461 0.0020039442461
         0.00200430233963 0.00200430233963 0.00200430233963
         0.00200466508977 0.00200466508977 0.00200466508977
         0.00200503272936 0.00200503272936 0.00200503272936
         0.00200540502556 0.00200540502556 0.00200540502556
         0.00200578174554 0.00200578174554 0.00200578174554
         0.00200616335496 0.00200616335496 0.00200616335496
         0.00200655008666 0.00200655008666 0.00200655008666
         0.00200694124214 0.00200694124214 0.00200694124214
         0.00200733728707 0.00200733728707 0.00200733728707
         0.00200773845427 0.00200773845427 0.00200773845427
         0.00200814404525 0.00200814404525 0.00200814404525
         0.00200855452567 0.00200855452567 0.00200855452567
         0.00200897012837 0.00200897012837 0.00200897012837
         0.00200939062051 0.00200939062051 0.00200939062051
         0.0020098160021 0.0020098160021 0.0020098160021
         0.00201024650596 0.00201024650596 0.00201024650596
         0.0020106821321 0.0020106821321 0.0020106821321
         0.00201112218201 0.00201112218201 0.00201112218201
         0.00201156758703 0.00201156758703 0.00201156758703
         0.00201201811433 0.00201201811433 0.00201201811433
         0.0020124737639 0.0020124737639 0.0020124737639
         0.00201293453574 0.00201293453574 0.00201293453574
         0.00201340042986 0.00201340042986 0.00201340042986
         0.00201387098059 0.00201387098059 0.00201387098059
         0.00201434711926 0.00201434711926 0.00201434711926
         0.00201482884586 0.00201482884586 0.00201482884586
         0.00201531499624 0.00201531499624 0.00201531499624
         0.00201580696739 0.00201580696739 0.00201580696739
         0.00201630382799 0.00201630382799 0.00201630382799
         0.00201680604368 0.00201680604368 0.00201680604368
         0.00201731361449 0.00201731361449 0.00201731361449
         0.00201782677323 0.00201782677323 0.00201782677323
         0.00201834505424 0.00201834505424 0.00201834505424
         0.00201886845753 0.00201886845753 0.00201886845753
         0.00201939791441 0.00201939791441 0.00201939791441
         0.00201993226074 0.00201993226074 0.00201993226074
         0.002020472195 0.002020472195 0.002020472195
         0.00202101748437 0.00202101748437 0.00202101748437
         0.0020215685945 0.0020215685945 0.0020215685945
         0.00202212505974 0.00202212505974 0.00202212505974
         0.00202268688008 0.00202268688008 0.00202268688008
         0.00202325452119 0.00202325452119 0.00202325452119
         0.00202382775024 0.00202382775024 0.00202382775024
         0.00202440610155 0.00202440610155 0.00202440610155
         0.0020249907393 0.0020249907393 0.0020249907393
         0.00202558119781 0.00202558119781 0.00202558119781
         0.00202617654577 0.00202617654577 0.00202617654577
         0.00202677794732 0.00202677794732 0.00202677794732
         0.00202738516964 0.00202738516964 0.00202738516964
         0.00202799821272 0.00202799821272 0.00202799821272
         0.00202861661091 0.00202861661091 0.00202861661091
         0.00202924129553 0.00202924129553 0.00202924129553
         0.00202987156808 0.00202987156808 0.00202987156808
         0.0020305076614 0.0020305076614 0.0020305076614
         0.00203115004115 0.00203115004115 0.00203115004115
         0.002031797776 0.002031797776 0.002031797776
         0.00203245203011 0.00203245203011 0.00203245203011
         0.00203311140649 0.00203311140649 0.00203311140649
         0.00203377730213 0.00203377730213 0.00203377730213
         0.00203444971703 0.00203444971703 0.00203444971703
         0.0020351272542 0.0020351272542 0.0020351272542
         0.0020358110778 0.0020358110778 0.0020358110778
         0.00203650142066 0.00203650142066 0.00203650142066
         0.00203719735146 0.00203719735146 0.00203719735146
         0.00203790026717 0.00203790026717 0.00203790026717
         0.00203860830516 0.00203860830516 0.00203860830516
         0.00203932309523 0.00203932309523 0.00203932309523
         0.00204004347324 0.00204004347324 0.00204004347324
         0.00204077083617 0.00204077083617 0.00204077083617
         0.00204150448553 0.00204150448553 0.00204150448553
         0.00204224372283 0.00204224372283 0.00204224372283
         0.00204298994504 0.00204298994504 0.00204298994504
         0.00204374222085 0.00204374222085 0.00204374222085
         0.00204450055026 0.00204450055026 0.00204450055026
         0.00204526656307 0.00204526656307 0.00204526656307
         0.0020460372325 0.0020460372325 0.0020460372325
         0.00204681558535 0.00204681558535 0.00204681558535
         0.00204759999178 0.00204759999178 0.00204759999178
         0.00204839115031 0.00204839115031 0.00204839115031
         0.00204918836243 0.00204918836243 0.00204918836243
         0.00204999162816 0.00204999162816 0.00204999162816
         0.00205080234446 0.00205080234446 0.00205080234446
         0.00205162004568 0.00205162004568 0.00205162004568
         0.00205244356766 0.00205244356766 0.00205244356766
         0.00205327407457 0.00205327407457 0.00205327407457
         0.00205411133356 0.00205411133356 0.00205411133356
         0.00205495487899 0.00205495487899 0.00205495487899
         0.00205580540933 0.00205580540933 0.00205580540933
         0.00205666292459 0.00205666292459 0.00205666292459
         0.00205752672628 0.00205752672628 0.00205752672628
         0.00205839844421 0.00205839844421 0.00205839844421
         0.00205927575007 0.00205927575007 0.00205927575007
         0.00206016073935 0.00206016073935 0.00206016073935
         0.00206105201505 0.00206105201505 0.00206105201505
         0.00206195143983 0.00206195143983 0.00206195143983
         0.00206285621971 0.00206285621971 0.00206285621971
         0.00206376845017 0.00206376845017 0.00206376845017
         0.00206468859687 0.00206468859687 0.00206468859687
         0.00206561503001 0.00206561503001 0.00206561503001
         0.00206654914655 0.00206654914655 0.00206654914655
         0.00206748838536 0.00206748838536 0.00206748838536
         0.00206843786873 0.00206843786873 0.00206843786873
         0.00206939247437 0.00206939247437 0.00206939247437
         0.00207035476342 0.00207035476342 0.00207035476342
         0.00207132450305 0.00207132450305 0.00207132450305
         0.00207230052911 0.00207230052911 0.00207230052911
         0.00207328423858 0.00207328423858 0.00207328423858
         0.00207427563146 0.00207427563146 0.00207427563146
         0.00207527424209 0.00207527424209 0.00207527424209
         0.00207628076896 0.00207628076896 0.00207628076896
         0.0020772931166 0.0020772931166 0.0020772931166
         0.00207831454463 0.00207831454463 0.00207831454463
         0.00207934225909 0.00207934225909 0.00207934225909
         0.00208037695847 0.00208037695847 0.00208037695847
         0.00208142097108 0.00208142097108 0.00208142097108
         0.00208247080445 0.00208247080445 0.00208247080445
         0.00208352971822 0.00208352971822 0.00208352971822
         0.00208459584974 0.00208459584974 0.00208459584974
         0.00208566943184 0.00208566943184 0.00208566943184
         0.00208675069734 0.00208675069734 0.00208675069734
         0.0020878391806 0.0020878391806 0.0020878391806
         0.00208893511444 0.00208893511444 0.00208893511444
         0.00209003966302 0.00209003966302 0.00209003966302
         0.00209115166217 0.00209115166217 0.00209115166217
         0.00209227111191 0.00209227111191 0.00209227111191
         0.0020933994092 0.0020933994092 0.0020933994092
         0.00209453515708 0.00209453515708 0.00209453515708
         0.00209567788988 0.00209567788988 0.00209567788988
         0.00209682807326 0.00209682807326 0.00209682807326
         0.00209798896685 0.00209798896685 0.00209798896685
         0.00209915521555 0.00209915521555 0.00209915521555
         0.00210033054464 0.00210033054464 0.00210033054464
         0.00210151285864 0.00210151285864 0.00210151285864
         0.00210270425305 0.00210270425305 0.00210270425305
         0.00210390426219 0.00210390426219 0.00210390426219
         0.0021051117219 0.0021051117219 0.0021051117219
         0.00210632826202 0.00210632826202 0.00210632826202
         0.00210755132139 0.00210755132139 0.00210755132139
         0.00210878369398 0.00210878369398 0.00210878369398
         0.0021100230515 0.0021100230515 0.0021100230515
         0.00211127148941 0.00211127148941 0.00211127148941
         0.00211252877489 0.00211252877489 0.00211252877489
         0.0021137946751 0.0021137946751 0.0021137946751
         0.00211506779306 0.00211506779306 0.00211506779306
         0.00211634975858 0.00211634975858 0.00211634975858
         0.0021176408045 0.0021176408045 0.0021176408045
         0.00211893860251 0.00211893860251 0.00211893860251
         0.00212024734356 0.00212024734356 0.00212024734356
         0.00212156306952 0.00212156306952 0.00212156306952
         0.00212288741022 0.00212288741022 0.00212288741022
         0.00212422083132 0.00212422083132 0.00212422083132
         0.00212556309998 0.00212556309998 0.00212556309998
         0.00212691212073 0.00212691212073 0.00212691212073
         0.00212827231735 0.00212827231735 0.00212827231735
         0.00212964136153 0.00212964136153 0.00212964136153
         0.00213101692498 0.00213101692498 0.00213101692498
         0.00213240156882 0.00213240156882 0.00213240156882
         0.00213379715569 0.00213379715569 0.00213379715569
         0.00213519949466 0.00213519949466 0.00213519949466
         0.0021366130095 0.0021366130095 0.0021366130095
         0.00213803281076 0.00213803281076 0.00213803281076
         0.00213946169242 0.00213946169242 0.00213946169242
         0.00214090174995 0.00214090174995 0.00214090174995
         0.00214234832674 0.00214234832674 0.00214234832674
         0.00214380864054 0.00214380864054 0.00214380864054
         0.0021452724468 0.0021452724468 0.0021452724468
         0.00214674812742 0.00214674812742 0.00214674812742
         0.0021482326556 0.0021482326556 0.0021482326556
         0.00214972556569 0.00214972556569 0.00214972556569
         0.00215122965164 0.00215122965164 0.00215122965164
         0.00215274048969 0.00215274048969 0.00215274048969
         0.00215426250361 0.00215426250361 0.00215426250361
         0.00215579336509 0.00215579336509 0.00215579336509
         0.00215733307414 0.00215733307414 0.00215733307414
         0.00215888395905 0.00215888395905 0.00215888395905
         0.00216044089757 0.00216044089757 0.00216044089757
         0.00216200947762 0.00216200947762 0.00216200947762
         0.00216358690523 0.00216358690523 0.00216358690523
         0.00216517550871 0.00216517550871 0.00216517550871
         0.00216677039862 0.00216677039862 0.00216677039862
         0.00216837669723 0.00216837669723 0.00216837669723
         0.00216999417171 0.00216999417171 0.00216999417171
         0.00217162095942 0.00217162095942 0.00217162095942
         0.00217325310223 0.00217325310223 0.00217325310223
         0.00217489991337 0.00217489991337 0.00217489991337
         0.00217655533925 0.00217655533925 0.00217655533925
         0.00217822287232 0.00217822287232 0.00217822287232
         0.00217989552766 0.00217989552766 0.00217989552766
         0.00218158005737 0.00218158005737 0.00218158005737
         0.00218327320181 0.00218327320181 0.00218327320181
         0.00218497775495 0.00218497775495 0.00218497775495
         0.00218669418246 0.00218669418246 0.00218669418246
         0.0021884161979 0.0021884161979 0.0021884161979
         0.00219015334733 0.00219015334733 0.00219015334733
         0.00219189515337 0.00219189515337 0.00219189515337
         0.0021936527919 0.0021936527919 0.0021936527919
         0.00219541485421 0.00219541485421 0.00219541485421
         0.00219718925655 0.00219718925655 0.00219718925655
         0.00219897553325 0.00219897553325 0.00219897553325
         0.00220077019185 0.00220077019185 0.00220077019185
         0.00220257695764 0.00220257695764 0.00220257695764
         0.00220439513214 0.00220439513214 0.00220439513214
         0.00220621842891 0.00220621842891 0.00220621842891
         0.00220805755816 0.00220805755816 0.00220805755816
         0.00220990437083 0.00220990437083 0.00220990437083
         0.00221176375635 0.00221176375635 0.00221176375635
         0.00221363152377 0.00221363152377 0.00221363152377
         0.0022155106999 0.0022155106999 0.0022155106999
         0.00221739849076 0.00221739849076 0.00221739849076
         0.00221929838881 0.00221929838881 0.00221929838881
         0.00222121039405 0.00222121039405 0.00222121039405
         0.00222313427366 0.00222313427366 0.00222313427366
         0.00222506653517 0.00222506653517 0.00222506653517
         0.00222700671293 0.00222700671293 0.00222700671293
         0.00222895899788 0.00222895899788 0.00222895899788
         0.00223092804663 0.00223092804663 0.00223092804663
         0.00223290035501 0.00223290035501 0.00223290035501
         0.0022348894272 0.0022348894272 0.0022348894272
         0.00223688641563 0.00223688641563 0.00223688641563
         0.00223889527842 0.00223889527842 0.00223889527842
         0.00224091275595 0.00224091275595 0.00224091275595
         0.00224294629879 0.00224294629879 0.00224294629879
         0.00224498822354 0.00224498822354 0.00224498822354
         0.00224703759886 0.00224703759886 0.00224703759886
         0.00224910397083 0.00224910397083 0.00224910397083
         0.00225118221715 0.00225118221715 0.00225118221715
         0.00225326837972 0.00225326837972 0.00225326837972
         0.00225536292419 0.00225536292419 0.00225536292419
         0.0022574737668 0.0022574737668 0.0022574737668
         0.00225959671661 0.00225959671661 0.00225959671661
         0.00226172804832 0.00226172804832 0.00226172804832
         0.00226387148723 0.00226387148723 0.00226387148723
         0.00226602749899 0.00226602749899 0.00226602749899
         0.00226819049567 0.00226819049567 0.00226819049567
         0.00227037095465 0.00227037095465 0.00227037095465
         0.00227256375365 0.00227256375365 0.00227256375365
         0.00227476470172 0.00227476470172 0.00227476470172
         0.00227697775699 0.00227697775699 0.00227697775699
         0.00227920291945 0.00227920291945 0.00227920291945
         0.0022814408876 0.0022814408876 0.0022814408876
         0.00228369096294 0.00228369096294 0.00228369096294
         0.00228594895452 0.00228594895452 0.00228594895452
         0.00228821882047 0.00228821882047 0.00228821882047
         0.00229050708003 0.00229050708003 0.00229050708003
         0.00229280185886 0.00229280185886 0.00229280185886
         0.00229511479847 0.00229511479847 0.00229511479847
         0.00229743518867 0.00229743518867 0.00229743518867
         0.00229976209812 0.00229976209812 0.00229976209812
         0.00230210716836 0.00230210716836 0.00230210716836
         0.00230446550995 0.00230446550995 0.00230446550995
         0.00230683549307 0.00230683549307 0.00230683549307
         0.00230921851471 0.00230921851471 0.00230921851471
         0.00231161387637 0.00231161387637 0.00231161387637
         0.00231401668862 0.00231401668862 0.00231401668862
         0.00231643719599 0.00231643719599 0.00231643719599
         0.00231887074187 0.00231887074187 0.00231887074187
         0.00232131034136 0.00232131034136 0.00232131034136
         0.00232376856729 0.00232376856729 0.00232376856729
         0.00232624053024 0.00232624053024 0.00232624053024
         0.00232871808112 0.00232871808112 0.00232871808112
         0.00233120913617 0.00233120913617 0.00233120913617
         0.00233371811919 0.00233371811919 0.00233371811919
         0.00233624037355 0.00233624037355 0.00233624037355
         0.00233876914717 0.00233876914717 0.00233876914717
         0.00234131631441 0.00234131631441 0.00234131631441
         0.00234387000091 0.00234387000091 0.00234387000091
         0.0023464425467 0.0023464425467 0.0023464425467
         0.00234902789816 0.00234902789816 0.00234902789816
         0.00235162628815 0.00235162628815 0.00235162628815
         0.00235423725098 0.00235423725098 0.00235423725098
         0.00235685426742 0.00235685426742 0.00235685426742
         0.00235949689522 0.00235949689522 0.00235949689522
         0.00236214604229 0.00236214604229 0.00236214604229
         0.00236480124295 0.00236480124295 0.00236480124295
         0.00236748205498 0.00236748205498 0.00236748205498
         0.00237017008476 0.00237017008476 0.00237017008476
         0.00237286929041 0.00237286929041 0.00237286929041
         0.00237558945082 0.00237558945082 0.00237558945082
         0.00237831450067 0.00237831450067 0.00237831450067
         0.00238105934113 0.00238105934113 0.00238105934113
         0.00238381745294 0.00238381745294 0.00238381745294
         0.00238658138551 0.00238658138551 0.00238658138551
         0.00238937186077 0.00238937186077 0.00238937186077
         0.0023921681568 0.0023921681568 0.0023921681568
         0.00239497004077 0.00239497004077 0.00239497004077
         0.00239779846743 0.00239779846743 0.00239779846743
         0.00240063387901 0.00240063387901 0.00240063387901
         0.00240348814987 0.00240348814987 0.00240348814987
         0.0024063559249 0.0024063559249 0.0024063559249
         0.00240923603997 0.00240923603997 0.00240923603997
         0.00241212965921 0.00241212965921 0.00241212965921
         0.00241503538564 0.00241503538564 0.00241503538564
         0.00241795415059 0.00241795415059 0.00241795415059
         0.00242089387029 0.00242089387029 0.00242089387029
         0.00242384569719 0.00242384569719 0.00242384569719
         0.00242680264637 0.00242680264637 0.00242680264637
         0.00242978008464 0.00242978008464 0.00242978008464
         0.00243277847767 0.00243277847767 0.00243277847767
         0.00243578292429 0.00243578292429 0.00243578292429
         0.00243880669586 0.00243880669586 0.00243880669586
         0.00244184397161 0.00244184397161 0.00244184397161
         0.00244489358738 0.00244489358738 0.00244489358738
         0.0024479564745 0.0024479564745 0.0024479564745
         0.00245103170164 0.00245103170164 0.00245103170164
         0.00245412881486 0.00245412881486 0.00245412881486
         0.00245723850094 0.00245723850094 0.00245723850094
         0.00246036006138 0.00246036006138 0.00246036006138
         0.00246349535882 0.00246349535882 0.00246349535882
         0.00246665184386 0.00246665184386 0.00246665184386
         0.00246982160024 0.00246982160024 0.00246982160024
         0.00247300323099 0.00247300323099 0.00247300323099
         0.00247619859874 0.00247619859874 0.00247619859874
         0.00247941538692 0.00247941538692 0.00247941538692
         0.00248263613321 0.00248263613321 0.00248263613321
         0.00248588807881 0.00248588807881 0.00248588807881
