aces_1.0.1/luts/Dolby_PQ_4000_nits_Shaper_to_linear.spi1d
Version 1
From 0.000000 1.000000
Length 4096
Components 3
{
         4.39453142462e-05 4.39453142462e-05 4.39453142462e-05
         4.42169912276e-05 4.42169912276e-05 4.42169912276e-05
         4.4857210014e-05 4.4857210014e-05 4.4857210014e-05
         4.5770611905e-05 4.5770611905e-05 4.5770611905e-05
         4.69219157821e-05 4.69219157821e-05 4.69219157821e-05
         4.82913928863e-05 4.82913928863e-05 4.82913928863e-05
         4.98663939652e-05 4.98663939652e-05 4.98663939652e-05
         5.16381442139e-05 5.16381442139e-05 5.16381442139e-05
         5.35999824933e-05 5.35999824933e-05 5.35999824933e-05
         5.57470484637e-05 5.57470484637e-05 5.57470484637e-05
         5.80754713155e-05 5.80754713155e-05 5.80754713155e-05
         6.05822569923e-05 6.05822569923e-05 6.05822569923e-05
         6.32648734609e-05 6.32648734609e-05 6.32648734609e-05
         6.61213416606e-05 6.61213416606e-05 6.61213416606e-05
         6.91499808454e-05 6.91499808454e-05 6.91499808454e-05
         7.23497141735e-05 7.23497141735e-05 7.23497141735e-05
         7.5719319284e-05 7.5719319284e-05 7.5719319284e-05
         7.92582723079e-05 7.92582723079e-05 7.92582723079e-05
         8.29656637507e-05 8.29656637507e-05 8.29656637507e-05
         8.68409697432e-05 8.68409697432e-05 8.68409697432e-05
         9.08839137992e-05 9.08839137992e-05 9.08839137992e-05
         9.50943795033e-05 9.50943795033e-05 9.50943795033e-05
         9.94720903691e-05 9.94720903691e-05 9.94720903691e-05
         0.000104016864498 0.000104016864498 0.000104016864498
         0.000108728228952 0.000108728228952 0.000108728228952
         0.000113607435196 0.000113607435196 0.000113607435196
         0.000118653988466 0.000118653988466 0.000118653988466
         0.000123867444927 0.000123867444927 0.000123867444927
         0.000129249674501 0.000129249674501 0.000129249674501
         0.000134798989166 0.000134798989166 0.000134798989166
         0.00014051789185 0.00014051789185 0.00014051789185
         0.000146404607221 0.000146404607221 0.000146404607221
         0.00015246035764 0.00015246035764 0.00015246035764
         0.000158685259521 0.000158685259521 0.000158685259521
         0.000165080360603 0.000165080360603 0.000165080360603
         0.000171647101524 0.000171647101524 0.000171647101524
         0.000178383692401 0.000178383692401 0.000178383692401
         0.000185292446986 0.000185292446986 0.000185292446986
         0.000192371677258 0.000192371677258 0.000192371677258
         0.000199625777896 0.000199625777896 0.000199625777896
         0.000207051169127 0.000207051169127 0.000207051169127
         0.00021465140162 0.00021465140162 0.00021465140162
         0.000222425689572 0.000222425689572 0.000222425689572
         0.000230375895626 0.000230375895626 0.000230375895626
         0.000238501219428 0.000238501219428 0.000238501219428
         0.000246800336754 0.000246800336754 0.000246800336754
         0.000255279534031 0.000255279534031 0.000255279534031
         0.000263935187832 0.000263935187832 0.000263935187832
         0.000272768666036 0.000272768666036 0.000272768666036
         0.000281784625258 0.000281784625258 0.000281784625258
         0.000290975265671 0.000290975265671 0.000290975265671
         0.000300351239275 0.000300351239275 0.000300351239275
         0.000309907249175 0.000309907249175 0.000309907249175
         0.000319641723763 0.000319641723763 0.000319641723763
         0.000329563452397 0.000329563452397 0.000329563452397
         0.000339664751664 0.000339664751664 0.000339664751664
         0.000349955342244 0.000349955342244 0.000349955342244
         0.000360427540727 0.000360427540727 0.000360427540727
         0.000371085188817 0.000371085188817 0.000371085188817
         0.000381930381991 0.000381930381991 0.000381930381991
         0.000392962305341 0.000392962305341 0.000392962305341
         0.000404182821512 0.000404182821512 0.000404182821512
         0.000415594200604 0.000415594200604 0.000415594200604
         0.000427195045631 0.000427195045631 0.000427195045631
         0.000438985473011 0.000438985473011 0.000438985473011
         0.000450968800578 0.000450968800578 0.000450968800578
         0.000463143049274 0.000463143049274 0.000463143049274
         0.000475513574202 0.000475513574202 0.000475513574202
         0.000488072400913 0.000488072400913 0.000488072400913
         0.000500833732076 0.000500833732076 0.000500833732076
         0.000513786799274 0.000513786799274 0.000513786799274
         0.000526936491951 0.000526936491951 0.000526936491951
         0.000540283683222 0.000540283683222 0.000540283683222
         0.000553833087906 0.000553833087906 0.000553833087906
         0.000567574636079 0.000567574636079 0.000567574636079
         0.000581524684094 0.000581524684094 0.000581524684094
         0.000595667457674 0.000595667457674 0.000595667457674
         0.000610020710155 0.000610020710155 0.000610020710155
         0.000624574429821 0.000624574429821 0.000624574429821
         0.000639326462988 0.000639326462988 0.000639326462988
         0.000654287927318 0.000654287927318 0.000654287927318
         0.000669457251206 0.000669457251206 0.000669457251206
         0.000684823549818 0.000684823549818 0.000684823549818
         0.000700408418197 0.000700408418197 0.000700408418197
         0.000716202077456 0.000716202077456 0.000716202077456
         0.000732192536816 0.000732192536816 0.000732192536816
         0.000748403836042 0.000748403836042 0.000748403836042
         0.000764822470956 0.000764822470956 0.000764822470956
         0.000781458104029 0.000781458104029 0.000781458104029
         0.000798310036771 0.000798310036771 0.000798310036771
         0.000815363426227 0.000815363426227 0.000815363426227
         0.000832634861581 0.000832634861581 0.000832634861581
         0.000850133306812 0.000850133306812 0.000850133306812
         0.000867839320563 0.000867839320563 0.000867839320563
         0.00088576588314 0.00088576588314 0.00088576588314
         0.00090391584672 0.00090391584672 0.00090391584672
         0.000922273029573 0.000922273029573 0.000922273029573
         0.000940860074479 0.000940860074479 0.000940860074479
         0.000959661323577 0.000959661323577 0.000959661323577
         0.000978700234555 0.000978700234555 0.000978700234555
         0.000997950322926 0.000997950322926 0.000997950322926
         0.00101743335836 0.00101743335836 0.00101743335836
         0.00103714945726 0.00103714945726 0.00103714945726
         0.0010570702143 0.0010570702143 0.0010570702143
         0.00107723043766 0.00107723043766 0.00107723043766
         0.00109761953354 0.00109761953354 0.00109761953354
         0.00111824320629 0.00111824320629 0.00111824320629
         0.00113909400534 0.00113909400534 0.00113909400534
         0.00116017798427 0.00116017798427 0.00116017798427
         0.00118148257025 0.00118148257025 0.00118148257025
         0.00120303255972 0.00120303255972 0.00120303255972
         0.00122482911684 0.00122482911684 0.00122482911684
         0.00124683836475 0.00124683836475 0.00124683836475
         0.00126910372637 0.00126910372637 0.00126910372637
         0.0012915948173 0.0012915948173 0.0012915948173
         0.0013143265387 0.0013143265387 0.0013143265387
         0.00133729726076 0.00133729726076 0.00133729726076
         0.00136051967274 0.00136051967274 0.00136051967274
         0.00138397689443 0.00138397689443 0.00138397689443
         0.00140766904224 0.00140766904224 0.00140766904224
         0.00143162813038 0.00143162813038 0.00143162813038
         0.00145581841934 0.00145581841934 0.00145581841934
         0.00148024980444 0.00148024980444 0.00148024980444
         0.00150493287947 0.00150493287947 0.00150493287947
         0.00152987556066 0.00152987556066 0.00152987556066
         0.00155506131705 0.00155506131705 0.00155506131705
         0.0015804884024 0.0015804884024 0.0015804884024
         0.00160617812071 0.00160617812071 0.00160617812071
         0.00163212337065 0.00163212337065 0.00163212337065
         0.00165830727201 0.00165830727201 0.00165830727201
         0.00168476882391 0.00168476882391 0.00168476882391
         0.00171148520894 0.00171148520894 0.00171148520894
         0.00173843360972 0.00173843360972 0.00173843360972
         0.00176565302536 0.00176565302536 0.00176565302536
         0.00179313204717 0.00179313204717 0.00179313204717
         0.00182087835856 0.00182087835856 0.00182087835856
         0.0018488697242 0.0018488697242 0.0018488697242
         0.00187714223284 0.00187714223284 0.00187714223284
         0.00190567760728 0.00190567760728 0.00190567760728
         0.00193446187768 0.00193446187768 0.00193446187768
         0.00196353415959 0.00196353415959 0.00196353415959
         0.0019928519614 0.0019928519614 0.0019928519614
         0.00202246243134 0.00202246243134 0.00202246243134
         0.00205231108703 0.00205231108703 0.00205231108703
         0.00208244938403 0.00208244938403 0.00208244938403
         0.00211288267747 0.00211288267747 0.00211288267747
         0.00214354856871 0.00214354856871 0.00214354856871
         0.00217449781485 0.00217449781485 0.00217449781485
         0.00220573786646 0.00220573786646 0.00220573786646
         0.00223723729141 0.00223723729141 0.00223723729141
         0.00226905266754 0.00226905266754 0.00226905266754
         0.00230109505355 0.00230109505355 0.00230109505355
         0.00233345036395 0.00233345036395 0.00233345036395
         0.0023660575971 0.0023660575971 0.0023660575971
         0.00239898147993 0.00239898147993 0.00239898147993
         0.00243218615651 0.00243218615651 0.00243218615651
         0.00246564345434 0.00246564345434 0.00246564345434
         0.00249941344373 0.00249941344373 0.00249941344373
         0.00253345863894 0.00253345863894 0.00253345863894
         0.00256778253242 0.00256778253242 0.00256778253242
         0.00260245893151 0.00260245893151 0.00260245893151
         0.00263733766042 0.00263733766042 0.00263733766042
         0.00267256447114 0.00267256447114 0.00267256447114
         0.00270806625485 0.00270806625485 0.00270806625485
         0.00274387211539 0.00274387211539 0.00274387211539
         0.00277995760553 0.00277995760553 0.00277995760553
         0.00281630945392 0.00281630945392 0.00281630945392
         0.00285300682299 0.00285300682299 0.00285300682299
         0.00289001478814 0.00289001478814 0.00289001478814
         0.00292729283683 0.00292729283683 0.00292729283683
         0.00296487729065 0.00296487729065 0.00296487729065
         0.00300276861526 0.00300276861526 0.00300276861526
         0.00304095260799 0.00304095260799 0.00304095260799
         0.00307944975793 0.00307944975793 0.00307944975793
         0.00311825820245 0.00311825820245 0.00311825820245
         0.00315735582262 0.00315735582262 0.00315735582262
         0.00319680455141 0.00319680455141 0.00319680455141
         0.00323651754297 0.00323651754297 0.00323651754297
         0.00327656953596 0.00327656953596 0.00327656953596
         0.00331691512838 0.00331691512838 0.00331691512838
         0.00335761904716 0.00335761904716 0.00335761904716
         0.00339856697246 0.00339856697246 0.00339856697246
         0.00343986111693 0.00343986111693 0.00343986111693
         0.00348149961792 0.00348149961792 0.00348149961792
         0.00352343614213 0.00352343614213 0.00352343614213
         0.00356571353041 0.00356571353041 0.00356571353041
         0.00360822747461 0.00360822747461 0.00360822747461
         0.00365120032802 0.00365120032802 0.00365120032802
         0.00369440484792 0.00369440484792 0.00369440484792
         0.00373795651831 0.00373795651831 0.00373795651831
         0.00378184905276 0.00378184905276 0.00378184905276
         0.00382602680475 0.00382602680475 0.00382602680475
         0.00387055054307 0.00387055054307 0.00387055054307
         0.00391541048884 0.00391541048884 0.00391541048884
         0.00396061642095 0.00396061642095 0.00396061642095
         0.00400616507977 0.00400616507977 0.00400616507977
         0.0040519926697 0.0040519926697 0.0040519926697
         0.00409821793437 0.00409821793437 0.00409821793437
         0.00414472958073 0.00414472958073 0.00414472958073
         0.00419156672433 0.00419156672433 0.00419156672433
         0.00423881551251 0.00423881551251 0.00423881551251
         0.0042863311246 0.0042863311246 0.0042863311246
         0.00433425744995 0.00433425744995 0.00433425744995
         0.00438250834122 0.00438250834122 0.00438250834122
         0.00443110568449 0.00443110568449 0.00443110568449
         0.00448003876954 0.00448003876954 0.00448003876954
         0.00452930480242 0.00452930480242 0.00452930480242
         0.00457890424877 0.00457890424877 0.00457890424877
         0.00462889671326 0.00462889671326 0.00462889671326
         0.00467923190445 0.00467923190445 0.00467923190445
         0.00472989585251 0.00472989585251 0.00472989585251
         0.00478096725419 0.00478096725419 0.00478096725419
         0.00483236787841 0.00483236787841 0.00483236787841
         0.00488409167156 0.00488409167156 0.00488409167156
         0.00493615213782 0.00493615213782 0.00493615213782
         0.00498868571594 0.00498868571594 0.00498868571594
         0.00504147540778 0.00504147540778 0.00504147540778
         0.00509466836229 0.00509466836229 0.00509466836229
         0.00514817843214 0.00514817843214 0.00514817843214
         0.00520210620016 0.00520210620016 0.00520210620016
         0.00525642279536 0.00525642279536 0.00525642279536
         0.00531107233837 0.00531107233837 0.00531107233837
         0.0053661246784 0.0053661246784 0.0053661246784
         0.00542148714885 0.00542148714885 0.00542148714885
         0.00547726638615 0.00547726638615 0.00547726638615
         0.00553335621953 0.00553335621953 0.00553335621953
         0.00558986375108 0.00558986375108 0.00558986375108
         0.00564677082002 0.00564677082002 0.00564677082002
         0.00570406066254 0.00570406066254 0.00570406066254
         0.00576168484986 0.00576168484986 0.00576168484986
         0.00581971043721 0.00581971043721 0.00581971043721
         0.00587813789025 0.00587813789025 0.00587813789025
         0.00593687640503 0.00593687640503 0.00593687640503
         0.00599611364305 0.00599611364305 0.00599611364305
         0.00605566287413 0.00605566287413 0.00605566287413
         0.00611560791731 0.00611560791731 0.00611560791731
         0.00617595249787 0.00617595249787 0.00617595249787
         0.00623670686036 0.00623670686036 0.00623670686036
         0.00629776669666 0.00629776669666 0.00629776669666
         0.00635932851583 0.00635932851583 0.00635932851583
         0.00642128894106 0.00642128894106 0.00642128894106
         0.00648354692385 0.00648354692385 0.00648354692385
         0.00654621422291 0.00654621422291 0.00654621422291
         0.00660938583314 0.00660938583314 0.00660938583314
         0.00667285127565 0.00667285127565 0.00667285127565
         0.00673682801425 0.00673682801425 0.00673682801425
         0.00680108973756 0.00680108973756 0.00680108973756
         0.00686576543376 0.00686576543376 0.00686576543376
         0.00693094264716 0.00693094264716 0.00693094264716
         0.00699640670791 0.00699640670791 0.00699640670791
         0.00706250313669 0.00706250313669 0.00706250313669
         0.00712875975296 0.00712875975296 0.00712875975296
         0.00719554629177 0.00719554629177 0.00719554629177
         0.00726273376495 0.00726273376495 0.00726273376495
         0.00733030587435 0.00733030587435 0.00733030587435
         0.00739838695154 0.00739838695154 0.00739838695154
         0.00746675953269 0.00746675953269 0.00746675953269
         0.00753564853221 0.00753564853221 0.00753564853221
         0.00760493660346 0.00760493660346 0.00760493660346
         0.00767462095246 0.00767462095246 0.00767462095246
         0.00774482218549 0.00774482218549 0.00774482218549
         0.00781528558582 0.00781528558582 0.00781528558582
         0.00788628123701 0.00788628123701 0.00788628123701
         0.00795767456293 0.00795767456293 0.00795767456293
         0.00802958104759 0.00802958104759 0.00802958104759
         0.00810176227242 0.00810176227242 0.00810176227242
         0.00817446224391 0.00817446224391 0.00817446224391
         0.00824767071754 0.00824767071754 0.00824767071754
         0.00832129921764 0.00832129921764 0.00832129921764
         0.00839517079294 0.00839517079294 0.00839517079294
         0.00846970733255 0.00846970733255 0.00846970733255
         0.00854463689029 0.00854463689029 0.00854463689029
         0.00862010661513 0.00862010661513 0.00862010661513
         0.00869581196457 0.00869581196457 0.00869581196457
         0.00877205375582 0.00877205375582 0.00877205375582
         0.0088486848399 0.0088486848399 0.0088486848399
         0.00892583001405 0.00892583001405 0.00892583001405
         0.00900352187455 0.00900352187455 0.00900352187455
         0.00908146146685 0.00908146146685 0.00908146146685
         0.00916008464992 0.00916008464992 0.00916008464992
         0.00923891738057 0.00923891738057 0.00923891738057
         0.00931847002357 0.00931847002357 0.00931847002357
         0.00939822569489 0.00939822569489 0.00939822569489
         0.00947852991521 0.00947852991521 0.00947852991521
         0.00955938082188 0.00955938082188 0.00955938082188
         0.00964060425758 0.00964060425758 0.00964060425758
         0.0097223771736 0.0097223771736 0.0097223771736
         0.00980467442423 0.00980467442423 0.00980467442423
         0.00988718960434 0.00988718960434 0.00988718960434
         0.00997043028474 0.00997043028474 0.00997043028474
         0.0100540164858 0.0100540164858 0.0100540164858
         0.0101381819695 0.0101381819695 0.0101381819695
         0.0102227097377 0.0102227097377 0.0102227097377
         0.0103077627718 0.0103077627718 0.0103077627718
         0.0103932060301 0.0103932060301 0.0103932060301
         0.0104791941121 0.0104791941121 0.0104791941121
         0.0105657409877 0.0105657409877 0.0105657409877
         0.0106528103352 0.0106528103352 0.0106528103352
         0.0107402643189 0.0107402643189 0.0107402643189
         0.0108280815184 0.0108280815184 0.0108280815184
         0.0109164435416 0.0109164435416 0.0109164435416
         0.0110055636615 0.0110055636615 0.0110055636615
         0.0110948309302 0.0110948309302 0.0110948309302
         0.0111848535016 0.0111848535016 0.0111848535016
         0.0112752346322 0.0112752346322 0.0112752346322
         0.0113661633804 0.0113661633804 0.0113661633804
         0.0114574674517 0.0114574674517 0.0114574674517
         0.0115495081991 0.0115495081991 0.0115495081991
         0.0116419252008 0.0116419252008 0.0116419252008
         0.0117346867919 0.0117346867919 0.0117346867919
         0.0118282120675 0.0118282120675 0.0118282120675
         0.0119222681969 0.0119222681969 0.0119222681969
         0.0120166959241 0.0120166959241 0.0120166959241
         0.0121114859357 0.0121114859357 0.0121114859357
         0.0122070237994 0.0122070237994 0.0122070237994
         0.0123031176627 0.0123031176627 0.0123031176627
         0.012399575673 0.012399575673 0.012399575673
         0.0124965971336 0.0124965971336 0.0124965971336
         0.0125941708684 0.0125941708684 0.0125941708684
         0.0126920677722 0.0126920677722 0.0126920677722
         0.0127907628193 0.0127907628193 0.0127907628193
         0.0128900064155 0.0128900064155 0.0128900064155
         0.0129896169528 0.0129896169528 0.0129896169528
         0.013089784421 0.013089784421 0.013089784421
         0.0131905032322 0.0131905032322 0.0131905032322
         0.0132917920128 0.0132917920128 0.0132917920128
         0.013393628411 0.013393628411 0.013393628411
         0.0134958224371 0.0134958224371 0.0134958224371
         0.0135985640809 0.0135985640809 0.0135985640809
         0.0137021252885 0.0137021252885 0.0137021252885
         0.0138059929013 0.0138059929013 0.0138059929013
         0.0139106716961 0.0139106716961 0.0139106716961
         0.0140156997368 0.0140156997368 0.0140156997368
         0.0141210164875 0.0141210164875 0.0141210164875
         0.0142271500081 0.0142271500081 0.0142271500081
         0.0143338954076 0.0143338954076 0.0143338954076
         0.0144411567599 0.0144411567599 0.0144411567599
         0.0145490169525 0.0145490169525 0.0145490169525
         0.0146574331447 0.0146574331447 0.0146574331447
         0.0147661836818 0.0147661836818 0.0147661836818
         0.014875728637 0.014875728637 0.014875728637
         0.0149858724326 0.0149858724326 0.0149858724326
         0.0150962946936 0.0150962946936 0.0150962946936
         0.0152075598016 0.0152075598016 0.0152075598016
         0.0153194358572 0.0153194358572 0.0153194358572
         0.0154315726832 0.0154315726832 0.0154315726832
         0.0155443204567 0.0155443204567 0.0155443204567
         0.0156578738242 0.0156578738242 0.0156578738242
         0.0157720297575 0.0157720297575 0.0157720297575
         0.0158864911646 0.0158864911646 0.0158864911646
         0.0160017684102 0.0160017684102 0.0160017684102
         0.0161173511297 0.0161173511297 0.0161173511297
         0.0162337869406 0.0162337869406 0.0162337869406
         0.0163507964462 0.0163507964462 0.0163507964462
         0.0164684075862 0.0164684075862 0.0164684075862
         0.0165865756571 0.0165865756571 0.0165865756571
         0.0167050305754 0.0167050305754 0.0167050305754
         0.0168246347457 0.0168246347457 0.0168246347457
         0.0169445294887 0.0169445294887 0.0169445294887
         0.0170647073537 0.0170647073537 0.0170647073537
         0.0171860400587 0.0171860400587 0.0171860400587
         0.0173077024519 0.0173077024519 0.0173077024519
         0.0174298752099 0.0174298752099 0.0174298752099
         0.0175529904664 0.0175529904664 0.0175529904664
         0.0176763255149 0.0176763255149 0.0176763255149
         0.0178005527705 0.0178005527705 0.0178005527705
         0.0179253872484 0.0179253872484 0.0179253872484
         0.0180504824966 0.0180504824966 0.0180504824966
         0.0181767828763 0.0181767828763 0.0181767828763
         0.0183033458889 0.0183033458889 0.0183033458889
         0.0184301584959 0.0184301584959 0.0184301584959
         0.0185581762344 0.0185581762344 0.0185581762344
         0.0186865013093 0.0186865013093 0.0186865013093
         0.0188156869262 0.0188156869262 0.0188156869262
         0.0189454928041 0.0189454928041 0.0189454928041
         0.0190758388489 0.0190758388489 0.0190758388489
         0.0192068070173 0.0192068070173 0.0192068070173
         0.0193383172154 0.0193383172154 0.0193383172154
         0.0194704309106 0.0194704309106 0.0194704309106
         0.0196034796536 0.0196034796536 0.0196034796536
         0.0197370871902 0.0197370871902 0.0197370871902
         0.0198709163815 0.0198709163815 0.0198709163815
         0.0200056768954 0.0200056768954 0.0200056768954
         0.0201413761824 0.0201413761824 0.0201413761824
         0.0202773585916 0.0202773585916 0.0202773585916
         0.0204142238945 0.0204142238945 0.0204142238945
         0.0205516945571 0.0205516945571 0.0205516945571
         0.0206897184253 0.0206897184253 0.0206897184253
         0.0208283476532 0.0208283476532 0.0208283476532
         0.020967528224 0.020967528224 0.020967528224
         0.0211077108979 0.0211077108979 0.0211077108979
         0.0212484523654 0.0212484523654 0.0212484523654
         0.0213897395879 0.0213897395879 0.0213897395879
         0.0215316396207 0.0215316396207 0.0215316396207
         0.0216745007783 0.0216745007783 0.0216745007783
         0.0218179672956 0.0218179672956 0.0218179672956
         0.0219619739801 0.0219619739801 0.0219619739801
         0.0221065953374 0.0221065953374 0.0221065953374
         0.0222521908581 0.0222521908581 0.0222521908581
         0.0223979596049 0.0223979596049 0.0223979596049
