aces_1.0.1/luts/Log2_1000_nits_Shaper_to_linear.spi1d
Version 1
From 0.000000 1.000000
Length 1024
Components 1
{
         4.39453142462e-05
         4.46052836196e-05
         4.52751701232e-05
         4.59551120002e-05
         4.66452656838e-05
         4.73457912449e-05
         4.80568305647e-05
         4.87785509904e-05
         4.95111089549e-05
         5.02546681673e-05
         5.10093923367e-05
         5.17754524481e-05
         5.25530158484e-05
         5.33422607987e-05
         5.41433546459e-05
         5.49564829271e-05
         5.57818202651e-05
         5.66195521969e-05
         5.74698678975e-05
         5.83329529036e-05
         5.92089963902e-05
         6.00982020842e-05
         6.10007591604e-05
         6.19168713456e-05
         6.28467387287e-05
         6.37906123302e-05
         6.47486231173e-05
         6.57210257486e-05
         6.67080239509e-05
         6.77098432789e-05
         6.87267165631e-05
         6.97588548064e-05
         7.08064981154e-05
         7.18698647688e-05
         7.29492094251e-05
         7.4044764915e-05
         7.51567713451e-05
         7.62854760978e-05
         7.74311338319e-05
         7.85939992056e-05
         7.97743268777e-05
         8.09723787825e-05
         8.21884241304e-05
         8.3422732132e-05
         8.46755792736e-05
         8.59472420416e-05
         8.72379969223e-05
         8.85481349542e-05
         8.98779544514e-05
         9.12277464522e-05
         9.2597809271e-05
         9.39884557738e-05
         9.53999624471e-05
         9.68326858128e-05
         9.82869241852e-05
         9.97629977064e-05
         0.00010126124107
         0.000102781988971
         0.000104325568827
         0.00010589233716
         0.00010748263594
         0.000109096814413
         0.000110735221824
         0.000112398258352
         0.000114086258691
         0.00011579960119
         0.000117538686027
         0.000119303884276
         0.00012109567615
         0.000122914294479
         0.000124760219478
         0.000126633880427
         0.000128535670228
         0.000130466025439
         0.000132425368065
         0.000134414134664
         0.000136432761792
         0.000138481729664
         0.000140561445733
         0.000142672404763
         0.000144815057865
         0.000146989885252
         0.00014919739624
         0.000151438041939
         0.000153712346219
         0.000156020803843
         0.000158363924129
         0.000160742245498
         0.000163156277267
         0.000165606557857
         0.000168093640241
         0.000170618077391
         0.00017318042228
         0.000175781256985
         0.000178421134478
         0.000181100680493
         0.000183820448001
         0.000186581062735
         0.00018938316498
         0.000192227322259
         0.000195114203962
         0.00019804443582
         0.000201018672669
         0.000204037569347
         0.000207101809792
         0.000210212063394
         0.000213369043195
         0.000216573418584
         0.000219825931708
         0.00022312728106
         0.000226478208788
         0.00022987947159
         0.000233331811614
         0.000236835985561
         0.000240392808337
         0.000244003036642
         0.000247667485382
         0.000251386954915
         0.000255162274698
         0.000258994317846
         0.000262883899268
         0.000266831892077
         0.000270839198492
         0.000274906662526
         0.000279035419226
         0.000283225992462
         0.000287479459075
         0.000291796837701
         0.00029617905966
         0.00030062708538
         0.000305141904391
         0.000309724535327
         0.000314375996822
         0.000319097307511
         0.00032388951513
         0.000328753696522
         0.000333690928528
         0.000338702317094
         0.000343788968166
         0.000348951987689
         0.000354192539817
         0.000359511817805
         0.000364910985809
         0.000370391237084
         0.000375953823095
         0.000381599849788
         0.000387330743251
         0.000393147696741
         0.000399051990826
         0.000405044964282
         0.000411127955886
         0.000417302275309
         0.000423569639679
         0.000429930805694
         0.000436387548689
         0.000442941178335
         0.000449593324447
         0.000456345325802
         0.000463198754005
         0.000470155035146
         0.000477215886349
         0.000484382704599
         0.000491657177918
         0.000499040877912
         0.000506535521708
         0.000514142680913
         0.000521864101756
         0.00052970147226
         0.000537656538654
         0.000545731047168
         0.000553926918656
         0.00056224578293
         0.000570689619053
         0.000579260231461
         0.000587959541008
         0.000596789584961
         0.000605752167758
         0.000614849384874
         0.000624083215371
         0.000633455696516
         0.000642968981992
         0.000652625109069
         0.000662426231429
         0.000672374560963
         0.000682472309563
         0.00069272168912
         0.00070312502794
         0.000713684537914
         0.000724402721971
         0.000735281792004
         0.00074632425094
         0.000757532659918
         0.000768909289036
         0.000780456815846
         0.000792177743278
         0.000804074690677
         0.000816150277387
         0.000828407239169
         0.000840848253574
         0.000853476172779
         0.000866293965373
         0.000879304017872
         0.00089250941528
         0.000905913184397
         0.000919518177398
         0.000933327537496
         0.00094734429149
         0.000961571524385
         0.000976012495812
         0.000990670290776
         0.00100554816891
         0.00102064944804
         0.00103597762063
         0.00105153606273
         0.00106732791755
         0.00108335714322
         0.00109962746501
         0.0011161416769
         0.00113290396985
         0.0011499178363
         0.0011671873508
         0.00118471623864
         0.00120250834152
         0.00122056761757
         0.00123889814131
         0.00125750398729
         0.00127638923004
         0.00129555806052
         0.00131501478609
         0.00133476371411
         0.00135480926838
         0.00137515587267
         0.00139580795076
         0.00141677015927
         0.00143804727122
         0.00145964394324
         0.00148156494834
         0.00150381529238
         0.00152639939915
         0.00154932297301
         0.00157259078696
         0.0015962079633
         0.00162017985713
         0.00164451182354
         0.00166920910124
         0.00169427739456
         0.00171972217504
         0.0017455490306
         0.00177176424768
         0.0017983725993
         0.00182538060471
         0.00185279431753
         0.00188061967492
         0.0019088628469
         0.0019375301199
         0.00196662801318
         0.00199616281316
         0.00202614138834
         0.00205657002516
         0.00208745570853
         0.00211880495772
         0.00215062545612
         0.00218292349018
         0.0022157067433
         0.00224898243323
         0.00228275754489
         0.00231703999452
         0.00235183746554
         0.00238715764135
         0.00242300797254
         0.00245939660817
         0.00249633193016
         0.00253382278606
         0.00257187592797
         0.00261050043628
         0.00264970492572
         0.00268949824385
         0.00272988923825
         0.00277088675648
         0.00281250011176
         0.00285473815165
         0.00289761088789
         0.00294112716801
         0.00298529700376
         0.00303013063967
         0.00307563715614
         0.00312182726339
         0.00316871097311
         0.00321629876271
         0.00326460110955
         0.00331362895668
         0.0033633930143
         0.00341390469112
         0.00346517469734
         0.00351721490733
         0.00357003649697
         0.0036236513406
         0.00367807154544
         0.00373330898583
         0.00378937576897
         0.00384628493339
         0.00390404858626
         0.00396267976612
         0.00402219127864
         0.00408259918913
         0.00414391187951
         0.00420614564791
         0.00426931353286
         0.00433342996985
         0.00439850986004
         0.00446456670761
         0.00453161587939
         0.0045996713452
         0.00466874940321
         0.00473886495456
         0.00481003336608
         0.00488227047026
         0.00495559256524
         0.00503001594916
         0.00510555692017
         0.00518223224208
         0.00526005914435
         0.00533905485645
         0.00541923707351
         0.00550062349066
         0.00558323180303
         0.00566708063707
         0.00575218908489
         0.00583857577294
         0.00592625979334
         0.00601526116952
         0.00610559759662
         0.00619729189202
         0.00629036314785
         0.00638483185321
         0.00648071942851
         0.00657804962248
         0.00667683873326
         0.0067771114409
         0.0068788905628
         0.00698219798505
         0.00708705699071
         0.00719349039719
         0.00730152241886
         0.00741117727011
         0.00752247869968
         0.00763545138761
         0.00775012047961
         0.00786651205271
         0.00798465125263
         0.00810456555337
         0.00822628010064
         0.00834982283413
         0.00847521983087
         0.0086025018245
         0.00873169396073
         0.0088628269732
         0.00899592973292
         0.00913103017956
         0.00926815997809
         0.00940734986216
         0.0095486305654
         0.00969203189015
         0.0098375864327
         0.00998532772064
         0.010135287419
         0.0102874999866
         0.0104419980198
         0.0105988197029
         0.0107579929754
         0.010919556953
         0.0110835470259
         0.011250000447
         0.0114189526066
         0.0115904435515
         0.0117645086721
         0.011941188015
         0.0121205225587
         0.0123025486246
         0.0124873090535
         0.0126748438925
         0.0128651950508
         0.0130584044382
         0.0132545158267
         0.0134535720572
         0.0136556187645
         0.0138606987894
         0.0140688596293
         0.0142801459879
         0.0144946053624
         0.0147122861817
         0.0149332359433
         0.0151575030759
         0.0153851397336
         0.0156161943451
         0.0158507190645
         0.0160887651145
         0.0163303855807
         0.0165756363422
         0.0168245695531
         0.0170772541314
         0.0173337198794
         0.0175940394402
         0.0178582668304
         0.0181264635175
         0.0183986853808
         0.0186749976128
         0.0189554598182
         0.0192401334643
         0.019529081881
         0.019822370261
         0.0201200637966
         0.0204222276807
         0.0207289289683
         0.0210402365774
         0.0213562194258
         0.021676948294
         0.0220024939626
         0.0223329272121
         0.0226683225483
         0.0230087563396
         0.0233543030918
         0.0237050391734
         0.0240610446781
         0.0244223903865
         0.0247891675681
         0.0251614525914
         0.0255393274128
         0.025922877714
         0.0263121891767
         0.0267073456198
         0.027108438313
         0.0275155715644
         0.0279288031161
         0.0283482354134
         0.0287739727646
         0.0292061008513
         0.0296447202563
         0.0300899222493
         0.0305418167263
         0.0310004930943
         0.0314660593867
         0.0319386161864
         0.0324182733893
         0.0329051315784
         0.0333993025124
         0.0339008942246
         0.0344100184739
         0.0349267870188
         0.035451322794
         0.0359837301075
         0.0365241356194
         0.0370726548135
         0.0376294106245
         0.0381945334375
         0.0387681387365
         0.0393503606319
         0.0399413257837
         0.040541164577
         0.0411500148475
         0.0417680069804
         0.0423952788115
         0.0430319719017
         0.0436782278121
         0.0443341881037
         0.0450000017881
         0.0456758104265
         0.0463617742062
         0.0470580346882
         0.0477647520602
         0.0484820902348
         0.0492101944983
         0.0499492362142
         0.0506993755698
         0.0514607802033
         0.0522336177528
         0.0530180633068
         0.0538142882288
         0.0546224750578
         0.0554427951574
         0.0562754385173
         0.0571205839515
         0.0579784214497
         0.058849144727
         0.0597329437733
         0.0606300123036
         0.0615405589342
         0.0624647773802
         0.0634028762579
         0.0643550604582
         0.0653215423226
         0.0663025453687
         0.0672982782125
         0.0683089643717
         0.0693348348141
         0.0703761056066
         0.0714330673218
         0.0725058540702
         0.0735947415233
         0.0746999904513
         0.075821839273
         0.0769605338573
         0.0781163275242
         0.0792894810438
         0.0804802551866
         0.0816889107227
         0.0829157158732
         0.0841609463096
         0.0854248777032
         0.0867077931762
         0.0880099758506
         0.0893317088485
         0.0906732901931
         0.0920350253582
         0.0934172123671
         0.0948201566935
         0.0962441787124
         0.0976895615458
         0.0991566702724
         0.100645810366
         0.102157309651
         0.103691510856
         0.105248756707
         0.106829382479
         0.108433753252
         0.110062219203
         0.111715137959
         0.113392867148
         0.115095816553
         0.116824328899
         0.118578791618
         0.120359614491
         0.122167177498
         0.12400188297
         0.12586414814
         0.127754375339
         0.12967300415
         0.131620436907
         0.133597120643
         0.135603487492
         0.137639984488
         0.139707073569
         0.141805186868
         0.143934816122
         0.146096542478
         0.148290619254
         0.150517642498
         0.15277813375
         0.155072554946
         0.157401442528
         0.159765303135
         0.162164658308
         0.16460005939
         0.167072027922
         0.169581115246
         0.172127887607
         0.174712911248
         0.177336752415
         0.180000007153
         0.182703241706
         0.185447096825
         0.188232138753
         0.191059008241
         0.193928360939
         0.196840777993
         0.199796944857
         0.202797502279
         0.205843120813
         0.208934471011
         0.212072253227
         0.215257152915
         0.218489900231
         0.22177118063
         0.225101754069
         0.228482335806
         0.231913685799
         0.235396578908
         0.238931775093
         0.242520049214
         0.246162235737
         0.249859109521
         0.253611505032
         0.257420241833
         0.261286169291
         0.265210181475
         0.26919311285
         0.273235857487
         0.277339339256
         0.281504422426
         0.285732060671
         0.290023207664
         0.294378787279
         0.298799782991
         0.303287178278
         0.307841926813
         0.31246510148
         0.317157745361
         0.32192081213
         0.326755434275
         0.331662654877
         0.336643576622
         0.341699302197
         0.346830934286
         0.352039664984
         0.357326596975
         0.362692952156
         0.368139892817
         0.373668581247
         0.379280894995
         0.384976923466
         0.390758514404
         0.396626979113
         0.402583509684
         0.408629536629
         0.414766341448
         0.420995295048
         0.42731782794
         0.433735311031
         0.440249145031
         0.446860849857
         0.453571766615
         0.460383564234
         0.467297613621
         0.474315524101
         0.481438755989
         0.488669067621
         0.496007889509
         0.503456950188
         0.511017858982
         0.518692374229
         0.526482105255
         0.534388840199
         0.542414307594
         0.550560295582
         0.5588285923
         0.567221164703
         0.575739681721
         0.58438616991
         0.593162477016
         0.602070569992
         0.611112535
         0.620290219784
         0.629605770111
         0.63906121254
         0.648658633232
         0.65840023756
         0.668288111687
         0.678324460983
         0.688511550426
         0.698851644993
         0.709347009659
         0.72000002861
         0.730812966824
         0.741788387299
         0.752928555012
         0.764236032963
         0.775713443756
         0.787363111973
         0.799187779427
         0.811190009117
         0.823372483253
         0.835737884045
         0.848289012909
         0.86102861166
         0.873959600925
         0.887084722519
         0.900407016277
         0.913929343224
         0.927654743195
         0.941586315632
         0.955727100372
         0.970080196857
         0.984649598598
         0.999437153339
         1.01444673538
         1.02968168259
         1.04514539242
         1.06084144115
         1.07677328587
         1.09294426441
         1.10935807228
         1.12601852417
         1.14292907715
         1.16009366512
         1.17751586437
         1.19519984722
         1.21314942837
         1.23136854172
         1.24986124039
         1.2686316967
         1.28768408298
         1.30702257156
         1.32665145397
         1.34657514095
         1.36679804325
         1.38732469082
         1.40815961361
         1.42930734158
         1.45077264309
         1.47256040573
         1.49467539787
         1.5171225071
         1.5399068594
         1.56303298473
         1.58650672436
         1.61033296585
         1.63451695442
         1.6590641737
         1.68398010731
         1.70927011967
         1.73494005203
         1.76099550724
         1.78744220734
         1.81428587437
         1.84153306484
         1.86918926239
         1.89726066589
         1.92575383186
         1.95467483997
         1.98403012753
         2.01382637024
         2.04407000542
         2.07476806641
         2.10592699051
         2.13755393028
         2.16965579987
         2.20223975182
         2.23531317711
         2.26888298988
         2.30295705795
         2.33754301071
         2.37264847755
         2.40828084946
         2.44444847107
         2.48115921021
         2.51842141151
         2.55624485016
         2.59463453293
         2.63360095024
         2.67315244675
         2.71329784393
         2.75404620171
         2.79540657997
         2.83738803864
         2.88000011444
         2.92325186729
         2.96715354919
         3.01171422005
         3.05694413185
         3.10285377502
         3.14945244789
         3.19675111771
         3.24476003647
         3.29348993301
         3.34295153618
         3.39315605164
         3.44411444664
         3.4958384037
         3.54833889008
         3.60162806511
         3.65571737289
         3.71061897278
         3.76634526253
         3.82290840149
         3.88032078743
         3.93859577179
         3.99774575233
         4.05778408051
         4.11872386932
         4.18057870865
         4.24336290359
         4.3070898056
         4.37177371979
         4.4374294281
         4.50407075882
         4.57171297073
         4.64037132263
         4.71006059647
         4.78079652786
         4.85259485245
         4.92547082901
         4.99944162369
         5.07452392578
         5.15073299408
         5.22808694839
         5.30660247803
         5.38629722595
         5.46718883514
         5.54929494858
         5.63263463974
         5.71722555161
         5.8030872345
         5.89023828506
         5.97869729996
         6.06848621368
         6.15962314606
         6.25212812424
         6.3460226059
         6.44132757187
         6.53806352615
         6.63626146317
         6.73592472076
         6.83708524704
         6.9397649765
         7.0439863205
         7.14977359772
         7.25714826584
         7.36613702774
         7.47676181793
         7.58904838562
         7.70302009583
         7.81870508194
         7.93612623215
         8.055311203
         8.17628574371
         8.29907798767
         8.42371368408
         8.55022144318
         8.67862892151
         8.80896472931
         8.94125747681
         9.07553863525
         9.21183490753
         9.35017871857
         9.49059963226
         9.63312911987
         9.77780056
         9.92464351654
         10.0736923218
         10.2249794006
         10.3785381317
         10.534403801
         10.692609787
         10.8531913757
         11.0161848068
         11.1816263199
         11.3495521545
         11.5200004578
         11.6930074692
         11.8686141968
         12.0468568802
         12.2277765274
         12.4114151001
         12.5978097916
         12.7870044708
         12.9790401459
         13.1739597321
         13.3718061447
         13.5726242065
         13.7764577866
         13.9833536148
         14.1933555603
         14.4065122604
         14.6228694916
         14.8424758911
         15.0653810501
         15.291633606
         15.5212831497
         15.7543830872
         15.9909830093
         16.231136322
         16.4748954773
         16.7223148346
         16.9734516144
         17.2283821106
         17.4871196747
         17.7497425079
         18.0163078308
         18.2868766785
         18.5615100861
         18.8402671814
         19.123210907
         19.4104042053
         19.7019100189
         19.9977931976
         20.2981204987
         20.6029586792
         20.9123744965
         21.2264385223
         21.545217514
         21.8687839508
         22.1972103119
         22.5305671692
         22.868932724
         23.2123794556
         23.5609836578
         23.9148235321
         24.2739772797
         24.6385231018
         25.0085449219
         25.3841266632
         25.7653446198
         26.1522903442
         26.5450458527
         26.9436988831
         27.3483409882
         27.759059906
         28.175945282
         28.5990943909
         29.0285930634
         29.464548111
         29.9070472717
         30.3561935425
         30.8120803833
         31.2748203278
         31.7445049286
         32.221244812
         32.7051429749
         33.1963119507
         33.6948547363
         34.2008857727
         34.714515686
         35.2358589172
         35.7650299072
         36.302154541
         36.8473396301
         37.4007148743
         37.9623985291
         38.5325164795
         39.11120224
         39.6985740662
         40.2947692871
         40.8999176025
         41.5141525269
         42.1376152039
         42.7704391479
         43.4127655029
         44.0647392273
         44.7265052795
         45.3982086182
         46.0800018311
         46.7720298767
         47.4744567871
         48.1874275208
         48.9111061096
         49.6456604004
         50.3912391663
         51.1480178833
         51.9161605835
         52.6958389282
         53.4872245789
         54.2904968262
         55.1058311462
         55.9334144592
         56.7734222412
         57.6260490417
         58.4914779663
         59.3699035645
         60.2615242004
         61.1665344238
         62.0851325989
         63.0175323486
         63.9639320374
         64.9245452881
         65.8995819092
         66.8892593384
         67.8938064575
         68.9134368896
         69.9483795166
         70.9988708496
         72.0651321411
         73.1474075317
         74.2459411621
         75.3609695435
         76.4927444458
         77.6415176392
         78.8075332642
         79.991065979
