aces_1.0.1/luts/Log2_4000_nits_Shaper_to_linear.spi1d
Version 1
From 0.000000 1.000000
Length 1024
Components 1
{
         4.39453142462e-05
         4.46657759312e-05
         4.53980464954e-05
         4.61423223896e-05
         4.68988000648e-05
         4.76676759718e-05
         4.84491611132e-05
         4.92434592161e-05
         5.00507776451e-05
         5.0871327403e-05
         5.17053376825e-05
         5.25530158484e-05
         5.34145983693e-05
         5.42902962479e-05
         5.51803532289e-05
         5.60850094189e-05
         5.70044867345e-05
         5.79390471103e-05
         5.88889233768e-05
         5.98543774686e-05
         6.08356567682e-05
         6.18330159341e-05
         6.28467387287e-05
         6.38771161903e-05
         6.49243520456e-05
         6.59887446091e-05
         6.70705921948e-05
         6.81701785652e-05
         6.92877874826e-05
         7.04237245372e-05
         7.15782807674e-05
         7.27517690393e-05
         7.39444949431e-05
         7.51567713451e-05
         7.63889256632e-05
         7.76412780397e-05
         7.89141631685e-05
         8.02079157438e-05
         8.15228777356e-05
         8.28593983897e-05
         8.42178342282e-05
         8.55985417729e-05
         8.70018775458e-05
         8.84282344487e-05
         8.98779544514e-05
         9.13514522836e-05
         9.2849113571e-05
         9.43713312154e-05
         9.59184908425e-05
         9.74910217337e-05
         9.90893313428e-05
         0.000100713841675
         0.000102364989289
         0.000104043203464
         0.000105748935312
         0.00010748263594
         0.000109244756459
         0.000111035755253
         0.000112856127089
         0.000114706337627
         0.000116586881632
         0.000118498261145
         0.000120441050967
         0.000122415614896
         0.000124422542285
         0.000126462386106
         0.000128535670228
         0.000130642933073
         0.000132784756715
         0.00013496169413
         0.00013717431284
         0.000139423209475
         0.000141708980664
         0.000144032208482
         0.000146393533214
         0.000148793580593
         0.000151232961798
         0.000153712346219
         0.000156232374138
         0.000158793714945
         0.00016139705258
         0.000164043056429
         0.00016673245409
         0.000169465944055
         0.000172244239366
         0.000175068096723
         0.000177938229172
         0.000180855437065
         0.000183820448001
         0.000186834091437
         0.000189897138625
         0.000193010389921
         0.000196174674784
         0.000199390851776
         0.000202659764909
         0.000205982258194
         0.000209359219298
         0.000212791550439
         0.000216280139284
         0.000219825931708
         0.000223429859034
         0.000227092867135
         0.000230815916439
         0.000234600025578
         0.000238446154981
         0.000242355337832
         0.000246328650974
         0.00025036704028
         0.000254471669905
         0.000258643616689
         0.000262883899268
         0.000267193740001
         0.000271574244834
         0.000276026548818
         0.000280551845208
         0.000285151327262
         0.000289826421067
         0.000294577970635
         0.000299407402053
         0.000304316024994
         0.000309305120027
         0.000314375996822
         0.000319530023262
         0.000324768509017
         0.000330092938384
         0.000335504621034
         0.00034100501216
         0.000346595596056
         0.000352277857019
         0.000358053250238
         0.000363923347322
         0.00036988966167
         0.000375953823095
         0.000382117374102
         0.000388381944504
         0.000394749251427
         0.000401221186621
         0.00040779900155
         0.000414484617068
         0.000421279866714
         0.000428186525824
         0.000435206398834
         0.000442341377493
         0.000449593324447
         0.000456964160549
         0.00046445580665
         0.00047207030002
         0.000479809619719
         0.000487675832119
         0.000495671003591
         0.000503797258716
         0.000512056751177
         0.000520451634657
         0.000528984179255
         0.000537656538654
         0.000546471099369
         0.000555430189706
         0.000564536137972
         0.000573791447096
         0.000583198445383
         0.000592759635765
         0.000602477579378
         0.000612354895566
         0.000622394087259
         0.000632597890217
         0.000642968981992
         0.000653510040138
         0.000664224033244
         0.000675113580655
         0.00068618170917
         0.000697431270964
         0.000708865292836
         0.000720486743376
         0.000732298649382
         0.000744304328691
         0.000756506749894
         0.000768909289036
         0.000781515089329
         0.000794327585027
         0.000807350152172
         0.000820586283226
         0.000834039296024
         0.000847712857649
         0.000861610635184
         0.00087573658675
         0.000890093797352
         0.000904686341528
         0.000919518177398
         0.000934593204875
         0.000949915323872
         0.000965488667134
         0.000981317250989
         0.00099740549922
         0.00101375731174
         0.00103037734516
         0.00104726979043
         0.00106443918776
         0.00108189007733
         0.00109962699935
         0.00111765484326
         0.0011359784985
         0.00115460227244
         0.00117353128735
         0.00119277066551
         0.0012123255292
         0.00123220088426
         0.00125240220223
         0.00127293448895
         0.00129380368162
         0.00131501478609
         0.00133657373954
         0.0013584861299
         0.00138075777795
         0.00140339450445
         0.00142640236299
         0.0014497875236
         0.00147355592344
         0.00149771408178
         0.00152226816863
         0.00154722493608
         0.00157259078696
         0.00159837247338
         0.00162457698025
         0.00165121105965
         0.00167828169651
         0.00170579610858
         0.00173376174644
         0.00176218571141
         0.00179107580334
         0.00182043947279
         0.00185028463602
         0.00188061897643
         0.00191145134158
         0.00194278848357
         0.00197463924997
         0.00200701248832
         0.00203991634771
         0.00207335967571
         0.00210735108703
         0.00214190012775
         0.0021770154126
         0.0022127062548
         0.00224898243323
         0.00228585326113
         0.00232332828455
         0.00236141798086
         0.0024001323618
         0.00243948120624
         0.00247947592288
         0.0025201253593
         0.00256144138984
         0.00260343472473
         0.00264611653984
         0.00268949824385
         0.00273359124549
         0.00277840695344
         0.00282395724207
         0.00287025445141
         0.00291731068864
         0.0029651382938
         0.0030137503054
         0.00306315883063
         0.0031133776065
         0.00316441967152
         0.00321629876271
         0.00326902791858
         0.00332262180746
         0.00337709439918
         0.00343245989643
         0.00348873320036
         0.00354592897929
         0.00360406260006
         0.00366315175779
         0.00372320692986
         0.00378424674273
         0.00384628749453
         0.00390934525058
         0.00397343654186
         0.00403857883066
         0.00410478934646
         0.00417208485305
         0.0042404839769
         0.00431000441313
         0.00438066432253
         0.00445248279721
         0.00452547892928
         0.0045996713452
         0.00467508053407
         0.00475172605366
         0.00482962746173
         0.00490880664438
         0.0049892840907
         0.00507108028978
         0.00515421805903
         0.00523871835321
         0.00532460445538
         0.00541189825162
         0.00550062349066
         0.0055908029899
         0.00568246096373
         0.00577562162653
         0.00587030965835
         0.0059665502049
         0.00606436887756
         0.00616379221901
         0.00626484444365
         0.00636755302548
         0.00647194543853
         0.00657804962248
         0.00668589305133
         0.00679550413042
         0.00690691312775
         0.00702014798298
         0.00713523942977
         0.00725221727043
         0.0073711136356
         0.00749195879325
         0.00761478487402
         0.00773962587118
         0.00786651205271
         0.0079954797402
         0.00812656059861
         0.00825979094952
         0.0083952061832
         0.00853284075856
         0.0086727309972
         0.00881491601467
         0.00895943213254
         0.00910631660372
         0.00925560947508
         0.00940734986216
         0.00956157874316
         0.00971833523363
         0.00987766124308
         0.0100396005437
         0.0102041941136
         0.0103714894503
         0.0105415247381
         0.010714346543
         0.0108900023624
         0.0110685378313
         0.011250000447
         0.0114344386384
         0.0116218999028
         0.0118124345317
         0.0120060928166
         0.0122029250488
         0.012402985245
         0.0126063255593
         0.0128129990771
         0.0130230598152
         0.0132365664467
         0.0134535720572
         0.0136741371825
         0.0138983158395
         0.0141261704266
         0.0143577624112
         0.014593148604
         0.0148323960602
         0.0150755643845
         0.015322720632
         0.0155739281327
         0.0158292520791
         0.0160887651145
         0.0163525324315
         0.0166206229478
         0.016893107444
         0.017170060426
         0.0174515657127
         0.0177376735955
         0.0180284734815
         0.0183240398765
         0.0186244528741
         0.0189297907054
         0.0192401334643
         0.0195555649698
         0.0198761671782
         0.0202020257711
         0.0205332264304
         0.0208698567003
         0.0212120059878
         0.0215597655624
         0.0219132266939
         0.0222724806517
         0.0226376280189
         0.0230087563396
         0.0233859717846
         0.0237693730742
         0.0241590607911
         0.0245551336557
         0.0249577015638
         0.0253668688238
         0.0257827434689
         0.0262054372579
         0.0266350600868
         0.0270717274398
         0.0275155548006
         0.0279666576535
         0.0284251533449
         0.0288911685348
         0.0293648410589
         0.0298462640494
         0.0303355753422
         0.0308329090476
         0.0313383974135
         0.031852170825
         0.0323743708432
         0.0329051315784
         0.0334445908666
         0.0339928977191
         0.0345501936972
         0.0351166240871
         0.0356923416257
         0.0362774990499
         0.0368722453713
         0.0374767445028
         0.0380911566317
         0.0387156382203
         0.0393503606319
         0.0399954877794
         0.040651191026
         0.0413176454604
         0.0419950224459
         0.0426835082471
         0.043383281678
         0.0440945252776
         0.0448174327612
         0.0455521866679
         0.0462989918888
         0.0470580346882
         0.0478295274079
         0.0486136674881
         0.0494106598198
         0.0502207167447
         0.0510440580547
         0.0518808998168
         0.0527314580977
         0.0535959601402
         0.0544746369123
         0.0553677156568
         0.0562754385173
         0.0571980439126
         0.0581357739866
         0.0590888746083
         0.0600576065481
         0.0610422156751
         0.062042966485
         0.0630601346493
         0.0640939623117
         0.0651447474957
         0.0662127658725
         0.0672982782125
         0.0684015974402
         0.0695230066776
         0.0706627964973
         0.0718212723732
         0.072998739779
         0.0741955190897
         0.0754119083285
         0.0766482427716
         0.0779048502445
         0.0791820585728
         0.0804802030325
         0.081799633801
         0.0831407383084
         0.0845037922263
         0.0858891829848
         0.087297283113
         0.0887284725904
         0.0901831313968
         0.091661632061
         0.0931643769145
         0.0946917533875
         0.0962441787124
         0.09782204777
         0.0994257777929
         0.101055808365
         0.10271255672
         0.104396469891
         0.106108002365
         0.107847571373
         0.109615676105
         0.111412763596
         0.113239318132
         0.115095816553
         0.116982750595
         0.118900611997
         0.120849914849
         0.122831188142
         0.124844938517
         0.126891702414
         0.128972023726
         0.131086438894
         0.133235529065
         0.135419845581
         0.137639984488
         0.139896601439
         0.142190128565
         0.144521251321
         0.146890610456
         0.149298802018
         0.151746466756
         0.154234260321
         0.156762853265
         0.159332886338
         0.161945059896
         0.16460005939
         0.167298570275
         0.17004135251
         0.172829076648
         0.175662517548
         0.178542405367
         0.181469514966
         0.184444606304
         0.187468454242
         0.190541908145
         0.193665727973
         0.196840777993
         0.200067862868
         0.203347861767
         0.206681638956
         0.210070088506
         0.213514059782
         0.217014491558
         0.220572322607
         0.224188476801
         0.227863937616
         0.231599643826
         0.235396578908
         0.239255785942
         0.243178248405
         0.247165009379
         0.251217156649
         0.255335718393
         0.259521812201
         0.263776510954
         0.268100976944
         0.272496342659
         0.27696377039
         0.281504422426
         0.286119520664
         0.290810316801
         0.295577973127
         0.300423800945
         0.305349498987
         0.31035554409
         0.315443664789
         0.320615172386
         0.32587146759
         0.331213951111
         0.336644023657
         0.34216311574
         0.347772687674
         0.353474229574
         0.359269231558
         0.365159243345
         0.371145814657
         0.377230554819
         0.383415043354
         0.38970091939
         0.396089851856
         0.402583509684
         0.409183651209
         0.415891975164
         0.42271026969
         0.429640382528
         0.43668410182
         0.443843305111
         0.451119840145
         0.458515703678
         0.466032862663
         0.473673164845
         0.481438755989
         0.48933172226
         0.497354000807
         0.505507826805
         0.513795375824
         0.522218763828
         0.530780255795
         0.539482057095
         0.548326611519
         0.557316124439
         0.566452980042
         0.575739681721
         0.585178613663
         0.594772279263
         0.60452324152
         0.614434063435
         0.624507367611
         0.634745836258
         0.64515209198
         0.6557289958
         0.666479289532
         0.677405834198
         0.688511550426
         0.699799358845
         0.71127218008
         0.72293305397
         0.734785139561
         0.746831536293
         0.759075403214
         0.771520078182
         0.784168660641
         0.797024667263
         0.810091435909
         0.823372483253
         0.836871147156
         0.850591182709
         0.864536762238
         0.878710329533
         0.893116354942
         0.907758414745
         0.922640621662
         0.937766849995
         0.953140974045
         0.968767166138
         0.984649598598
         1.00079238415
         1.01719975471
         1.03387618065
         1.05082607269
         1.06805372238
         1.08556389809
         1.10336112976
         1.12145006657
         1.13983559608
         1.1585226059
         1.17751586437
         1.19682061672
         1.21644186974
         1.2363846302
         1.25665450096
         1.27725672722
         1.29819655418
         1.31947982311
         1.34111189842
         1.36309874058
         1.38544595242
         1.40815961361
         1.43124556541
         1.45471000671
         1.47855913639
         1.50279927254
         1.52743685246
         1.55247843266
         1.57793033123
         1.60379970074
         1.63009309769
         1.65681743622
         1.68398010731
         1.7115881443
         1.73964858055
         1.76816904545
         1.79715716839
         1.82662057877
         1.85656714439
         1.88700437546
         1.91794085503
         1.94938445091
         1.98134350777
         2.01382637024
         2.04684209824
         2.08039879799
         2.11450576782
         2.14917206764
         2.18440628052
         2.22021865845
         2.2566177845
         2.29361367226
         2.3312163353
         2.36943531036
         2.40828084946
         2.4477648735
         2.48789453506
         2.5286822319
         2.57013869286
         2.61227464676
         2.65510129929
         2.69863033295
         2.742872715
         2.78784060478
         2.83354568481
         2.88000011444
         2.92721629143
         2.97520637512
         3.02398324013
         3.07355976105
         3.12394881248
         3.17516422272
         3.22721934319
         3.28012776375
         3.33390331268
         3.38856101036
         3.44411444664
         3.50057911873
         3.5579688549
         3.61629962921
         3.67558717728
         3.73584604263
         3.79709339142
         3.85934448242
         3.92261648178
         3.98692560196
         4.05228853226
         4.11872386932
         4.18624830246
         4.25487947464
         4.32463550568
         4.39553546906
         4.46759796143
         4.54084205627
         4.61528635025
         4.69095134735
         4.7678565979
         4.84602308273
         4.92547082901
         5.0062212944
         5.08829545975
         5.17171525955
         5.25650262833
         5.34267997742
         5.43027019501
         5.51929664612
         5.60978221893
         5.70175123215
         5.79522848129
         5.89023828506
         5.986805439
         6.08495521545
         6.184715271
         6.28610992432
         6.38916730881
         6.49391365051
         6.6003780365
         6.70858716965
         6.81857156754
         6.93036699295
         7.0439863205
         7.15946817398
         7.27684402466
         7.39614391327
         7.51739931107
         7.64064359665
         7.7659072876
         7.89322471619
         8.02262973785
         8.1541557312
         8.28783893585
         8.42371368408
         8.56181526184
         8.7021818161
         8.84484958649
         8.9898557663
         9.13723945618
         9.28703975677
         9.43929481506
         9.59404659271
         9.75133609772
         9.9112033844
         10.0736923218
         10.2388448715
         10.4067049026
         10.5773172379
         10.7507257462
         10.9269781113
         11.1061201096
         11.2881984711
         11.4732627869
         11.661359787
         11.8525419235
         12.0468568802
         12.2443590164
         12.445098877
         12.6491289139
         12.8565034866
         13.067278862
         13.2815103531
         13.499253273
         13.7205657959
         13.9455070496
         14.1741352081
         14.4065122604
         14.6426992416
         14.8827581406
         15.1267518997
         15.3747472763
         15.6268072128
         15.8829994202
         16.1433944702
         16.4080543518
         16.6770553589
         16.9504680634
         17.2283592224
         17.5108089447
         17.7978897095
         18.0896759033
         18.3862457275
         18.6876773834
         18.994052887
         19.3054485321
         19.6219768524
         19.9436683655
         20.2706336975
         20.6029586792
         20.9407329559
         21.2840442657
         21.6329841614
         21.9876461029
         22.3481197357
         22.7145042419
         23.0868968964
         23.4653949738
         23.8500938416
         24.241104126
         24.6385231018
         25.0424594879
         25.4530162811
         25.8703041077
         26.2944316864
         26.7255153656
         27.1636638641
         27.608997345
         28.0616321564
         28.521686554
         28.9892845154
         29.464548111
         29.9476032257
         30.4385757446
         30.9375991821
         31.4448032379
         31.9603233337
         32.4842948914
         33.0168571472
         33.5581512451
         34.1083183289
         34.6675071716
         35.2358589172
         35.8135299683
         36.4006729126
         36.9974403381
         37.6039962769
         38.2204933167
         38.8470954895
         39.4839706421
         40.1312904358
         40.7892189026
         41.4579353333
         42.1376152039
         42.8284339905
         43.5305862427
         44.2442436218
         44.9696044922
         45.7068557739
         46.4561958313
         47.2178192139
         47.9919242859
         48.7787284851
         49.5784263611
         50.3912391663
         51.2173728943
         52.0570526123
         52.9104995728
         53.7779426575
         54.6595993042
         55.5557098389
         56.4665145874
         57.392250061
         58.3331680298
         59.2895088196
         60.2615242004
         61.2494812012
         62.2536315918
         63.2742424011
         64.3115921021
         65.3659439087
         66.4375839233
         67.5267868042
         68.6338500977
         69.7590637207
         70.9027252197
         72.0651321411
         73.24659729
         74.4474411011
         75.6679611206
         76.908493042
         78.1693725586
         79.4509124756
         80.7534637451
         82.0773696899
         83.4229812622
         84.7906570435
         86.1807556152
         87.5936431885
         89.0296859741
         90.4892807007
         91.9728012085
         93.4806518555
         95.0132064819
         96.570892334
         98.1541213989
         99.7632980347
         101.398872375
         103.06124115
         104.75087738
         106.468200684
         108.213691711
         109.987792969
         111.790977478
         113.623733521
         115.486526489
         117.379867554
         119.304244995
         121.260169983
         123.248161316
         125.268745422
         127.322463989
         129.409835815
         131.531448364
         133.687835693
         135.879562378
         138.10723877
         140.371414185
         142.672729492
         145.011764526
         147.389160156
         149.805526733
         152.261505127
         154.757736206
         157.295120239
         159.873886108
         162.494934082
         165.158935547
         167.866622925
         170.61869812
         173.415893555
         176.258956909
         179.148635864
         182.085678101
         185.070861816
         188.104995728
         191.188873291
         194.323303223
         197.509140015
         200.747177124
         204.038314819
         207.383407593
         210.783355713
         214.239013672
         217.751342773
         221.321258545
         224.949691772
         228.637619019
         232.386001587
         236.195846558
         240.068161011
         244.003921509
         248.004241943
         252.070129395
         256.202667236
         260.402954102
         264.672119141
         269.011291504
         273.421569824
         277.904174805
         282.460235596
         287.091033936
         291.797729492
         296.581573486
         301.443878174
         306.385864258
         311.408905029
         316.514282227
         321.703338623
         326.977508545
         332.338104248
