aces_1.0.1/luts/rec1886_to_linear.spi1d
Version 1
From 0.000000 1.000000
Length 1024
Components 1
{
         0.0
         5.97445719563e-08
         3.15333750223e-07
         8.34429215502e-07
         1.66434153925e-06
         2.84332486444e-06
         4.40414351033e-06
         6.37578659735e-06
         8.78444734553e-06
         1.16541468742e-05
         1.50071591634e-05
         1.88643098227e-05
         2.32452093769e-05
         2.81684224319e-05
         3.36516022799e-05
         3.97116091335e-05
         4.63645919808e-05
         5.36260595254e-05
         6.15109602222e-05
         7.00337113813e-05
         7.92082573753e-05
         8.90481242095e-05
         9.95664231596e-05
         0.000110775901703
         0.000122688958072
         0.00013531766308
         0.00014867381833
         0.000162768934388
         0.000177614230779
         0.000193220708752
         0.000209599136724
         0.000226760050282
         0.000244713766733
         0.000263470457867
         0.000283040048089
         0.000303432287183
         0.000324656779412
         0.000346722983522
         0.000369640125427
         0.000393417372834
         0.000418063689722
         0.000443587952759
         0.000469998834888
         0.000497304950841
         0.000525514769834
         0.000554636586457
         0.000584678724408
         0.000615649216343
         0.000647556153126
         0.000680407451
         0.000714210909791
         0.000748974271119
         0.000784705160186
         0.000821411085781
         0.000859099556692
         0.000897777965292
         0.000937453529332
         0.000978133524768
         0.00101982499473
         0.00106253509875
         0.00110627082177
         0.00115103914868
         0.00119684671517
         0.00124370050617
         0.00129160704091
         0.00134057318792
         0.00139060546644
         0.00144171027932
         0.00149389426224
         0.00154716381803
         0.00160152523313
         0.00165698479395
         0.00171354878694
         0.00177122338209
         0.00183001486585
         0.00188992905896
         0.00195097224787
         0.00201315036975
         0.00207646936178
         0.00214093504474
         0.00220655347221
         0.00227333023213
         0.00234127114527
         0.00241038203239
         0.00248066871427
         0.002552136546
         0.00262479111552
         0.0026986382436
         0.00277368351817
         0.00284993206151
         0.00292738946155
         0.00300606130622
         0.00308595271781
         0.00316706928425
         0.0032494161278
         0.00333299860358
         0.00341782206669
         0.00350389140658
         0.00359121221118
         0.0036797891371
         0.00376962777227
         0.00386073300615
         0.003953109961
         0.00404676329345
         0.00414169859141
         0.00423792051151
         0.00433543371037
         0.0044342437759
         0.00453435489908
         0.00463577220216
         0.00473850034177
         0.00484254444018
         0.004947909154
         0.0050545996055
         0.00516261951998
         0.00527197448537
         0.00538266869262
         0.00549470726401
         0.00560809392482
         0.00572283472866
         0.00583893246949
         0.0059563932009
         0.00607522111386
         0.00619541993365
         0.00631699478254
         0.00643995031714
         0.00656429026276
         0.00669001974165
         0.00681714294478
         0.0069456640631
         0.00707558775321
         0.00720691820607
         0.00733965961263
         0.00747381616384
         0.00760939251631
         0.00774639286101
         0.00788482092321
         0.00802468229085
         0.00816597975791
         0.00830871798098
         0.00845290068537
         0.00859853252769
         0.00874561816454
         0.0088941603899
         0.0090441647917
         0.00919563416392
         0.00934857316315
         0.0095029855147
         0.00965887587517
         0.00981624796987
         0.00997510552406
         0.0101354531944
         0.0102972937748
         0.0104606319219
         0.010625471361
         0.0107918167487
         0.0109596708789
         0.0111290384084
         0.0112999230623
         0.011472328566
         0.0116462586448
         0.0118217179552
         0.0119987083599
         0.0121772363782
         0.0123573038727
         0.0125389145687
         0.0127220731229
         0.0129067832604
         0.0130930477753
         0.0132808713242
         0.0134702576324
         0.0136612094939
         0.0138537306339
         0.0140478266403
         0.0142434984446
         0.0144407516345
         0.0146395890042
         0.0148400142789
         0.0150420311838
         0.0152456434444
         0.0154508538544
         0.0156576670706
         0.015866085887
         0.0160761140287
         0.0162877552211
         0.0165010131896
         0.0167158916593
         0.0169323924929
         0.0171505212784
         0.0173702798784
         0.0175916720182
         0.017814701423
         0.0180393718183
         0.0182656869292
         0.0184936504811
         0.0187232624739
         0.018954532221
         0.0191874578595
         0.0194220449775
         0.0196582954377
         0.0198962148279
         0.0201358050108
         0.0203770715743
         0.0206200145185
         0.0208646394312
         0.0211109481752
         0.0213589463383
         0.0216086339206
         0.0218600165099
         0.022113095969
         0.0223678778857
         0.0226243641227
         0.0228825565428
         0.0231424607337
         0.0234040785581
         0.0236674118787
         0.0239324681461
         0.0241992454976
         0.0244677513838
         0.0247379876673
         0.0250099543482
         0.025283658877
         0.0255591031164
         0.0258362907916
         0.0261152219027
         0.0263959020376
         0.0266783349216
         0.02696252428
         0.0272484701127
         0.0275361761451
         0.0278256479651
         0.0281168874353
         0.0284098964185
         0.0287046786398
         0.0290012378246
         0.0292995776981
         0.0295996982604
         0.0299016050994
         0.0302053019404
         0.0305107887834
         0.0308180712163
         0.0311271511018
         0.0314380340278
         0.031750716269
         0.0320652090013
         0.0323815084994
         0.0326996222138
         0.0330195501447
         0.0333412997425
         0.0336648672819
         0.0339902602136
         0.0343174822628
         0.0346465334296
         0.0349774174392
         0.0353101380169
         0.0356446951628
         0.0359810963273
         0.0363193415105
         0.0366594344378
         0.0370013788342
         0.0373451747
         0.0376908294857
         0.0380383431911
         0.0383877158165
         0.0387389548123
         0.0390920601785
         0.0394470393658
         0.0398038886487
         0.040162615478
         0.0405232198536
         0.0408857055008
         0.0412500798702
         0.0416163355112
         0.0419844835997
         0.0423545278609
         0.0427264645696
         0.043100297451
         0.0434760339558
         0.0438536740839
         0.0442332215607
         0.0446146763861
         0.0449980460107
         0.0453833267093
         0.0457705296576
         0.0461596474051
         0.0465506911278
         0.0469436608255
         0.0473385602236
         0.0477353855968
         0.0481341481209
         0.048534847796
         0.048937484622
         0.0493420660496
         0.0497485883534
         0.050157058984
         0.0505674816668
         0.0509798526764
         0.0513941831887
         0.0518104694784
         0.0522287152708
         0.0526489242911
         0.0530710965395
         0.0534952394664
         0.0539213530719
         0.0543494410813
         0.0547795034945
         0.0552115440369
         0.0556455664337
         0.0560815744102
         0.0565195679665
         0.0569595508277
         0.057401522994
         0.0578454919159
         0.0582914538682
         0.0587394163013
         0.0591893829405
         0.0596413500607
         0.0600953288376
         0.0605513118207
         0.0610093101859
         0.0614693239331
         0.0619313530624
         0.062395401299
         0.0628614723682
         0.0633295625448
         0.0637996867299
         0.0642718374729
         0.0647460222244
         0.0652222409844
         0.065700493753
         0.0661807879806
         0.0666631236672
         0.0671475082636
         0.067633934319
         0.0681224092841
         0.0686129406095
         0.0691055208445
         0.0696001574397
         0.0700968578458
         0.0705956220627
         0.0710964426398
         0.0715993344784
         0.0721042975783
         0.0726113244891
         0.0731204301119
         0.0736316144466
         0.0741448700428
         0.0746602118015
         0.0751776322722
         0.0756971463561
         0.0762187466025
         0.0767424330115
         0.0772682130337
         0.077796086669
         0.078326061368
         0.0788581371307
         0.0793923139572
         0.079928599298
         0.0804669857025
         0.0810074880719
         0.0815500989556
         0.0820948183537
         0.0826416611671
         0.0831906199455
         0.0837417021394
         0.0842949077487
         0.0848502442241
         0.0854077041149
         0.0859672948718
         0.0865290164948
         0.0870928764343
         0.08765886724
         0.0882270038128
         0.0887972861528
         0.0893697068095
         0.0899442732334
         0.0905209928751
         0.0910998657346
         0.0916808843613
         0.0922640636563
         0.0928494036198
         0.093436896801
         0.0940265581012
         0.0946183875203
         0.0952123776078
         0.0958085432649
         0.0964068770409
         0.0970073863864
         0.0976100713015
         0.0982149317861
         0.0988219752908
         0.0994312018156
         0.100042618811
         0.100656218827
         0.101272009313
         0.10188999027
         0.102510161698
         0.103132538497
         0.103757105768
         0.10438387841
         0.105012856424
         0.105644032359
         0.106277421117
         0.106913015246
         0.107550829649
         0.108190849423
         0.108833089471
         0.109477549791
         0.110124222934
         0.110773131251
         0.111424252391
         0.112077608705
         0.112733192742
         0.113391004503
         0.114051051438
         0.114713333547
         0.115377858281
         0.116044618189
         0.116713620722
         0.117384873331
         0.118058368564
         0.118734113872
         0.119412109256
         0.120092354715
         0.1207748577
         0.121459618211
         0.122146636248
         0.122835919261
         0.123527467251
         0.124221272767
         0.124917350709
         0.125615701079
         0.126316323876
         0.12701921165
         0.127724394202
         0.128431841731
         0.129141569138
         0.129853576422
         0.130567878485
         0.131284460425
         0.132003337145
         0.132724493742
         0.133447960019
         0.134173706174
         0.134901762009
         0.135632112622
         0.136364758015
         0.137099713087
         0.137836962938
         0.138576537371
         0.139318406582
         0.140062600374
         0.140809103847
         0.141557916999
         0.142309054732
         0.143062502146
         0.143818289042
         0.144576385617
         0.145336806774
         0.146099567413
         0.146864652634
         0.147632062435
         0.148401811719
         0.149173900485
         0.149948328733
         0.150725096464
         0.151504203677
         0.152285650373
         0.153069451451
         0.153855592012
         0.154644086957
         0.155434936285
         0.156228139997
         0.157023698092
         0.157821625471
         0.158621892333
         0.159424543381
         0.160229533911
         0.161036908627
         0.161846652627
         0.162658751011
         0.163473233581
         0.164290085435
         0.165109321475
         0.1659309268
         0.16675491631
         0.167581290007
         0.168410047889
         0.169241189957
         0.17007471621
         0.17091062665
         0.171748936176
         0.17258964479
         0.173432737589
         0.174278229475
         0.175126135349
         0.175976425409
         0.176829129457
         0.177684232593
         0.178541749716
         0.179401665926
         0.180264011025
         0.181128755212
         0.181995913386
         0.18286550045
         0.183737486601
         0.184611916542
         0.18548874557
         0.186368018389
         0.187249705195
         0.188133835793
         0.189020380378
         0.189909368753
         0.190800786018
         0.191694632173
         0.192590922117
         0.193489655852
         0.194390833378
         0.195294454694
         0.1962005198
         0.197109028697
         0.198019981384
         0.198933392763
         0.199849247932
         0.200767576694
         0.201688349247
         0.202611580491
         0.203537270427
         0.204465433955
         0.205396056175
         0.206329137087
         0.207264691591
         0.208202719688
         0.209143221378
         0.21008618176
         0.211031630635
         0.211979553103
         0.212929949164
         0.213882833719
         0.214838206768
         0.21579605341
         0.216756388545
         0.217719212174
         0.218684539199
         0.219652339816
         0.220622643828
         0.221595436335
         0.222570732236
         0.223548531532
         0.224528819323
         0.225511625409
         0.226496934891
         0.227484732866
         0.228475064039
         0.229467883706
         0.230463221669
         0.231461077929
         0.232461452484
         0.233464345336
         0.234469741583
         0.235477671027
         0.236488133669
         0.237501099706
         0.238516613841
         0.239534646273
         0.240555197001
         0.241578295827
         0.242603927851
         0.243632093072
         0.244662791491
         0.245696023107
         0.246731802821
         0.247770130634
         0.248810991645
         0.249854415655
         0.250900357962
         0.25194889307
         0.252999961376
         0.25405356288
         0.255109727383
         0.256168454885
         0.257229745388
         0.25829359889
         0.259360015392
         0.260428994894
         0.261500507593
         0.262574613094
         0.263651311398
         0.264730542898
         0.265812367201
         0.266896754503
         0.267983734608
         0.269073277712
         0.270165413618
         0.271260112524
         0.272357404232
         0.273457288742
         0.274559766054
         0.275664806366
         0.27677243948
         0.277882695198
         0.278995513916
         0.280110925436
         0.28122895956
         0.282349556684
         0.283472776413
         0.284598618746
         0.285727024078
         0.286858081818
         0.287991702557
         0.2891279459
         0.290266811848
         0.291408270597
         0.292552381754
         0.29369905591
         0.294848382473
         0.29600033164
         0.29715487361
         0.298312067986
         0.299471884966
         0.300634294748
         0.301799356937
         0.302967041731
         0.304137378931
         0.305310338736
         0.306485921144
         0.307664126158
         0.30884501338
         0.310028493404
         0.311214655638
         0.312403440475
         0.31359487772
         0.314788937569
         0.315985679626
         0.317185044289
         0.318387061357
         0.319591760635
         0.320799082518
         0.322009086609
         0.323221713305
         0.324437022209
         0.325655013323
         0.326875627041
         0.328098922968
         0.329324901104
         0.330553531647
         0.331784814596
         0.333018809557
         0.334255456924
         0.335494756699
         0.336736768484
         0.337981432676
         0.33922880888
         0.34047883749
         0.341731548309
         0.342986941338
         0.344245046377
         0.345505833626
         0.346769273281
         0.34803545475
         0.349304288626
         0.350575834513
         0.351850092411
         0.353127032518
         0.354406654835
         0.355688989162
         0.356974035501
         0.358261793852
         0.359552234411
         0.360845386982
         0.362141251564
         0.363439828157
         0.364741116762
         0.366045117378
         0.367351859808
         0.368661284447
         0.369973450899
         0.371288329363
         0.372605919838
         0.373926222324
         0.375249296427
         0.376575052738
         0.377903550863
         0.379234790802
         0.380568742752
         0.381905436516
         0.383244872093
         0.384587049484
         0.385931938887
         0.387279599905
         0.388629972935
         0.38998311758
         0.391338974237
         0.39269760251
         0.394058972597
         0.395423084497
         0.396789938211
         0.398159563541
         0.399531930685
         0.400907069445
         0.402284950018
         0.403665572405
         0.40504899621
         0.406435161829
         0.407824069262
         0.409215778112
         0.410610228777
         0.412007451057
         0.413407444954
         0.414810210466
         0.416215747595
         0.417624056339
         0.419035166502
         0.420449018478
         0.421865671873
         0.423285096884
         0.42470729351
         0.426132291555
         0.427560061216
         0.428990632296
         0.430424004793
         0.431860119104
         0.433299064636
         0.434740781784
         0.43618530035
         0.437632620335
         0.439082741737
         0.440535664558
         0.441991358995
         0.443449884653
         0.444911211729
         0.446375340223
         0.447842270136
         0.449312001467
         0.450784564018
         0.452259898186
         0.453738093376
         0.455219060183
         0.456702888012
         0.458189487457
         0.459678947926
         0.461171209812
         0.462666273117
         0.464164197445
         0.465664923191
         0.467168480158
         0.468674868345
         0.470184087753
         0.471696138382
         0.473211020231
         0.474728733301
         0.476249277592
         0.477772653103
         0.479298889637
         0.480827957392
         0.482359856367
         0.483894616365
         0.485432207584
         0.486972659826
         0.488515943289
         0.490062087774
         0.49161106348
         0.493162900209
         0.494717597961
         0.496275156736
         0.497835576534
         0.499398827553
         0.500964939594
         0.502533972263
         0.504105806351
         0.505680501461
         0.507258117199
         0.508838534355
         0.510421872139
         0.512008070946
         0.513597130775
         0.515189051628
         0.516783833504
         0.518381536007
         0.519982099533
         0.521585524082
         0.523191809654
         0.524801015854
         0.526413142681
         0.528028070927
         0.5296459198
         0.531266689301
         0.532890319824
         0.534516870975
         0.53614628315
         0.537778556347
         0.539413809776
         0.541051864624
         0.542692899704
         0.544336795807
         0.545983612537
         0.547633290291
         0.549285888672
         0.550941407681
         0.552599847317
         0.554261147976
         0.555925428867
         0.557592570782
         0.559262633324
         0.560935616493
         0.562611460686
         0.56429028511
         0.565972030163
         0.567656695843
         0.569344222546
         0.571034729481
         0.572728157043
         0.574424505234
         0.576123774052
         0.577825963497
         0.57953107357
         0.581239163876
         0.582950174809
         0.584664046764
         0.586380958557
         0.588100731373
         0.589823484421
         0.591549158096
         0.593277752399
         0.595009326935
         0.596743881702
         0.598481297493
         0.600221693516
         0.601965069771
         0.603711366653
         0.605460643768
         0.607212841511
         0.608967959881
         0.610726118088
         0.612487196922
         0.614251196384
         0.616018176079
         0.617788136005
         0.619561076164
         0.621336936951
         0.623115777969
         0.62489759922
         0.626682400703
         0.628470182419
         0.630260884762
         0.632054567337
         0.633851230145
         0.635650873184
         0.637453496456
         0.63925909996
         0.641067683697
         0.642879247665
         0.644693791866
         0.646511375904
         0.648331880569
         0.650155365467
         0.651981890202
         0.653811335564
         0.655643820763
         0.657479286194
         0.659317731857
         0.661159217358
         0.663003623486
         0.66485106945
         0.666701555252
         0.668555021286
         0.670411467552
         0.672270894051
         0.674133360386
         0.675998806953
         0.677867293358
         0.679738759995
         0.681613266468
         0.683490812778
         0.685371279716
         0.687254846096
         0.689141392708
         0.691030979156
         0.692923545837
         0.694819152355
         0.69671779871
         0.698619425297
         0.700524091721
         0.702431797981
         0.704342544079
         0.706256270409
         0.70817309618
         0.710092902184
         0.712015748024
         0.713941633701
         0.715870559216
         0.717802524567
         0.71973747015
         0.721675515175
         0.723616600037
         0.725560724735
         0.727507889271
         0.729458093643
         0.731411337852
         0.733367621899
         0.735327005386
         0.737289369106
         0.739254832268
         0.741223335266
         0.743194878101
         0.745169520378
         0.747147142887
         0.749127864838
         0.75111168623
         0.753098547459
         0.755088448524
         0.757081389427
         0.759077429771
         0.761076569557
         0.76307874918
         0.765083968639
         0.76709228754
         0.769103646278
         0.771118104458
         0.773135662079
         0.775156259537
         0.777179956436
         0.779206693172
         0.781236588955
         0.78326946497
         0.785305500031
         0.787344574928
         0.789386749268
         0.791432023048
         0.793480396271
         0.79553180933
         0.797586321831
         0.799643993378
         0.801704704762
         0.803768515587
         0.805835425854
         0.807905435562
         0.809978485107
         0.812054693699
         0.814134001732
         0.816216409206
         0.818301916122
         0.82039052248
         0.822482287884
         0.824577093124
         0.826675057411
         0.828776061535
         0.830880224705
         0.832987487316
         0.835097908974
         0.837211370468
         0.839327991009
         0.841447770596
         0.843570590019
         0.845696568489
         0.847825706005
         0.849957883358
         0.852093279362
         0.854231715202
         0.856373310089
         0.858518064022
         0.860665917397
         0.862816929817
         0.864971041679
         0.867128312588
         0.869288682938
         0.871452212334
         0.873618900776
         0.87578868866
         0.87796163559
         0.880137741566
         0.882316946983
         0.884499371052
         0.886684894562
         0.888873517513
         0.891065359116
         0.893260300159
