aces_1.0.1/luts/S-Log2_to_linear.spi1d
Version 1
From 0.000000 1.000000
Length 4096
Components 1
{
         -0.0262106340379
         -0.026138106361
         -0.0260655786842
         -0.0259930510074
         -0.0259205233306
         -0.0258479956537
         -0.0257754679769
         -0.0257029421628
         -0.0256304144859
         -0.0255578868091
         -0.0254853591323
         -0.0254128314555
         -0.0253403037786
         -0.0252677761018
         -0.025195248425
         -0.0251227207482
         -0.025050194934
         -0.0249776672572
         -0.0249051395804
         -0.0248326119035
         -0.0247600842267
         -0.0246875565499
         -0.0246150288731
         -0.0245425011963
         -0.0244699735194
         -0.0243974458426
         -0.0243249200284
         -0.0242523923516
         -0.0241798646748
         -0.024107336998
         -0.0240348093212
         -0.0239622816443
         -0.0238897539675
         -0.0238172262907
         -0.0237446986139
         -0.0236721727997
         -0.0235996451229
         -0.0235271174461
         -0.0234545897692
         -0.0233820620924
         -0.0233095344156
         -0.0232370067388
         -0.023164479062
         -0.0230919513851
         -0.023019425571
         -0.0229468978941
         -0.0228743702173
         -0.0228018425405
         -0.0227293148637
         -0.0226567871869
         -0.02258425951
         -0.0225117318332
         -0.0224392041564
         -0.0223666783422
         -0.0222941506654
         -0.0222216229886
         -0.0221490953118
         -0.0220765676349
         -0.0220040399581
         -0.0219315122813
         -0.0218589846045
         -0.0217864569277
         -0.0217139311135
         -0.0216414034367
         -0.0215688757598
         -0.021496348083
         -0.0214238204062
         -0.0213512927294
         -0.0212787650526
         -0.0212062373757
         -0.0211337096989
         -0.0210611838847
         -0.0209886562079
         -0.0209161285311
         -0.0208436008543
         -0.0207710731775
         -0.0206985455006
         -0.0206260178238
         -0.020553490147
         -0.0204809624702
         -0.020408436656
         -0.0203359089792
         -0.0202633813024
         -0.0201908536255
         -0.0201183259487
         -0.0200457982719
         -0.0199732705951
         -0.0199007429183
         -0.0198282152414
         -0.0197556894273
         -0.0196831617504
         -0.0196106340736
         -0.0195381063968
         -0.01946557872
         -0.0193930510432
         -0.0193205233663
         -0.0192479956895
         -0.0191754680127
         -0.0191029421985
         -0.0190304145217
         -0.0189578868449
         -0.0188853591681
         -0.0188128314912
         -0.0187403038144
         -0.0186677761376
         -0.0185952484608
         -0.0185227207839
         -0.0184501931071
         -0.018377667293
         -0.0183051396161
         -0.0182326119393
         -0.0181600842625
         -0.0180875565857
         -0.0180150289088
         -0.017942501232
         -0.0178699735552
         -0.0177974458784
         -0.0177249200642
         -0.0176523923874
         -0.0175798647106
         -0.0175073370337
         -0.0174348093569
         -0.0173622816801
         -0.0172897540033
         -0.0172172263265
         -0.0171446986496
         -0.0170721728355
         -0.0169996451586
         -0.0169271174818
         -0.016854589805
         -0.0167820621282
         -0.0167095344514
         -0.0166370067745
         -0.0165644790977
         -0.0164919514209
         -0.0164194256067
         -0.0163468979299
         -0.0162743702531
         -0.0162018425763
         -0.0161293148994
         -0.0160567872226
         -0.0159842595458
         -0.015911731869
         -0.0158392041922
         -0.015766678378
         -0.0156941507012
         -0.0156216230243
         -0.0155490953475
         -0.0154765676707
         -0.0154040399939
         -0.0153315123171
         -0.0152589855716
         -0.0151864578947
         -0.0151139302179
         -0.0150414025411
         -0.0149688757956
         -0.0148963481188
         -0.014823820442
         -0.0147512927651
         -0.0146787650883
         -0.0146062383428
         -0.014533710666
         -0.0144611829892
         -0.0143886553124
         -0.0143161276355
         -0.01424360089
         -0.0141710732132
         -0.0140985455364
         -0.0140260178596
         -0.0139534911141
         -0.0138809634373
         -0.0138084357604
         -0.0137359080836
         -0.0136633804068
         -0.0135908536613
         -0.0135183259845
         -0.0134457983077
         -0.0133732706308
         -0.0133007438853
         -0.0132282162085
         -0.0131556885317
         -0.0130831608549
         -0.0130106331781
         -0.0129381064326
         -0.0128655787557
         -0.0127930510789
         -0.0127205234021
         -0.0126479966566
         -0.0125754689798
         -0.012502941303
         -0.0124304136261
         -0.0123578859493
         -0.0122853592038
         -0.012212831527
         -0.0121403038502
         -0.0120677761734
         -0.0119952494279
         -0.011922721751
         -0.0118501940742
         -0.0117776663974
         -0.0117051387206
         -0.0116326119751
         -0.0115600842983
         -0.0114875566214
         -0.0114150289446
         -0.0113425012678
         -0.0112699745223
         -0.0111974468455
         -0.0111249191687
         -0.0110523914918
         -0.0109798647463
         -0.0109073370695
         -0.0108348093927
         -0.0107622817159
         -0.010689754039
         -0.0106172272936
         -0.0105446996167
         -0.0104721719399
         -0.0103996442631
         -0.0103271175176
         -0.0102545898408
         -0.0101820621639
         -0.0101095344871
         -0.0100370068103
         -0.00996448006481
         -0.00989195238799
         -0.00981942471117
         -0.00974689703435
         -0.00967437028885
         -0.00960184261203
         -0.00952931493521
         -0.00945678725839
         -0.00938425958157
         -0.00931173283607
         -0.00923920515925
         -0.00916667748243
         -0.00909414980561
         -0.00902162212878
         -0.00894909538329
         -0.00887656770647
         -0.00880404002964
         -0.00873151235282
         -0.00865898560733
         -0.00858645793051
         -0.00851393025368
         -0.00844140257686
         -0.00836887490004
         -0.00829634815454
         -0.00822382047772
         -0.0081512928009
         -0.00807876512408
         -0.00800623837858
         -0.00793371070176
         -0.00786118302494
         -0.00778865534812
         -0.00771612813696
         -0.00764360046014
         -0.00757107324898
         -0.00749854557216
         -0.007426018361
         -0.00735349068418
         -0.00728096347302
         -0.0072084357962
         -0.00713590811938
         -0.00706338090822
         -0.0069908532314
         -0.00691832602024
         -0.00684579834342
         -0.00677327113226
         -0.00670074345544
         -0.00662821577862
         -0.00655568856746
         -0.00648316089064
         -0.00641063367948
         -0.00633810600266
         -0.0062655787915
         -0.00619305111468
         -0.00612052390352
         -0.0060479962267
         -0.00597546854988
         -0.00590294133872
         -0.0058304136619
         -0.00575788645074
         -0.00568535877392
         -0.00561283156276
         -0.00554030388594
         -0.00546777620912
         -0.00539524899796
         -0.00532272132114
         -0.00525019410998
         -0.00517766643316
         -0.005105139222
         -0.00503261154518
         -0.00496008433402
         -0.0048875566572
         -0.00481502898037
         -0.00474250176921
         -0.00466997409239
         -0.00459744688123
         -0.00452491920441
         -0.00445239199325
         -0.00437986431643
         -0.00430733710527
         -0.00423480942845
         -0.00416228175163
         -0.00408975454047
         -0.00401722686365
         -0.00394469965249
         -0.00387217197567
         -0.00379964453168
         -0.00372711708769
         -0.0036545896437
         -0.00358206219971
         -0.00350953475572
         -0.00343700731173
         -0.00336447963491
         -0.00329195219092
         -0.00321942474693
         -0.00314689730294
         -0.00307436985895
         -0.00300184241496
         -0.00292931497097
         -0.00285678752698
         -0.00278425985016
         -0.00271173240617
         -0.00263920496218
         -0.00256667751819
         -0.0024941500742
         -0.00242162263021
         -0.00234909518622
         -0.00227656774223
         -0.00220404006541
         -0.00213151262142
         -0.00205898517743
         -0.00198645773344
         -0.00191393028945
         -0.00184140284546
         -0.00176887528505
         -0.00169634784106
         -0.00162382039707
         -0.00155129295308
         -0.00147876539268
         -0.00140623794869
         -0.0013337105047
         -0.00126118306071
         -0.0011886555003
         -0.00111612805631
         -0.00104360061232
         -0.00097107316833
         -0.000898545666132
         -0.000826018222142
         -0.000753490719944
         -0.000680963275954
         -0.000608435773756
         -0.000535908329766
         -0.000463380827568
         -0.000390853354475
         -0.000318325881381
         -0.000245798408287
         -0.000173270935193
         -0.000100743469375
         -2.82078508462e-05
         4.43323115178e-05
         0.000116982642794
         0.00018974331033
         0.000262614485109
         0.0003355962981
         0.000408688996686
         0.000481892668176
         0.000555207545403
         0.000628633715678
         0.000702171470039
         0.000775820866693
         0.000849582080264
         0.000923455401789
         0.000997440889478
         0.00107153865974
         0.00114574900363
         0.00122007215396
         0.00129450811073
         0.00136905710679
         0.00144371925853
         0.00151849491522
         0.00159338407684
         0.00166838697623
         0.00174350372981
         0.00181873468682
         0.00189407973085
         0.00196953932755
         0.00204511359334
         0.00212080241181
         0.00219660648145
         0.00227252533659
         0.00234855967574
         0.00242470949888
         0.00250097503886
         0.00257735629566
         0.00265385350212
         0.00273046689108
         0.00280719669536
         0.00288404314779
         0.00296100624837
         0.00303808622994
         0.00311528309248
         0.00319259730168
         0.00327002909034
         0.00334757822566
         0.00342524540611
         0.00350303016603
         0.00358093343675
         0.00365895475261
         0.0037370948121
         0.00381535338238
         0.00389373069629
         0.00397222721949
         0.00405084295198
         0.00412957789376
         0.0042084325105
         0.00428740726784
         0.00436650170013
         0.00444571580738
         0.0045250505209
         0.00460450584069
         0.00468408176675
         0.00476377876475
         0.00484359636903
         0.0049235355109
         0.00500359619036
         0.00508377794176
         0.00516408216208
         0.00524450792
         0.00532505568117
         0.00540572591126
         0.00548651861027
         0.00556743424386
         0.00564847234637
         0.00572963384911
         0.0058109187521
         0.00589232705534
         0.00597385875881
         0.00605551432818
         0.00613729376346
         0.0062191975303
         0.0063012256287
         0.00638337852433
         0.00646565621719
         0.00654805870727
         0.00663058646023
         0.00671323947608
         0.00679601775482
         0.00687892222777
         0.00696195242926
         0.00704510835931
         0.00712839094922
         0.007211800199
         0.00729533564299
         0.00737899821252
         0.00746278790757
         0.00754670472816
         0.00763074913993
         0.00771492114291
         0.00779922073707
         0.00788364838809
         0.00796820502728
         0.00805288925767
         0.00813770201057
         0.00822264421731
         0.00830771494657
         0.00839291512966
         0.00847824476659
         0.00856370385736
         0.00864929240197
         0.00873501133174
         0.00882086064667
         0.00890683941543
         0.00899294950068
         0.00907918997109
         0.00916556175798
         0.00925206486136
         0.00933869928122
         0.00942546501756
         0.0095123630017
         0.00959939230233
         0.00968655385077
         0.00977384857833
         0.00986127462238
         0.00994883477688
         0.0100365271792
         0.0101243527606
         0.0102123115212
         0.0103004043922
         0.0103886304423
         0.0104769906029
         0.0105654858053
         0.0106541141868
         0.0107428785414
         0.0108317760751
         0.0109208095819
         0.0110099781305
         0.0110992826521
         0.0111887222156
         0.0112782977521
         0.0113680092618
         0.0114578567445
         0.0115478411317
         0.0116379624233
         0.0117282196879
         0.0118186147884
         0.0119091467932
         0.0119998166338
         0.0120906243101
         0.0121815688908
         0.0122726522386
         0.0123638743535
         0.0124552343041
         0.0125467339531
         0.0126383714378
         0.0127301486209
         0.0128220655024
         0.012914121151
         0.0130063174292
         0.0130986534059
         0.013191129081
         0.0132837453857
         0.0133765032515
         0.0134694008157
         0.0135624399409
         0.0136556206271
         0.0137489428744
         0.0138424066827
         0.013936012052
         0.0140297599137
         0.0141236502677
         0.0142176831141
         0.0143118593842
         0.0144061772153
         0.0145006394014
         0.0145952450112
         0.0146899940446
         0.0147848874331
         0.0148799242452
         0.0149751054123
         0.0150704318658
         0.0151659017429
         0.0152615178376
         0.0153572792187
         0.0154531849548
         0.0155492369086
         0.0156454350799
         0.0157417785376
         0.0158382691443
         0.0159349068999
         0.0160316899419
         0.0161286201328
         0.0162256974727
         0.0163229238242
         0.0164202973247
         0.0165178179741
         0.0166154857725
         0.0167133025825
         0.0168112684041
         0.0169093832374
         0.0170076470822
         0.0171060599387
         0.0172046218067
         0.0173033345491
         0.017402196303
         0.0175012089312
         0.017600370571
         0.0176996830851
         0.0177991483361
         0.0178987625986
         0.0179985277355
         0.0180984456092
         0.0181985162199
         0.0182987377048
         0.0183991100639
         0.0184996370226
         0.0186003148556
         0.0187011472881
         0.0188021324575
         0.0189032703638
         0.019004561007
         0.0191060081124
         0.0192076060921
         0.019309360534
         0.0194112695754
         0.0195133332163
         0.0196155514568
         0.0197179242969
         0.0198204535991
         0.0199231375009
         0.0200259778649
         0.020128974691
         0.0202321279794
         0.02033543773
         0.0204389058053
         0.0205425284803
         0.0206463094801
         0.0207502488047
         0.0208543464541
         0.0209586005658
         0.0210630148649
         0.0211675856262
         0.0212723165751
         0.0213772058487
         0.0214822553098
         0.0215874630958
         0.0216928310692
         0.0217983592302
         0.0219040494412
         0.0220098979771
         0.0221159067005
         0.022222077474
         0.0223284102976
         0.0224349033087
         0.02254155837
         0.022648377344
         0.0227553565055
         0.0228624977171
         0.0229698028415
         0.0230772700161
         0.0231849011034
         0.0232926961035
         0.0234006531537
         0.0235087759793
         0.023617060855
         0.0237255115062
         0.0238341279328
         0.0239429082721
         0.0240518525243
         0.0241609644145
         0.0242702402174
         0.0243796836585
         0.0244892928749
         0.0245990678668
         0.0247090104967
         0.0248191189021
         0.0249293949455
         0.025039838627
         0.0251504499465
         0.0252612289041
         0.0253721773624
         0.0254832934588
         0.0255945790559
         0.0257060322911
         0.0258176550269
         0.0259294491261
         0.0260414108634
         0.026153543964
         0.0262658465654
         0.0263783205301
         0.0264909639955
         0.0266037788242
         0.0267167650163
         0.0268299244344
         0.0269432533532
         0.0270567554981
         0.0271704308689
         0.027284277603
         0.0273982975632
         0.0275124907494
         0.0276268590242
         0.0277413986623
         0.0278561133891
         0.0279710013419
         0.0280860643834
         0.0282013025135
         0.0283167157322
         0.0284323040396
         0.0285480674356
         0.0286640059203
         0.0287801213562
         0.0288964137435
         0.029012883082
         0.0291295275092
         0.0292463507503
         0.0293633509427
         0.0294805280864
         0.0295978840441
         0.029715416953
         0.0298331286758
         0.0299510210752
         0.030069090426
         0.0301873404533
         0.0303057692945
         0.0304243788123
         0.0305431671441
         0.0306621361524
         0.0307812858373
         0.0309006180614
         0.0310201309621
         0.0311398245394
         0.0312597006559
         0.0313797555864
         0.0314999967813
         0.0316204205155
         0.0317410267889
         0.0318618156016
         0.0319827869534
         0.0321039408445
         0.0322252810001
         0.0323468074203
         0.0324685126543
         0.0325904078782
         0.0327124856412
         0.0328347496688
         0.0329571999609
         0.0330798365176
         0.0332026593387
         0.0333256646991
         0.0334488600492
         0.0335722453892
         0.0336958132684
         0.0338195711374
         0.0339435152709
         0.0340676493943
         0.0341919735074
         0.034316483885
         0.0344411842525
         0.0345660708845
         0.0346911512315
         0.0348164215684
         0.0349418818951
         0.0350675284863
         0.0351933687925
         0.0353194028139
         0.0354456268251
         0.0355720408261
         0.0356986485422
         0.0358254462481
         0.035952437669
         0.0360796228051
         0.0362070016563
         0.0363345704973
         0.0364623367786
         0.0365902967751
         0.0367184504867
         0.0368467979133
         0.0369753390551
         0.0371040776372
         0.0372330099344
         0.037362139672
         0.03749146685
         0.0376209877431
         0.0377507060766
         0.0378806218505
         0.0380107350647
         0.0381410457194
         0.0382715538144
         0.0384022630751
         0.0385331660509
         0.0386642701924
         0.0387955754995
         0.0389270745218
         0.039058778435
         0.0391906797886
         0.0393227823079
         0.0394550859928
         0.0395875908434
         0.0397202968597
         0.0398532040417
         0.0399863123894
         0.0401196219027
         0.040253136307
         0.040386851877
         0.0405207723379
         0.0406548939645
         0.0407892204821
         0.0409237518907
         0.0410584844649
         0.0411934256554
         0.0413285680115
         0.0414639189839
         0.0415994748473
         0.0417352356017
         0.041871201247
         0.0420073755085
         0.0421437546611
         0.0422803424299
         0.0424171388149
         0.0425541400909
         0.0426913499832
         0.0428287684917
         0.0429663956165
         0.0431042350829
         0.0432422794402
         0.043380536139
         0.0435190014541
         0.0436576791108
         0.0437965653837
         0.0439356639981
         0.0440749712288
         0.0442144908011
         0.0443542227149
         0.0444941669703
         0.0446343272924
         0.0447746962309
         0.0449152775109
         0.0450560748577
         0.0451970845461
         0.0453383103013
         0.0454797483981
         0.0456214025617
         0.0457632727921
         0.0459053553641
         0.0460476577282
         0.0461901724339
         0.0463329069316
         0.0464758574963
         0.0466190241277
         0.046762406826
         0.0469060093164
         0.0470498278737
         0.0471938662231
         0.0473381243646
         0.047482598573
         0.0476272962987
         0.0477722100914
         0.0479173474014
         0.0480627045035
         0.0482082776725
         0.0483540780842
         0.0485000982881
         0.048646338284
         0.0487928017974
         0.0489394851029
         0.0490863956511
         0.0492335259914
         0.0493808798492
         0.0495284572244
         0.0496762618423
         0.0498242899776
         0.0499725416303
         0.0501210168004
         0.0502697192132
         0.0504186488688
         0.0505678057671
         0.0507171861827
         0.0508667938411
         0.0510166287422
         0.051166690886
         0.0513169839978
         0.051467500627
         0.0516182482243
         0.0517692267895
         0.0519204325974
         0.052071865648
         0.052223533392
         0.0523754283786
         0.0525275543332
         0.0526799112558
         0.0528324991465
         0.0529853217304
         0.0531383752823
         0.0532916598022
         0.0534451790154
         0.0535989291966
         0.0537529140711
         0.0539071299136
         0.0540615841746
         0.054216273129
         0.0543711930513
         0.0545263513923
         0.0546817444265
         0.054837372154
         0.0549932383001
         0.0551493428648
         0.0553056821227
         0.055462256074
         0.0556190721691
         0.0557761229575
         0.0559334158897
         0.0560909472406
         0.0562487132847
         0.056406725198
         0.0565649718046
         0.0567234605551
         0.0568821914494
         0.0570411644876
         0.0572003759444
         0.057359829545
         0.0575195252895
         0.0576794631779
         0.0578396469355
         0.0580000728369
         0.0581607408822
         0.0583216510713
         0.0584828108549
         0.0586442127824
         0.058805860579
         0.0589677505195
         0.0591298900545
         0.0592922754586
         0.0594549067318
         0.0596177838743
         0.0597809106112
         0.0599442832172
         0.0601079054177
         0.0602717734873
         0.0604358911514
         0.0606002621353
         0.0607648789883
         0.0609297454357
         0.0610948652029
         0.0612602345645
         0.0614258535206
         0.0615917257965
         0.0617578476667
         0.0619242228568
         0.0620908513665
         0.062257733196
         0.0624248683453
         0.0625922605395
         0.062759898603
         0.0629277974367
         0.0630959495902
         0.0632643550634
         0.063433021307
         0.0636019408703
         0.0637711212039
         0.0639405548573
         0.0641102418303
         0.0642801895738
         0.0644503980875
         0.064620859921
         0.0647915825248
         0.0649625658989
         0.0651338100433
         0.0653053149581
         0.0654770806432
         0.065649099648
         0.0658213868737
         0.0659939348698
         0.0661667436361
