aces_1.0.1/luts/S-Log3_to_linear.spi1d
Version 1
From 0.000000 1.000000
Length 4096
Components 1
{
         -0.0140236960724
         -0.0139868184924
         -0.0139499409124
         -0.0139130633324
         -0.0138761866838
         -0.0138393091038
         -0.0138024315238
         -0.0137655539438
         -0.0137286763638
         -0.0136917987838
         -0.0136549212039
         -0.0136180445552
         -0.0135811669752
         -0.0135442893952
         -0.0135074118152
         -0.0134705342352
         -0.0134336566553
         -0.0133967800066
         -0.0133599024266
         -0.0133230248466
         -0.0132861472666
         -0.0132492696866
         -0.0132123921067
         -0.013175515458
         -0.013138637878
         -0.013101760298
         -0.013064882718
         -0.013028005138
         -0.0129911275581
         -0.0129542509094
         -0.0129173733294
         -0.0128804957494
         -0.0128436181694
         -0.0128067405894
         -0.0127698630095
         -0.0127329863608
         -0.0126961087808
         -0.0126592312008
         -0.0126223536208
         -0.0125854760408
         -0.0125485984609
         -0.0125117218122
         -0.0124748442322
         -0.0124379666522
         -0.0124010890722
         -0.0123642114922
         -0.0123273339123
         -0.0122904572636
         -0.0122535796836
         -0.0122167021036
         -0.0121798245236
         -0.0121429469436
         -0.0121060693637
         -0.012069192715
         -0.012032315135
         -0.011995437555
         -0.011958559975
         -0.011921682395
         -0.0118848048151
         -0.0118479281664
         -0.0118110505864
         -0.0117741730064
         -0.0117372954264
         -0.0117004178464
         -0.0116635402665
         -0.0116266636178
         -0.0115897860378
         -0.0115529084578
         -0.0115160308778
         -0.0114791532978
         -0.0114422757179
         -0.0114053990692
         -0.0113685214892
         -0.0113316439092
         -0.0112947663292
         -0.0112578887492
         -0.0112210111693
         -0.0111841345206
         -0.0111472569406
         -0.0111103793606
         -0.0110735017806
         -0.0110366242006
         -0.0109997466207
         -0.010962869972
         -0.010925992392
         -0.010889114812
         -0.010852237232
         -0.010815359652
         -0.0107784820721
         -0.0107416044921
         -0.0107047278434
         -0.0106678502634
         -0.0106309726834
         -0.0105940951034
         -0.0105572175235
         -0.0105203399435
         -0.0104834632948
         -0.0104465857148
         -0.0104097081348
         -0.0103728305548
         -0.0103359529749
         -0.0102990753949
         -0.0102621987462
         -0.0102253211662
         -0.0101884435862
         -0.0101515660062
         -0.0101146884263
         -0.0100778108463
         -0.0100409341976
         -0.0100040566176
         -0.00996717903763
         -0.00993030145764
         -0.00989342387766
         -0.00985654629767
         -0.009819669649
         -0.00978279206902
         -0.00974591448903
         -0.00970903690904
         -0.00967215932906
         -0.00963528174907
         -0.00959840510041
         -0.00956152752042
         -0.00952464994043
         -0.00948777236044
         -0.00945089478046
         -0.00941401720047
         -0.00937714055181
         -0.00934026297182
         -0.00930338539183
         -0.00926650781184
         -0.00922963023186
         -0.00919275265187
         -0.00915587600321
         -0.00911899842322
         -0.00908212084323
         -0.00904524326324
         -0.00900836568326
         -0.00897148810327
         -0.00893461145461
         -0.00889773387462
         -0.00886085629463
         -0.00882397871464
         -0.00878710113466
         -0.00875022355467
         -0.00871334690601
         -0.00867646932602
         -0.00863959174603
         -0.00860271416605
         -0.00856583658606
         -0.00852895900607
         -0.00849208235741
         -0.00845520477742
         -0.00841832719743
         -0.00838144961745
         -0.00834457203746
         -0.00830769445747
         -0.00827081780881
         -0.00823394022882
         -0.00819706264883
         -0.00816018506885
         -0.00812330748886
         -0.00808642990887
         -0.00804955326021
         -0.00801267568022
         -0.00797579810023
         -0.00793892052025
         -0.00790204294026
         -0.00786516536027
         -0.00782828778028
         -0.00779141066596
         -0.00775453355163
         -0.00771765597165
         -0.00768077839166
         -0.00764390127733
         -0.00760702369735
         -0.00757014611736
         -0.00753326900303
         -0.00749639142305
         -0.00745951384306
         -0.00742263672873
         -0.00738575914875
         -0.00734888156876
         -0.00731200445443
         -0.00727512687445
         -0.00723824929446
         -0.00720137218013
         -0.00716449460015
         -0.00712761702016
         -0.00709073990583
         -0.00705386232585
         -0.00701698474586
         -0.00698010763153
         -0.00694323005155
         -0.00690635247156
         -0.00686947535723
         -0.00683259777725
         -0.00679572019726
         -0.00675884308293
         -0.00672196550295
         -0.00668508792296
         -0.00664821080863
         -0.00661133322865
         -0.00657445564866
         -0.00653757853433
         -0.00650070095435
         -0.00646382337436
         -0.00642694579437
         -0.00639006868005
         -0.00635319110006
         -0.00631631352007
         -0.00627943640575
         -0.00624255882576
         -0.00620568124577
         -0.00616880413145
         -0.00613192655146
         -0.00609504897147
         -0.00605817185715
         -0.00602129427716
         -0.00598441669717
         -0.00594753958285
         -0.00591066200286
         -0.00587378442287
         -0.00583690730855
         -0.00580002972856
         -0.00576315214857
         -0.00572627503425
         -0.00568939745426
         -0.00565251987427
         -0.00561564275995
         -0.00557876517996
         -0.00554188759997
         -0.00550501048565
         -0.00546813290566
         -0.00543125532568
         -0.00539437821135
         -0.00535750063136
         -0.00532062305138
         -0.00528374593705
         -0.00524686835706
         -0.00520999077708
         -0.00517311366275
         -0.00513623608276
         -0.00509935850278
         -0.00506248138845
         -0.00502560380846
         -0.00498872622848
         -0.00495184911415
         -0.00491497153416
         -0.00487809395418
         -0.00484121683985
         -0.00480433925986
         -0.00476746167988
         -0.00473058456555
         -0.00469370698556
         -0.00465682940558
         -0.00461995229125
         -0.00458307471126
         -0.00454619713128
         -0.00450932001695
         -0.00447244243696
         -0.00443556485698
         -0.00439868774265
         -0.00436181016266
         -0.00432493258268
         -0.00428805546835
         -0.00425117788836
         -0.00421430030838
         -0.00417742319405
         -0.00414054561406
         -0.00410366803408
         -0.00406679091975
         -0.00402991333976
         -0.00399303575978
         -0.00395615864545
         -0.00391928106546
         -0.00388240348548
         -0.00384552613832
         -0.00380864879116
         -0.00377177121118
         -0.00373489386402
         -0.00369801651686
         -0.00366113893688
         -0.00362426158972
         -0.00358738424256
         -0.00355050666258
         -0.00351362931542
         -0.00347675196826
         -0.00343987438828
         -0.00340299704112
         -0.00336611969396
         -0.00332924211398
         -0.00329236476682
         -0.00325548741966
         -0.00321860983968
         -0.00318173249252
         -0.00314485514536
         -0.00310797756538
         -0.00307110021822
         -0.00303422287107
         -0.00299734529108
         -0.00296046794392
         -0.00292359059677
         -0.00288671301678
         -0.00284983566962
         -0.00281295808963
         -0.00277608074248
         -0.00273920339532
         -0.00270232581533
         -0.00266544846818
         -0.00262857112102
         -0.00259169354104
         -0.00255481619388
         -0.00251793884672
         -0.00248106126674
         -0.00244418391958
         -0.00240730657242
         -0.00237042899244
         -0.00233355164528
         -0.00229667429812
         -0.00225979671814
         -0.00222291937098
         -0.00218604202382
         -0.00214916444384
         -0.00211228709668
         -0.00207540974952
         -0.00203853216954
         -0.00200165482238
         -0.00196477747522
         -0.00192790001165
         -0.00189102254808
         -0.00185414508451
         -0.00181726773735
         -0.00178039027378
         -0.00174351281021
         -0.00170663534664
         -0.00166975799948
         -0.00163288053591
         -0.00159600307234
         -0.00155912572518
         -0.00152224826161
         -0.00148537079804
         -0.00144849345088
         -0.00141161598731
         -0.00137473852374
         -0.00133786117658
         -0.00130098371301
         -0.00126410624944
         -0.00122722890228
         -0.00119035143871
         -0.00115347397514
         -0.00111659662798
         -0.00107971916441
         -0.00104284170084
         -0.00100596423727
         -0.000969086890109
         -0.000932209426537
         -0.000895332021173
         -0.000858454557601
         -0.000821577152237
         -0.000784699746873
         -0.000747822283302
         -0.000710944877937
         -0.000674067472573
         -0.000637190009002
         -0.000600312603638
         -0.000563435198274
         -0.000526557734702
         -0.000489680329338
         -0.00045280289487
         -0.000415925460402
         -0.000379048025934
         -0.00034217062057
         -0.000305293186102
         -0.000268415751634
         -0.000231538331718
         -0.00019466089725
         -0.000157783477334
         -0.000120906050142
         -8.40286229504e-05
         -4.71511957585e-05
         -1.0273769476e-05
         2.66036568064e-05
         6.34810858173e-05
         0.000100358513009
         0.000137235940201
         0.000174113360117
         0.000210990794585
         0.000247868214501
         0.000284745648969
         0.000321623083437
         0.000358500488801
         0.000395377923269
         0.000432255357737
         0.000469132792205
         0.000506010197569
         0.000542887602933
         0.000579765066504
         0.000616642471869
         0.00065351993544
         0.000690397340804
         0.000727274746168
         0.00076415220974
         0.000801029615104
         0.000837907020468
         0.00087478448404
         0.000911661889404
         0.000948539352976
         0.000985416700132
         0.0010222941637
         0.00105917162728
         0.00109604909085
         0.001132926438
         0.00116980390158
         0.00120668136515
         0.0012435587123
         0.00128043617588
         0.00131731363945
         0.0013541909866
         0.00139106845018
         0.00142794591375
         0.0014648232609
         0.00150170072448
         0.00153857818805
         0.0015754555352
         0.00161233299877
         0.00164921046235
         0.0016860878095
         0.00172296527307
         0.00175984273665
         0.0017967200838
         0.00183359754737
         0.00187047501095
         0.00190735247452
         0.00194422982167
         0.00198110728525
         0.0020179846324
         0.00205486221239
         0.00209173955955
         0.0021286169067
         0.00216549448669
         0.00220237183385
         0.002239249181
         0.00227612676099
         0.00231300410815
         0.0023498814553
         0.00238675903529
         0.00242363638245
         0.0024605137296
         0.00249739130959
         0.00253426865675
         0.0025711460039
         0.00260802358389
         0.00264490093105
         0.0026817782782
         0.00271865585819
         0.00275553320535
         0.0027924105525
         0.00282928813249
         0.00286616547965
         0.00290304305963
         0.00293992040679
         0.00297679775394
         0.00301367533393
         0.00305055268109
         0.00308743002824
         0.00312430760823
         0.00316118495539
         0.00319806230254
         0.00323493988253
         0.00327181722969
         0.00330869457684
         0.00334557215683
         0.00338244950399
         0.00341932685114
         0.00345620443113
         0.00349308177829
         0.00352995912544
         0.00356683670543
         0.00360371405259
         0.00364059139974
         0.00367746897973
         0.00371434632689
         0.00375122367404
         0.00378810125403
         0.00382497860119
         0.00386185594834
         0.00389873352833
         0.00393561087549
         0.00397248845547
         0.0040093655698
         0.00404624314979
         0.00408312072977
         0.0041199978441
         0.00415687542409
         0.00419375300407
         0.0042306301184
         0.00426750769839
         0.00430438527837
         0.0043412623927
         0.00437813997269
         0.00441501755267
         0.004451894667
         0.00448877224699
         0.00452564982697
         0.0045625269413
         0.00459940452129
         0.00463628210127
         0.0046731592156
         0.00471003679559
         0.00474691437557
         0.0047837914899
         0.00482066906989
         0.00485754664987
         0.0048944237642
         0.00493130134419
         0.00496817892417
         0.0050050560385
         0.00504193361849
         0.00507881119847
         0.00511568877846
         0.00515256589279
         0.00518944347277
         0.00522632105276
         0.00526319816709
         0.00530007574707
         0.00533695332706
         0.00537383044139
         0.00541070802137
         0.00544758560136
         0.00548446271569
         0.00552134029567
         0.00555821787566
         0.00559509498999
         0.00563197256997
         0.00566885014996
         0.00570572726429
         0.00574260484427
         0.00577948242426
         0.00581635953858
         0.00585323711857
         0.00589011469856
         0.00592699181288
         0.00596386939287
         0.00600074697286
         0.00603762408718
         0.00607450166717
         0.00611137924716
         0.00614825636148
         0.00618513394147
         0.00622201152146
         0.00625888863578
         0.00629576621577
         0.00633264379576
         0.00636952091008
         0.00640639849007
         0.00644327607006
         0.00648015318438
         0.00651703076437
         0.00655390834436
         0.00659078545868
         0.00662766303867
         0.00666454061866
         0.00670141773298
         0.00673829531297
         0.00677517289296
         0.00681205000728
         0.00684892758727
         0.00688580516726
         0.00692268228158
         0.00695955986157
         0.00699643744156
         0.00703331455588
         0.00707019213587
         0.00710706971586
         0.00714394683018
         0.00718082441017
         0.00721770199016
         0.00725457910448
         0.00729145668447
         0.00732833426446
         0.00736521137878
         0.00740208895877
         0.00743896653876
         0.00747584365308
         0.00751272123307
         0.00754959881306
         0.00758647592738
         0.00762335350737
         0.00766023108736
         0.00769710820168
         0.00773398578167
         0.00777086336166
         0.00780774047598
         0.00784461852163
         0.0078814951703
         0.00791837275028
         0.00795525033027
         0.00799212791026
         0.00802900549024
         0.00806588307023
         0.00810275971889
         0.00813963729888
         0.00817651487887
         0.00821339245886
         0.00825027003884
         0.00828714761883
         0.00832402426749
         0.00836090184748
         0.00839777942747
         0.00843465700746
         0.00847153458744
         0.00850841216743
         0.00854528881609
         0.00858216639608
         0.00861904397607
         0.00865592155606
         0.00869279913604
         0.00872967671603
         0.00876655336469
         0.00880343094468
         0.00884030852467
         0.00887718610466
         0.00891406368464
         0.00895094126463
         0.00898781791329
         0.00902469549328
         0.00906157307327
         0.00909845065325
         0.00913532823324
         0.00917220581323
         0.00920908246189
         0.00924596004188
         0.00928283762187
         0.00931971520185
         0.00935659278184
         0.00939347036183
         0.00943034794182
         0.00946722459048
         0.00950410217047
         0.00954097975045
         0.00957785733044
         0.00961473491043
         0.00965161249042
         0.00968848913908
         0.00972536671907
         0.00976224429905
         0.00979912187904
         0.00983599945903
         0.00987287703902
         0.00990975368768
         0.00994663126767
         0.00998350884765
         0.0100203864276
         0.0100572640076
         0.0100941415876
         0.0101310182363
         0.0101678958163
         0.0102047733963
         0.0102416509762
         0.0102785285562
         0.0103154061362
         0.0103522827849
         0.0103891603649
         0.0104260379449
         0.0104629155248
         0.0104997931048
         0.0105366706848
         0.0105735473335
         0.0106104249135
         0.0106473024935
         0.0106841800734
         0.0107210576534
         0.0107579352334
         0.0107948118821
         0.0108316894621
         0.0108685670421
         0.010905444622
         0.010942322202
         0.010979199782
         0.0110160764307
         0.0110529540107
         0.0110898315907
         0.0111267091706
         0.0111635867506
         0.0112004643306
         0.0112373409793
         0.0112807210535
         0.0113275833428
         0.0113745499402
         0.0114216189831
         0.0114687923342
         0.0115160699934
         0.0115634510294
         0.0116109363735
         0.011658526957
         0.0117062218487
         0.0117540219799
         0.0118019273505
         0.0118499379605
         0.01189805381
         0.0119462767616
         0.0119946049526
         0.0120430402458
         0.0120915817097
         0.0121402302757
         0.0121889859438
         0.0122378496453
         0.0122868195176
         0.0123358983546
         0.0123850852251
         0.012434380129
         0.0124837830663
         0.0125332958996
         0.0125829167664
         0.0126326475292
         0.0126824881881
         0.0127324378118
         0.0127824973315
         0.0128326676786
         0.0128829479218
         0.0129333389923
         0.0129838418216
         0.0130344554782
         0.0130851799622
         0.0131360171363
         0.0131869651377
         0.0132380258292
         0.0132891992107
         0.0133404852822
         0.0133918840438
         0.0134433964267
         0.0134950214997
         0.013546760194
         0.013598613441
         0.0136505812407
         0.0137026626617
         0.0137548595667
         0.0138071700931
         0.0138595970348
         0.0139121394604
         0.0139647964388
         0.0140175707638
         0.0140704605728
         0.0141234667972
         0.0141765894368
         0.0142298294231
         0.0142831867561
         0.0143366614357
         0.0143902543932
         0.0144439646974
         0.0144977942109
         0.014551741071
         0.0146058071405
         0.0146599924192
         0.0147142969072
         0.0147687215358
         0.0148232653737
         0.0148779293522
         0.0149327144027
         0.0149876195937
         0.0150426449254
         0.0150977922603
         0.0151530606672
         0.0152084510773
         0.0152639634907
         0.0153195988387
         0.0153753552586
         0.0154312355444
         0.0154872387648
         0.0155433649197
         0.0155996149406
         0.0156559888273
         0.01571248658
         0.0157691091299
         0.0158258546144
         0.0158827267587
         0.0159397255629
         0.0159968473017
         0.0160540957004
         0.0161114707589
         0.0161689706147
         0.0162265989929
         0.0162843540311
         0.0163422357291
         0.016400244087
         0.0164583809674
         0.0165166463703
         0.0165750384331
         0.016633560881
         0.0166922118515
         0.0167509913445
         0.0168099012226
         0.0168689396232
         0.016928108409
         0.01698740758
         0.0170468371361
         0.0171063989401
         0.0171660892665
         0.0172259137034
         0.0172858685255
         0.0173459555954
         0.017406174913
         0.0174665264785
         0.0175270121545
         0.0175876300782
         0.0176483821124
         0.0177092663944
         0.0177702866495
         0.017831441015
         0.017892729491
         0.0179541520774
         0.018015710637
         0.0180774051696
         0.0181392356753
         0.0182012021542
         0.0182633046061
         0.0183255448937
         0.0183879211545
         0.018450435251
         0.0185130871832
         0.0185758769512
         0.0186388045549
         0.0187018699944
         0.0187650751323
         0.0188284199685
         0.0188919045031
         0.0189555287361
         0.0190192926675
         0.0190831962973
         0.0191472414881
         0.0192114282399
         0.0192757546902
         0.0193402245641
         0.019404835999
         0.019469588995
         0.019534483552
         0.0195995233953
         0.0196647047997
         0.0197300314903
         0.019795499742
         0.0198611132801
         0.0199268721044
         0.0199927743524
         0.0200588237494
         0.0201250165701
         0.0201913565397
         0.0202578417957
         0.020324472338
         0.0203912518919
         0.0204581767321
         0.0205252505839
         0.0205924715847
         0.0206598397344
         0.0207273568958
         0.0207950230688
         0.0208628363907
         0.0209308005869
         0.0209989137948
         0.0210671778768
         0.0211355928332
         0.0212041568011
         0.0212728735059
         0.0213417392224
         0.0214107576758
         0.021479928866
         0.0215492527932
         0.0216187275946
         0.0216883569956
         0.0217581391335
         0.0218280740082
         0.0218981634825
         0.0219684075564
         0.0220388062298
         0.0221093595028
         0.0221800692379
         0.0222509335726
         0.0223219543695
         0.0223931316286
         0.0224644653499
         0.022535957396
         0.0226076059043
         0.0226794108748
         0.0227513760328
         0.0228234995157
         0.0228957813233
         0.0229682214558
         0.0230408217758
         0.0231135822833
         0.0231865029782
         0.0232595838606
         0.0233328267932
         0.0234062299132
         0.0234797932208
         0.0235535204411
         0.0236274097115
         0.0237014628947
         0.023775678128
         0.0238500554115
         0.0239245984703
         0.023999305442
         0.0240741763264
         0.0241492111236
         0.0242244135588
         0.0242997799069
         0.0243753120303
         0.0244510117918
         0.0245268773288
         0.0246029086411
         0.0246791094542
         0.0247554779053
         0.0248320139945
         0.0249087177217
         0.0249855928123
         0.025062635541
         0.0251398477703
         0.0252172295004
         0.0252947825938
         0.0253725070506
         0.0254504028708
         0.0255284681916
         0.0256067067385
