aces_1.0.1/luts/V-Log_to_linear.spi1d
Version 1
From 0.000000 1.000000
Length 1024
Components 1
{
         -0.0223214291036
         -0.0221468713135
         -0.0219723153859
         -0.0217977594584
         -0.0216232016683
         -0.0214486457407
         -0.0212740879506
         -0.0210995320231
         -0.0209249760956
         -0.0207504183054
         -0.0205758623779
         -0.0204013064504
         -0.0202267486602
         -0.0200521927327
         -0.0198776349425
         -0.019703079015
         -0.0195285230875
         -0.0193539652973
         -0.0191794093698
         -0.0190048534423
         -0.0188302956522
         -0.0186557397246
         -0.0184811819345
         -0.018306626007
         -0.0181320700794
         -0.0179575122893
         -0.0177829563618
         -0.0176084004343
         -0.0174338426441
         -0.0172592867166
         -0.0170847289264
         -0.0169101729989
         -0.0167356170714
         -0.0165610592812
         -0.0163865033537
         -0.0162119474262
         -0.016037389636
         -0.0158628337085
         -0.0156882759184
         -0.0155137199908
         -0.015339163132
         -0.0151646072045
         -0.0149900503457
         -0.0148154934868
         -0.014640936628
         -0.0144663807005
         -0.0142918238416
         -0.0141172669828
         -0.013942710124
         -0.0137681541964
         -0.0135935973376
         -0.0134190404788
         -0.0132444836199
         -0.0130699276924
         -0.0128953708336
         -0.0127208139747
         -0.0125462571159
         -0.0123717011884
         -0.0121971443295
         -0.0120225874707
         -0.0118480306119
         -0.0116734746844
         -0.0114989178255
         -0.0113243609667
         -0.0111498041078
         -0.0109752481803
         -0.0108006913215
         -0.0106261344627
         -0.0104515776038
         -0.0102770216763
         -0.0101024648175
         -0.00992790795863
         -0.00975335109979
         -0.00957879517227
         -0.00940423831344
         -0.0092296814546
         -0.00905512459576
         -0.00888056866825
         -0.00870601180941
         -0.00853145495057
         -0.00835689809173
         -0.00818234216422
         -0.00800778530538
         -0.00783322844654
         -0.00765867205337
         -0.00748411519453
         -0.00730955880135
         -0.00713500194252
         -0.00696044554934
         -0.0067858886905
         -0.00661133229733
         -0.00643677543849
         -0.00626221904531
         -0.00608766218647
         -0.0059131057933
         -0.00573854893446
         -0.00556399254128
         -0.00538943568245
         -0.00521487928927
         -0.00504032243043
         -0.00486576603726
         -0.00469120917842
         -0.00451665278524
         -0.0043420959264
         -0.00416753953323
         -0.00399298267439
         -0.00381842628121
         -0.00364386965521
         -0.0034693130292
         -0.00329475640319
         -0.00312019977719
         -0.00294564315118
         -0.00277108652517
         -0.00259652989917
         -0.00242197327316
         -0.00224741664715
         -0.00207286002114
         -0.00189830327872
         -0.00172374665271
         -0.00154919002671
         -0.0013746334007
         -0.00120007677469
         -0.00102552014869
         -0.000850963580888
         -0.000676406954881
         -0.000501850328874
         -0.000327293673763
         -0.000152737047756
         2.18195782509e-05
         0.000196376204258
         0.000370932830265
         0.000545489485376
         0.000720046111383
         0.00089460273739
         0.0010691593634
         0.0012437159894
         0.00141827261541
         0.00159282924142
         0.00176738586742
         0.00194194249343
         0.00211649900302
         0.00229105562903
         0.00246561225504
         0.00264016888104
         0.00281472550705
         0.00298928213306
         0.00316383875906
         0.00333839538507
         0.00351295201108
         0.00368750863709
         0.00386206526309
         0.00403662212193
         0.00421117851511
         0.00438573537394
         0.00456029176712
         0.00473484862596
         0.00490940501913
         0.00508396187797
         0.00525851827115
         0.00543307512999
         0.00560763152316
         0.005782188382
         0.00595674477518
         0.00613130163401
         0.00630585802719
         0.00648041488603
         0.0066549712792
         0.00682952813804
         0.00700408453122
         0.00717864139006
         0.00735319778323
         0.00752775464207
         0.00770231103525
         0.00787686742842
         0.00805142428726
         0.0082259811461
         0.00840053800493
         0.00857509393245
         0.00874965079129
         0.00892420765013
         0.00909876450896
         0.00927332043648
         0.00944787729532
         0.00962243415415
         0.00979699101299
         0.00997154694051
         0.0101467305794
         0.0103234769776
         0.0105018783361
         0.0106819495559
         0.0108637064695
         0.0110471658409
         0.0112323435023
         0.0114192543551
         0.011607915163
         0.0117983426899
         0.0119905527681
         0.0121845630929
         0.0123803894967
         0.0125780496746
         0.0127775603905
         0.0129789402708
         0.0131822042167
         0.0133873717859
         0.0135944606736
         0.0138034885749
         0.0140144741163
         0.0142274340615
         0.0144423888996
         0.0146593553945
         0.0148783540353
         0.0150994034484
         0.0153225222602
         0.0155477300286
         0.0157750472426
         0.0160044915974
         0.0162360854447
         0.0164698474109
         0.0167057979852
         0.0169439576566
         0.0171843469143
         0.0174269881099
         0.01767189987
         0.0179191045463
         0.0181686244905
         0.0184204820544
         0.0186746958643
         0.0189312919974
         0.0191902890801
         0.0194517113268
         0.0197155810893
         0.0199819225818
         0.0202507562935
         0.0205221083015
         0.0207960009575
         0.0210724584758
         0.0213515050709
         0.0216331630945
         0.0219174586236
         0.0222044158727
         0.022494059056
         0.0227864161134
         0.0230815093964
         0.0233793668449
         0.0236800126731
         0.0239834729582
         0.0242897737771
         0.0245989449322
         0.0249110087752
         0.0252259951085
         0.0255439318717
         0.0258648432791
         0.0261887609959
         0.0265157110989
         0.0268457233906
         0.0271788258106
         0.0275150462985
         0.0278544146568
         0.0281969606876
         0.0285427141935
         0.0288917049766
         0.0292439628392
         0.0295995194465
         0.0299584064633
         0.0303206518292
         0.0306862909347
         0.0310553517193
         0.0314278677106
         0.0318038761616
         0.0321834012866
         0.0325664803386
         0.0329531468451
         0.0333434306085
         0.033737372607
         0.0341350026429
         0.0345363542438
         0.0349414646626
         0.0353503674269
         0.0357630997896
         0.0361796952784
         0.0366001948714
         0.037024628371
         0.0374530367553
         0.0378854572773
         0.0383219271898
         0.0387624800205
         0.0392071604729
         0.0396560057998
         0.0401090532541
         0.0405663400888
         0.0410279110074
         0.0414938032627
         0.041964057833
         0.042438711971
         0.0429178141057
         0.04340140149
         0.0438895188272
         0.0443822033703
         0.0448795035481
         0.0453814566135
         0.0458881109953
         0.0463995113969
         0.0469156987965
         0.0474367178977
         0.0479626171291
         0.0484934411943
         0.0490292310715
         0.04957004264
         0.050115916878
         0.050666898489
         0.0512230433524
         0.0517843961716
         0.0523510016501
         0.052922911942
         0.0535001792014
         0.0540828518569
         0.0546709783375
         0.0552646145225
         0.0558638051152
         0.0564686097205
         0.057079076767
         0.0576952584088
         0.0583172068
         0.0589449815452
         0.0595786347985
         0.0602182224393
         0.0608637966216
         0.0615154132247
         0.0621731355786
         0.0628370121121
         0.0635071098804
         0.064183473587
         0.0648661777377
         0.065555267036
         0.0662508159876
         0.0669528767467
         0.0676615089178
         0.0683767721057
         0.0690987408161
         0.0698274597526
         0.0705630108714
         0.0713054388762
         0.0720548257232
         0.0728112310171
         0.0735747143626
         0.0743453502655
         0.0751231983304
         0.0759083256125
         0.0767008140683
         0.0775007158518
         0.0783081054688
         0.0791230648756
         0.0799456462264
         0.0807759314775
         0.0816139876842
         0.0824598968029
         0.0833137258887
         0.084175541997
         0.0850454345345
         0.0859234705567
         0.0868097245693
         0.0877042859793
         0.0886072143912
         0.0895185992122
         0.0904385149479
         0.0913670510054
         0.0923042744398
         0.0932502746582
         0.0942051336169
         0.0951689332724
         0.0961417555809
         0.0971236899495
         0.0981148183346
         0.0991152226925
         0.100124999881
         0.101144224405
         0.102173000574
         0.103211402893
         0.10425952822
         0.105317465961
         0.106385312974
         0.107463158667
         0.108551092446
         0.109649218619
         0.110757626593
         0.111876405776
         0.113005667925
         0.114145494998
         0.115295998752
         0.116457276046
         0.117629431188
         0.118812553585
         0.120006754994
         0.121212139726
         0.122428812087
         0.123656876385
         0.12489643693
         0.126147598028
         0.127410486341
         0.128685191274
         0.129971832037
         0.13127052784
         0.132581368089
         0.133904501796
         0.135240003467
         0.136588022113
         0.137948662043
         0.139322042465
         0.14070828259
         0.142107486725
         0.143519803882
         0.14494535327
         0.146384239197
         0.147836595774
         0.149302557111
         0.150782242417
         0.152275785804
         0.153783321381
         0.155304953456
         0.156840845942
         0.15839111805
         0.159955888987
         0.161535322666
         0.163129553199
         0.164738699794
         0.166362926364
         0.168002352118
         0.169657126069
         0.171327397227
         0.173013299704
         0.174714997411
         0.176432624459
         0.178166329861
         0.179916277528
         0.181682601571
         0.183465465903
         0.185265034437
         0.187081441283
         0.188914850354
         0.190765440464
         0.192633345723
         0.194518744946
         0.196421802044
         0.19834266603
         0.200281530619
         0.202238544822
         0.204213872552
         0.206207707524
         0.20822019875
         0.210251539946
         0.212301909924
         0.214371472597
         0.21646040678
         0.218568906188
         0.220697134733
         0.222845301032
         0.225013583899
         0.227202162147
         0.229411244392
         0.231640994549
         0.233891636133
         0.23616334796
         0.238456323743
         0.240770772099
         0.243106886744
         0.245464876294
         0.247844949365
         0.250247299671
         0.252672165632
         0.255119711161
         0.257590174675
         0.260083794594
         0.262600719929
         0.265141248703
         0.267705559731
         0.270293861628
         0.272906422615
         0.275543421507
         0.278205126524
         0.280891746283
         0.283603519201
         0.286340683699
         0.289103507996
         0.291892170906
         0.294706940651
         0.297548085451
         0.300415813923
         0.303310394287
         0.306232094765
         0.309181123972
         0.312157779932
         0.315162301064
         0.318194955587
         0.321256011724
         0.324345737696
         0.32746437192
         0.330612242222
         0.333789557219
         0.336996614933
         0.340233713388
         0.343501120806
         0.346799135208
         0.350127995014
         0.353488057852
         0.35687956214
         0.360302835703
         0.363758146763
         0.367245823145
         0.370766162872
         0.374319434166
         0.377905994654
         0.381526142359
         0.385180175304
         0.388868421316
         0.39259120822
         0.396348834038
         0.400141656399
         0.403970003128
         0.407834172249
         0.411734551191
         0.415671437979
         0.419645160437
         0.423656135798
         0.427704632282
         0.431791037321
         0.435915708542
         0.440079003572
         0.444281280041
         0.448522925377
         0.452804237604
         0.457125663757
         0.461487561464
         0.465890288353
         0.470334231853
         0.474819809198
         0.479347378016
         0.483917325735
         0.48853006959
         0.493185997009
         0.497885525227
         0.502629041672
         0.507416963577
         0.51224976778
         0.517127811909
         0.522051513195
         0.527021288872
         0.532037615776
         0.53710091114
         0.542211651802
         0.547370195389
         0.552577078342
         0.557832658291
         0.563137471676
         0.568491995335
         0.573896586895
         0.579351842403
         0.584858179092
         0.590416014194
         0.596025943756
         0.60168838501
         0.607403814793
         0.613172769547
         0.618995785713
         0.624873280525
         0.630805790424
         0.636793911457
         0.642838060856
         0.648938775063
         0.655096650124
         0.661312162876
         0.667585909367
         0.673918366432
         0.680310130119
         0.68676173687
         0.693273723125
         0.699846744537
         0.706481218338
         0.713177859783
         0.719937264919
         0.726759850979
         0.733646392822
         0.740597367287
         0.747613489628
         0.754695236683
         0.761843323708
         0.769058346748
         0.776340901852
         0.783691644669
         0.79111123085
         0.798600316048
         0.806159496307
         0.81378942728
         0.821490824223
         0.829264342785
         0.837110579014
         0.845030367374
         0.853024244308
         0.861092984676
         0.869237303734
         0.877457857132
         0.885755419731
         0.894130647182
         0.902584254742
         0.911117076874
         0.91972976923
         0.928423047066
         0.937197804451
         0.946054697037
         0.954994499683
         0.964018046856
         0.97312605381
         0.982319295406
         0.991598665714
         1.00096487999
         1.01041889191
         1.01996135712
         1.02959311008
         1.03931510448
         1.04912817478
         1.05903315544
         1.06903076172
         1.0791220665
         1.08930778503
         1.099588871
         1.10996627808
         1.12044084072
         1.1310133934
         1.141685009
         1.15245652199
         1.16332900524
         1.17430317402
         1.1853801012
         1.19656074047
         1.20784604549
         1.21923708916
         1.23073482513
         1.24234008789
         1.25405406952
         1.26587772369
         1.2778121233
         1.28985822201
         1.30201721191
         1.31428992748
         1.32667756081
         1.33918118477
         1.35180199146
         1.36454081535
         1.37739896774
         1.39037764072
         1.40347766876
         1.41670036316
         1.43004691601
         1.4435185194
         1.45711612701
         1.47084105015
         1.48469460011
         1.49867773056
         1.51279187202
         1.52703821659
         1.54141783714
         1.55593216419
         1.57058238983
         1.58536970615
         1.60029554367
         1.61536109447
         1.63056778908
         1.64591681957
         1.66140949726
         1.67704737186
         1.69283163548
         1.7087635994
         1.72484481335
         1.74107658863
         1.75746023655
         1.77399742603
         1.79068946838
         1.8075376749
         1.82454371452
         1.84170901775
         1.85903501511
         1.87652313709
         1.89417517185
         1.91199231148
         1.92997634411
         1.94812881947
         1.96645128727
         1.98494517803
         2.00361227989
         2.02245426178
         2.04147267342
         2.06066894531
         2.08004522324
         2.09960269928
         2.11934328079
         2.13926887512
         2.15938091278
         2.17968130112
         2.20017194748
         2.22085428238
         2.24173021317
         2.26280164719
         2.28407025337
         2.30553817749
         2.32720708847
         2.34907889366
         2.37115550041
         2.39343881607
         2.41593074799
         2.43863320351
         2.4615483284
         2.48467803001
         2.5080242157
         2.53158903122
         2.55537438393
         2.57938241959
         2.60361552238
         2.62807536125
         2.65276408195
         2.6776843071
         2.70283746719
         2.72822642326
         2.75385308266
         2.77971959114
         2.8058283329
         2.8321814537
         2.85878157616
         2.88563036919
         2.91273093224
         2.94008493423
         2.96769523621
         2.99556398392
         3.02369379997
         3.05208683014
         3.08074593544
         3.10967326164
         3.13887119293
         3.16834282875
         3.19809031487
         3.22811627388
         3.25842356682
         3.28901433945
         3.31989169121
         3.35105824471
         3.38251638412
         3.41426944733
         3.44631958008
         3.4786696434
         3.51132273674
         3.54428172112
         3.57754921913
         3.61112809181
         3.6450214386
         3.67923212051
         3.713763237
         3.74861764908
         3.78379821777
         3.81930828094
         3.85515093803
         3.89132905006
         3.9278459549
         3.96470475197
         4.00190877914
         4.03946113586
         4.07736492157
         4.11562395096
         4.15424108505
         4.19321966171
         4.2325630188
         4.27227497101
         4.3123588562
         4.35281801224
         4.39365577698
         4.43487596512
         4.47648239136
         4.51847839355
         4.56086730957
         4.60365343094
         4.64683961868
         4.69043064117
         4.73442983627
         4.77884054184
         4.82366752625
         4.86891412735
         4.91458415985
         4.96068239212
         5.00721168518
         5.0541768074
         5.10158157349
         5.14943027496
         5.19772720337
         5.2464761734
         5.29568147659
         5.34534788132
         5.39547872543
         5.44607925415
         5.497153759
         5.54870605469
         5.60074138641
         5.65326404572
         5.70627832413
         5.75978851318
         5.81380033493
         5.86831760406
         5.9233455658
         5.97888851166
         6.03495168686
         6.09153985977
         6.14865779877
         6.20631027222
         6.26450300217
         6.32324028015
         6.38252735138
         6.4423699379
         6.50277280807
         6.56374120712
         6.62528038025
         6.68739557266
         6.75009250641
         6.8133764267
         6.87725305557
         6.94172763824
         7.0068063736
         7.07249403
         7.13879680634
         7.20571994781
         7.27327013016
         7.34145307541
         7.41027402878
         7.47973918915
         7.54985523224
         7.62062740326
         7.69206237793
         7.76416635513
         7.83694553375
         7.91040563583
         7.98455381393
         8.05939674377
         8.1349401474
         8.21119022369
         8.28815460205
         8.36583995819
         8.44425296783
         8.52339935303
         8.60328674316
         8.68392276764
         8.76531410217
         8.84746646881
         8.93038845062
         9.014087677
         9.09856987
         9.183842659
         9.26991462708
         9.35679149628
         9.44448280334
         9.532995224
         9.62233543396
         9.71251296997
         9.80353450775
         9.89540863037
         9.98814296722
         10.0817451477
         10.1762237549
         10.2715873718
         10.3678436279
         10.4650020599
         10.5630693436
         10.6620550156
         10.7619667053
         10.8628149033
         10.9646072388
         11.0673522949
         11.1710596085
         11.2757377625
         11.3813962936
         11.4880437851
         11.5956907272
         11.7043447495
         11.8140163422
         11.9247140884
         12.0364494324
         12.149230957
         12.2630672455
         12.3779706955
         12.4939489365
         12.6110143661
         12.729174614
         12.8484420776
         12.9688262939
         13.0903367996
         13.2129859924
         13.3367834091
         13.4617395401
         13.5878658295
         13.7151727676
         13.8436727524
         13.9733753204
         14.1042919159
         14.2364339828
         14.3698139191
         14.5044431686
         14.640332222
         14.7774944305
         14.9159402847
         15.0556821823
         15.1967334747
         15.3391046524
         15.4828090668
         15.6278591156
         15.7742671967
         15.9220457077
         16.0712089539
         16.2217674255
         16.3737373352
         16.5271282196
         16.6819572449
         16.8382339478
         16.9959754944
         17.1551933289
         17.31590271
         17.4781150818
         17.6418476105
         17.8071136475
         17.9739265442
         18.1423015594
         18.3122520447
         18.483795166
         18.6569442749
         18.8317127228
         19.0081195831
         19.1861782074
         19.3659038544
         19.5473117828
         19.7304172516
         19.9152393341
         20.1017913818
         20.2900886536
         20.4801502228
         20.6719913483
         20.8656272888
         21.0610790253
         21.2583580017
         21.457485199
         21.6584777832
         21.8613510132
         22.0661258698
         22.2728157043
         22.4814414978
         22.6920204163
         22.9045715332
         23.1191139221
         23.3356628418
         23.5542411804
         23.7748661041
         23.9975547791
         24.2223300934
         24.4492092133
         24.6782131195
         24.9093608856
         25.1426734924
         25.3781719208
         25.6158733368
         25.8558006287
         26.0979747772
         26.3424167633
         26.5891475677
         26.838186264
         27.0895595551
         27.3432846069
         27.5993862152
         27.8578872681
         28.118806839
         28.3821697235
         28.6479988098
         28.9163169861
         29.1871471405
         29.4605121613
         29.7364387512
         30.0149478912
         30.2960643768
         30.5798130035
         30.8662185669
         31.1553058624
         31.447101593
         31.7416267395
         32.0389099121
         32.3389778137
         32.6418571472
         32.9475708008
         33.2561454773
         33.5676078796
         33.8819923401
         34.1993141174
