aces_1.0.1/luts/V3_LogC_1280_to_linear.spi1d
Version 1
From 0.000000 1.000000
Length 4096
Components 1
{
         -0.0177504550666
         -0.0177037548274
         -0.0176570545882
         -0.017610354349
         -0.0175636541098
         -0.0175169538707
         -0.0174702536315
         -0.0174235533923
         -0.0173768531531
         -0.0173301529139
         -0.0172834526747
         -0.0172367524356
         -0.017190054059
         -0.0171433538198
         -0.0170966535807
         -0.0170499533415
         -0.0170032531023
         -0.0169565528631
         -0.0169098526239
         -0.0168631523848
         -0.0168164521456
         -0.0167697519064
         -0.0167230516672
         -0.016676351428
         -0.0166296511889
         -0.0165829509497
         -0.0165362525731
         -0.016489552334
         -0.0164428520948
         -0.0163961518556
         -0.0163494516164
         -0.0163027513772
         -0.016256051138
         -0.0162093508989
         -0.0161626506597
         -0.0161159504205
         -0.0160692501813
         -0.0160225499421
         -0.015975849703
         -0.0159291513264
         -0.0158824510872
         -0.0158357508481
         -0.0157890506089
         -0.0157423503697
         -0.0156956501305
         -0.0156489498913
         -0.0156022496521
         -0.015555549413
         -0.0155088491738
         -0.0154621498659
         -0.0154154496267
         -0.0153687493876
         -0.0153220491484
         -0.0152753489092
         -0.01522864867
         -0.0151819493622
         -0.015135249123
         -0.0150885488838
         -0.0150418486446
         -0.0149951484054
         -0.0149484481663
         -0.0149017479271
         -0.0148550486192
         -0.01480834838
         -0.0147616481408
         -0.0147149479017
         -0.0146682476625
         -0.0146215474233
         -0.0145748471841
         -0.0145281478763
         -0.0144814476371
         -0.0144347473979
         -0.0143880471587
         -0.0143413469195
         -0.0142946466804
         -0.0142479473725
         -0.0142012471333
         -0.0141545468941
         -0.014107846655
         -0.0140611464158
         -0.0140144461766
         -0.0139677459374
         -0.0139210466295
         -0.0138743463904
         -0.0138276461512
         -0.013780945912
         -0.0137342456728
         -0.0136875454336
         -0.0136408461258
         -0.0135941458866
         -0.0135474456474
         -0.0135007454082
         -0.0134540451691
         -0.0134073449299
         -0.0133606446907
         -0.0133139453828
         -0.0132672451437
         -0.0132205449045
         -0.0131738446653
         -0.0131271444261
         -0.0130804441869
         -0.0130337439477
         -0.0129870446399
         -0.0129403444007
         -0.0128936441615
         -0.0128469439223
         -0.0128002436832
         -0.012753543444
         -0.0127068441361
         -0.0126601438969
         -0.0126134436578
         -0.0125667434186
         -0.0125200431794
         -0.0124733429402
         -0.012426642701
         -0.0123799433932
         -0.012333243154
         -0.0122865429148
         -0.0122398426756
         -0.0121931424364
         -0.0121464421973
         -0.0120997419581
         -0.0120530426502
         -0.012006342411
         -0.0119596421719
         -0.0119129419327
         -0.0118662416935
         -0.0118195414543
         -0.0117728421465
         -0.0117261419073
         -0.0116794416681
         -0.0116327414289
         -0.0115860411897
         -0.0115393409505
         -0.0114926407114
         -0.0114459414035
         -0.0113992411643
         -0.0113525409251
         -0.011305840686
         -0.0112591404468
         -0.0112124402076
         -0.0111657408997
         -0.0111190406606
         -0.0110723404214
         -0.0110256401822
         -0.010978939943
         -0.0109322397038
         -0.0108855394647
         -0.0108388401568
         -0.0107921399176
         -0.0107454396784
         -0.0106987394392
         -0.0106520392001
         -0.0106053389609
         -0.0105586387217
         -0.0105119394138
         -0.0104652391747
         -0.0104185389355
         -0.0103718386963
         -0.0103251384571
         -0.0102784382179
         -0.0102317389101
         -0.0101850386709
         -0.0101383384317
         -0.0100916381925
         -0.0100449379534
         -0.00999823771417
         -0.00995153747499
         -0.00990483816713
         -0.00985813792795
         -0.00981143768877
         -0.00976473744959
         -0.0097180372104
         -0.00967133697122
         -0.00962463766336
         -0.00957793742418
         -0.009531237185
         -0.00948453694582
         -0.00943783670664
         -0.00939113646746
         -0.00934443622828
         -0.00929773692042
         -0.00925103668123
         -0.00920433644205
         -0.00915763620287
         -0.00911093596369
         -0.00906423572451
         -0.00901753548533
         -0.00897083617747
         -0.00892413593829
         -0.00887743569911
         -0.00883073545992
         -0.00878403522074
         -0.00873733498156
         -0.0086906356737
         -0.00864393543452
         -0.00859723519534
         -0.00855053495616
         -0.00850383471698
         -0.00845713447779
         -0.00841043423861
         -0.00836373493075
         -0.00831703469157
         -0.00827033445239
         -0.00822363421321
         -0.00817693397403
         -0.00813023373485
         -0.00808353442699
         -0.00803683418781
         -0.00799013394862
         -0.00794343370944
         -0.00789673347026
         -0.00785003323108
         -0.00780333345756
         -0.00775663321838
         -0.0077099329792
         -0.00766323320568
         -0.00761653296649
         -0.00756983272731
         -0.00752313295379
         -0.00747643271461
         -0.00742973247543
         -0.00738303270191
         -0.00733633246273
         -0.00728963222355
         -0.00724293198436
         -0.00719623221084
         -0.00714953197166
         -0.00710283173248
         -0.00705613195896
         -0.00700943171978
         -0.0069627314806
         -0.00691603170708
         -0.0068693314679
         -0.00682263122872
         -0.00677593098953
         -0.00672923121601
         -0.00668253097683
         -0.00663583073765
         -0.00658913096413
         -0.00654243072495
         -0.00649573048577
         -0.00644903071225
         -0.00640233047307
         -0.00635563023388
         -0.00630893046036
         -0.00626223022118
         -0.006215529982
         -0.00616882974282
         -0.0061221299693
         -0.00607542973012
         -0.00602872949094
         -0.00598202971742
         -0.00593532947823
         -0.00588862923905
         -0.00584192946553
         -0.00579522922635
         -0.00574852898717
         -0.00570182874799
         -0.00565512897447
         -0.00560842873529
         -0.0055617284961
         -0.00551502872258
         -0.0054683284834
         -0.00542162824422
         -0.0053749284707
         -0.00532822823152
         -0.00528152799234
         -0.00523482775316
         -0.00518812797964
         -0.00514142774045
         -0.00509472750127
         -0.00504802772775
         -0.00500132748857
         -0.00495462724939
         -0.00490792747587
         -0.00486122723669
         -0.00481452699751
         -0.00476782675833
         -0.0047211269848
         -0.00467442674562
         -0.00462772650644
         -0.00458102673292
         -0.00453432649374
         -0.00448762625456
         -0.00444092648104
         -0.00439422624186
         -0.00434752600268
         -0.00430082622916
         -0.00425412598997
         -0.00420742575079
         -0.00416072551161
         -0.00411402573809
         -0.00406732549891
         -0.00402062525973
         -0.00397392548621
         -0.00392722524703
         -0.00388052500784
         -0.00383382500149
         -0.00378712499514
         -0.00374042475596
         -0.00369372474961
         -0.00364702451043
         -0.00360032450408
         -0.00355362449773
         -0.00350692425855
         -0.00346022425219
         -0.00341352424584
         -0.00336682400666
         -0.00332012400031
         -0.00327342376113
         -0.00322672375478
         -0.00318002374843
         -0.00313332350925
         -0.0030866235029
         -0.00303992326371
         -0.00299322325736
         -0.00294652325101
         -0.00289982301183
         -0.00285312300548
         -0.0028064227663
         -0.00275972275995
         -0.0027130227536
         -0.00266632251441
         -0.00261962250806
         -0.00257292226888
         -0.00252622226253
         -0.00247952225618
         -0.002432822017
         -0.00238612201065
         -0.00233942177147
         -0.00229272176512
         -0.00224602175876
         -0.00219932151958
         -0.00215262151323
         -0.00210592127405
         -0.0020592212677
         -0.00201252126135
         -0.00196582102217
         -0.00191912101582
         -0.00187242089305
         -0.00182572077028
         -0.00177902064752
         -0.00173232064117
         -0.0016856205184
         -0.00163892039564
         -0.00159222027287
         -0.0015455201501
         -0.00149882014375
         -0.00145212002099
         -0.00140541989822
         -0.00135871977545
         -0.0013120197691
         -0.00126531964634
         -0.00121861952357
         -0.0011719194008
         -0.00112521927804
         -0.00107851927169
         -0.00103181914892
         -0.000985119026154
         -0.000938418903388
         -0.00089171883883
         -0.000845018716063
         -0.000798318651505
         -0.000751618528739
         -0.000704918405972
         -0.000658218341414
         -0.000611518218648
         -0.000564818154089
         -0.000518118031323
         -0.000471417937661
         -0.000424717843998
         -0.000378017750336
         -0.000331317656673
         -0.000284617563011
         -0.000237917454797
         -0.000191217346583
         -0.00014451725292
         -9.78171592578e-05
         -5.11170583195e-05
         -4.41695920017e-06
         4.22831399192e-05
         8.89832372195e-05
         0.000135683338158
         0.00018238343182
         0.000229083525483
         0.000275783619145
         0.000322483741911
         0.000369183835573
         0.000415883929236
         0.000462584022898
         0.000509284145664
         0.000555984210223
         0.000602684332989
         0.000649384397548
         0.000696084520314
         0.000742784584872
         0.000789484707639
         0.000836184830405
         0.000882884894963
         0.00092958501773
         0.000976285082288
         0.00102298520505
         0.00106968532782
         0.00111638545059
         0.00116308545694
         0.0012097855797
         0.00125648570247
         0.00130318582524
         0.001349885948
         0.00139658595435
         0.00144328607712
         0.00148998619989
         0.00153668632265
         0.001583386329
         0.00163008645177
         0.00167678657454
         0.0017234866973
         0.00177018682007
         0.00181688682642
         0.00186358694918
         0.00191028707195
         0.00195698719472
         0.00200368720107
         0.00205038744025
         0.0020970874466
         0.00214378745295
         0.00219048769213
         0.00223718769848
         0.00228388793766
         0.00233058794402
         0.00237728795037
         0.00242398818955
         0.0024706881959
         0.00251738843508
         0.00256408844143
         0.00261078844778
         0.00265748868696
         0.00270418869331
         0.0027508889325
         0.00279758893885
         0.0028442889452
         0.00289098918438
         0.00293768919073
         0.00298438942991
         0.00303108943626
         0.00307778944261
         0.0031244896818
         0.00317118968815
         0.00321788992733
         0.00326458993368
         0.00331128994003
         0.00335799017921
         0.00340469018556
         0.00345139042474
         0.00349809043109
         0.00354479043745
         0.00359149067663
         0.00363819068298
         0.00368489068933
         0.00373159092851
         0.00377829093486
         0.00382499117404
         0.00387169118039
         0.00391839118674
         0.00396509142593
         0.00401179166511
         0.00405849143863
         0.00410519167781
         0.00415189191699
         0.00419859169051
         0.00424529192969
         0.00429199216887
         0.00433869240806
         0.00438539218158
         0.00443209242076
         0.00447879265994
         0.00452549243346
         0.00457219267264
         0.00461889291182
         0.00466559268534
         0.00471229292452
         0.0047589931637
         0.00480569293723
         0.00485239317641
         0.00489909341559
         0.00494579365477
         0.00499249342829
         0.00503919366747
         0.00508589390665
         0.00513259368017
         0.00517929391935
         0.00522599415854
         0.00527269393206
         0.00531939417124
         0.00536609441042
         0.0054127946496
         0.00545949442312
         0.0055061946623
         0.00555289490148
         0.005599594675
         0.00564629491419
         0.00569299515337
         0.00573969492689
         0.00578639516607
         0.00583309540525
         0.00587979564443
         0.00592649541795
         0.00597319565713
         0.00601989589632
         0.00606659566984
         0.00611329590902
         0.0061599961482
         0.00620669592172
         0.0062533961609
         0.00630009640008
         0.00634679663926
         0.00639349641278
         0.00644019665197
         0.00648689689115
         0.00653359666467
         0.00658029690385
         0.00662699714303
         0.00667369691655
         0.00672039715573
         0.00676709739491
         0.00681379716843
         0.00686049740762
         0.0069071976468
         0.00695389788598
         0.0070005976595
         0.00704729789868
         0.00709399813786
         0.00714069791138
         0.00718739815056
         0.00723409838974
         0.00728079816326
         0.00732749840245
         0.00737419864163
         0.00742089888081
         0.00746759865433
         0.00751429889351
         0.00756099913269
         0.00760769890621
         0.00765439914539
         0.00770109938458
         0.0077477991581
         0.00779449939728
         0.00784119963646
         0.00788789987564
         0.00793460011482
         0.00798129942268
         0.00802799966186
         0.00807469990104
         0.00812140014023
         0.00816810037941
         0.00821480061859
         0.00826150085777
         0.00830820016563
         0.00835490040481
         0.00840160064399
         0.00844830088317
         0.00849500112236
         0.00854170136154
         0.0085884006694
         0.00863510090858
         0.00868180114776
         0.00872850138694
         0.00877520162612
         0.0088219018653
         0.00886860210449
         0.00891530141234
         0.00896200165153
         0.00900870189071
         0.00905540212989
         0.00910210236907
         0.00914880260825
         0.00919550284743
         0.00924220215529
         0.00928890239447
         0.00933560263366
         0.00938230287284
         0.00942900311202
         0.0094757033512
         0.00952240265906
         0.00956910289824
         0.00961580313742
         0.0096625033766
         0.00970920361578
         0.00975590385497
         0.00980260409415
         0.00984930340201
         0.00989600364119
         0.00994270388037
         0.00998940411955
         0.0100361043587
         0.0100828045979
         0.0101295039058
         0.010176204145
         0.0102229043841
         0.0102696046233
         0.0103163048625
         0.0103630051017
         0.0104097053409
         0.0104564046487
         0.0105031048879
         0.0105498051271
         0.0105965053663
         0.0106432056054
         0.0106899058446
         0.0107366060838
         0.0107833053917
         0.0108300056309
         0.01087670587
         0.0109234061092
         0.0109701063484
         0.0110168065876
         0.0110635058954
         0.0111102061346
         0.0111569063738
         0.011203606613
         0.0112503068522
         0.0112970070913
         0.0113437073305
         0.0113904066384
         0.0114371068776
         0.0114838071167
         0.0115305073559
         0.0115772075951
         0.0116239078343
         0.0116706080735
         0.0117173073813
         0.0117640076205
         0.0118107078597
         0.0118574080989
         0.0119041083381
         0.0119508085772
         0.0119975078851
         0.0120442081243
         0.0120909083635
         0.0121376086026
         0.0121843088418
         0.012231009081
         0.0122777540237
         0.0123246069998
         0.0123715708032
         0.0124186435714
         0.012465827167
         0.0125131206587
         0.0125605240464
         0.0126080391929
         0.0126556651667
         0.0127034019679
         0.0127512505278
         0.0127992117777
         0.0128472838551
         0.0128954695538
         0.0129437670112
         0.0129921780899
         0.0130407018587
         0.0130893392488
         0.0131380902603
         0.0131869548932
         0.0132359340787
         0.0132850278169
         0.0133342361078
         0.0133835598826
         0.0134329991415
         0.0134825529531
         0.0135322231799
         0.0135820098221
         0.0136319119483
         0.0136819314212
         0.0137320682406
         0.0137823214754
         0.0138326929882
         0.0138831818476
         0.0139337880537
         0.013984513469
         0.0140353571624
         0.0140863191336
         0.0141374012455
         0.0141886025667
         0.0142399230972
         0.0142913637683
         0.01434292458
         0.0143946064636
         0.0144464084879
         0.0144983325154
         0.0145503766835
         0.0146025437862
         0.0146548319608
         0.01470724307
         0.0147597761825
         0.0148124322295
         0.0148652112111
         0.0149181140587
         0.0149711398408
         0.0150242904201
         0.0150775648654
         0.0151309631765
         0.0151844872162
         0.0152381360531
         0.0152919106185
         0.0153458109125
         0.0153998369351
         0.0154539886862
         0.0155082680285
         0.0155626740307
         0.0156172066927
         0.0156718678772
         0.0157266557217
         0.0157815720886
         0.015836616978
         0.01589179039
         0.0159470923245
         0.0160025246441
         0.0160580854863
         0.0161137767136
         0.0161695983261
         0.0162255503237
         0.0162816327065
         0.0163378454745
         0.0163941904902
         0.0164506677538
         0.0165072772652
         0.0165640171617
         0.0166208911687
         0.0166778992862
         0.0167350377887
         0.0167923122644
         0.0168497208506
         0.0169072616845
         0.0169649384916
         0.0170227494091
         0.0170806962997
         0.0171387773007
         0.0171969942749
         0.0172553490847
         0.0173138380051
         0.0173724647611
         0.017431229353
         0.0174901299179
         0.0175491683185
         0.0176083464175
         0.0176676604897
         0.0177271142602
         0.0177867077291
         0.0178464408964
         0.0179063118994
         0.0179663244635
         0.0180264748633
         0.0180867686868
         0.0181472022086
         0.0182077772915
         0.0182684939355
         0.0183293521404
         0.0183903519064
         0.0184514969587
         0.0185127817094
         0.0185742117465
         0.0186357852072
         0.0186975020915
         0.0187593642622
         0.0188213698566
         0.0188835207373
         0.0189458169043
         0.0190082583576
         0.0190708469599
         0.0191335808486
         0.0191964618862
         0.0192594900727
         0.0193226654083
         0.0193859878927
         0.0194494575262
         0.0195130780339
         0.0195768456906
         0.0196407623589
         0.0197048299015
         0.019769044593
         0.0198334120214
         0.0198979284614
         0.0199625957757
         0.0200274158269
         0.0200923848897
         0.0201575085521
         0.0202227830887
         0.0202882084996
         0.0203537903726
         0.0204195231199
         0.0204854104668
         0.0205514505506
         0.0206176470965
         0.0206839963794
         0.0207505021244
         0.020817162469
         0.0208839792758
         0.0209509525448
         0.0210180804133
         0.0210853684694
         0.0211528111249
         0.0212204121053
         0.0212881714106
         0.0213560890406
         0.0214241649956
         0.0214924011379
         0.0215607956052
         0.0216293521225
         0.0216980669647
         0.0217669419944
         0.0218359790742
         0.0219051782042
         0.0219745375216
         0.0220440607518
         0.0221137441695
         0.0221835933626
         0.0222536027431
         0.0223237778991
         0.0223941169679
         0.0224646199495
         0.0225352887064
         0.0226061213762
         0.0226771198213
         0.0227482840419
         0.0228196159005
         0.0228911135346
         0.0229627788067
         0.0230346098542
         0.0231066104025
         0.0231787804514
         0.0232511162758
         0.0233236234635
         0.0233963001519
         0.0234691463411
         0.0235421620309
         0.0236153490841
         0.0236887075007
         0.023762235418
         0.0238359384239
         0.0239098109305
         0.0239838585258
         0.0240580774844
         0.024132469669
         0.0242070369422
         0.0242817774415
         0.024356694892
         0.0244317855686
         0.0245070513338
         0.0245824940503
         0.024658113718
         0.0247339084744
         0.0248098820448
         0.0248860325664
         0.024962361902
         0.0250388681889
         0.0251155532897
         0.025192419067
         0.0252694636583
         0.0253466889262
         0.0254240948707
         0.0255016796291
         0.0255794487894
         0.0256573967636
         0.0257355291396
         0.0258138440549
         0.0258923415095
         0.0259710215032
         0.0260498877615
         0.026128936559
         0.026208171621
         0.0262875892222
         0.0263671949506
         0.0264469869435
         0.0265269633383
         0.0266071278602
         0.0266874805093
         0.0267680194229
         0.0268487483263
         0.0269296653569
         0.0270107705146
         0.0270920675248
         0.0271735526621
         0.0272552277893
         0.0273370947689
         0.0274191536009
         0.0275014042854
         0.0275838468224
         0.0276664812118
         0.0277493111789
         0.0278323329985
         0.0279155485332
         0.0279989596456
         0.0280825644732
         0.0281663667411
         0.0282503627241
         0.0283345561475
         0.0284189470112
         0.0285035353154
         0.0285883191973
         0.0286733042449
         0.0287584848702
         0.0288438666612
         0.0289294477552
         0.0290152281523
         0.029101209715
         0.0291873924434
         0.0292737763375
         0.0293603632599
         0.029447151348
         0.0295341424644
         0.0296213366091
         0.0297087356448
         0.0297963377088
         0.0298841446638
         0.0299721583724
         0.030060376972
         0.0301488023251
         0.0302374325693
         0.0303262714297
         0.0304153170437
         0.0305045731366
         0.0305940359831
         0.0306837074459
         0.0307735893875
         0.0308636818081
         0.0309539847076
         0.031044498086
