aces_1.0.1/luts/V3_LogC_250_to_linear.spi1d
Version 1
From 0.000000 1.000000
Length 1024
Components 1
{
         -0.0162484236062
         -0.0160772446543
         -0.0159060657024
         -0.0157348867506
         -0.0155637077987
         -0.0153925279155
         -0.0152213489637
         -0.0150501700118
         -0.0148789901286
         -0.0147078111768
         -0.0145366322249
         -0.0143654523417
         -0.0141942733899
         -0.014023094438
         -0.0138519145548
         -0.013680735603
         -0.0135095566511
         -0.0133383776993
         -0.0131671978161
         -0.0129960188642
         -0.0128248399124
         -0.0126536600292
         -0.0124824810773
         -0.0123113021255
         -0.0121401222423
         -0.0119689432904
         -0.0117977643386
         -0.0116265844554
         -0.0114554055035
         -0.0112842265517
         -0.0111130466685
         -0.0109418677166
         -0.0107706887648
         -0.0105995088816
         -0.0104283299297
         -0.0102571509778
         -0.0100859710947
         -0.00991479214281
         -0.00974361319095
         -0.00957243330777
         -0.00940125435591
         -0.00923007540405
         -0.00905889552087
         -0.00888771656901
         -0.00871653761715
         -0.00854535866529
         -0.00837417878211
         -0.00820299983025
         -0.00803182087839
         -0.0078606409952
         -0.00768946204334
         -0.00751828262582
         -0.00734710367396
         -0.00717592425644
         -0.00700474483892
         -0.00683356588706
         -0.00666238646954
         -0.00649120705202
         -0.00632002810016
         -0.00614884868264
         -0.00597766926512
         -0.00580649031326
         -0.00563531089574
         -0.00546413147822
         -0.00529295252636
         -0.00512177310884
         -0.00495059369132
         -0.00477941473946
         -0.00460823532194
         -0.00443705637008
         -0.00426587695256
         -0.00409469753504
         -0.00392351858318
         -0.00375233916566
         -0.00358115998097
         -0.00340998056345
         -0.00323880137876
         -0.00306762219407
         -0.00289644300938
         -0.00272526359186
         -0.00255408440717
         -0.00238290522248
         -0.00221172580495
         -0.00204054662026
         -0.00186936743557
         -0.00169818813447
         -0.00152700883336
         -0.00135582964867
         -0.00118465034757
         -0.00101347116288
         -0.000842291861773
         -0.000671112618875
         -0.000499933375977
         -0.000328754133079
         -0.00015757487563
         1.36043754537e-05
         0.000184783624718
         0.000355962867616
         0.000527142139617
         0.000698321382515
         0.000869500625413
         0.00104067986831
         0.00121185916942
         0.00138303835411
         0.00155421765521
         0.0017253968399
         0.00189657614101
         0.00206775544211
         0.0022389346268
         0.00241011381149
         0.00258129322901
         0.0027524724137
         0.00292365159839
         0.00309483101591
         0.0032660102006
         0.00343718938529
         0.00360836856999
         0.00377954798751
         0.0039507271722
         0.00412190658972
         0.00429308554158
         0.0044642649591
         0.00463544437662
         0.00480662332848
         0.004977802746
         0.00514898169786
         0.00532016111538
         0.0054913405329
         0.00566251948476
         0.00583369890228
         0.0060048783198
         0.00617605727166
         0.00634723668918
         0.0065184161067
         0.00668959505856
         0.00686077447608
         0.00703260488808
         0.00720591004938
         0.00738070486113
         0.00755700236186
         0.00773481465876
         0.00791415572166
         0.00809503905475
         0.00827747583389
         0.00846148189157
         0.00864706933498
         0.00883425120264
         0.00902304332703
         0.00921345688403
         0.00940550863743
         0.00959920976311
         0.00979457702488
         0.00999162346125
         0.0101903630421
         0.0103908115998
         0.010592982173
         0.0107968915254
         0.0110025536269
         0.0112099833786
         0.0114191956818
         0.0116302063689
         0.0118430312723
         0.0120576852933
         0.0122741842642
         0.0124925440177
         0.0127127813175
         0.0129349119961
         0.0131589509547
         0.0133849168196
         0.0136128244922
         0.0138426907361
         0.0140745332465
         0.0143083687872
         0.014544214122
         0.0147820869461
         0.0150220040232
         0.0152639839798
         0.0155080426484
         0.0157542005181
         0.0160024743527
         0.016252880916
         0.0165054406971
         0.0167601723224
         0.0170170925558
         0.0172762200236
         0.0175375770777
         0.0178011786193
         0.0180670469999
         0.0183352008462
         0.0186056606472
         0.0188784431666
         0.019153572619
         0.019431065768
         0.0197109431028
         0.0199932288378
         0.0202779397368
         0.0205650962889
         0.0208547227085
         0.0211468394846
         0.0214414652437
         0.0217386242002
         0.0220383387059
         0.0223406292498
         0.0226455163211
         0.0229530259967
         0.0232631769031
         0.0235759951174
         0.0238915029913
         0.0242097228765
         0.0245306771249
         0.0248543899506
         0.0251808855683
         0.0255101881921
         0.025842320174
         0.0261773075908
         0.0265151746571
         0.0268559455872
         0.027199646458
         0.0275463014841
         0.0278959367424
         0.0282485764474
         0.028604246676
         0.0289629753679
         0.0293247867376
         0.0296897087246
         0.0300577674061
         0.0304289907217
         0.0308034047484
         0.0311810355633
         0.0315619148314
         0.0319460630417
         0.0323335193098
         0.0327243022621
         0.0331184454262
         0.0335159748793
         0.0339169241488
         0.0343213193119
         0.0347291901708
         0.0351405665278
         0.0355554781854
         0.0359739586711
         0.0363960340619
         0.0368217378855
         0.0372510999441
         0.0376841574907
         0.0381209328771
         0.038561463356
         0.0390057824552
         0.0394539162517
         0.0399059057236
         0.0403617806733
         0.0408215709031
         0.0412853173912
         0.0417530499399
         0.0422247983515
         0.0427006073296
         0.0431805029511
         0.043664522469
         0.0441527068615
         0.0446450859308
         0.0451416932046
         0.0456425733864
         0.0461477600038
         0.0466572865844
         0.0471711941063
         0.0476895160973
         0.0482122972608
         0.0487395711243
         0.0492713749409
         0.0498077496886
         0.0503487400711
         0.0508943758905
         0.0514447018504
         0.0519997626543
         0.0525595918298
         0.053124230355
         0.0536937266588
         0.0542681179941
         0.054847445339
         0.0554317496717
         0.056021079421
         0.0566154755652
         0.0572149790823
         0.0578196384013
         0.0584294907749
         0.0590445883572
         0.0596649721265
         0.0602906905115
         0.0609217844903
         0.0615583062172
         0.0622002966702
         0.0628478080034
         0.0635008811951
         0.0641595721245
         0.0648239254951
         0.0654939860106
         0.0661698058248
         0.0668514370918
         0.0675389245152
         0.0682323276997
         0.068931683898
         0.0696370527148
         0.0703484863043
         0.0710660368204
         0.0717897564173
         0.0725196897984
         0.0732559040189
         0.0739984437823
         0.0747473686934
         0.075502730906
         0.0762645825744
         0.0770329833031
         0.0778079926968
         0.0785896629095
         0.0793780460954
         0.0801732093096
         0.0809752121568
         0.081784106791
         0.082599952817
         0.0834228098392
         0.0842527449131
         0.0850898101926
         0.0859340652823
         0.0867855846882
         0.0876444205642
         0.0885106474161
         0.0893843099475
         0.0902654826641
         0.0911542326212
         0.0920506194234
         0.0929547175765
         0.0938665792346
         0.0947862863541
         0.0957138985395
         0.0966494753957
         0.0975930988789
         0.0985448360443
         0.0995047539473
         0.100472919643
         0.101449407637
         0.102434292436
         0.103427641094
         0.104429528117
         0.105440028012
         0.106459215283
         0.107487164438
         0.10852394253
         0.109569638968
         0.110624320805
         0.111688069999
         0.112760961056
         0.113843075931
         0.114934489131
         0.116035282612
         0.117145545781
         0.118265345693
         0.119394771755
         0.120533905923
         0.121682837605
         0.122841641307
         0.124010406435
         0.125189214945
         0.126378163695
         0.127577319741
         0.128786787391
         0.130006656051
         0.131237015128
         0.132477939129
         0.133729532361
         0.134991884232
         0.136265099049
         0.137549236417
         0.138844430447
         0.140150740743
         0.141468301415
         0.14279717207
         0.144137457013
         0.145489275455
         0.146852716804
         0.148227870464
         0.149614855647
         0.151013746858
         0.152424678206
         0.153847724199
         0.155283004045
         0.156730622053
         0.158190697432
         0.159663304687
         0.161148577929
         0.162646621466
         0.164157524705
         0.165681436658
         0.16721843183
         0.168768644333
         0.170332193375
         0.171909168363
         0.173499703407
         0.175103902817
         0.176721900702
         0.17835380137
         0.179999738932
         0.181659817696
         0.183334156871
         0.185022905469
         0.186726152897
         0.188444048166
         0.190176710486
         0.191924273968
         0.193686842918
         0.195464581251
         0.197257578373
         0.199065998197
         0.200889974833
         0.202729612589
         0.204585075378
         0.20645648241
         0.208343967795
         0.210247680545
         0.21216776967
         0.214104354382
         0.21605758369
         0.218027606606
         0.220014557242
         0.222018584609
         0.224039852619
         0.226078480482
         0.228134632111
         0.230208471417
         0.232300117612
         0.234409764409
         0.236537531018
         0.238683581352
         0.240848094225
         0.243031203747
         0.245233088732
         0.24745388329
         0.249693781137
         0.251952916384
         0.254231482744
         0.256529659033
         0.258847564459
         0.261185377836
         0.263543307781
         0.265921503305
         0.268320143223
         0.270739376545
         0.27317944169
         0.275640457869
         0.278122633696
         0.280626147985
         0.283151179552
         0.285697907209
         0.288266539574
         0.290857255459
         0.293470233679
         0.296105653048
         0.298763751984
         0.301444679499
         0.304148674011
         0.306875884533
         0.309626549482
         0.312400877476
         0.315199017525
         0.31802123785
         0.320867687464
         0.323738634586
         0.326634258032
         0.329554766417
         0.332500368357
         0.335471302271
         0.338467746973
         0.341489970684
         0.34453818202
         0.347612559795
         0.350713402033
         0.353840887547
         0.356995254755
         0.360176712275
         0.363385558128
         0.366621941328
         0.369886189699
         0.373178452253
         0.376499056816
         0.379848182201
         0.38322609663
         0.386633038521
         0.390069276094
         0.39353504777
         0.397030591965
         0.400556206703
         0.404112130404
         0.407698601484
         0.411315917969
         0.414964318275
         0.418644070625
         0.422355473042
         0.426098763943
         0.429874241352
         0.433682143688
         0.437522798777
         0.441396474838
         0.445303440094
         0.449243992567
         0.453218400478
         0.457226991653
         0.461270034313
         0.465347826481
         0.46946066618
         0.473608851433
         0.477792710066
         0.482012540102
         0.486268609762
         0.490561276674
         0.494890868664
         0.499257653952
         0.503661990166
         0.508104145527
         0.512584507465
         0.517103374004
         0.521661102772
         0.526257991791
         0.530894398689
         0.535570681095
         0.540287137032
         0.545044124126
         0.549842000008
         0.554681122303
         0.55956184864
         0.564484536648
         0.569449543953
         0.574457228184
         0.579507887363
         0.584602057934
         0.589739978313
         0.594922065735
         0.600148677826
         0.605420231819
         0.610737085342
         0.616099655628
         0.621508300304
         0.626963436604
         0.632465481758
         0.638014853001
         0.643611848354
         0.649257004261
         0.654950678349
         0.660693287849
         0.666485249996
         0.672327041626
         0.678219020367
         0.684161603451
         0.69015532732
         0.696200549603
         0.702297747135
         0.708447337151
         0.714649736881
         0.720905542374
         0.727215051651
         0.73357886076
         0.739997327328
         0.746470987797
         0.753000259399
         0.759585678577
         0.766227722168
         0.772926807404
         0.779683530331
         0.786498308182
         0.793371617794
         0.800304055214
         0.807296097279
         0.814348220825
         0.821460962296
         0.828634858131
         0.83587038517
         0.843168139458
         0.850528597832
         0.857952356339
         0.865439891815
         0.872991800308
         0.880608618259
         0.888290941715
         0.896039247513
         0.903854191303
         0.911736309528
         0.919686198235
         0.927704393864
         0.935791492462
         0.943948149681
         0.952174901962
         0.960472345352
         0.968841135502
         0.977281868458
         0.985795140266
         0.994381546974
         1.00304186344
         1.01177656651
         1.02058625221
         1.02947175503
         1.038433671
         1.04747259617
         1.0565892458
         1.06578421593
         1.07505822182
         1.08441185951
         1.09384608269
         1.10336124897
         1.11295831203
         1.12263774872
         1.1324005127
         1.1422470808
         1.15217840672
         1.16219496727
         1.17229771614
         1.18248724937
         1.19276440144
         1.20313000679
         1.21358454227
         1.22412896156
         1.23476409912
         1.2454906702
         1.25630927086
         1.26722097397
         1.27822649479
         1.28932666779
         1.300522089
         1.31181395054
         1.32320272923
         1.33468937874
         1.34627485275
         1.35795986652
         1.36974537373
         1.38163208961
         1.39362108707
         1.40571308136
         1.41790902615
         1.4302097559
         1.44261622429
         1.45512938499
         1.46775007248
         1.48047924042
         1.49331784248
         1.50626683235
         1.5193271637
         1.53249967098
         1.54578542709
         1.5591853857
         1.57270050049
         1.58633184433
         1.60008025169
         1.61394691467
         1.62793278694
         1.64203882217
         1.65626621246
         1.67061579227
         1.6850887537
         1.69968605042
         1.71440899372
         1.72925829887
         1.74423539639
         1.75934112072
         1.77457678318
         1.78994333744
         1.80544197559
         1.82107388973
         1.83684015274
         1.85274195671
         1.86878037453
         1.88495671749
         1.90127205849
         1.91772770882
         1.93432474136
         1.95106446743
         1.96794807911
         1.98497676849
         2.00215196609
         2.0194747448
         2.03694629669
         2.05456805229
         2.07234144211
         2.09026741982
         2.10834765434
         2.12658309937
         2.14497542381
         2.16352581978
         2.18223571777
         2.20110654831
         2.22013926506
         2.23933577538
         2.25869727135
         2.27822542191
         2.29792118073
         2.31778621674
         2.33782196045
         2.3580300808
         2.37841176987
         2.39896869659
         2.41970252991
         2.44061422348
         2.46170592308
         2.4829788208
         2.50443458557
         2.52607488632
         2.54790115356
         2.56991505623
         2.59211802483
         2.61451196671
         2.63709831238
         2.65987896919
         2.68285512924
         2.70602917671
         2.72940206528
         2.75297617912
         2.77675271034
         2.8007338047
         2.82492089272
         2.84931588173
         2.87392044067
         2.89873671532
         2.92376613617
         2.949010849
         2.97447252274
         3.00015306473
         3.02605438232
         3.05217814445
         3.07852673531
         3.10510158539
         3.13190484047
         3.15893864632
         3.18620491028
         3.21370530128
         3.24144220352
         3.26941752434
         3.2976334095
         3.32609152794
         3.35479450226
         3.38374423981
         3.41294264793
         3.44239211082
         3.47209477425
         3.50205278397
         3.53226804733
         3.56274318695
         3.59348034859
         3.62448167801
         3.6557495594
         3.68728613853
         3.71909379959
         3.75117468834
         3.78353142738
         3.81616640091
         3.8490819931
         3.88228034973
         3.9157640934
         3.94953560829
         3.98359751701
         4.01795196533
         4.05260229111
         4.08754968643
         4.122797966
         4.15834903717
         4.19420623779
         4.23037099838
         4.2668466568
         4.30363607407
         4.34074163437
         4.37816619873
         4.41591262817
         4.45398330688
         4.49238109589
         4.53110933304
         4.57016992569
         4.60956668854
         4.64930200577
         4.6893787384
         4.7298002243
         4.77056884766
         4.81168794632
         4.85316085815
         4.89498996735
         4.93717861176
         4.97973012924
         5.02264690399
         5.06593322754
         5.10959100723
         5.15362453461
         5.19803619385
         5.24282979965
         5.28800868988
         5.33357572556
         5.37953424454
         5.42588806152
         5.47264003754
         5.51979398727
         5.5673532486
         5.6153216362
         5.66370201111
         5.71249818802
         5.76171398163
         5.8113527298
         5.86141824722
         5.91191387177
         5.96284389496
         6.01421165466
         6.06602096558
         6.11827516556
         6.17097902298
         6.2241358757
         6.27774906158
         6.33182382584
         6.38636302948
         6.44137096405
         6.49685192108
         6.55280971527
         6.60924863815
         6.66617250443
         6.72358608246
         6.78149271011
         6.83989715576
         6.89880371094
         6.95821666718
         7.01813983917
         7.07857894897
         7.1395368576
         7.20101881027
         7.26302957535
         7.32557344437
         7.38865470886
         7.45227813721
         7.51644849777
         7.58117055893
         7.64644861221
         7.71228790283
         7.77869319916
         7.84566926956
         7.91322135925
         7.98135375977
         8.05007171631
         8.11938095093
         8.18928527832
         8.25979042053
         8.33090209961
         8.40262508392
         8.47496414185
         8.54792499542
         8.6215133667
         8.69573402405
         8.77059268951
         8.84609508514
         8.92224693298
         8.99905204773
         9.07651805878
         9.1546497345
         9.23345375061
         9.31293392181
         9.3930978775
         9.47395133972
         9.55549907684
         9.63774871826
         9.72070407867
         9.80437374115
         9.88876152039
         9.97387504578
         10.059720993
         10.1463041306
         10.233631134
         10.3217096329
         10.4105443954
         10.5001430511
         10.5905122757
         10.6816577911
         10.7735862732
         10.8663063049
         10.9598226547
         11.054142952
         11.1492738724
         11.2452220917
         11.3419952393
         11.4396009445
         11.5380449295
         11.6373348236
         11.7374792099
         11.8384838104
         11.9403562546
         12.0431051254
         12.1467370987
         12.2512588501
         12.3566799164
         12.4630069733
         12.5702486038
         12.6784114838
         12.7875041962
         12.8975343704
         13.0085105896
         13.1204404831
         13.233332634
         13.3471946716
         13.4620361328
         13.5778646469
         13.694688797
         13.8125171661
         13.9313583374
         14.0512208939
         14.1721134186
         14.2940454483
         14.4170255661
         14.541062355
         14.6661663055
         14.792345047
         14.9196081161
         15.0479660034
         15.1774263382
         15.3079996109
         15.4396953583
         15.5725231171
         15.706492424
         15.8416137695
         15.9778957367
         16.1153507233
         16.2539863586
         16.3938121796
         16.5348415375
         16.6770839691
         16.8205471039
         16.9652442932
         17.1111850739
         17.2583808899
         17.4068412781
         17.5565776825
         17.7076015472
         17.8599243164
         18.0135555267
         18.1685066223
         18.3247909546
         18.4824180603
         18.6413993835
         18.8017482758
         18.963476181
         19.1265926361
         19.2911128998
         19.4570446014
         19.6244049072
         19.7932033539
         19.9634532928
         20.1351661682
         20.3083534241
         20.4830303192
         20.6592102051
         20.8369026184
         21.016122818
         21.1968841553
         21.3791999817
         21.5630817413
         21.748544693
         21.9356002808
         22.1242656708
         22.3145523071
         22.5064735413
         22.700044632
         22.895280838
         23.0921936035
         23.2908000946
         23.4911136627
         23.6931495667
         23.8969211578
         24.1024456024
         24.3097343445
         24.5188064575
         24.729675293
         24.942358017
         25.156867981
         25.3732204437
         25.5914344788
         25.8115234375
         26.0335044861
         26.2573928833
         26.4832057953
         26.7109603882
         26.9406738281
         27.1723594666
         27.4060382843
         27.6417255402
         27.8794364929
         28.1191940308
         28.3610095978
         28.6049060822
         28.8508968353
         29.0990047455
         29.3492431641
         29.6016330719
         29.8561916351
         30.1129398346
         30.3718948364
         30.6330757141
         30.8964996338
         31.1621894836
