aces_1.0.1/luts/V3_LogC_160_to_linear.spi1d
Version 1
From 0.000000 1.000000
Length 4096
Components 1
{
         -0.0158811360598
         -0.0158393345773
         -0.0157975349575
         -0.0157557334751
         -0.0157139338553
         -0.0156721323729
         -0.0156303327531
         -0.0155885322019
         -0.0155467316508
         -0.0155049310997
         -0.0154631305486
         -0.0154213299975
         -0.0153795294464
         -0.0153377288952
         -0.0152959283441
         -0.015254127793
         -0.0152123272419
         -0.0151705266908
         -0.0151287261397
         -0.0150869246572
         -0.0150451241061
         -0.015003323555
         -0.0149615230039
         -0.0149197224528
         -0.0148779219016
         -0.0148361213505
         -0.0147943207994
         -0.0147525202483
         -0.0147107196972
         -0.0146689191461
         -0.0146271185949
         -0.0145853180438
         -0.0145435174927
         -0.0145017169416
         -0.0144599163905
         -0.0144181158394
         -0.0143763152882
         -0.0143345147371
         -0.014292714186
         -0.0142509136349
         -0.0142091130838
         -0.0141673125327
         -0.0141255119815
         -0.0140837114304
         -0.0140419108793
         -0.0140001103282
         -0.0139583097771
         -0.013916509226
         -0.0138747086748
         -0.0138329081237
         -0.0137911075726
         -0.0137493070215
         -0.0137075064704
         -0.0136657059193
         -0.0136239053681
         -0.013582104817
         -0.0135403042659
         -0.0134985037148
         -0.0134567031637
         -0.0134149026126
         -0.0133731020615
         -0.0133313015103
         -0.0132895009592
         -0.0132477004081
         -0.013205899857
         -0.0131640993059
         -0.0131222978234
         -0.0130804972723
         -0.0130386967212
         -0.0129968961701
         -0.012955095619
         -0.0129132950678
         -0.0128714945167
         -0.0128296939656
         -0.0127878934145
         -0.0127460928634
         -0.0127042923123
         -0.0126624917611
         -0.01262069121
         -0.0125788906589
         -0.0125370901078
         -0.0124952895567
         -0.0124534890056
         -0.0124116884544
         -0.0123698879033
         -0.0123280873522
         -0.0122862868011
         -0.01224448625
         -0.0122026856989
         -0.0121608851478
         -0.0121190845966
         -0.0120772840455
         -0.0120354834944
         -0.0119936829433
         -0.0119518823922
         -0.0119100818411
         -0.0118682812899
         -0.0118264807388
         -0.0117846801877
         -0.0117428796366
         -0.0117010790855
         -0.0116592785344
         -0.0116174779832
         -0.0115756774321
         -0.011533876881
         -0.0114920763299
         -0.0114502757788
         -0.0114084752277
         -0.0113666746765
         -0.0113248741254
         -0.0112830735743
         -0.0112412730232
         -0.0111994724721
         -0.0111576709896
         -0.0111158704385
         -0.0110740698874
         -0.0110322693363
         -0.0109904687852
         -0.0109486682341
         -0.0109068676829
         -0.0108650671318
         -0.0108232665807
         -0.0107814660296
         -0.0107396654785
         -0.0106978649274
         -0.0106560643762
         -0.0106142638251
         -0.010572463274
         -0.0105306627229
         -0.0104888621718
         -0.0104470616207
         -0.0104052610695
         -0.0103634605184
         -0.0103216599673
         -0.0102798594162
         -0.0102380588651
         -0.010196258314
         -0.0101544577628
         -0.0101126572117
         -0.0100708566606
         -0.0100290561095
         -0.00998725555837
         -0.00994545500726
         -0.00990365445614
         -0.00986185390502
         -0.00982005335391
         -0.00977825280279
         -0.00973645225167
         -0.00969465170056
         -0.00965285114944
         -0.00961105059832
         -0.00956925004721
         -0.00952744949609
         -0.00948564894497
         -0.00944384839386
         -0.00940204784274
         -0.00936024729162
         -0.00931844674051
         -0.00927664618939
         -0.00923484563828
         -0.00919304415584
         -0.00915124360472
         -0.0091094430536
         -0.00906764250249
         -0.00902584195137
         -0.00898404140025
         -0.00894224084914
         -0.00890044029802
         -0.0088586397469
         -0.00881683919579
         -0.00877503864467
         -0.00873323809355
         -0.00869143754244
         -0.00864963699132
         -0.00860783644021
         -0.00856603588909
         -0.00852423533797
         -0.00848243478686
         -0.00844063423574
         -0.00839883368462
         -0.00835703313351
         -0.00831523258239
         -0.00827343203127
         -0.00823163148016
         -0.00818983092904
         -0.00814803037792
         -0.00810622982681
         -0.00806442927569
         -0.00802262872458
         -0.00798082817346
         -0.00793902762234
         -0.00789722707123
         -0.00785542652011
         -0.00781362596899
         -0.00777182541788
         -0.0077300244011
         -0.00768822384998
         -0.00764642329887
         -0.00760462274775
         -0.00756282219663
         -0.00752102164552
         -0.0074792210944
         -0.00743742054328
         -0.00739561999217
         -0.00735381944105
         -0.00731201888993
         -0.00727021833882
         -0.0072284177877
         -0.00718661723658
         -0.00714481668547
         -0.00710301613435
         -0.00706121558324
         -0.00701941503212
         -0.006977614481
         -0.00693581392989
         -0.00689401337877
         -0.00685221282765
         -0.00681041227654
         -0.00676861125976
         -0.00672681070864
         -0.00668501015753
         -0.00664320960641
         -0.00660140905529
         -0.00655960850418
         -0.00651780795306
         -0.00647600740194
         -0.00643420685083
         -0.00639240629971
         -0.00635060574859
         -0.00630880519748
         -0.00626700464636
         -0.00622520409524
         -0.00618340354413
         -0.00614160299301
         -0.0060998024419
         -0.00605800189078
         -0.00601620133966
         -0.00597440078855
         -0.00593260023743
         -0.00589079968631
         -0.0058489991352
         -0.00580719858408
         -0.0057653975673
         -0.00572359701619
         -0.00568179646507
         -0.00563999591395
         -0.00559819536284
         -0.00555639481172
         -0.0055145942606
         -0.00547279370949
         -0.00543099315837
         -0.00538919260725
         -0.00534739205614
         -0.00530559150502
         -0.0052637909539
         -0.00522199040279
         -0.00518018985167
         -0.00513838930055
         -0.00509658874944
         -0.00505478819832
         -0.00501298764721
         -0.00497118709609
         -0.00492938654497
         -0.00488758599386
         -0.00484578544274
         -0.00480398442596
         -0.00476218387485
         -0.00472038332373
         -0.00467858277261
         -0.0046367822215
         -0.00459498167038
         -0.00455318111926
         -0.00451138056815
         -0.00446958001703
         -0.00442777946591
         -0.0043859789148
         -0.00434417836368
         -0.00430237781256
         -0.00426057726145
         -0.00421877671033
         -0.00417697615921
         -0.0041351756081
         -0.00409337505698
         -0.00405157450587
         -0.00400977395475
         -0.00396797340363
         -0.00392617285252
         -0.00388437206857
         -0.00384257151745
         -0.00380077096634
         -0.00375897041522
         -0.0037171698641
         -0.00367536931299
         -0.00363356876187
         -0.00359176797792
         -0.00354996742681
         -0.00350816687569
         -0.00346636632457
         -0.00342456577346
         -0.00338276522234
         -0.00334096467122
         -0.00329916412011
         -0.00325736356899
         -0.00321556301787
         -0.00317376246676
         -0.00313196191564
         -0.00309016113169
         -0.00304836058058
         -0.00300656002946
         -0.00296475947835
         -0.00292295892723
         -0.00288115837611
         -0.002839357825
         -0.00279755727388
         -0.00275575672276
         -0.00271395617165
         -0.00267215562053
         -0.00263035506941
         -0.00258855428547
         -0.00254675373435
         -0.00250495318323
         -0.00246315263212
         -0.002421352081
         -0.00237955152988
         -0.00233775097877
         -0.00229595042765
         -0.00225414987653
         -0.00221234932542
         -0.0021705487743
         -0.00212874822319
         -0.00208694743924
         -0.00204514688812
         -0.00200334633701
         -0.00196154578589
         -0.00191974523477
         -0.00187794468366
         -0.00183614413254
         -0.00179434358142
         -0.00175254291389
         -0.00171074236277
         -0.00166894181166
         -0.00162714126054
         -0.00158534070943
         -0.00154354015831
         -0.00150173949078
         -0.00145993893966
         -0.00141813838854
         -0.00137633783743
         -0.00133453728631
         -0.00129273673519
         -0.00125093606766
         -0.00120913551655
         -0.00116733496543
         -0.00112553441431
         -0.0010837338632
         -0.00104193331208
         -0.00100013264455
         -0.000958332093433
         -0.000916531542316
         -0.0008747309912
         -0.000832930381875
         -0.000791129830759
         -0.000749329279643
         -0.000707528670318
         -0.000665728119202
         -0.000623927568085
         -0.000582126958761
         -0.000540326407645
         -0.000498525856528
         -0.000456725276308
         -0.000414924696088
         -0.000373124115868
         -0.000331323564751
         -0.000289522984531
         -0.00024772240431
         -0.000205921838642
         -0.000164121272974
         -0.000122320707305
         -8.0520134361e-05
         -3.87195614167e-05
         3.08101039082e-06
         4.4881580834e-05
         8.66821501404e-05
         0.000128482730361
         0.000170283296029
         0.000212083861697
         0.000253884441918
         0.000295684993034
         0.000337485573255
         0.000379286153475
         0.000421086733695
         0.000462887284812
         0.000504687835928
         0.000546488445252
         0.000588288996369
         0.000630089547485
         0.000671890156809
         0.000713690707926
         0.000755491259042
         0.000797291868366
         0.000839092419483
         0.000880893028807
         0.000922693579923
         0.00096449413104
         0.00100629474036
         0.00104809529148
         0.0010898958426
         0.00113169639371
         0.00117349694483
         0.00121529761236
         0.00125709816348
         0.00129889871459
         0.00134069926571
         0.00138249981683
         0.00142430036794
         0.00146610103548
         0.00150790158659
         0.00154970213771
         0.00159150268883
         0.00163330323994
         0.00167510390747
         0.00171690445859
         0.00175870500971
         0.00180050556082
         0.00184230611194
         0.00188410666306
         0.00192590733059
         0.0019677078817
         0.00200950843282
         0.00205130898394
         0.00209310953505
         0.00213491008617
         0.00217671063729
         0.0022185111884
         0.00226031173952
         0.00230211252347
         0.00234391307458
         0.0023857136257
         0.00242751417682
         0.00246931472793
         0.00251111527905
         0.00255291583017
         0.00259471638128
         0.0026365169324
         0.00267831748351
         0.00272011803463
         0.00276191858575
         0.00280371936969
         0.00284551992081
         0.00288732047193
         0.00292912102304
         0.00297092157416
         0.00301272212528
         0.00305452267639
         0.00309632322751
         0.00313812377863
         0.00317992432974
         0.00322172488086
         0.00326352543198
         0.00330532621592
         0.00334712676704
         0.00338892731816
         0.00343072786927
         0.00347252842039
         0.00351432897151
         0.00355612952262
         0.00359793007374
         0.00363973062485
         0.00368153117597
         0.00372333172709
         0.00376513251103
         0.00380693306215
         0.00384873361327
         0.00389053416438
         0.00393233448267
         0.00397413503379
         0.00401593605056
         0.00405773660168
         0.0040995371528
         0.00414133770391
         0.00418313825503
         0.00422493880615
         0.00426673935726
         0.00430853990838
         0.0043503404595
         0.00439214101061
         0.00443394156173
         0.00447574211285
         0.00451754266396
         0.00455934321508
         0.00460114376619
         0.00464294431731
         0.00468474486843
         0.00472654541954
         0.00476834597066
         0.00481014652178
         0.00485194707289
         0.00489374762401
         0.00493554817513
         0.00497734872624
         0.00501914974302
         0.00506095029414
         0.00510275084525
         0.00514455139637
         0.00518635194749
         0.0052281524986
         0.00526995304972
         0.00531175360084
         0.00535355415195
         0.00539535470307
         0.00543715525419
         0.0054789558053
         0.00552075635642
         0.00556255690753
         0.00560440449044
         0.00564633915201
         0.00568836182356
         0.00573047203943
         0.00577267073095
         0.00581495743245
         0.00585733307526
         0.00589979719371
         0.0059423497878
         0.00598499178886
         0.00602772273123
         0.00607054354623
         0.00611345330253
         0.00615645339713
         0.00619954336435
         0.0062427232042
         0.00628599338233
         0.00632935436442
         0.0063728056848
         0.0064163482748
         0.0064599821344
         0.00650370679796
         0.00654752319679
         0.00659143133089
         0.00663543120027
         0.00667952327058
         0.00672370754182
         0.006767984014
         0.00681235315278
         0.00685681542382
         0.00690137036145
         0.006946018897
         0.0069907605648
         0.00703559629619
         0.00708052515984
         0.00712554855272
         0.00717066600919
         0.00721587752923
         0.00726118404418
         0.00730658508837
         0.00735208112746
         0.00739767262712
         0.00744335958734
         0.00748914154246
         0.00753501988947
         0.00758099416271
         0.00762706436217
         0.00767323095351
         0.00771949393675
         0.00776585424319
         0.00781231140718
         0.00785886589438
         0.00790551677346
         0.00795226637274
         0.00799911376089
         0.00804605893791
         0.0080931019038
         0.00814024358988
         0.00818748399615
         0.00823482312262
         0.00828226096928
         0.00832979846746
         0.00837743561715
         0.00842517241836
         0.00847300887108
         0.00852094497532
         0.00856898259372
         0.00861711986363
         0.00866535771638
         0.00871369708329
         0.00876213703305
         0.00881067849696
         0.00885932147503
         0.00890806596726
         0.00895691290498
         0.00900586228818
         0.00905491318554
         0.0091040674597
         0.00915332417935
         0.00920268427581
         0.00925214774907
         0.00930171366781
         0.009351384826
         0.00940115842968
         0.00945103727281
         0.00950102042407
         0.00955110788345
         0.00960129965097
         0.00965159665793
         0.00970199890435
         0.00975250732154
         0.00980312097818
         0.00985383987427
         0.00990466587245
         0.00995559804142
         0.0100066363811
         0.0100577808917
         0.0101090334356
         0.0101603930816
         0.0102118598297
         0.0102634346113
         0.0103151174262
         0.0103669073433
         0.0104188071564
         0.0104708140716
         0.0105229308829
         0.0105751557276
         0.0106274904683
         0.0106799351051
         0.0107324887067
         0.0107851531357
         0.0108379265293
         0.0108908116817
         0.0109438067302
         0.0109969126061
         0.0110501293093
         0.0111034577712
         0.0111568979919
         0.0112104499713
         0.0112641137093
         0.0113178901374
         0.0113717783242
         0.0114257801324
         0.0114798946306
         0.0115341218188
         0.0115884635597
         0.0116429179907
         0.0116974869743
         0.0117521695793
         0.0118069667369
         0.0118618784472
         0.0119169056416
         0.0119720473886
         0.0120273046196
         0.0120826773345
         0.0121381664649
         0.0121937710792
         0.0122494921088
         0.0123053304851
         0.0123612852767
         0.0124173564836
         0.0124735459685
         0.0125298518687
         0.0125862760469
         0.0126428185031
         0.0126994792372
         0.0127562591806
         0.0128131564707
         0.0128701739013
         0.0129273105413
         0.0129845663905
         0.0130419423804
         0.0130994375795
         0.0131570538506
         0.0132147902623
         0.0132726477459
         0.0133306263015
         0.013388725929
         0.0134469475597
         0.0135052902624
         0.0135637558997
         0.0136223426089
         0.013681053184
         0.0137398857623
         0.0137988422066
         0.0138579215854
         0.0139171238989
         0.0139764510095
         0.0140359019861
         0.0140954777598
         0.0141551773995
         0.0142150018364
         0.0142749520019
         0.0143350278959
         0.0143952285871
         0.0144555559382
         0.0145160090178
         0.0145765887573
         0.014637296088
         0.0146981291473
         0.0147590897977
         0.0148201789707
         0.0148813948035
         0.0149427391589
         0.0150042120367
         0.0150658125058
         0.01512754336
         0.0151894027367
         0.015251390636
         0.0153135098517
         0.0153757575899
         0.0154381366447
         0.0155006451532
         0.0155632849783
         0.0156260561198
         0.0156889576465
         0.0157519932836
         0.0158151574433
         0.0158784557134
         0.0159418862313
         0.016005448997
         0.0160691458732
         0.0161329749972
         0.0161969382316
         0.0162610337138
         0.0163252651691
         0.0163896307349
         0.0164541304111
         0.0165187641978
         0.0165835358202
         0.0166484396905
         0.0167134813964
         0.0167786590755
         0.0168439727277
         0.0169094242156
         0.0169750116765
         0.0170407351106
         0.0171065982431
         0.0171725973487
         0.0172387361526
         0.0173050109297
         0.0173714272678
         0.0174379814416
         0.0175046734512
         0.0175715070218
         0.0176384784281
         0.0177055913955
         0.0177728440613
         0.017840238288
         0.0179077740759
         0.0179754495621
         0.0180432666093
         0.0181112270802
         0.0181793291122
         0.0182475727051
         0.0183159597218
         0.0183844901621
         0.0184531640261
         0.0185219813138
         0.0185909420252
         0.0186600480229
         0.0187292974442
         0.0187986921519
         0.0188682321459
         0.0189379174262
         0.0190077498555
         0.0190777275711
         0.0191478505731
         0.019218120724
         0.0192885398865
         0.0193591043353
         0.0194298159331
         0.0195006765425
         0.0195716861635
         0.0196428429335
         0.0197141505778
         0.019785605371
         0.0198572110385
         0.0199289657176
         0.0200008694082
         0.0200729258358
         0.0201451312751
         0.0202174875885
         0.0202899966389
         0.0203626565635
         0.020435469225
         0.0205084346235
         0.0205815508962
         0.0206548217684
         0.0207282453775
         0.0208018217236
         0.0208755526692
         0.0209494382143
         0.021023478359
         0.0210976731032
         0.0211720243096
         0.021246528253
         0.0213211905211
         0.0213960073888
         0.0214709825814
         0.0215461142361
         0.021621402353
         0.0216968469322
         0.0217724516988
         0.0218482129276
         0.0219241343439
         0.0220002122223
         0.0220764502883
         0.0221528485417
         0.0222294069827
         0.0223061237484
         0.0223830025643
         0.0224600415677
         0.0225372426212
         0.0226146038622
         0.0226921290159
         0.0227698143572
         0.0228476636112
         0.0229256749153
         0.0230038482696
         0.0230821873993
         0.0231606885791
         0.0232393555343
         0.0233181864023
         0.0233971830457
         0.0234763436019
         0.0235556699336
         0.0236351639032
         0.0237148217857
         0.0237946473062
         0.0238746404648
         0.0239548012614
         0.0240351278335
         0.0241156239063
         0.0241962894797
         0.0242771208286
         0.0243581235409
         0.0244392957538
         0.0245206374675
         0.0246021486819
         0.0246838312596
         0.024765683338
         0.0248477086425
         0.0249299034476
         0.0250122714788
         0.0250948127359
         0.0251775253564
         0.0252604112029
         0.0253434702754
         0.0254267044365
         0.0255101118237
         0.0255936924368
         0.0256774500012
         0.0257613807917
         0.0258454885334
         0.0259297732264
         0.026014233008
         0.026098869741
         0.0261836834252
         0.0262686740607
         0.0263538435102
         0.0264391899109
         0.0265247151256
         0.0266104191542
         0.0266963038594
         0.0267823673785
         0.0268686115742
         0.0269550345838
         0.0270416401327
         0.0271284263581
         0.0272153932601
         0.027302544564
         0.0273898765445
         0.0274773910642
         0.0275650881231
         0.0276529695839
         0.0277410354465
         0.0278292838484
         0.0279177185148
         0.0280063375831
         0.0280951410532
         0.0281841326505
         0.0282733086497
         0.0283626709133
         0.0284522213042
         0.0285419579595
         0.0286318846047
         0.0287219975144
         0.0288122985512
         0.0289027895778
         0.0289934687316
         0.0290843397379
         0.0291753988713
         0.0292666498572
         0.0293580908328
         0.0294497236609
         0.0295415483415
         0.0296335648745
         0.02972577326
         0.0298181753606
         0.0299107711762
         0.0300035588443
         0.0300965420902
         0.0301897209138
         0.0302830934525
         0.0303766615689
         0.030470425263
         0.030564384535
         0.0306585412472
         0.0307528935373
         0.0308474451303
         0.0309421941638
         0.0310371406376
         0.0311322864145
         0.0312276314944
         0.0313231758773
         0.0314189195633
         0.0315148644149
         0.031611006707
         0.0317073538899
         0.0318039022386
         0.0319006517529
         0.0319976061583
         0.032094758004
         0.0321921184659
         0.0322896800935
         0.0323874466121
         0.0324854180217
         0.0325835905969
         0.0326819717884
         0.0327805615962
