aces_1.0.1/luts/V3_LogC_640_to_linear.spi1d
Version 1
From 0.000000 1.000000
Length 1024
Components 1
{
         -0.0170803647488
         -0.0169004555792
         -0.0167205482721
         -0.0165406391025
         -0.0163607317954
         -0.0161808226258
         -0.0160009153187
         -0.0158210061491
         -0.015641098842
         -0.0154611906037
         -0.0152812823653
         -0.015101374127
         -0.0149214658886
         -0.0147415576503
         -0.0145616494119
         -0.0143817411736
         -0.0142018329352
         -0.0140219246969
         -0.0138420164585
         -0.0136621082202
         -0.0134821999818
         -0.0133022917435
         -0.0131223835051
         -0.0129424752668
         -0.0127625670284
         -0.0125826587901
         -0.0124027505517
         -0.0122228423133
         -0.012042934075
         -0.0118630258366
         -0.0116831175983
         -0.0115032093599
         -0.0113233011216
         -0.0111433928832
         -0.0109634846449
         -0.0107835764065
         -0.0106036681682
         -0.0104237599298
         -0.0102438516915
         -0.0100639434531
         -0.00988403521478
         -0.00970412697643
         -0.00952421873808
         -0.00934431049973
         -0.0091644031927
         -0.00898449495435
         -0.008804586716
         -0.00862467847764
         -0.00844477023929
         -0.00826486200094
         -0.00808495376259
         -0.00790504552424
         -0.00772513682023
         -0.00754522904754
         -0.00736532080919
         -0.00718541257083
         -0.00700550433248
         -0.00682559609413
         -0.00664568785578
         -0.00646577961743
         -0.00628587137908
         -0.00610596314073
         -0.00592605490237
         -0.00574614666402
         -0.00556623842567
         -0.00538633018732
         -0.00520642194897
         -0.00502651371062
         -0.00484660547227
         -0.00466669723392
         -0.00448678946123
         -0.00430688122287
         -0.00412697298452
         -0.00394706474617
         -0.00376715650782
         -0.00358724826947
         -0.00340734003112
         -0.00322743179277
         -0.00304752355441
         -0.00286761531606
         -0.00268770707771
         -0.00250779883936
         -0.00232789060101
         -0.00214798259549
         -0.00196807435714
         -0.00178816611879
         -0.00160825788043
         -0.00142834964208
         -0.00124844140373
         -0.00106853316538
         -0.000888624985237
         -0.000708716805093
         -0.000528808566742
         -0.000348900386598
         -0.000168992162799
         1.09160509965e-05
         0.000190824255696
         0.000370732479496
         0.000550640688743
         0.000730548868887
         0.000910457107238
         0.00109036534559
         0.00127027358394
         0.00145018170588
         0.00163008994423
         0.00180999818258
         0.00198990642093
         0.00216981465928
         0.00234972289763
         0.00252963090315
         0.00270953914151
         0.00288944737986
         0.00306935561821
         0.00324926385656
         0.00342917209491
         0.00360908033326
         0.00378898857161
         0.00396889680997
         0.00414880504832
         0.00432871328667
         0.00450862152502
         0.00468852976337
         0.00486843753606
         0.00504834577441
         0.00522825401276
         0.00540816225111
         0.00558807048947
         0.00576797872782
         0.00594788696617
         0.00612779520452
         0.00630770344287
         0.00648761168122
         0.00666751991957
         0.00684742815793
         0.00702733639628
         0.00720724463463
         0.00738715287298
         0.00756706111133
         0.00774696934968
         0.00792687758803
         0.00810678582639
         0.00828669406474
         0.00846660230309
         0.00864651054144
         0.00882641877979
         0.00900632701814
         0.00918623525649
         0.00936614349484
         0.00954605080187
         0.00972595904022
         0.00990597531199
         0.0100872879848
         0.0102702397853
         0.0104548446834
         0.0106411175802
         0.010829073377
         0.0110187269747
         0.0112100951374
         0.011403192766
         0.0115980347618
         0.0117946369573
         0.0119930161163
         0.0121931880713
         0.0123951686546
         0.0125989736989
         0.0128046208993
         0.0130121260881
         0.0132215060294
         0.0134327784181
         0.013645960018
         0.0138610675931
         0.0140781188384
         0.014297131449
         0.0145181231201
         0.0147411115468
         0.0149661153555
         0.0151931513101
         0.0154222398996
         0.0156533978879
         0.0158866439015
         0.0161219984293
         0.0163594800979
         0.0165991075337
         0.0168408993632
         0.0170848760754
         0.0173310581595
         0.0175794642419
         0.0178301148117
         0.018083030358
         0.0183382313699
         0.0185957383364
         0.0188555717468
         0.0191177539527
         0.0193823035806
         0.0196492448449
         0.0199185982347
         0.0201903861016
         0.0204646289349
         0.0207413509488
         0.0210205707699
         0.0213023163378
         0.021586606279
         0.0218734666705
         0.0221629161388
         0.0224549844861
         0.022749690339
         0.0230470579118
         0.0233471151441
         0.0236498806626
         0.0239553842694
         0.0242636483163
         0.0245746970177
         0.0248885564506
         0.0252052526921
         0.0255248099566
         0.025847254321
         0.0261726118624
         0.0265009105206
         0.0268321763724
         0.0271664336324
         0.0275037121028
         0.0278440378606
         0.0281874407083
         0.0285339448601
         0.0288835801184
         0.0292363744229
         0.0295923575759
         0.0299515556544
         0.0303140003234
         0.0306797213852
         0.0310487449169
         0.0314211025834
         0.0317968279123
         0.0321759469807
         0.0325584895909
         0.0329444929957
         0.033333979547
         0.0337269902229
         0.0341235473752
         0.034523691982
         0.0349274501204
         0.0353348590434
         0.0357459448278
         0.0361607484519
         0.0365792997181
         0.037001632154
         0.0374277830124
         0.0378577820957
         0.0382916666567
         0.0387294739485
         0.0391712337732
         0.0396169908345
         0.0400667712092
         0.0405206158757
         0.0409785620868
         0.0414406470954
         0.0419069081545
         0.0423773825169
         0.0428521074355
         0.0433311201632
         0.0438144616783
         0.0443021729589
         0.0447942912579
         0.0452908538282
         0.0457919053733
         0.0462974831462
         0.046807628125
         0.0473223850131
         0.0478417910635
         0.0483658947051
         0.0488947294652
         0.0494283437729
         0.0499667823315
         0.0505100823939
         0.0510582961142
         0.0516114607453
         0.052169624716
         0.0527328327298
         0.0533011257648
         0.0538745597005
         0.0544531717896
         0.0550370141864
         0.0556261278689
         0.0562205687165
         0.0568203814328
         0.0574256107211
         0.0580363124609
         0.0586525313556
         0.059274315834
         0.0599017217755
         0.0605347976089
         0.0611735917628
         0.0618181601167
         0.0624685510993
         0.06312482059
         0.0637870132923
         0.0644551962614
         0.0651294142008
         0.0658097267151
         0.0664961859584
         0.0671888515353
         0.0678877681494
         0.0685930028558
         0.0693046152592
         0.070022650063
         0.0707471817732
         0.0714782550931
         0.072215937078
         0.072960279882
         0.0737113505602
         0.0744692087173
         0.0752339139581
         0.0760055333376
         0.07678411901
         0.077569745481
         0.0783624649048
         0.0791623517871
         0.0799694657326
         0.0807838663459
         0.0816056355834
         0.0824348255992
         0.0832715108991
         0.0841157510877
         0.0849676206708
         0.0858271941543
         0.0866945311427
         0.0875697061419
         0.0884527862072
         0.0893438458443
         0.090242959559
         0.0911501944065
         0.0920656323433
         0.0929893404245
         0.0939213931561
         0.0948618724942
         0.0958108454943
         0.0967683941126
         0.097734592855
         0.0987095236778
         0.0996932685375
         0.100685894489
         0.101687498391
         0.102698147297
         0.103717930615
         0.104746922851
         0.105785220861
         0.106832899153
         0.107890039682
         0.108956739306
         0.110033072531
         0.111119136214
         0.112215004861
         0.113320782781
         0.114436551929
         0.115562401712
         0.116698428988
         0.117844715714
         0.119001358747
         0.120168462396
         0.121346101165
         0.122534386814
         0.123733408749
         0.124943271279
         0.126164063811
         0.127395883203
         0.128638833761
         0.129893004894
         0.131158530712
         0.132435470819
         0.133723959327
         0.135024100542
         0.136335968971
         0.137659713626
         0.138995409012
         0.140343174338
         0.141703113914
         0.143075346947
         0.144459977746
         0.14585711062
         0.147266879678
         0.148689389229
         0.150124743581
         0.151573076844
         0.153034493327
         0.154509112239
         0.155997052789
         0.157498449087
         0.159013405442
         0.160542055964
         0.162084504962
         0.163640901446
         0.165211364627
         0.166796013713
         0.168394982815
         0.170008406043
         0.171636402607
         0.173279106617
         0.174936667085
         0.176609188318
         0.17829683423
         0.17999972403
         0.18171800673
         0.183451801538
         0.18520128727
         0.18696655333
         0.188747793436
         0.190545111895
         0.19235868752
         0.194188639522
         0.196035131812
         0.197898298502
         0.199778318405
         0.201675310731
         0.203589454293
         0.205520883203
         0.207469776273
         0.209436267614
         0.211420536041
         0.213422730565
         0.21544303
         0.217481568456
         0.219538524747
         0.221614077687
         0.22370839119
         0.225821614265
         0.22795394063
         0.230105534196
         0.232276573777
         0.234467223287
         0.236677661538
         0.238908082247
         0.241158664227
         0.24342957139
         0.245720997453
         0.248033136129
         0.250366181135
         0.252720266581
         0.255095660686
         0.257492512465
         0.259911000729
         0.262351363897
         0.264813780785
         0.267298430204
         0.269805520773
         0.272335290909
         0.274887919426
         0.277463614941
         0.280062556267
         0.282685011625
         0.28533115983
         0.288001209497
         0.290695399046
         0.29341390729
         0.296157002449
         0.298924863338
         0.301717758179
         0.304535895586
         0.307379454374
         0.310248762369
         0.313143968582
         0.316065311432
         0.319013088942
         0.321987479925
         0.324988782406
         0.328017175198
         0.331072926521
         0.334156304598
         0.337267547846
         0.340406894684
         0.343574613333
         0.346770942211
         0.349996179342
         0.353250533342
         0.356534302235
         0.35984775424
         0.363191127777
         0.366564720869
         0.369968801737
         0.373403638601
         0.376869529486
         0.380366712809
         0.383895516396
         0.387456178665
         0.391049027443
         0.394674360752
         0.398332446814
         0.402023553848
         0.405748039484
         0.409506201744
         0.413298279047
         0.417124658823
         0.420985579491
         0.424881398678
         0.42881244421
         0.432778984308
         0.4367813766
         0.440819919109
         0.444894969463
         0.449006855488
         0.453155875206
         0.457342386246
         0.461566746235
         0.465829253197
         0.470130294561
         0.474470168352
         0.478849291801
         0.483267962933
         0.487726569176
         0.492225468159
         0.496765017509
         0.501345574856
         0.50596755743
         0.510631263256
         0.515337109566
         0.520085513592
         0.524876832962
         0.5297113657
         0.534589648247
         0.539512038231
         0.544478833675
         0.549490571022
         0.554547548294
         0.559650242329
         0.564799010754
         0.569994330406
         0.575236618519
         0.580526232719
         0.58586370945
         0.591249346733
         0.596683681011
         0.602167129517
         0.607700109482
         0.613283038139
         0.618916451931
         0.624600827694
         0.630336523056
         0.636124014854
         0.641963839531
         0.647856414318
         0.653802216053
         0.659801781178
         0.665855586529
         0.671964049339
         0.678127706051
         0.684347033501
         0.690622627735
         0.696954846382
         0.703344345093
         0.7097915411
         0.716297030449
         0.722861289978
         0.729484856129
         0.736168265343
         0.742912113667
         0.749716818333
         0.756583094597
         0.763511359692
         0.770502269268
         0.777556300163
         0.784674108028
         0.791856229305
         0.799103200436
         0.806415736675
         0.813794255257
         0.82123953104
         0.828752040863
         0.836332440376
         0.843981325626
         0.851699352264
         0.859487116337
         0.86734521389
         0.87527436018
         0.883275091648
         0.891348183155
         0.899494171143
         0.907713830471
         0.916007697582
         0.924376547337
         0.932821035385
         0.941341757774
         0.949939548969
         0.958615005016
         0.967368841171
         0.97620177269
         0.985114514828
         0.994107782841
         1.00318241119
         1.01233887672
         1.02157819271
         1.0309009552
         1.04030799866
         1.04980003834
         1.0593777895
         1.0690420866
         1.07879376411
         1.08863353729
         1.0985622406
         1.10858058929
         1.11868953705
         1.12888979912
         1.13918232918
         1.14956772327
         1.16004705429
         1.17062103748
         1.18129050732
         1.19205641747
         1.20291960239
         1.21388101578
         1.22494149208
         1.23610186577
         1.24736297131
         1.25872600079
         1.27019166946
         1.28176081181
         1.2934346199
         1.30521392822
         1.31709957123
         1.32909274101
         1.34119415283
         1.35340499878
         1.36572611332
         1.37815868855
         1.39070343971
         1.40336167812
         1.41613423824
         1.42902219296
         1.44202661514
         1.45514857769
         1.46838915348
         1.48174929619
         1.49523019791
         1.50883281231
         1.5225584507
         1.53640806675
         1.55038285255
         1.564483881
         1.57871234417
         1.59306943417
         1.60755610466
         1.62217378616
         1.63692355156
         1.65180659294
         1.6668241024
         1.68197727203
         1.69726741314
         1.71269571781
         1.72826349735
         1.74397182465
         1.7598221302
         1.77581572533
         1.7919536829
         1.80823767185
         1.82466864586
         1.84124815464
         1.85797739029
         1.87485790253
         1.89189088345
         1.90907776356
         1.92642009258
         1.94391894341
         1.96157598495
         1.97939252853
         1.99737012386
         2.01551008224
         2.03381419182
         2.05228352547
         2.07091975212
         2.08972430229
         2.10869884491
         2.12784481049
         2.14716386795
         2.1666572094
         2.18632698059
         2.20617437363
         2.22620129585
         2.24640893936
         2.2667992115
         2.2873737812
         2.3081343174
         2.32908248901
         2.35021972656
         2.37154817581
         2.39306926727
         2.41478490829
         2.43669652939
         2.45880651474
         2.48111605644
         2.50362706184
         2.52634167671
         2.54926156998
         2.57238841057
         2.59572434425
         2.61927103996
         2.64303040504
         2.66700458527
         2.69119548798
         2.71560502052
         2.74023485184
         2.7650873661
         2.79016447067
         2.81546831131
         2.84100055695
         2.86676359177
         2.89275956154
         2.91899037361
         2.94545817375
         2.97216510773
         2.9991133213
         3.02630496025
         3.05374240875
         3.08142781258
         3.10936355591
         3.1375515461
         3.16599416733
         3.19469380379
         3.22365283966
         3.25287365913
         3.28235816956
         3.31210947037
         3.34212946892
         3.37242078781
         3.40298557281
         3.43382692337
         3.46494674683
         3.49634766579
         3.52803254128
         3.56000351906
         3.59226346016
         3.62481498718
         3.65766048431
         3.69080281258
         3.72424483299
         3.75798892975
         3.79203772545
         3.82639431953
         3.86106157303
         3.89604187012
         3.93133831024
         3.96695351601
         4.00289058685
         4.03915262222
         4.07574224472
         4.11266231537
         4.14991617203
         4.18750667572
         4.22543668747
         4.26370954514
         4.30232810974
         4.34129571915
         4.38061523438
         4.42029047012
         4.46032381058
         4.50071907043
         4.54147911072
         4.58260774612
         4.62410831451
         4.66598320007
         4.70823669434
         4.75087213516
         4.79389286041
         4.83730220795
         4.88110399246
         4.92530155182
         4.96989822388
         5.01489782333
         5.06030416489
         5.10612106323
         5.15235137939
         5.19899988174
         5.24606990814
         5.29356527328
         5.34148979187
         5.38984680176
         5.43864154816
         5.48787689209
         5.53755712509
         5.58768606186
         5.63826799393
         5.68930721283
         5.74080753326
         5.79277324677
         5.84520864487
         5.89811754227
         5.95150470734
         6.00537443161
         6.05973052979
         6.11457824707
         6.16992092133
         6.2257642746
         6.28211212158
         6.33896875381
         6.3963394165
         6.45422887802
         6.51264095306
         6.57158088684
         6.63105344772
         6.69106340408
         6.75161552429
         6.81271505356
         6.87436628342
         6.93657493591
         6.99934530258
         7.06268310547
         7.12659358978
         7.19108104706
         7.25615119934
         7.32180976868
         7.38806152344
         7.45491170883
         7.52236604691
         7.59042978287
         7.65910863876
         7.7284078598
         7.79833364487
         7.86889123917
         7.94008636475
         8.01192474365
         8.08441162109
         8.15755462646
         8.23135757446
         8.30582809448
         8.3809709549
         8.4567937851
         8.53330039978
         8.61049938202
         8.68839550018
         8.76699542999
         8.84630584717
         8.92633247375
         9.00708293915
         9.08856296539
         9.17077827454
         9.25373744965
         9.33744621277
         9.42191123962
         9.50713920593
         9.59313678741
         9.67991256714
         9.76747226715
         9.85582256317
         9.94497108459
         10.0349264145
         10.1256933212
         10.2172803879
         10.3096961975
         10.4029455185
         10.4970388412
         10.5919818878
         10.6877822876
         10.7844486237
         10.8819885254
         10.9804105759
         11.0797214508
         11.1799287796
         11.281042099
         11.3830699921
         11.4860191345
         11.5898981094
         11.6947164536
         11.8004817963
         11.9072027206
         12.0148878098
         12.1235456467
         12.2331857681
         12.3438167572
         12.455447197
         12.5680856705
         12.6817426682
         12.7964267731
         12.9121465683
         13.0289125443
         13.1467342377
         13.265619278
         13.3855791092
         13.5066232681
         13.6287603378
         13.7520017624
         13.8763561249
         14.0018348694
         14.1284475327
         14.2562036514
         14.3851137161
         14.5151901245
         14.646440506
         14.7788772583
         14.9125108719
         15.0473518372
         15.1834115982
         15.3207006454
         15.459230423
         15.5990114212
         15.7400560379
         15.8823747635
         16.0259799957
         16.1708812714
         16.3170928955
         16.4646263123
         16.6134929657
         16.7637042999
         16.915271759
         17.0682106018
         17.222530365
         17.3782444
         17.5353660583
         17.6939067841
         17.8538818359
         18.0153007507
         18.1781787872
         18.3425273895
         18.5083618164
         18.6756954193
         18.8445415497
         19.0149116516
         19.1868228912
         19.3602867126
         19.5353164673
         19.7119293213
         19.8901386261
         20.0699577332
         20.2514019012
         20.4344844818
         20.619222641
         20.8056297302
         20.9937210083
         21.183511734
         21.3750171661
         21.5682525635
         21.7632350922
         21.959980011
         22.1585025787
         22.3588180542
         22.5609436035
         22.7648963928
         22.9706916809
         23.1783466339
         23.3878765106
         23.5993022919
         23.8126354218
         24.0278987885
         24.2451057434
         24.4642772675
         24.6854286194
         24.9085769653
         25.1337432861
         25.3609428406
         25.5901947021
         25.8215198517
         26.0549354553
         26.2904586792
         26.5281105042
         26.7679100037
         27.0098762512
         27.2540302277
         27.5003890991
         27.7489738464
         27.9998054504
         28.2529029846
         28.5082874298
         28.7659797668
         29.0260009766
         29.2883720398
         29.55311203
         29.8202457428
         30.0897941589
         30.3617763519
         30.6362171173
         30.9131374359
         31.1925601959
         31.4745082855
         31.7590026855
         32.0460700989
         32.3357276917
         32.6280059814
         32.9229240417
         33.2205047607
         33.520778656
         33.823764801
         34.129486084
         34.4379730225
         34.7492446899
         35.063331604
         35.3802566528
         35.7000427246
         36.0227203369
         36.3483123779
         36.6768455505
         37.0083503723
         37.3428497314
         37.6803703308
         38.020942688
         38.3645896912
         38.7113456726
         39.0612335205
         39.4142799377
         39.7705192566
