aces_1.0.1/luts/V3_LogC_2560_to_linear.spi1d
Version 1
From 0.000000 1.000000
Length 1024
Components 1
{
         -0.0184752065688
         -0.0182806681842
         -0.0180861297995
         -0.0178915914148
         -0.0176970530301
         -0.0175025146455
         -0.0173079781234
         -0.0171134397388
         -0.0169189013541
         -0.0167243629694
         -0.0165298245847
         -0.0163352862
         -0.016140749678
         -0.0159462112933
         -0.0157516729087
         -0.015557134524
         -0.0153625961393
         -0.015168058686
         -0.0149735203013
         -0.0147789819166
         -0.0145844444633
         -0.0143899060786
         -0.0141953676939
         -0.0140008302405
         -0.0138062918559
         -0.0136117534712
         -0.0134172160178
         -0.0132226776332
         -0.0130281392485
         -0.0128336017951
         -0.0126390634105
         -0.0124445250258
         -0.0122499875724
         -0.0120554491878
         -0.0118609108031
         -0.0116663733497
         -0.0114718349651
         -0.0112772965804
         -0.011082759127
         -0.0108882207423
         -0.0106936823577
         -0.0104991449043
         -0.0103046065196
         -0.010110068135
         -0.00991553068161
         -0.00972099229693
         -0.00952645391226
         -0.0093319164589
         -0.00913737807423
         -0.00894283968955
         -0.0087483022362
         -0.00855376385152
         -0.00835922546685
         -0.00816468801349
         -0.00797014962882
         -0.0077756117098
         -0.00758107332513
         -0.00738653540611
         -0.0071919974871
         -0.00699745910242
         -0.00680292118341
         -0.00660838326439
         -0.00641384487972
         -0.0062193069607
         -0.00602476904169
         -0.00583023065701
         -0.005635692738
         -0.00544115481898
         -0.00524661643431
         -0.00505207851529
         -0.00485754059628
         -0.0046630022116
         -0.00446846429259
         -0.00427392637357
         -0.0040793879889
         -0.00388485006988
         -0.00369031191804
         -0.00349577399902
         -0.00330123584718
         -0.00310669769533
         -0.00291215977632
         -0.00271762162447
         -0.00252308347262
         -0.00232854555361
         -0.00213400740176
         -0.00193946936633
         -0.0017449313309
         -0.00155039317906
         -0.00135585514363
         -0.0011613171082
         -0.000966779014561
         -0.000772240920924
         -0.000577702827286
         -0.000383164762752
         -0.000188626698218
         5.91138132222e-06
         0.000200449459953
         0.000394987524487
         0.000589525618125
         0.000784063653555
         0.000978601747192
         0.00117313978262
         0.00136767793447
         0.0015622159699
         0.00175675400533
         0.00195129215717
         0.00214583030902
         0.00234036822803
         0.00253490637988
         0.00272944453172
         0.00292398245074
         0.00311852060258
         0.00331305875443
         0.00350759667344
         0.00370213482529
         0.0038966727443
         0.00409121112898
         0.00428574904799
         0.00448028696701
         0.00467482535169
         0.0048693632707
         0.00506390118971
         0.00525843957439
         0.00545297749341
         0.00564751541242
         0.0058420537971
         0.00603659171611
         0.00623112963513
         0.0064256680198
         0.00662020593882
         0.00681474385783
         0.00700928224251
         0.00720382016152
         0.00739835808054
         0.00759289646521
         0.00778743438423
         0.0079819727689
         0.00817651022226
         0.00837104860693
         0.00856558699161
         0.00876012444496
         0.00895466282964
         0.00914920121431
         0.00934373866767
         0.00953827705234
         0.00973281543702
         0.00992735289037
         0.010121891275
         0.0103164296597
         0.0105109671131
         0.0107055054978
         0.0109000438824
         0.0110945813358
         0.0112891197205
         0.0114836581051
         0.0116781955585
         0.0118727339432
         0.0120672723278
         0.0122618097812
         0.0124563481659
         0.0126508865505
         0.0128454240039
         0.0130399623886
         0.0132345007733
         0.0134290382266
         0.0136235766113
         0.013818114996
         0.0140126524493
         0.014207190834
         0.0144017292187
         0.014596266672
         0.0147908050567
         0.014985954389
         0.0151829747483
         0.0153819210827
         0.0155828120187
         0.0157856661826
         0.0159905031323
         0.0161973424256
         0.0164062026888
         0.0166171044111
         0.0168300680816
         0.0170451141894
         0.0172622613609
         0.0174815300852
         0.0177029427141
         0.0179265197366
         0.0181522835046
         0.0183802526444
         0.0186104495078
         0.0188428964466
         0.0190776158124
         0.0193146299571
         0.0195539593697
         0.0197956301272
         0.0200396608561
         0.0202860776335
         0.0205349046737
         0.0207861624658
         0.0210398752242
         0.021296069026
         0.0215547662228
         0.0218159928918
         0.0220797713846
         0.0223461296409
         0.0226150918752
         0.0228866823018
         0.0231609269977
         0.0234378520399
         0.0237174835056
         0.0239998493344
         0.0242849737406
         0.0245728865266
         0.0248636137694
         0.0251571815461
         0.0254536196589
         0.025752954185
         0.0260552149266
         0.0263604298234
         0.0266686286777
         0.0269798394293
         0.0272940918803
         0.0276114158332
         0.027931842953
         0.0282554011792
         0.0285821221769
         0.0289120357484
         0.0292451735586
         0.0295815691352
         0.0299212522805
         0.0302642565221
         0.0306106116623
         0.0309603530914
         0.0313135124743
         0.0316701233387
         0.0320302210748
         0.0323938392103
         0.0327610112727
         0.0331317707896
         0.033506155014
         0.0338841974735
         0.034265935421
         0.0346514061093
         0.0350406430662
         0.0354336872697
         0.0358305685222
         0.0362313315272
         0.0366360135376
         0.0370446480811
         0.037457279861
         0.037873942405
         0.0382946766913
         0.0387195274234
         0.0391485281289
         0.0395817197859
         0.0400191470981
         0.0404608510435
         0.0409068726003
         0.0413572527468
         0.0418120361865
         0.0422712638974
         0.0427349805832
         0.0432032309473
         0.0436760559678
         0.0441535040736
         0.0446356199682
         0.045122448355
         0.0456140339375
         0.0461104214191
         0.0466116629541
         0.0471178069711
         0.0476288944483
         0.0481449775398
         0.0486661083996
         0.049192328006
         0.0497236959636
         0.0502602532506
         0.0508020594716
         0.0513491593301
         0.0519016049802
         0.0524594523013
         0.0530227534473
         0.0535915605724
         0.0541659258306
         0.0547459051013
         0.0553315542638
         0.0559229254723
         0.0565200783312
         0.0571230687201
         0.0577319525182
         0.058346785605
         0.0589676313102
         0.0595945455134
         0.0602275878191
         0.0608668141067
         0.0615122914314
         0.0621640756726
         0.0628222301602
         0.0634868219495
         0.064157910645
         0.0648355558515
         0.0655198171735
         0.0662107765675
         0.0669084861875
         0.0676130205393
         0.068324431777
         0.069042801857
         0.0697681978345
         0.0705006793141
         0.0712403208017
         0.0719871893525
         0.0727413594723
         0.0735029056668
         0.0742718875408
         0.0750483945012
         0.0758324861526
         0.0766242370009
         0.0774237364531
         0.0782310441136
         0.0790462493896
         0.0798694118857
         0.0807006284595
         0.081539966166
         0.0823875144124
         0.0832433402538
         0.0841075330973
         0.0849801748991
         0.0858613401651
         0.0867511257529
         0.0876496061683
         0.0885568633676
         0.0894729942083
         0.090398080647
         0.0913322046399
         0.0922754555941
         0.0932279378176
         0.0941897183657
         0.0951609089971
         0.0961415842175
         0.0971318557858
         0.0981317982078
         0.0991415157914
         0.100161097944
         0.101190656424
         0.102230273187
         0.103280052543
         0.104340091348
         0.10541048646
         0.106491349638
         0.107582777739
         0.108684875071
         0.109797738492
         0.110921487212
         0.112056218088
         0.113202035427
         0.114359050989
         0.115527383983
         0.116707131267
         0.117898412049
         0.119101338089
         0.120316021144
         0.121542572975
         0.12278111279
         0.124031767249
         0.12529464066
         0.126569852233
         0.127857536077
         0.129157811403
         0.130470782518
         0.131796598434
         0.13313536346
         0.134487226605
         0.13585229218
         0.137230709195
         0.138622581959
         0.140028074384
         0.141447305679
         0.142880409956
         0.144327506423
         0.145788758993
         0.147264301777
         0.148754253983
         0.150258779526
         0.151777997613
         0.153312072158
         0.154861152172
         0.156425356865
         0.158004850149
         0.159599795938
         0.161210328341
         0.16283659637
         0.164478763938
         0.166136980057
         0.167811408639
         0.169502198696
         0.171209514141
         0.172933518887
         0.174674376845
         0.17643225193
         0.178207308054
         0.179999709129
         0.18180963397
         0.18363724649
         0.185482725501
         0.187346249819
         0.189227983356
         0.191128104925
         0.193046808243
         0.194984257221
         0.196940645576
         0.19891615212
         0.200910970569
         0.202925294638
         0.204959303141
         0.207013189793
         0.20908716321
         0.211181387305
         0.213296100497
         0.215431466699
         0.217587724328
         0.219765052199
         0.221963644028
         0.224183753133
         0.226425543427
         0.22868925333
         0.230975076556
         0.233283266425
         0.235614001751
         0.237967520952
         0.240344032645
         0.24274379015
         0.245167002082
         0.247613891959
         0.2500846982
         0.252579659224
         0.255098998547
         0.25764298439
         0.260211825371
         0.262805759907
         0.265425086021
         0.268069982529
         0.270740717649
         0.273437589407
         0.276160806417
         0.278910636902
         0.281687378883
         0.284491211176
         0.287322491407
         0.290181428194
         0.293068289757
         0.295983403921
         0.298926979303
         0.301899343729
         0.304900765419
         0.307931512594
         0.31099191308
         0.314082205296
         0.317202687263
         0.32035368681
         0.323535472155
         0.326748371124
         0.329992681742
         0.333268672228
         0.336576730013
         0.339917093515
         0.343290090561
         0.346696078777
         0.350135356188
         0.353608250618
         0.357115089893
         0.360656201839
         0.364231944084
         0.367842614651
         0.371488571167
         0.375170171261
         0.37888777256
         0.38264170289
         0.38643231988
         0.390260010958
         0.394125074148
         0.398027956486
         0.401968955994
         0.405948489904
         0.409966915846
         0.414024621248
         0.418121993542
         0.422259420156
         0.426437288523
         0.430655986071
         0.43491590023
         0.439217478037
         0.443561077118
         0.447947144508
         0.452376097441
         0.456848323345
         0.461364269257
         0.465924352407
         0.470529019833
         0.475178658962
         0.479873776436
         0.484614789486
         0.489402145147
         0.494236260653
         0.499117642641
         0.504046738148
         0.50902402401
         0.514049947262
         0.519124984741
         0.52424967289
         0.52942442894
         0.534649729729
         0.539926171303
         0.54525411129
         0.550634205341
         0.556066811085
         0.561552584171
         0.567091941833
         0.572685420513
         0.578333616257
         0.584037005901
         0.589796125889
         0.595611572266
         0.601483821869
         0.607413470745
         0.613401114941
         0.619447231293
         0.625552475452
         0.631717443466
         0.637942612171
         0.644228637218
         0.650576114655
         0.656985580921
         0.663457751274
         0.669993162155
         0.676592469215
         0.683256268501
         0.689985215664
         0.69677990675
         0.703641057014
         0.7105692029
         0.717565119267
         0.724629402161
         0.731762766838
         0.738965809345
         0.746239244938
         0.753583848476
         0.761000156403
         0.768489003181
         0.776051044464
         0.783686995506
         0.791397571564
         0.799183547497
         0.807045578957
         0.814984500408
         0.823000967503
         0.831095814705
         0.839269816875
         0.84752368927
         0.855858206749
         0.864274203777
         0.87277251482
         0.881353855133
         0.890019059181
         0.89876896143
         0.907604396343
         0.916526198387
         0.925535202026
         0.934632241726
         0.943818211555
         0.953094005585
         0.962460458279
         0.971918404102
         0.981468856335
         0.991112589836
         1.00085067749
         1.01068389416
         1.02061319351
         1.03063964844
         1.04076397419
         1.05098736286
         1.06131064892
         1.07173478603
         1.08226084709
         1.09288978577
         1.10362267494
         1.11446034908
         1.12540411949
         1.13645470142
         1.14761340618
         1.15888118744
         1.17025899887
         1.18174803257
         1.19334948063
         1.20506417751
         1.21689355373
         1.22883844376
         1.24090003967
         1.25307965279
         1.26537823677
         1.27779698372
         1.29033720493
         1.3029999733
         1.3157864809
         1.32869803905
         1.34173572063
         1.35490095615
         1.36819469929
         1.38161849976
         1.39517354965
         1.40886104107
         1.42268228531
         1.43663859367
         1.45073139668
         1.46496188641
         1.47933149338
         1.49384152889
         1.50849342346
         1.5232886076
         1.53822827339
         1.55331408978
         1.56854724884
         1.58392930031
         1.5994617939
         1.61514604092
         1.63098359108
         1.64697599411
         1.66312468052
         1.67943120003
         1.69589710236
         1.71252393723
         1.72931337357
         1.74626684189
         1.76338601112
         1.7806725502
         1.79812800884
         1.81575405598
         1.83355247974
         1.85152482986
         1.86967289448
         1.8879982233
         1.90650272369
         1.92518818378
         1.9440561533
         1.96310865879
         1.98234736919
         2.00177407265
         2.0213906765
         2.04119896889
         2.06120109558
         2.08139848709
         2.10179328918
         2.12238764763
         2.14318323135
         2.16418194771
         2.18538594246
         2.20679736137
         2.22841787338
         2.25024962425
         2.27229499817
         2.29455590248
         2.31703424454
         2.3397321701
         2.36265230179
         2.3857960701
         2.40916633606
         2.43276500702
         2.45659422874
         2.48065638542
         2.50495386124
         2.52948856354
         2.55426335335
         2.57928013802
         2.60454154015
         2.63004994392
         2.65580749512
         2.68181681633
         2.70808053017
         2.73460078239
         2.76138019562
         2.78842163086
         2.81572699547
         2.8432996273
         2.87114167213
         2.89925575256
         2.92764472961
         2.95631098747
         2.98525762558
         3.01448726654
         3.04400229454
         3.07380604744
         3.10390114784
         3.13429045677
         3.16497659683
         3.19596266747
         3.22725176811
         3.2588467598
         3.29075050354
         3.32296586037
         3.35549640656
         3.38834476471
         3.42151427269
         3.45500779152
         3.48882889748
         3.52298045158
         3.55746603012
         3.59228849411
         3.62745141983
         3.66295790672
         3.69881153107
         3.73501563072
         3.77157354355
         3.80848884583
         3.84576487541
         3.88340544701
         3.92141366005
         3.95979356766
         3.99854850769
         4.03768253326
         4.0771985054
         4.11710119247
         4.15739393234
         4.1980805397
         4.23916435242
         4.28065013885
         4.32254123688
         4.36484193802
         4.40755605698
         4.45068740845
         4.4942407608
         4.5382194519
         4.58262825012
         4.62747144699
         4.67275238037
         4.71847629547
         4.76464653015
         4.81126880646
         4.85834646225
         4.9058842659
         4.95388650894
         5.00235795975
         5.05130338669
         5.10072755814
         5.15063428879
         5.20102882385
         5.25191640854
         5.30330085754
         5.35518789291
         5.40758180618
         5.4604883194
         5.51391172409
         5.56785726547
         5.62232971191
         5.6773352623
         5.73287820816
         5.78896379471
         5.84559774399
         5.90278530121
         5.96053171158
         6.01884269714
         6.07772350311
         6.13718032837
         6.19721746445
         6.2578420639
         6.31905889511
         6.38087415695
         6.44329404831
         6.50632333755
         6.56996917725
         6.63423728943
         6.69913291931
         6.76466321945
         6.83083438873
         6.89765167236
         6.96512269974
         7.03325271606
         7.1020488739
         7.17151737213
         7.24166488647
         7.31249809265
         7.38402366638
         7.45624828339
         7.52917909622
         7.60282230377
         7.67718553543
         7.75227594376
         7.82810020447
         7.90466499329
         7.98197889328
         8.06004810333
         8.13888072968
         8.21848392487
         8.29886436462
         8.38003063202
         8.46199131012
         8.54475212097
         8.62832260132
         8.71270942688
         8.79792118073
         8.88396549225
         8.97085094452
         9.05858612061
         9.1471786499
         9.23663711548
         9.3269701004
         9.41818523407
         9.5102930069
         9.6033000946
         9.69721698761
         9.79205131531
         9.88781356812
         9.98451137543
         10.082154274
         10.1807508469
         10.2803115845
         10.3808460236
         10.4823627472
         10.5848712921
         10.6883821487
         10.7929048538
         10.8984498978
         11.0050258636
         11.1126432419
         11.2213125229
         11.3310441971
         11.4418487549
         11.553735733
         11.6667165756
         11.7808027267
         11.8960027695
         12.0123291016
         12.1297922134
         12.2484045029
         12.3681745529
         12.4891166687
         12.611240387
         12.7345581055
         12.8590803146
         12.9848203659
         13.1117887497
         13.2399988174
         13.3694620132
         13.5001907349
         13.6321973801
         13.7654933929
         13.9000930786
         14.0360078812
         14.1732521057
         14.3118371964
         14.4517765045
         14.5930843353
         14.7357730865
         14.8798561096
         15.0253477097
         15.1722612381
         15.3206110001
         15.4704113007
         15.6216745377
         15.7744178772
         15.9286527634
         16.0843963623
         16.2416610718
         16.4004631042
         16.5608177185
         16.7227401733
         16.8862457275
         17.0513477325
         17.2180652618
         17.3864097595
         17.5564022064
         17.728055954
         17.901386261
         18.0764122009
         18.2531471252
         18.4316101074
         18.6118183136
         18.7937889099
         18.9775352478
         19.1630802155
         19.3504371643
         19.5396251678
         19.7306632996
         19.9235687256
         20.1183605194
         20.3150539398
         20.513671875
         20.7142295837
         20.9167499542
         21.1212482452
         21.3277454376
         21.5362606049
         21.7468147278
         21.9594268799
         22.1741161346
         22.3909053802
         22.6098117828
         22.8308601379
         23.0540676117
         23.2794570923
         23.5070495605
         23.7368659973
         23.9689292908
         24.2032604218
         24.4398822784
         24.678817749
         24.9200878143
         25.1637172699
         25.4097270966
         25.6581401825
         25.9089832306
         26.1622772217
         26.4180469513
         26.676317215
         26.9371128082
         27.2004566193
         27.4663734436
         27.7348899841
         28.0060329437
         28.2798233032
         28.5562915802
         28.8354625702
         29.1173610687
         29.402015686
         29.6894512177
         29.9796981812
         30.2727813721
         30.5687274933
         30.8675689697
         31.1693305969
         31.4740409851
         31.7817306519
         32.0924263
         32.406162262
         32.7229614258
         33.0428581238
         33.3658790588
         33.6920623779
         34.0214309692
         34.354019165
         34.6898574829
         35.0289802551
         35.3714179993
         35.7172012329
         36.0663642883
         36.4189414978
         36.7749633789
         37.1344642639
         37.4974822998
         37.8640441895
         38.2341918945
         38.6079597473
         38.9853782654
         39.3664855957
         39.7513198853
         40.1399116516
         40.5323066711
         40.9285316467
         41.3286323547
         41.7326469421
         42.1406059265
         42.5525550842
         42.9685287476
         43.3885688782
         43.8127174377
         44.2410087585
         44.6734848022
         45.1101913452
         45.5511665344
         45.9964485168
         46.4460868835
         46.9001197815
         47.3585891724
         47.8215370178
         48.2890129089
         48.7610588074
         49.2377166748
         49.7190361023
         50.2050590515
         50.6958312988
         51.1914024353
         51.6918144226
         52.1971206665
         52.7073631287
         53.2225952148
         53.7428627014
         54.2682151794
         54.79870224
         55.3343772888
         55.8752861023
         56.4214820862
         56.9730148315
         57.5299415588
         58.0923118591
         58.6601753235
         59.2335929871
         59.8126144409
         60.3972969055
         60.9876899719
