aces_1.0.1/luts/V3_LogC_200_to_linear.spi1d
Version 1
From 0.000000 1.000000
Length 1024
Components 1
{
         -0.0160626843572
         -0.0158934537321
         -0.0157242249697
         -0.0155549943447
         -0.0153857637197
         -0.015216534026
         -0.0150473034009
         -0.0148780737072
         -0.0147088430822
         -0.0145396133885
         -0.0143703827634
         -0.0142011530697
         -0.014031923376
         -0.013862692751
         -0.0136934630573
         -0.0135242324322
         -0.0133550027385
         -0.0131857721135
         -0.0130165424198
         -0.0128473117948
         -0.012678082101
         -0.012508851476
         -0.0123396217823
         -0.0121703920886
         -0.0120011614636
         -0.0118319317698
         -0.0116627011448
         -0.0114934714511
         -0.0113242408261
         -0.0111550111324
         -0.0109857805073
         -0.0108165508136
         -0.0106473211199
         -0.0104780904949
         -0.0103088608012
         -0.0101396301761
         -0.00997040048242
         -0.00980116985738
         -0.00963194016367
         -0.00946270953864
         -0.00929347984493
         -0.00912424921989
         -0.00895501952618
         -0.00878578983247
         -0.00861655920744
         -0.00844732951373
         -0.0082780988887
         -0.00810886919498
         -0.00793963856995
         -0.00777040887624
         -0.00760117871687
         -0.0074319485575
         -0.00726271839812
         -0.00709348823875
         -0.00692425807938
         -0.00675502792001
         -0.00658579776064
         -0.00641656760126
         -0.00624733790755
         -0.00607810774818
         -0.00590887758881
         -0.00573964742944
         -0.00557041727006
         -0.00540118711069
         -0.00523195695132
         -0.00506272679195
         -0.00489349663258
         -0.0047242664732
         -0.00455503631383
         -0.00438580662012
         -0.00421657646075
         -0.00404734630138
         -0.003878116142
         -0.00370888598263
         -0.00353965582326
         -0.00337042566389
         -0.00320119550452
         -0.00303196557797
         -0.0028627354186
         -0.00269350525923
         -0.00252427509986
         -0.00235504494049
         -0.00218581501395
         -0.00201658485457
         -0.0018473546952
         -0.00167812453583
         -0.00150889449287
         -0.0013396643335
         -0.00117043429054
         -0.00100120413117
         -0.000831974030007
         -0.000662743870635
         -0.00049351376947
         -0.000324283668306
         -0.000155053552589
         1.41765658555e-05
         0.000183406678843
         0.00035263679456
         0.000521866895724
         0.000691096996889
         0.000860327156261
         0.00102955719922
         0.00119878735859
         0.00136801751796
         0.00153724756092
         0.00170647772029
         0.00187570787966
         0.00204493803903
         0.00221416796558
         0.00238339812495
         0.00255262828432
         0.00272185844369
         0.00289108860306
         0.00306031852961
         0.00322954868898
         0.00339877884835
         0.00356800900772
         0.00373723916709
         0.00390646932647
         0.00407569948584
         0.00424492964521
         0.00441415933892
         0.00458338949829
         0.00475261965767
         0.00492184981704
         0.00509107997641
         0.00526031013578
         0.00542954029515
         0.00559877045453
         0.0057680006139
         0.00593723077327
         0.00610646093264
         0.00627580424771
         0.00644632522017
         0.00661829579622
         0.00679172715172
         0.0069666323252
         0.00714302388951
         0.00732091395184
         0.00750031601638
         0.0076812421903
         0.0078637059778
         0.00804772041738
         0.00823329854757
         0.00842045247555
         0.00860919803381
         0.00879954732955
         0.00899151340127
         0.00918511115015
         0.00938035361469
         0.00957725569606
         0.00977583043277
         0.00997609272599
         0.0101780565456
         0.0103817367926
         0.0105871483684
         0.0107943043113
         0.0110032213852
         0.0112139135599
         0.0114263957366
         0.0116406837478
         0.0118567924947
         0.0120747368783
         0.0122945345938
         0.0125161986798
         0.0127397477627
         0.012965194881
         0.0131925586611
         0.0134218549356
         0.0136530986056
         0.0138863073662
         0.0141214979813
         0.0143586872146
         0.0145978927612
         0.0148391295224
         0.015082417056
         0.0153277711943
         0.0155752105638
         0.0158247537911
         0.0160764157772
         0.01633021608
         0.0165861733258
         0.0168443061411
         0.0171046331525
         0.0173671711236
         0.0176319405437
         0.0178989581764
         0.0181682463735
         0.0184398218989
         0.0187137071043
         0.0189899168909
         0.0192684754729
         0.019549401477
         0.0198327135295
         0.0201184321195
         0.0204065795988
         0.0206971764565
         0.0209902413189
         0.0212857984006
         0.0215838644654
         0.0218844655901
         0.0221876185387
         0.0224933493882
         0.0228016767651
         0.0231126248837
         0.0234262160957
         0.0237424708903
         0.0240614134818
         0.0243830662221
         0.0247074533254
         0.0250345952809
         0.0253645181656
         0.0256972424686
         0.0260327961296
         0.0263711996377
         0.0267124809325
         0.0270566605031
         0.0274037644267
         0.0277538187802
         0.028106847778
         0.0284628756344
         0.0288219302893
         0.0291840340942
         0.0295492149889
         0.0299175009131
         0.0302889142185
         0.0306634847075
         0.031041238457
         0.031422201544
         0.0318064019084
         0.0321938656271
         0.0325846262276
         0.0329787023365
         0.0333761274815
         0.0337769314647
         0.0341811403632
         0.0345887877047
         0.0349998958409
         0.0354144945741
         0.0358326211572
         0.0362542979419
         0.0366795584559
         0.0371084325016
         0.0375409498811
         0.0379771441221
         0.038417045027
         0.0388606823981
         0.0393080897629
         0.0397593006492
         0.0402143448591
         0.0406732559204
         0.0411360673606
         0.0416028089821
         0.0420735180378
         0.0425482280552
         0.0430269688368
         0.0435097813606
         0.0439966954291
         0.0444877445698
         0.0449829697609
         0.0454824008048
         0.0459860749543
         0.0464940294623
         0.0470063015819
         0.0475229285657
         0.0480439439416
         0.0485693849623
         0.0490992926061
         0.0496337004006
         0.0501726530492
         0.0507161803544
         0.0512643307447
         0.051817137748
         0.0523746423423
         0.0529368855059
         0.0535039044917
         0.0540757402778
         0.0546524375677
         0.0552340336144
         0.0558205731213
         0.0564120970666
         0.0570086464286
         0.0576102659106
         0.058216996491
         0.0588288828731
         0.0594459697604
         0.0600682981312
         0.0606959164143
         0.0613288655877
         0.0619671978056
         0.0626109465957
         0.0632601752877
         0.0639149174094
         0.0645752176642
         0.0652411356568
         0.0659127086401
         0.0665899887681
         0.0672730207443
         0.0679618641734
         0.0686565563083
         0.069357149303
         0.0700636953115
         0.0707762539387
         0.0714948624372
         0.0722195729613
         0.0729504451156
         0.073687531054
         0.0744308754802
         0.0751805379987
         0.0759365707636
         0.076699025929
         0.0774679630995
         0.0782434344292
         0.0790254920721
         0.0798141956329
         0.0806096047163
         0.0814117640257
         0.0822207480669
         0.083036608994
         0.0838593915105
         0.0846891775727
         0.0855260044336
         0.086369946599
         0.0872210636735
         0.0880794078112
         0.0889450460672
         0.0898180454969
         0.0906984582543
         0.0915863513947
         0.0924817919731
         0.0933848395944
         0.0942955613136
         0.0952140241861
         0.0961402878165
         0.0970744267106
         0.098016500473
         0.098966576159
         0.0999247282743
         0.100891023874
         0.101865530014
         0.102848313749
         0.103839449584
         0.104839012027
         0.10584706068
         0.106863677502
         0.107888936996
         0.10892290622
         0.109965659678
         0.111017279327
         0.112077832222
         0.113147392869
         0.114226043224
         0.115313865244
         0.116410925984
         0.117517307401
         0.1186330989
         0.119758360088
         0.120893187821
         0.122037664056
         0.123191855848
         0.124355860054
         0.125529751182
         0.126713633537
         0.127907559276
         0.129111632705
         0.130325943232
         0.131550565362
         0.132785603404
         0.134031131864
         0.135287240148
         0.136554017663
         0.137831568718
         0.139119967818
         0.140419319272
         0.141729712486
         0.143051236868
         0.144383996725
         0.145728081465
         0.147083580494
         0.148450613022
         0.149829253554
         0.1512196064
         0.152621760964
         0.154035851359
         0.15546195209
         0.156900167465
         0.158350601792
         0.15981335938
         0.161288559437
         0.162776276469
         0.164276659489
         0.1657897681
         0.167315751314
         0.168854683638
         0.170406714082
         0.171971917152
         0.17355042696
         0.175142347813
         0.17674779892
         0.178366884589
         0.179999738932
         0.181646466255
         0.183307170868
         0.184982001781
         0.186671063304
         0.188374474645
         0.190092369914
         0.19182485342
         0.193572059274
         0.195334106684
         0.197111129761
         0.198903262615
         0.200710624456
         0.202533334494
         0.204371526837
         0.206225350499
         0.208094924688
         0.209980383515
         0.211881861091
         0.213799506426
         0.21573343873
         0.217683807015
         0.219650745392
         0.221634402871
         0.223634913564
         0.225652426481
         0.227687075734
         0.229739025235
         0.231808394194
         0.233895361423
         0.236000061035
         0.23812264204
         0.24026325345
         0.242422059178
         0.244599223137
         0.246794864535
         0.249009177089
         0.251242309809
         0.253494411707
         0.255765646696
         0.25805619359
         0.260366171598
         0.262695819139
         0.26504522562
         0.267414629459
         0.269804149866
         0.272213965654
         0.27464428544
         0.277095228434
         0.279567033052
         0.282059818506
         0.284573793411
         0.287109106779
         0.289665997028
         0.292244583368
         0.294845104218
         0.297467708588
         0.300112605095
         0.302779972553
         0.305470019579
         0.308182924986
         0.310918867588
         0.313678056002
         0.316460698843
         0.319267004728
         0.322097122669
         0.324951320887
         0.327829748392
         0.330732643604
         0.333660215139
         0.336612641811
         0.339590162039
         0.34259301424
         0.345621347427
         0.348675429821
         0.351755440235
         0.354861646891
         0.357994258404
         0.361153483391
         0.364339530468
         0.367552667856
         0.370793104172
         0.374061077833
         0.377356827259
         0.380680561066
         0.384032547474
         0.387413024902
         0.39082223177
         0.394260406494
         0.397727787495
         0.40122461319
         0.404751181602
         0.408307701349
         0.411894470453
         0.415511697531
         0.419159650803
         0.422838628292
         0.426548838615
         0.430290579796
         0.434064149857
         0.437869757414
         0.441707700491
         0.445578277111
         0.449481725693
         0.453418344259
         0.457388401031
         0.461392223835
         0.465430051088
         0.469502180815
         0.47360894084
         0.477750569582
         0.481927394867
         0.48613974452
         0.49038785696
         0.494672060013
         0.498992681503
         0.503350019455
         0.507744371891
         0.512176096439
         0.516645431519
         0.521152794361
         0.525698423386
         0.53028267622
         0.534905910492
         0.539568424225
         0.544270575047
         0.549012601376
         0.553794980049
         0.55861800909
         0.563481986523
         0.568387329578
         0.573334336281
         0.578323423862
         0.583354830742
         0.588429033756
         0.593546330929
         0.598707139492
         0.603911817074
         0.609160661697
         0.6144541502
         0.619792640209
         0.625176429749
         0.630605995655
         0.636081695557
         0.641603946686
         0.64717310667
         0.652789592743
         0.658453822136
         0.664166152477
         0.669927060604
         0.67573684454
         0.68159610033
         0.687505066395
         0.693464279175
         0.699474096298
         0.705534994602
         0.711647450924
         0.717811763287
         0.724028527737
         0.730298042297
         0.736620903015
         0.742997467518
         0.749428212643
         0.755913615227
         0.762454092503
         0.769050180912
         0.775702297688
         0.782410919666
         0.78917658329
         0.795999765396
         0.802880883217
         0.809820473194
         0.816819012165
         0.823877036572
         0.830995082855
         0.838173568249
         0.845413088799
         0.852714061737
         0.860077142715
         0.867502748966
         0.874991476536
         0.882543802261
         0.890160322189
         0.897841572762
         0.90558809042
         0.913400411606
         0.921279191971
         0.929224848747
         0.937238037586
         0.94531929493
         0.953469276428
         0.96168845892
         0.969977557659
         0.97833698988
         0.986767530441
         0.995269715786
         1.00384414196
         1.01249134541
         1.02121210098
         1.03000700474
         1.03887653351
         1.04782152176
         1.05684244633
         1.06594002247
         1.07511496544
         1.08436787128
         1.09369933605
         1.10311019421
         1.11260092258
         1.12217235565
         1.13182508945
         1.14155983925
         1.15137732029
         1.16127824783
         1.17126333714
         1.18133318424
         1.19148862362
         1.20173037052
         1.21205914021
         1.22247576714
         1.23298084736
         1.24357509613
         1.25425946712
         1.2650346756
         1.2759013176
         1.28686034679
         1.29791259766
         1.30905866623
         1.32029938698
         1.33163571358
         1.34306836128
         1.35459816456
         1.36622595787
         1.37795245647
         1.38977873325
         1.40170538425
         1.41373348236
         1.42586374283
         1.43809711933
         1.45043432713
         1.46287643909
         1.4754242897
         1.48807883263
         1.50084078312
         1.51371121407
         1.52669107914
         1.53978121281
         1.55298244953
         1.56629598141
         1.5797226429
         1.59326338768
         1.60691916943
         1.62069106102
         1.63457989693
         1.64858675003
         1.66271269321
         1.67695868015
         1.69132566452
         1.7058147192
         1.72042691708
         1.73516321182
         1.75002479553
         1.76501274109
         1.78012788296
         1.79537153244
         1.81074476242
         1.82624852657
         1.8418841362
         1.85765254498
         1.87355494499
         1.88959252834
         1.90576636791
         1.92207765579
         1.93852746487
         1.95511710644
         1.9718477726
         1.98872053623
         2.00573682785
         2.02289748192
         2.04020404816
         2.05765771866
         2.07525968552
         2.09301114082
         2.11091351509
         2.12896800041
         2.14717578888
         2.16553854942
         2.18405723572
         2.20273303986
         2.22156786919
         2.24056267738
         2.25971865654
         2.279037714
         2.29852080345
         2.31816935539
         2.33798503876
         2.35796904564
         2.37812280655
         2.39844799042
         2.41894578934
         2.43961763382
         2.46046543121
         2.48149013519
         2.50269341469
         2.52407717705
         2.54564237595
         2.56739091873
         2.58932423592
         2.61144399643
         2.63375163078
         2.65624904633
         2.67893743515
         2.70181870461
         2.7248942852
         2.74816608429
         2.77163553238
         2.7953042984
         2.8191742897
         2.84324717522
         2.86752462387
         2.8920083046
         2.91670012474
         2.94160175323
         2.96671485901
         2.99204134941
         3.01758313179
         3.04334211349
         3.06931972504
         3.09551811218
         3.12193918228
         3.14858484268
         3.17545676231
         3.20255708694
         3.22988772392
         3.2574505806
         3.28524780273
         3.31328105927
         3.34155249596
         3.37006425858
         3.39881825447
         3.42781662941
         3.45706129074
         3.48655462265
         3.51629829407
         3.5462949276
         3.57654643059
         3.60705494881
         3.63782286644
         3.66885209084
         3.70014500618
         3.73170375824
         3.7635307312
         3.79562830925
         3.82799839973
         3.86064362526
         3.89356637001
         3.92676877975
         3.96025323868
         3.99402236938
         4.02807855606
         4.06242370605
         4.09706115723
         4.13199281693
         4.16722106934
         4.20274877548
         4.23857831955
         4.27471256256
         4.3111538887
         4.34790468216
         4.38496780396
         4.42234563828
         4.46004152298
         4.49805736542
         4.53639650345
         4.57506132126
         4.61405467987
         4.65337896347
         4.69303798676
         4.73303365707
         4.77336931229
         4.81404781342
         4.85507202148
         4.89644479752
         4.93816900253
         4.9802479744
         5.02268409729
         5.06548118591
         5.10864210129
         5.1521692276
         5.19606637955
         5.24033689499
         5.28498315811
         5.33000898361
         5.37541770935
         5.42121171951
         5.46739530563
         5.51397132874
         5.56094264984
         5.60831356049
         5.65608692169
         5.70426607132
         5.75285482407
         5.80185651779
         5.85127449036
         5.90111207962
         5.95137357712
         6.00206184387
         6.05318117142
         6.10473442078
         6.15672636032
         6.20915937424
         6.2620382309
         6.315366745
         6.36914825439
         6.42338657379
         6.47808599472
         6.53324985504
         6.58888292313
         6.64498853683
         6.7015709877
         6.75863409042
         6.81618213654
         6.87421894073
         6.93274927139
         6.99177694321
         7.05130624771
         7.1113409996
         7.17188596725
         7.23294591904
         7.29452419281
         7.35662603378
         7.41925525665
         7.48241710663
         7.54611539841
         7.61035490036
         7.67514038086
         7.74047660828
         7.80636739731
         7.87281847
         7.93983411789
         8.00741958618
         8.07557868958
         8.14431762695
         8.21364021301
         8.2835521698
         8.35405826569
         8.42516326904
         8.49687194824
         8.569190979
         8.64212417603
         8.71567726135
         8.78985500336
         8.86466312408
         8.94010639191
         9.01619148254
         9.09292316437
         9.17030620575
         9.24834728241
         9.32705116272
         9.4064245224
         9.48647212982
         9.56719970703
         9.64861297607
         9.73071861267
         9.81352138519
         9.89702796936
         9.98124408722
         10.0661764145
         10.1518297195
         10.2382116318
         10.3253269196
         10.4131822586
         10.5017843246
         10.5911397934
         10.6812543869
         10.7721347809
         10.8637866974
         10.9562177658
         11.0494346619
         11.1434431076
         11.2382507324
         11.333864212
         11.4302892685
         11.5275344849
         11.6256055832
         11.7245101929
         11.8242559433
         11.9248485565
         12.0262956619
         12.1286048889
         12.2317838669
         12.3358402252
         12.440779686
         12.5466108322
         12.653342247
         12.7609796524
         12.8695325851
         12.9790067673
         13.0894117355
         13.2007551193
         13.313044548
         13.4262886047
         13.5404939651
         13.655670166
         13.7718248367
         13.888967514
         14.0071048737
         14.1262454987
         14.2463998795
         14.3675737381
         14.4897785187
         14.6130208969
         14.7373113632
         14.862657547
         14.9890680313
         15.1165542603
         15.2451229095
         15.3747835159
         15.5055465698
         15.6374206543
         15.7704153061
         15.904540062
         16.0398044586
         16.1762180328
         16.313791275
         16.4525337219
         16.5924549103
         16.7335643768
         16.8758735657
         17.0193920135
         17.1641311646
         17.3100986481
         17.4573059082
         17.605764389
         17.7554855347
         17.9064788818
         18.0587539673
         18.2123241425
         18.3671989441
         18.5233898163
         18.6809082031
         18.8397636414
         18.9999694824
         19.1615371704
         19.3244781494
         19.4888038635
         19.6545257568
         19.8216552734
         19.9902038574
         20.1601867676
         20.3316135406
         20.5044956207
         20.6788482666
         20.854681015
         21.0320091248
         21.2108440399
         21.3911991119
         21.5730857849
         21.7565174103
         21.9415092468
         22.1280727386
         22.3162212372
         22.5059680939
         22.6973266602
         22.8903121948
         23.0849380493
         23.2812175751
         23.4791641235
         23.6787948608
         23.8801193237
         24.0831565857
         24.2879180908
         24.4944190979
         24.7026748657
         24.9127006531
         25.1245117188
         25.3381214142
         25.5535469055
         25.7708034515
         25.989906311
         26.2108688354
         26.4337120056
         26.6584453583
         26.8850917816
         27.1136627197
         27.3441753387
         27.5766468048
         27.8110942841
         28.0475330353
         28.285982132
         28.5264568329
         28.7689743042
         29.0135536194
         29.2602100372
         29.5089626312
