aces_1.0.1/luts/V3_LogC_500_to_linear.spi1d
Version 1
From 0.000000 1.000000
Length 4096
Components 1
{
         -0.0168537572026
         -0.016809405759
         -0.016765056178
         -0.016720706597
         -0.0166763551533
         -0.0166320055723
         -0.0165876559913
         -0.0165433045477
         -0.0164989549667
         -0.0164546053857
         -0.016410253942
         -0.016365904361
         -0.01632155478
         -0.0162772033364
         -0.0162328537554
         -0.0161885041744
         -0.0161441545933
         -0.0160998031497
         -0.0160554535687
         -0.0160111039877
         -0.015966752544
         -0.015922402963
         -0.015878053382
         -0.0158337019384
         -0.0157893523574
         -0.0157450027764
         -0.0157006513327
         -0.0156563017517
         -0.0156119512394
         -0.0155676016584
         -0.0155232511461
         -0.0154789006338
         -0.0154345510527
         -0.0153902005404
         -0.0153458500281
         -0.0153015004471
         -0.0152571499348
         -0.0152127994224
         -0.0151684498414
         -0.0151240993291
         -0.0150797488168
         -0.0150353992358
         -0.0149910487235
         -0.0149466991425
         -0.0149023486301
         -0.0148579981178
         -0.0148136485368
         -0.0147692980245
         -0.0147249475121
         -0.0146805979311
         -0.0146362474188
         -0.0145918969065
         -0.0145475473255
         -0.0145031968132
         -0.0144588463008
         -0.0144144967198
         -0.0143701462075
         -0.0143257956952
         -0.0142814461142
         -0.0142370956019
         -0.0141927460209
         -0.0141483955085
         -0.0141040449962
         -0.0140596954152
         -0.0140153449029
         -0.0139709943905
         -0.0139266448095
         -0.0138822942972
         -0.0138379437849
         -0.0137935942039
         -0.0137492436916
         -0.0137048931792
         -0.0136605435982
         -0.0136161930859
         -0.0135718425736
         -0.0135274929926
         -0.0134831424803
         -0.0134387928993
         -0.0133944423869
         -0.0133500918746
         -0.0133057422936
         -0.0132613917813
         -0.0132170412689
         -0.0131726916879
         -0.0131283411756
         -0.0130839906633
         -0.0130396410823
         -0.01299529057
         -0.0129509400576
         -0.0129065904766
         -0.0128622399643
         -0.012817889452
         -0.012773539871
         -0.0127291893587
         -0.0126848388463
         -0.0126404892653
         -0.012596138753
         -0.012551789172
         -0.0125074386597
         -0.0124630881473
         -0.0124187385663
         -0.012374388054
         -0.0123300375417
         -0.0122856879607
         -0.0122413374484
         -0.012196986936
         -0.012152637355
         -0.0121082868427
         -0.0120639363304
         -0.0120195867494
         -0.011975236237
         -0.0119308857247
         -0.0118865361437
         -0.0118421856314
         -0.0117978360504
         -0.0117534855381
         -0.0117091350257
         -0.0116647854447
         -0.0116204349324
         -0.0115760844201
         -0.0115317348391
         -0.0114873843268
         -0.0114430338144
         -0.0113986842334
         -0.0113543337211
         -0.0113099832088
         -0.0112656336278
         -0.0112212831154
         -0.0111769326031
         -0.0111325830221
         -0.0110882325098
         -0.0110438829288
         -0.0109995324165
         -0.0109551819041
         -0.0109108323231
         -0.0108664818108
         -0.0108221312985
         -0.0107777817175
         -0.0107334312052
         -0.0106890806928
         -0.0106447311118
         -0.0106003805995
         -0.0105560300872
         -0.0105116805062
         -0.0104673299938
         -0.0104229794815
         -0.0103786299005
         -0.0103342793882
         -0.0102899288759
         -0.0102455792949
         -0.0102012287825
         -0.0101568792015
         -0.0101125286892
         -0.0100681781769
         -0.0100238285959
         -0.00997947808355
         -0.00993512757123
         -0.00989077799022
         -0.0098464274779
         -0.00980207696557
         -0.00975772738457
         -0.00971337687224
         -0.00966902635992
         -0.00962467677891
         -0.00958032626659
         -0.00953597575426
         -0.00949162617326
         -0.00944727566093
         -0.00940292607993
         -0.0093585755676
         -0.00931422505528
         -0.00926987547427
         -0.00922552496195
         -0.00918117444962
         -0.00913682486862
         -0.00909247435629
         -0.00904812384397
         -0.00900377426296
         -0.00895942375064
         -0.00891507323831
         -0.00887072365731
         -0.00882637314498
         -0.00878202263266
         -0.00873767305166
         -0.00869332253933
         -0.008648972027
         -0.008604622446
         -0.00856027193367
         -0.00851592235267
         -0.00847157184035
         -0.00842722132802
         -0.00838287174702
         -0.00833852123469
         -0.00829417072237
         -0.00824982114136
         -0.00820547062904
         -0.00816112011671
         -0.00811677053571
         -0.00807242002338
         -0.00802806951106
         -0.00798371993005
         -0.00793936941773
         -0.0078950189054
         -0.0078506693244
         -0.00780631881207
         -0.00776196876541
         -0.00771761871874
         -0.00767326820642
         -0.00762891815975
         -0.00758456811309
         -0.00754021806642
         -0.0074958675541
         -0.00745151750743
         -0.00740716746077
         -0.00736281694844
         -0.00731846690178
         -0.00727411685511
         -0.00722976680845
         -0.00718541629612
         -0.00714106624946
         -0.0070967162028
         -0.00705236569047
         -0.00700801564381
         -0.00696366559714
         -0.00691931508482
         -0.00687496503815
         -0.00683061499149
         -0.00678626494482
         -0.0067419144325
         -0.00669756438583
         -0.00665321433917
         -0.00660886382684
         -0.00656451378018
         -0.00652016373351
         -0.00647581322119
         -0.00643146317452
         -0.00638711312786
         -0.00634276308119
         -0.00629841256887
         -0.0062540625222
         -0.00620971247554
         -0.00616536196321
         -0.00612101191655
         -0.00607666186988
         -0.00603231182322
         -0.00598796131089
         -0.00594361126423
         -0.00589926121756
         -0.00585491070524
         -0.00581056065857
         -0.00576621061191
         -0.00572186009958
         -0.00567751005292
         -0.00563316000625
         -0.00558880995959
         -0.00554445944726
         -0.0055001094006
         -0.00545575935394
         -0.00541140884161
         -0.00536705879495
         -0.00532270874828
         -0.00527835823596
         -0.00523400818929
         -0.00518965814263
         -0.00514530809596
         -0.00510095758364
         -0.00505660753697
         -0.00501225749031
         -0.00496790697798
         -0.00492355693132
         -0.00487920688465
         -0.00483485683799
         -0.00479050632566
         -0.004746156279
         -0.00470180623233
         -0.00465745572001
         -0.00461310567334
         -0.00456875562668
         -0.00452440511435
         -0.00448005506769
         -0.00443570502102
         -0.00439135497436
         -0.00434700446203
         -0.00430265441537
         -0.0042583043687
         -0.00421395385638
         -0.00416960380971
         -0.00412525376305
         -0.00408090325072
         -0.00403655320406
         -0.0039922031574
         -0.00394785311073
         -0.00390350283124
         -0.00385915255174
         -0.00381480227225
         -0.00377045222558
         -0.00372610194609
         -0.00368175189942
         -0.00363740161993
         -0.00359305134043
         -0.00354870129377
         -0.00350435101427
         -0.00346000096761
         -0.00341565068811
         -0.00337130040862
         -0.00332695036195
         -0.00328260008246
         -0.00323825003579
         -0.0031938997563
         -0.0031495494768
         -0.00310519943014
         -0.00306084915064
         -0.00301649910398
         -0.00297214882448
         -0.00292779877782
         -0.00288344849832
         -0.00283909821883
         -0.00279474817216
         -0.00275039789267
         -0.002706047846
         -0.00266169756651
         -0.00261734728701
         -0.00257299724035
         -0.00252864696085
         -0.00248429691419
         -0.00243994663469
         -0.0023955963552
         -0.00235124630854
         -0.00230689602904
         -0.00226254598238
         -0.00221819570288
         -0.00217384542339
         -0.00212949537672
         -0.00208514509723
         -0.00204079505056
         -0.00199644477107
         -0.00195209460799
         -0.00190774444491
         -0.00186339428183
         -0.00181904400233
         -0.00177469383925
         -0.00173034367617
         -0.00168599351309
         -0.00164164335001
         -0.00159729307052
         -0.00155294290744
         -0.00150859274436
         -0.00146424258128
         -0.0014198924182
         -0.00137554225512
         -0.00133119197562
         -0.00128684181254
         -0.00124249164946
         -0.00119814148638
         -0.0011537913233
         -0.00110944104381
         -0.00106509088073
         -0.00102074071765
         -0.00097639055457
         -0.000932040333282
         -0.000887690170202
         -0.000843340007123
         -0.000798989785835
         -0.000754639622755
         -0.000710289401468
         -0.000665939238388
         -0.000621589075308
         -0.000577238854021
         -0.000532888690941
         -0.000488538527861
         -0.000444188335678
         -0.000399838143494
         -0.00035548795131
         -0.000311137759127
         -0.000266787596047
         -0.000222437403863
         -0.00017808721168
         -0.000133737034048
         -8.93868418643e-05
         -4.50366605946e-05
         -6.86474436407e-07
         4.36637092207e-05
         8.80138977664e-05
         0.000132364075398
         0.000176714267582
         0.000221064445213
         0.000265414622845
         0.000309764815029
         0.000354115007212
         0.000398465199396
         0.000442815362476
         0.000487165554659
         0.000531515746843
         0.000575865909923
         0.00062021613121
         0.00066456629429
         0.00070891645737
         0.000753266678657
         0.000797616841737
         0.000841967063025
         0.000886317226104
         0.000930667389184
         0.000975017610472
         0.00101936783176
         0.00106371799484
         0.00110806815792
         0.001152418321
         0.00119676848408
         0.00124111864716
         0.00128546892665
         0.00132981908973
         0.00137416925281
         0.00141851941589
         0.00146286957897
         0.00150721985847
         0.00155157002155
         0.00159592018463
         0.00164027034771
         0.00168462051079
         0.00172897067387
         0.00177332095336
         0.00181767111644
         0.00186202127952
         0.0019063714426
         0.00195072160568
         0.00199507176876
         0.00203942204826
         0.00208377209492
         0.00212812237442
         0.00217247265391
         0.00221682270057
         0.00226117298007
         0.00230552302673
         0.00234987330623
         0.00239422358572
         0.00243857363239
         0.00248292391188
         0.00252727395855
         0.00257162423804
         0.00261597451754
         0.0026603245642
         0.0027046748437
         0.00274902489036
         0.00279337516986
         0.00283772544935
         0.00288207549602
         0.00292642577551
         0.00297077582218
         0.00301512610167
         0.00305947638117
         0.00310382642783
         0.00314817670733
         0.00319252675399
         0.00323687703349
         0.00328122708015
         0.00332557735965
         0.00336992763914
         0.00341427768581
         0.0034586279653
         0.00350297801197
         0.00354732829146
         0.00359167857096
         0.00363602861762
         0.00368037889712
         0.00372472894378
         0.00376907922328
         0.00381342950277
         0.00385777954943
         0.00390212982893
         0.00394647987559
         0.00399082992226
         0.00403518043458
         0.00407953048125
         0.00412388052791
         0.00416823104024
         0.0042125810869
         0.00425693113357
         0.00430128164589
         0.00434563169256
         0.00438998173922
         0.00443433178589
         0.00447868229821
         0.00452303234488
         0.00456738239154
         0.00461173290387
         0.00465608295053
         0.0047004329972
         0.00474478350952
         0.00478913355619
         0.00483348360285
         0.00487783364952
         0.00492218416184
         0.00496653420851
         0.00501088425517
         0.0050552347675
         0.00509958481416
         0.00514393486083
         0.00518828490749
         0.00523263541982
         0.00527698546648
         0.00532133551314
         0.00536568602547
         0.00541003607213
         0.0054543861188
         0.00549873663113
         0.00554308667779
         0.00558743672445
         0.00563178677112
         0.00567613728344
         0.00572048733011
         0.00576483737677
         0.0058091878891
         0.00585353793576
         0.00589788798243
         0.00594223849475
         0.00598658854142
         0.00603093858808
         0.00607528863475
         0.00611963914707
         0.00616398919374
         0.0062083392404
         0.00625268975273
         0.00629703979939
         0.00634138984606
         0.00638573989272
         0.00643009040505
         0.00647444045171
         0.00651879049838
         0.0065631410107
         0.00660749105737
         0.00665184110403
         0.00669619161636
         0.00674054166302
         0.00678489170969
         0.00682924175635
         0.00687359226868
         0.00691794231534
         0.006962292362
         0.00700664287433
         0.00705099292099
         0.00709534296766
         0.00713969347998
         0.00718404352665
         0.00722839357331
         0.00727274361998
         0.0073170941323
         0.00736144417897
         0.00740579422563
         0.00745014473796
         0.00749449478462
         0.00753884483129
         0.00758319487795
         0.00762754539028
         0.00767189543694
         0.00771624548361
         0.00776059599593
         0.0078049460426
         0.00784929655492
         0.00789364613593
         0.00793799664825
         0.00798234716058
         0.00802669674158
         0.00807104725391
         0.00811539776623
         0.00815974734724
         0.00820409785956
         0.00824844744056
         0.00829279795289
         0.00833714846522
         0.00838149804622
         0.00842584855855
         0.00847019907087
         0.00851454865187
         0.0085588991642
         0.00860324967653
         0.00864759925753
         0.00869194976985
         0.00873630028218
         0.00878064986318
         0.00882500037551
         0.00886935088784
         0.00891370046884
         0.00895805098116
         0.00900240056217
         0.00904675759375
         0.00909119192511
         0.00913572497666
         0.0091803567484
         0.00922508724034
         0.00926991738379
         0.00931484717876
         0.00935987662524
         0.00940500665456
         0.0094502363354
         0.00949556566775
         0.00954099651426
         0.00958652794361
         0.00963216088712
         0.00967789441347
         0.0097237303853
         0.0097696678713
         0.00981570687145
         0.00986184831709
         0.00990809220821
         0.00995443854481
         0.0100008873269
         0.0100474404171
         0.0100940959528
         0.0101408557966
         0.0101877190173
         0.0102346856147
         0.0102817574516
         0.0103289335966
         0.0103762140498
         0.0104235997424
         0.0104710906744
         0.0105186868459
         0.0105663891882
         0.0106141967699
         0.0106621105224
         0.010710131377
         0.0107582584023
         0.0108064915985
         0.010854832828
         0.0109032811597
         0.0109518365934
         0.0110005000606
         0.0110492724925
         0.0110981520265
         0.0111471405253
         0.0111962370574
         0.0112454434857
         0.0112947588786
         0.0113441841677
         0.0113937184215
         0.0114433625713
         0.0114931175485
         0.0115429824218
         0.0115929590538
         0.0116430455819
         0.0116932438686
         0.0117435529828
         0.0117939738557
         0.0118445074186
         0.0118951527402
         0.0119459098205
         0.0119967805222
         0.0120477639139
         0.0120988599956
         0.01215007063
         0.0122013939545
         0.0122528309003
         0.01230438333
         0.0123560493812
         0.012407829985
         0.0124597260728
         0.0125117367133
         0.0125638637692
         0.0126161053777
         0.0126684634015
         0.0127209378406
         0.0127735286951
         0.0128262368962
         0.0128790615126
         0.0129320034757
         0.0129850627854
         0.0130382403731
         0.0130915353075
         0.0131449494511
         0.0131984809414
         0.0132521325722
         0.0133059024811
         0.0133597915992
         0.013413800858
         0.0134679302573
         0.0135221797973
         0.0135765485466
         0.0136310392991
         0.0136856511235
         0.0137403830886
         0.0137952370569
         0.0138502130285
         0.0139053110033
         0.0139605309814
         0.0140158738941
         0.0140713397413
         0.0141269285232
         0.0141826402396
         0.0142384758219
         0.0142944362015
         0.0143505204469
         0.0144067285582
         0.0144630623981
         0.0145195201039
         0.0145761044696
         0.0146328136325
         0.0146896485239
         0.0147466100752
         0.0148036973551
         0.0148609122261
         0.0149182537571
         0.0149757228792
         0.0150333195925
         0.015091043897
         0.0151488957927
         0.0152068771422
         0.0152649870142
         0.0153232254088
         0.0153815932572
         0.0154400905594
         0.0154987182468
         0.0155574753881
         0.0156163638458
         0.0156753826886
         0.0157345309854
         0.0157938133925
         0.0158532261848
         0.0159127693623
         0.0159724466503
         0.016032256186
         0.0160921979696
         0.0161522720009
         0.0162124801427
         0.016272822395
         0.0163332987577
         0.0163939092308
         0.0164546538144
         0.0165155343711
         0.0165765490383
         0.0166376996785
         0.0166989844292
         0.0167604070157
         0.0168219655752
         0.0168836601079
         0.0169454924762
         0.0170074608177
         0.0170695688576
         0.0171318128705
         0.0171941965818
         0.0172567181289
         0.0173193775117
         0.0173821765929
         0.0174451153725
         0.0175081938505
         0.0175714120269
         0.0176347717643
         0.0176982712001
         0.0177619121969
         0.0178256928921
         0.017889617011
         0.0179536808282
         0.0180178899318
         0.0180822387338
         0.0181467328221
         0.0182113684714
         0.0182761475444
         0.0183410700411
         0.0184061378241
         0.0184713508934
         0.0185367073864
         0.0186022091657
         0.0186678562313
         0.0187336485833
         0.0187995880842
         0.0188656728715
         0.0189319048077
         0.0189982838929
         0.019064810127
         0.0191314835101
         0.0191983059049
         0.0192652773112
         0.0193323958665
         0.0193996634334
         0.0194670818746
         0.0195346493274
         0.0196023657918
         0.0196702331305
         0.0197382513434
         0.0198064204305
         0.019874740392
         0.0199432130903
         0.0200118366629
         0.020080614835
         0.0201495438814
         0.0202186256647
         0.0202878601849
         0.0203572493047
         0.0204267930239
         0.0204964913428
         0.0205663442612
         0.0206363517791
         0.0207065138966
         0.0207768324763
         0.0208473075181
         0.0209179390222
         0.0209887269884
         0.0210596714169
         0.0211307741702
         0.0212020352483
         0.0212734527886
         0.0213450305164
         0.021416766569
         0.0214886628091
         0.0215607173741
         0.0216329321265
         0.0217053070664
         0.0217778440565
         0.021850541234
         0.021923398599
         0.0219964180142
         0.0220696013421
         0.0221429448575
         0.0222164522856
         0.0222901236266
         0.0223639588803
         0.0224379561841
         0.0225121192634
         0.0225864462554
         0.0226609371603
         0.0227355957031
         0.0228104181588
         0.0228854082525
         0.022960562259
         0.0230358857661
         0.0231113750488
         0.0231870319694
         0.0232628583908
         0.0233388524503
         0.0234150141478
         0.023491345346
         0.0235678460449
         0.0236445181072
         0.0237213578075
         0.0237983688712
         0.0238755512983
         0.0239529050887
         0.0240304321051
         0.0241081286222
         0.0241859983653
         0.0242640413344
         0.0243422593921
         0.0244206488132
         0.0244992114604
         0.0245779510587
         0.0246568638831
         0.0247359517962
         0.0248152166605
         0.0248946566135
         0.0249742716551
         0.0250540655106
         0.0251340344548
         0.0252141822129
         0.025294508785
         0.0253750123084
         0.0254556946456
         0.0255365557969
         0.0256175976247
         0.0256988182664
         0.0257802195847
         0.0258618015796
         0.0259435661137
         0.0260255094618
         0.0261076372117
         0.0261899456382
         0.0262724366039
         0.0263551119715
         0.0264379698783
         0.026521012187
         0.0266042388976
         0.02668765001
         0.0267712473869
         0.0268550291657
         0.0269389972091
         0.0270231515169
         0.0271074939519
         0.0271920226514
         0.0272767394781
         0.0273616425693
         0.0274467356503
         0.0275320168585
         0.0276174880564
         0.0277031492442
         0.0277890004218
         0.0278750415891
         0.027961274609
         0.0280476976186
         0.0281343143433
         0.0282211229205
         0.0283081233501
         0.0283953174949
         0.0284827053547
         0.0285702869296
         0.0286580622196
         0.0287460330874
         0.0288341995329
         0.0289225615561
         0.0290111191571
         0.0290998741984
         0.0291888248175
         0.0292779747397
         0.0293673221022
         0.0294568669051
         0.029546611011
         0.02963655442
         0.029726697132
         0.0298170410097
         0.0299075841904
         0.0299983285367
         0.0300892759115
         0.0301804244518
         0.0302717741579
         0.0303633268923
         0.0304550845176
         0.0305470433086
         0.0306392088532
         0.0307315774262
         0.0308241508901
         0.0309169311076
         0.0310099162161
         0.0311031080782
         0.031196506694
         0.0312901139259
         0.0313839279115
         0.0314779505134
         0.0315721817315
         0.0316666215658
