aces_1.0.2/luts/ACESproxy_to_linear.spi1d
Version 1
From 0.000000 1.000000
Length 4096
Components 1
{
         0.00048828125
         0.00048828125
         0.00048828125
         0.00048828125
         0.00048828125
         0.000495097483508
         0.000495097483508
         0.000495097483508
         0.000495097483508
         0.000502008828335
         0.000502008828335
         0.000502008828335
         0.000502008828335
         0.000509016681463
         0.000509016681463
         0.000509016681463
         0.000509016681463
         0.00051612209063
         0.00051612209063
         0.00051612209063
         0.00051612209063
         0.000523327151313
         0.000523327151313
         0.000523327151313
         0.000523327151313
         0.000530632212758
         0.000530632212758
         0.000530632212758
         0.000530632212758
         0.000538039719686
         0.000538039719686
         0.000538039719686
         0.000538039719686
         0.000545550254174
         0.000545550254174
         0.000545550254174
         0.000545550254174
         0.00055316608632
         0.00055316608632
         0.00055316608632
         0.00055316608632
         0.000560887798201
         0.000560887798201
         0.000560887798201
         0.000560887798201
         0.000568717718124
         0.000568717718124
         0.000568717718124
         0.000568717718124
         0.000576656486373
         0.000576656486373
         0.000576656486373
         0.000576656486373
         0.000584706431255
         0.000584706431255
         0.000584706431255
         0.000584706431255
         0.000592868484091
         0.000592868484091
         0.000592868484091
         0.000592868484091
         0.000601144798566
         0.000601144798566
         0.000601144798566
         0.000601144798566
         0.000609536189586
         0.000609536189586
         0.000609536189586
         0.000609536189586
         0.000618045218289
         0.000618045218289
         0.000618045218289
         0.000618045218289
         0.000626672757789
         0.000626672757789
         0.000626672757789
         0.000626672757789
         0.000635420903563
         0.000635420903563
         0.000635420903563
         0.000635420903563
         0.000644290819764
         0.000644290819764
         0.000644290819764
         0.000644290819764
         0.000653284951113
         0.000653284951113
         0.000653284951113
         0.000653284951113
         0.000662404287141
         0.000662404287141
         0.000662404287141
         0.000662404287141
         0.000671651388984
         0.000671651388984
         0.000671651388984
         0.000671651388984
         0.00068102707155
         0.00068102707155
         0.00068102707155
         0.00068102707155
         0.000690533895977
         0.000690533895977
         0.000690533895977
         0.000690533895977
         0.000700173666701
         0.000700173666701
         0.000700173666701
         0.000700173666701
         0.000709947489668
         0.000709947489668
         0.000709947489668
         0.000709947489668
         0.000719857809599
         0.000719857809599
         0.000719857809599
         0.000719857809599
         0.000729906896595
         0.000729906896595
         0.000729906896595
         0.000729906896595
         0.000740096205845
         0.000740096205845
         0.000740096205845
         0.000740096205845
         0.000750427192543
         0.000750427192543
         0.000750427192543
         0.000750427192543
         0.000760902534239
         0.000760902534239
         0.000760902534239
         0.000760902534239
         0.000771524617448
         0.000771524617448
         0.000771524617448
         0.000771524617448
         0.000782294897363
         0.000782294897363
         0.000782294897363
         0.000782294897363
         0.000793215062004
         0.000793215062004
         0.000793215062004
         0.000793215062004
         0.000804287614301
         0.000804287614301
         0.000804287614301
         0.000804287614301
         0.000815515290014
         0.000815515290014
         0.000815515290014
         0.000815515290014
         0.000826899893582
         0.000826899893582
         0.000826899893582
         0.000826899893582
         0.000838443229441
         0.000838443229441
         0.000838443229441
         0.000838443229441
         0.000850147160236
         0.000850147160236
         0.000850147160236
         0.000850147160236
         0.000862014654558
         0.000862014654558
         0.000862014654558
         0.000862014654558
         0.000874048098922
         0.000874048098922
         0.000874048098922
         0.000874048098922
         0.000886249472387
         0.000886249472387
         0.000886249472387
         0.000886249472387
         0.000898620928638
         0.000898620928638
         0.000898620928638
         0.000898620928638
         0.000911164912395
         0.000911164912395
         0.000911164912395
         0.000911164912395
         0.000923884566873
         0.000923884566873
         0.000923884566873
         0.000923884566873
         0.000936781754717
         0.000936781754717
         0.000936781754717
         0.000936781754717
         0.000949858454987
         0.000949858454987
         0.000949858454987
         0.000949858454987
         0.000963117578067
         0.000963117578067
         0.000963117578067
         0.000963117578067
         0.0009765625
         0.0009765625
         0.0009765625
         0.0009765625
         0.000990194967017
         0.000990194967017
         0.000990194967017
         0.000990194967017
         0.00100401765667
         0.00100401765667
         0.00100401765667
         0.00100401765667
         0.00101803266443
         0.00101803266443
         0.00101803266443
         0.00101803266443
         0.00103224418126
         0.00103224418126
         0.00103224418126
         0.00103224418126
         0.00104665430263
         0.00104665430263
         0.00104665430263
         0.00104665430263
         0.00106126442552
         0.00106126442552
         0.00106126442552
         0.00106126442552
         0.00107607862446
         0.00107607862446
         0.00107607862446
         0.00107607862446
         0.00109110050835
         0.00109110050835
         0.00109110050835
         0.00109110050835
         0.00110633217264
         0.00110633217264
         0.00110633217264
         0.00110633217264
         0.0011217755964
         0.0011217755964
         0.0011217755964
         0.0011217755964
         0.00113743462134
         0.00113743462134
         0.00113743462134
         0.00113743462134
         0.00115331297275
         0.00115331297275
         0.00115331297275
         0.00115331297275
         0.00116941286251
         0.00116941286251
         0.00116941286251
         0.00116941286251
         0.00118573778309
         0.00118573778309
         0.00118573778309
         0.00118573778309
         0.00120228959713
         0.00120228959713
         0.00120228959713
         0.00120228959713
         0.00121907237917
         0.00121907237917
         0.00121907237917
         0.00121907237917
         0.00123609043658
         0.00123609043658
         0.00123609043658
         0.00123609043658
         0.00125334621407
         0.00125334621407
         0.00125334621407
         0.00125334621407
         0.00127084180713
         0.00127084180713
         0.00127084180713
         0.00127084180713
         0.00128858163953
         0.00128858163953
         0.00128858163953
         0.00128858163953
         0.00130656990223
         0.00130656990223
         0.00130656990223
         0.00130656990223
         0.00132480938919
         0.00132480938919
         0.00132480938919
         0.00132480938919
         0.00134330277797
         0.00134330277797
         0.00134330277797
         0.00134330277797
         0.0013620541431
         0.0013620541431
         0.0013620541431
         0.0013620541431
         0.00138106779195
         0.00138106779195
         0.00138106779195
         0.00138106779195
         0.0014003473334
         0.0014003473334
         0.0014003473334
         0.0014003473334
         0.00141989497934
         0.00141989497934
         0.00141989497934
         0.00141989497934
         0.0014397156192
         0.0014397156192
         0.0014397156192
         0.0014397156192
         0.00145981379319
         0.00145981379319
         0.00145981379319
         0.00145981379319
         0.00148019241169
         0.00148019241169
         0.00148019241169
         0.00148019241169
         0.00150085438509
         0.00150085438509
         0.00150085438509
         0.00150085438509
         0.00152180506848
         0.00152180506848
         0.00152180506848
         0.00152180506848
         0.0015430492349
         0.0015430492349
         0.0015430492349
         0.0015430492349
         0.00156458979473
         0.00156458979473
         0.00156458979473
         0.00156458979473
         0.00158643012401
         0.00158643012401
         0.00158643012401
         0.00158643012401
         0.0016085752286
         0.0016085752286
         0.0016085752286
         0.0016085752286
         0.00163103058003
         0.00163103058003
         0.00163103058003
         0.00163103058003
         0.00165379978716
         0.00165379978716
         0.00165379978716
         0.00165379978716
         0.00167688645888
         0.00167688645888
         0.00167688645888
         0.00167688645888
         0.00170029432047
         0.00170029432047
         0.00170029432047
         0.00170029432047
         0.00172402930912
         0.00172402930912
         0.00172402930912
         0.00172402930912
         0.00174809619784
         0.00174809619784
         0.00174809619784
         0.00174809619784
         0.00177249894477
         0.00177249894477
         0.00177249894477
         0.00177249894477
         0.00179724185728
         0.00179724185728
         0.00179724185728
         0.00179724185728
         0.00182232982479
         0.00182232982479
         0.00182232982479
         0.00182232982479
         0.00184776913375
         0.00184776913375
         0.00184776913375
         0.00184776913375
         0.00187356350943
         0.00187356350943
         0.00187356350943
         0.00187356350943
         0.00189971690997
         0.00189971690997
         0.00189971690997
         0.00189971690997
         0.00192623515613
         0.00192623515613
         0.00192623515613
         0.00192623515613
         0.001953125
         0.001953125
         0.001953125
         0.001953125
         0.00198038993403
         0.00198038993403
         0.00198038993403
         0.00198038993403
         0.00200803531334
         0.00200803531334
         0.00200803531334
         0.00200803531334
         0.00203606532887
         0.00203606532887
         0.00203606532887
         0.00203606532887
         0.00206448836252
         0.00206448836252
         0.00206448836252
         0.00206448836252
         0.00209330860525
         0.00209330860525
         0.00209330860525
         0.00209330860525
         0.00212252885103
         0.00212252885103
         0.00212252885103
         0.00212252885103
         0.00215215724893
         0.00215215724893
         0.00215215724893
         0.00215215724893
         0.00218220101669
         0.00218220101669
         0.00218220101669
         0.00218220101669
         0.00221266434528
         0.00221266434528
         0.00221266434528
         0.00221266434528
         0.00224355119281
         0.00224355119281
         0.00224355119281
         0.00224355119281
         0.00227486924268
         0.00227486924268
         0.00227486924268
         0.00227486924268
         0.00230662594549
         0.00230662594549
         0.00230662594549
         0.00230662594549
         0.00233882572502
         0.00233882572502
         0.00233882572502
         0.00233882572502
         0.00237147556618
         0.00237147556618
         0.00237147556618
         0.00237147556618
         0.00240457919426
         0.00240457919426
         0.00240457919426
         0.00240457919426
         0.00243814475834
         0.00243814475834
         0.00243814475834
         0.00243814475834
         0.00247218087316
         0.00247218087316
         0.00247218087316
         0.00247218087316
         0.00250669242814
         0.00250669242814
         0.00250669242814
         0.00250669242814
         0.00254168361425
         0.00254168361425
         0.00254168361425
         0.00254168361425
         0.00257716327906
         0.00257716327906
         0.00257716327906
         0.00257716327906
         0.00261313980445
         0.00261313980445
         0.00261313980445
         0.00261313980445
         0.00264961877838
         0.00264961877838
         0.00264961877838
         0.00264961877838
         0.00268660555594
         0.00268660555594
         0.00268660555594
         0.00268660555594
         0.0027241082862
         0.0027241082862
         0.0027241082862
         0.0027241082862
         0.00276213558391
         0.00276213558391
         0.00276213558391
         0.00276213558391
         0.0028006946668
         0.0028006946668
         0.0028006946668
         0.0028006946668
         0.00283978995867
         0.00283978995867
         0.00283978995867
         0.00283978995867
         0.0028794312384
         0.0028794312384
         0.0028794312384
         0.0028794312384
         0.00291962758638
         0.00291962758638
         0.00291962758638
         0.00291962758638
         0.00296038482338
         0.00296038482338
         0.00296038482338
         0.00296038482338
         0.00300170877017
         0.00300170877017
         0.00300170877017
         0.00300170877017
         0.00304361013696
         0.00304361013696
         0.00304361013696
         0.00304361013696
         0.00308609846979
         0.00308609846979
         0.00308609846979
         0.00308609846979
         0.00312917958945
         0.00312917958945
         0.00312917958945
         0.00312917958945
         0.00317286024801
         0.00317286024801
         0.00317286024801
         0.00317286024801
         0.0032171504572
         0.0032171504572
         0.0032171504572
         0.0032171504572
         0.00326206116006
         0.00326206116006
         0.00326206116006
         0.00326206116006
         0.00330759957433
         0.00330759957433
         0.00330759957433
         0.00330759957433
         0.00335377291776
         0.00335377291776
         0.00335377291776
         0.00335377291776
         0.00340058864094
         0.00340058864094
         0.00340058864094
         0.00340058864094
         0.00344805861823
         0.00344805861823
         0.00344805861823
         0.00344805861823
         0.00349619239569
         0.00349619239569
         0.00349619239569
         0.00349619239569
         0.00354499788955
         0.00354499788955
         0.00354499788955
         0.00354499788955
         0.00359448371455
         0.00359448371455
         0.00359448371455
         0.00359448371455
         0.00364465964958
         0.00364465964958
         0.00364465964958
         0.00364465964958
         0.00369553826749
         0.00369553826749
         0.00369553826749
         0.00369553826749
         0.00374712701887
         0.00374712701887
         0.00374712701887
         0.00374712701887
         0.00379943381995
         0.00379943381995
         0.00379943381995
         0.00379943381995
         0.00385247031227
         0.00385247031227
         0.00385247031227
         0.00385247031227
         0.00390625
         0.00390625
         0.00390625
         0.00390625
         0.00396077940241
         0.00396077940241
         0.00396077940241
         0.00396077940241
         0.00401607062668
         0.00401607062668
         0.00401607062668
         0.00401607062668
         0.00407213158906
         0.00407213158906
         0.00407213158906
         0.00407213158906
         0.00412897672504
         0.00412897672504
         0.00412897672504
         0.00412897672504
         0.00418661441654
         0.00418661441654
         0.00418661441654
         0.00418661441654
         0.00424505770206
         0.00424505770206
         0.00424505770206
         0.00424505770206
         0.0043043163605
         0.0043043163605
         0.0043043163605
         0.0043043163605
         0.00436440203339
         0.00436440203339
         0.00436440203339
         0.00436440203339
         0.00442532682791
         0.00442532682791
         0.00442532682791
         0.00442532682791
         0.00448710238561
         0.00448710238561
         0.00448710238561
         0.00448710238561
         0.00454973941669
         0.00454973941669
         0.00454973941669
         0.00454973941669
         0.00461325189099
         0.00461325189099
         0.00461325189099
         0.00461325189099
         0.00467765145004
         0.00467765145004
         0.00467765145004
         0.00467765145004
         0.00474294880405
         0.00474294880405
         0.00474294880405
         0.00474294880405
         0.00480915838853
         0.00480915838853
         0.00480915838853
         0.00480915838853
         0.00487629137933
         0.00487629137933
         0.00487629137933
         0.00487629137933
         0.00494436174631
         0.00494436174631
         0.00494436174631
         0.00494436174631
         0.00501338252798
         0.00501338252798
         0.00501338252798
         0.00501338252798
         0.00508336722851
         0.00508336722851
         0.00508336722851
         0.00508336722851
         0.00515432842076
         0.00515432842076
         0.00515432842076
         0.00515432842076
         0.00522627960891
         0.00522627960891
         0.00522627960891
         0.00522627960891
         0.00529923615977
         0.00529923615977
         0.00529923615977
         0.00529923615977
         0.00537321111187
         0.00537321111187
         0.00537321111187
         0.00537321111187
         0.00544821703807
         0.00544821703807
         0.00544821703807
         0.00544821703807
         0.00552427116781
         0.00552427116781
         0.00552427116781
         0.00552427116781
         0.00560138793662
         0.00560138793662
         0.00560138793662
         0.00560138793662
         0.00567957991734
         0.00567957991734
         0.00567957991734
         0.00567957991734
         0.00575886387378
         0.00575886387378
         0.00575886387378
         0.00575886387378
         0.00583925517276
         0.00583925517276
         0.00583925517276
         0.00583925517276
         0.0059207668528
         0.0059207668528
         0.0059207668528
         0.0059207668528
         0.00600341754034
         0.00600341754034
         0.00600341754034
         0.00600341754034
         0.00608722213656
         0.00608722213656
         0.00608722213656
         0.00608722213656
         0.00617219693959
         0.00617219693959
         0.00617219693959
         0.00617219693959
         0.00625835731626
         0.00625835731626
         0.00625835731626
         0.00625835731626
         0.00634572049603
         0.00634572049603
         0.00634572049603
         0.00634572049603
         0.00643430417404
         0.00643430417404
         0.00643430417404
         0.00643430417404
         0.00652412232012
         0.00652412232012
         0.00652412232012
         0.00652412232012
         0.00661519914865
         0.00661519914865
         0.00661519914865
         0.00661519914865
         0.00670754350722
         0.00670754350722
         0.00670754350722
         0.00670754350722
         0.00680117728189
         0.00680117728189
         0.00680117728189
         0.00680117728189
         0.00689611863345
         0.00689611863345
         0.00689611863345
         0.00689611863345
         0.00699238479137
         0.00699238479137
         0.00699238479137
         0.00699238479137
         0.00708999391645
         0.00708999391645
         0.00708999391645
         0.00708999391645
         0.0071889674291
         0.0071889674291
         0.0071889674291
         0.0071889674291
         0.00728932069615
         0.00728932069615
         0.00728932069615
         0.00728932069615
         0.00739107653499
         0.00739107653499
         0.00739107653499
         0.00739107653499
         0.00749425124377
         0.00749425124377
         0.00749425124377
         0.00749425124377
         0.0075988676399
         0.0075988676399
         0.0075988676399
         0.0075988676399
         0.0077049434185
         0.0077049434185
         0.0077049434185
         0.0077049434185
         0.0078125
         0.0078125
         0.0078125
         0.0078125
         0.00792155880481
         0.00792155880481
         0.00792155880481
         0.00792155880481
         0.00803214125335
         0.00803214125335
         0.00803214125335
         0.00803214125335
         0.00814426317811
         0.00814426317811
         0.00814426317811
         0.00814426317811
         0.00825795345008
         0.00825795345008
         0.00825795345008
         0.00825795345008
         0.00837322883308
         0.00837322883308
         0.00837322883308
         0.00837322883308
         0.00849011540413
         0.00849011540413
         0.00849011540413
         0.00849011540413
         0.00860863272101
         0.00860863272101
         0.00860863272101
         0.00860863272101
         0.00872880406678
         0.00872880406678
         0.00872880406678
         0.00872880406678
         0.00885065365583
         0.00885065365583
         0.00885065365583
         0.00885065365583
         0.00897420477122
         0.00897420477122
         0.00897420477122
         0.00897420477122
         0.00909947883338
         0.00909947883338
         0.00909947883338
         0.00909947883338
         0.00922650378197
         0.00922650378197
         0.00922650378197
         0.00922650378197
         0.00935530290008
         0.00935530290008
         0.00935530290008
         0.00935530290008
         0.0094858976081
         0.0094858976081
         0.0094858976081
         0.0094858976081
         0.00961831677705
         0.00961831677705
         0.00961831677705
         0.00961831677705
         0.00975258275867
         0.00975258275867
         0.00975258275867
         0.00975258275867
         0.00988872349262
         0.00988872349262
         0.00988872349262
         0.00988872349262
         0.010026765056
         0.010026765056
         0.010026765056
         0.010026765056
         0.010166734457
         0.010166734457
         0.010166734457
         0.010166734457
         0.0103086568415
         0.0103086568415
         0.0103086568415
         0.0103086568415
         0.0104525592178
         0.0104525592178
         0.0104525592178
         0.0104525592178
         0.0105984723195
         0.0105984723195
         0.0105984723195
         0.0105984723195
         0.0107464222237
         0.0107464222237
         0.0107464222237
         0.0107464222237
         0.0108964340761
         0.0108964340761
         0.0108964340761
         0.0108964340761
         0.0110485423356
         0.0110485423356
         0.0110485423356
         0.0110485423356
         0.0112027758732
         0.0112027758732
         0.0112027758732
         0.0112027758732
         0.0113591598347
         0.0113591598347
         0.0113591598347
         0.0113591598347
         0.0115177277476
         0.0115177277476
         0.0115177277476
         0.0115177277476
         0.0116785103455
         0.0116785103455
         0.0116785103455
         0.0116785103455
         0.0118415337056
