aces_1.0.2/luts/ADX_CID_to_RLE.spi1d
Version 1
From -0.190000 3.000000
Length 4096
Components 1
{
         -6.0
         -5.98723111414
         -5.97446222827
         -5.96169334241
         -5.94892445654
         -5.93615557068
         -5.92338668482
         -5.91061779895
         -5.89784891309
         -5.88508002723
         -5.87231114136
         -5.8595422555
         -5.84677336963
         -5.83400448377
         -5.82123559791
         -5.80846671204
         -5.79569782618
         -5.78292894032
         -5.77016005445
         -5.75739116859
         -5.74462228272
         -5.73185339686
         -5.719084511
         -5.70631562513
         -5.69354673927
         -5.68077785341
         -5.66800896754
         -5.65524008168
         -5.64247119581
         -5.62970230995
         -5.61693342409
         -5.60416453822
         -5.59139565236
         -5.57862676649
         -5.56585788063
         -5.55308899477
         -5.5403201089
         -5.52755122304
         -5.51478233718
         -5.50201345131
         -5.48924456545
         -5.47647567958
         -5.46370679372
         -5.45093790786
         -5.43816902199
         -5.42540013613
         -5.41263125027
         -5.3998623644
         -5.38709347854
         -5.37432459267
         -5.36155570681
         -5.34878682095
         -5.33601793508
         -5.32324904922
         -5.31048016335
         -5.29771127749
         -5.28494239163
         -5.27217350576
         -5.2594046199
         -5.24663573404
         -5.23386684817
         -5.22109796231
         -5.20832907644
         -5.19556019058
         -5.18279130472
         -5.17002241885
         -5.15725353299
         -5.14448464713
         -5.13171576126
         -5.1189468754
         -5.10617798953
         -5.09340910367
         -5.08064021781
         -5.06787133194
         -5.05510244608
         -5.04233356022
         -5.02956467435
         -5.01679578849
         -5.00402690262
         -4.99125801676
         -4.9784891309
         -4.96572024503
         -4.95295135917
         -4.9401824733
         -4.92741358744
         -4.91464470158
         -4.90187581571
         -4.88910692985
         -4.87633804399
         -4.86356915812
         -4.85080027226
         -4.83803138639
         -4.82526250053
         -4.81249361467
         -4.7997247288
         -4.78695584294
         -4.77418695708
         -4.76141807121
         -4.74864918535
         -4.73588029948
         -4.72311141362
         -4.71034252776
         -4.69757364189
         -4.68480475603
         -4.67203587017
         -4.6592669843
         -4.64649809844
         -4.63372921257
         -4.62096032671
         -4.60819144085
         -4.59542255498
         -4.58265366912
         -4.56988478325
         -4.55711589739
         -4.54434701153
         -4.53157812566
         -4.5188092398
         -4.50604035394
         -4.49327146807
         -4.48050258221
         -4.46773369634
         -4.45496481048
         -4.44219592462
         -4.42942703875
         -4.41665815289
         -4.40388926703
         -4.39112038116
         -4.3783514953
         -4.36558260943
         -4.35281372357
         -4.34004483771
         -4.32727595184
         -4.31450706598
         -4.30173818011
         -4.28896929425
         -4.27620040839
         -4.26343152252
         -4.25066263666
         -4.2378937508
         -4.22512486493
         -4.21235597907
         -4.1995870932
         -4.18681820734
         -4.17404932148
         -4.16128043561
         -4.14851154975
         -4.13574266389
         -4.12297377802
         -4.11020489216
         -4.09743600629
         -4.08466712043
         -4.07189823457
         -4.0591293487
         -4.04636046284
         -4.03359157698
         -4.02082269111
         -4.00805380525
         -3.99528491938
         -3.98251603352
         -3.96974714766
         -3.95697826179
         -3.94420937593
         -3.93144049006
         -3.9186716042
         -3.90590271834
         -3.89313383247
         -3.88036494661
         -3.86759606075
         -3.85482717488
         -3.84205828902
         -3.82928940315
         -3.81652051729
         -3.80375163143
         -3.79098274556
         -3.7782138597
         -3.76544497384
         -3.75267608797
         -3.73990720211
         -3.72713831624
         -3.71436943038
         -3.70160054452
         -3.68883165865
         -3.67606277279
         -3.66329388693
         -3.65052500106
         -3.6377561152
         -3.62498722933
         -3.61221834347
         -3.59944945761
         -3.58668057174
         -3.57391168588
         -3.56114280001
         -3.54837391415
         -3.53560502829
         -3.52283614242
         -3.51006725656
         -3.4972983707
         -3.48452948483
         -3.47176059897
         -3.4589917131
         -3.44622282724
         -3.43345394138
         -3.42068505551
         -3.40791616965
         -3.39514728379
         -3.38237839792
         -3.36960951206
         -3.35684062619
         -3.34407174033
         -3.33130285447
         -3.3185339686
         -3.30576508274
         -3.29299619687
         -3.28022731101
         -3.26745842515
         -3.25468953928
         -3.24192065342
         -3.22915176756
         -3.21638288169
         -3.20361399583
         -3.19084510996
         -3.1780762241
         -3.16530733824
         -3.15253845237
         -3.13976956651
         -3.12700068065
         -3.11423179478
         -3.10146290892
         -3.08869402305
         -3.07592513719
         -3.06315625133
         -3.05038736546
         -3.0376184796
         -3.02484959374
         -3.01208070787
         -2.99931182201
         -2.98654293614
         -2.97377405028
         -2.96100516442
         -2.94823627855
         -2.93546739269
         -2.92269850682
         -2.90992962096
         -2.8971607351
         -2.88439184923
         -2.87162296337
         -2.85885407751
         -2.84608519164
         -2.83331630578
         -2.82054741991
         -2.80777853405
         -2.79500964819
         -2.78224076232
         -2.76947187646
         -2.7567029906
         -2.74393410473
         -2.73116521887
         -2.71946657608
         -2.71081103409
         -2.7021554921
         -2.69349995011
         -2.68484440813
         -2.67618886614
         -2.66753332415
         -2.65887778216
         -2.65022224017
         -2.64156669818
         -2.63291115619
         -2.6242556142
         -2.61560007221
         -2.60694453023
         -2.59828898824
         -2.58963344625
         -2.58097790426
         -2.57232236227
         -2.56366682028
         -2.55501127829
         -2.5463557363
         -2.53770019431
         -2.52904465233
         -2.52079819793
         -2.51480589963
         -2.50881360133
         -2.50282130303
         -2.49682900473
         -2.49083670643
         -2.48484440813
         -2.47885210983
         -2.47285981153
         -2.46686751323
         -2.46087521493
         -2.45488291663
         -2.44889061833
         -2.44289832003
         -2.43690602173
         -2.43091372343
         -2.42492142513
         -2.41892912683
         -2.41293682853
         -2.40694453023
         -2.40095223193
         -2.39495993363
         -2.38896763533
         -2.38297533703
         -2.37698303873
         -2.37099074043
         -2.36499844213
         -2.35900614383
         -2.35301384553
         -2.34702154723
         -2.34102924893
         -2.33503695063
         -2.32904465233
         -2.32305235403
         -2.31876441766
         -2.31496442361
         -2.31116442957
         -2.30736443552
         -2.30356444148
         -2.29976444744
         -2.29596445339
         -2.29216445935
         -2.2883644653
         -2.28456447126
         -2.28076447722
         -2.27696448317
         -2.27316448913
         -2.26936449508
         -2.26556450104
         -2.261764507
         -2.25796451295
         -2.25416451891
         -2.25036452487
         -2.24656453082
         -2.24276453678
         -2.23896454273
         -2.23516454869
         -2.23136455465
         -2.2275645606
         -2.22376456656
         -2.21996457251
         -2.21616457847
         -2.21236458443
         -2.20856459038
         -2.20476459634
         -2.20096460229
         -2.19716460825
         -2.19336461421
         -2.18956462016
         -2.18576462612
         -2.18196463208
         -2.17816463803
         -2.17436464399
         -2.17056464994
         -2.1667646559
         -2.16296466186
         -2.15916466781
         -2.15536467377
         -2.15156467972
         -2.14776468568
         -2.14396469164
         -2.14016469759
         -2.13636470355
         -2.1325647095
         -2.12876471546
         -2.12496472142
         -2.12126443255
         -2.11814843743
         -2.11503244231
         -2.1119164472
         -2.10880045208
         -2.10568445697
         -2.10256846185
         -2.09945246673
         -2.09633647162
         -2.0932204765
         -2.09010448139
         -2.08698848627
         -2.08387249115
         -2.08075649604
         -2.07764050092
         -2.07452450581
         -2.07140851069
         -2.06829251557
         -2.06517652046
         -2.06206052534
         -2.05894453023
         -2.05582853511
         -2.05271253999
         -2.04959654488
         -2.04648054976
         -2.04336455465
         -2.04024855953
         -2.03713256441
         -2.0340165693
         -2.03090057418
         -2.02778457907
         -2.02466858395
         -2.02155258883
         -2.01843659372
         -2.0153205986
         -2.01220460349
         -2.00908860837
         -2.00597261325
         -2.00285661814
         -1.99974062302
         -1.99662462791
         -1.99350863279
         -1.99039263767
         -1.98727664256
         -1.98416064744
         -1.98104465233
         -1.97792865721
         -1.97481266209
         -1.97169666698
         -1.96858067186
         -1.96546467675
         -1.96234868163
         -1.95923268651
         -1.9561166914
         -1.95300069628
         -1.94988470117
         -1.94676870605
         -1.94365271093
         -1.94053671582
         -1.9374207207
         -1.93430472559
         -1.93118873047
         -1.92807273535
         -1.92495674024
         -1.92184074512
         -1.919722715
         -1.91764538493
         -1.91556805485
         -1.91349072477
         -1.91141339469
         -1.90933606462
         -1.90725873454
         -1.90518140446
         -1.90310407439
         -1.90102674431
         -1.89894941423
         -1.89687208415
         -1.89479475408
         -1.892717424
         -1.89064009392
         -1.88856276384
         -1.88648543377
         -1.88440810369
         -1.88233077361
         -1.88025344353
         -1.87817611346
         -1.87609878338
         -1.8740214533
         -1.87194412323
         -1.86986679315
         -1.86778946307
         -1.86571213299
         -1.86363480292
         -1.86155747284
         -1.85948014276
         -1.85740281268
         -1.85532548261
         -1.85324815253
         -1.85117082245
         -1.84909349237
         -1.8470161623
         -1.84493883222
         -1.84286150214
         -1.84078417207
         -1.83870684199
         -1.83662951191
         -1.83455218183
         -1.83247485176
         -1.83039752168
         -1.8283201916
         -1.82624286152
         -1.82416553145
         -1.82208820137
         -1.82001087129
         -1.81793354121
         -1.81585621114
         -1.81377888106
         -1.81170155098
         -1.80962422091
         -1.80754689083
         -1.80546956075
         -1.80339223067
         -1.8013149006
         -1.79923757052
         -1.79716024044
         -1.79508291036
         -1.79300558029
         -1.79092825021
         -1.78885092013
         -1.78677359005
         -1.78469625998
         -1.7826189299
         -1.78054159982
         -1.77846426975
         -1.77638693967
         -1.77430960959
         -1.77223227951
         -1.77015494944
         -1.76807761936
         -1.76600028928
         -1.7639229592
         -1.76184562913
         -1.75976829905
         -1.75769096897
         -1.75561363889
         -1.75353630882
         -1.75145897874
         -1.74938164866
         -1.74730431859
         -1.74522698851
         -1.74314965843
         -1.74107232835
         -1.73899499828
         -1.7369176682
         -1.73484033812
         -1.73276300804
         -1.73068567797
         -1.72860834789
         -1.72653101781
         -1.72445368774
         -1.72237635766
         -1.72038775367
         -1.71844025672
         -1.71649275977
         -1.71454526283
         -1.71259776588
         -1.71065026893
         -1.70870277198
         -1.70675527504
         -1.70480777809
         -1.70286028114
         -1.70091278419
         -1.69896528725
         -1.6970177903
         -1.69507029335
         -1.6931227964
         -1.69117529946
         -1.68922780251
         -1.68728030556
         -1.68533280861
         -1.68338531167
         -1.68143781472
         -1.67949031777
         -1.67754282082
         -1.67559532388
         -1.67364782693
         -1.67170032998
         -1.66975283303
         -1.66780533609
         -1.66585783914
         -1.66391034219
         -1.66196284524
         -1.6600153483
         -1.65806785135
         -1.6561203544
         -1.65417285745
         -1.65222536051
         -1.65027786356
         -1.64833036661
         -1.64638286966
         -1.64443537272
         -1.64248787577
         -1.64054037882
         -1.63859288187
         -1.63664538493
         -1.63469788798
         -1.63275039103
         -1.63080289408
         -1.62885539714
         -1.62690790019
         -1.62496040324
         -1.62301290629
         -1.62106540935
         -1.6191179124
         -1.61717041545
         -1.6152229185
         -1.61327542156
         -1.61132792461
         -1.60938042766
         -1.60743293071
         -1.60548543377
         -1.60353793682
         -1.60159043987
         -1.59964294292
         -1.59769544598
         -1.59574794903
         -1.59380045208
         -1.59185295513
         -1.58990545819
         -1.58795796124
         -1.58601046429
         -1.58406296734
         -1.5821154704
         -1.58016797345
         -1.5782204765
         -1.57627297955
         -1.57432548261
         -1.57237798566
         -1.57043048871
         -1.56848299176
         -1.56653549482
         -1.56458799787
         -1.56264050092
         -1.56069300397
         -1.55874550703
         -1.55679801008
         -1.55485051313
         -1.55290301618
         -1.55095551924
         -1.54900802229
         -1.54706052534
         -1.54511302839
         -1.54316553145
         -1.5412180345
         -1.53927053755
         -1.5373230406
         -1.53537554366
         -1.53342804671
         -1.53148054976
         -1.52953305281
         -1.52758555587
         -1.52563805892
         -1.52369056197
         -1.52174306502
         -1.52018018346
         -1.5186221859
         -1.51706418835
         -1.51550619079
         -1.51394819323
         -1.51239019567
         -1.51083219811
         -1.50927420056
         -1.507716203
         -1.50615820544
         -1.50460020788
         -1.50304221032
         -1.50148421277
         -1.49992621521
         -1.49836821765
         -1.49681022009
         -1.49525222253
         -1.49369422498
         -1.49213622742
         -1.49057822986
         -1.4890202323
         -1.48746223474
         -1.48590423719
         -1.48434623963
         -1.48278824207
         -1.48123024451
         -1.47967224695
         -1.4781142494
         -1.47655625184
         -1.47499825428
         -1.47344025672
         -1.47188225916
         -1.47032426161
         -1.46876626405
         -1.46720826649
         -1.46565026893
         -1.46409227137
         -1.46253427382
         -1.46097627626
         -1.4594182787
         -1.45786028114
         -1.45630228358
         -1.45474428603
         -1.45318628847
         -1.45162829091
         -1.45007029335
         -1.44851229579
         -1.44695429824
         -1.44539630068
         -1.44383830312
         -1.44228030556
         -1.440722308
         -1.43916431045
         -1.43760631289
         -1.43604831533
         -1.43449031777
         -1.43293232021
         -1.43137432266
         -1.4298163251
         -1.42825832754
         -1.42670032998
         -1.42514233242
         -1.42358433487
         -1.42202633731
         -1.42046833975
         -1.41891034219
         -1.41735234463
         -1.41579434708
         -1.41423634952
         -1.41267835196
         -1.4111203544
         -1.40956235684
         -1.40800435929
         -1.40644636173
         -1.40488836417
         -1.40333036661
         -1.40177236905
         -1.4002143715
         -1.39865637394
         -1.39709837638
         -1.39554037882
         -1.39398238126
         -1.39242438371
         -1.39086638615
         -1.38930838859
         -1.38775039103
         -1.38619239347
         -1.38463439592
         -1.38307639836
         -1.3815184008
         -1.37996040324
         -1.37840240568
         -1.37684440813
         -1.37528641057
         -1.37372841301
         -1.37217041545
         -1.37061241789
         -1.36905442034
         -1.36749642278
         -1.36593842522
         -1.36438042766
         -1.3628224301
         -1.36126443255
         -1.35970643499
         -1.35814843743
         -1.35659043987
         -1.35503244231
         -1.35347444476
         -1.3519164472
         -1.35035844964
         -1.34880045208
         -1.34724245452
         -1.34568445697
         -1.34412645941
         -1.34256846185
         -1.34101046429
         -1.33945246673
         -1.33789446918
         -1.33633647162
         -1.33477847406
         -1.3332204765
         -1.33166247894
         -1.33010448139
         -1.32854648383
         -1.32698848627
         -1.32543048871
         -1.32387249115
         -1.3223144936
         -1.32075649604
         -1.31919849848
         -1.31764050092
         -1.31608250336
         -1.31452450581
         -1.31296650825
         -1.31140851069
         -1.30985051313
         -1.30829251557
         -1.30673451802
         -1.30517652046
         -1.3036185229
         -1.30206052534
         -1.30050252778
         -1.29894453023
         -1.29738653267
         -1.29582853511
         -1.29427053755
         -1.29271253999
         -1.29115454244
         -1.28959654488
         -1.28803854732
         -1.28648054976
         -1.2849225522
         -1.28336455465
         -1.28180655709
         -1.28024855953
         -1.27869056197
         -1.27713256441
         -1.27557456686
         -1.2740165693
         -1.27245857174
         -1.27090057418
         -1.26934257662
         -1.26778457907
         -1.26622658151
         -1.26466858395
         -1.26311058639
         -1.26155258883
         -1.25999459128
         -1.25843659372
         -1.25687859616
         -1.2553205986
         -1.25376260104
         -1.25220460349
         -1.25064660593
         -1.24908860837
         -1.24753061081
         -1.24597261325
         -1.2444146157
         -1.24285661814
         -1.24129862058
         -1.23974062302
         -1.23818262546
         -1.23662462791
         -1.23506663035
         -1.23350863279
         -1.23195063523
         -1.23039263767
         -1.22883464012
         -1.22727664256
         -1.225718645
         -1.22416064744
         -1.22260264988
         -1.22104465233
         -1.21948665477
         -1.21792865721
         -1.21637065965
         -1.21481266209
         -1.21325466454
         -1.21169666698
         -1.21013866942
         -1.20858067186
         -1.2070226743
         -1.20546467675
         -1.20390667919
         -1.20234868163
         -1.20079068407
         -1.19923268651
         -1.19767468896
         -1.1961166914
         -1.19455869384
         -1.19300069628
         -1.19144269872
         -1.18988470117
         -1.18832670361
         -1.18676870605
         -1.18521070849
         -1.18365271093
         -1.18209471338
         -1.18053671582
         -1.17897871826
         -1.1774207207
         -1.17586272314
         -1.17430472559
         -1.17274672803
         -1.17118873047
         -1.16963073291
         -1.16807273535
         -1.1665147378
         -1.16495674024
         -1.16339874268
         -1.16184074512
         -1.16028274756
         -1.15872475001
         -1.15716675245
         -1.15560875489
         -1.15405075733
         -1.15249275977
         -1.15093476222
         -1.14937676466
         -1.1478187671
         -1.14626076954
         -1.14470277198
         -1.14314477443
         -1.14158677687
         -1.14002877931
         -1.13847078175
         -1.13691278419
         -1.13535478664
         -1.13379678908
         -1.13223879152
         -1.13068079396
         -1.1291227964
         -1.12756479885
         -1.12600680129
         -1.12444880373
         -1.12289080617
         -1.12134212084
         -1.1198217258
         -1.11830133076
         -1.11678093572
         -1.11526054068
         -1.11374014564
         -1.1122197506
         -1.11069935556
         -1.10917896052
         -1.10765856548
         -1.10613817044
         -1.1046177754
         -1.10309738036
         -1.10157698532
         -1.10005659028
         -1.09853619524
         -1.0970158002
         -1.09549540516
         -1.09397501012
         -1.09245461508
         -1.09093422004
         -1.089413825
         -1.08789342996
         -1.08637303492
         -1.08485263988
         -1.08333224484
         -1.0818118498
         -1.08029145476
         -1.07877105972
         -1.07725066468
         -1.07573026964
         -1.0742098746
         -1.07268947956
         -1.07116908452
         -1.06964868948
         -1.06812829444
         -1.0666078994
         -1.06508750436
         -1.06356710932
         -1.06204671428
         -1.06052631924
         -1.0590059242
         -1.05748552916
         -1.05596513412
         -1.05444473908
         -1.05292434404
         -1.051403949
         -1.04988355396
         -1.04836315892
         -1.04684276388
         -1.04532236884
         -1.0438019738
         -1.04228157876
         -1.04076118372
         -1.03924078868
         -1.03772039364
         -1.0361999986
         -1.03467960356
         -1.03315920852
         -1.03163881348
         -1.03011841844
         -1.0285980234
         -1.02707762836
         -1.02555723332
         -1.02403683828
         -1.02251644324
         -1.0209960482
         -1.01947565316
         -1.01795525812
         -1.01643486309
         -1.01491446805
         -1.01339407301
         -1.01187367797
         -1.01035328293
         -1.00883288789
         -1.00731249285
         -1.00579209781
         -1.00427170277
         -1.00275130773
         -1.00123091269
         -0.999710517646
         -0.998190122606
         -0.996669727567
         -0.995149332527
         -0.993628937487
         -0.992108542447
         -0.990588147407
         -0.989067752367
         -0.987547357327
         -0.986026962287
         -0.984506567248
         -0.982986172208
         -0.981465777168
         -0.979945382128
         -0.978424987088
         -0.976904592048
         -0.975384197008
         -0.973863801968
         -0.972343406929
         -0.970823011889
         -0.969302616849
         -0.967782221809
         -0.966261826769
         -0.964741431729
         -0.963221036689
         -0.961700641649
         -0.96018024661
         -0.95865985157
         -0.95713945653
         -0.95561906149
         -0.95409866645
         -0.95257827141
         -0.95105787637
         -0.94953748133
         -0.948017086291
