aces_1.0.2/luts/Canon-Log_to_linear.spi1d
Version 1
From 0.000000 1.000000
Length 4096
Components 1
{
         -0.0416811369359
         -0.0416228920221
         -0.0415645763278
         -0.0415061861277
         -0.041447725147
         -0.0413891896605
         -0.0413305833936
         -0.0412719063461
         -0.0412131510675
         -0.0411543250084
         -0.0410954281688
         -0.0410364568233
         -0.0409774109721
         -0.0409182906151
         -0.0408590994775
         -0.0407998338342
         -0.0407404974103
         -0.0406810827553
         -0.0406215973198
         -0.0405620373785
         -0.0405024029315
         -0.0404426939785
         -0.0403829142451
         -0.0403230562806
         -0.0402631238103
         -0.0402031205595
         -0.0401430390775
         -0.0400828868151
         -0.0400226563215
         -0.0399623513222
         -0.0399019755423
         -0.0398415215313
         -0.0397809930146
         -0.0397203862667
         -0.0396597087383
         -0.0395989529788
         -0.0395381227136
         -0.0394772179425
         -0.0394162349403
         -0.0393551811576
         -0.0392940454185
         -0.0392328388989
         -0.0391715541482
         -0.0391101911664
         -0.0390487574041
         -0.0389872416854
         -0.0389256514609
         -0.0388639867306
         -0.0388022437692
         -0.038740426302
         -0.0386785268784
         -0.0386165566742
         -0.0385545045137
         -0.0384923778474
         -0.03843017295
         -0.0383678935468
         -0.0383055359125
         -0.0382430963218
         -0.0381805859506
         -0.038117993623
         -0.0380553230643
         -0.0379925779998
         -0.0379297509789
         -0.0378668494523
         -0.0378038696945
         -0.0377408079803
         -0.0376776717603
         -0.0376144573092
         -0.0375511609018
         -0.0374877899885
         -0.0374243371189
         -0.0373608060181
         -0.0372971966863
         -0.0372335091233
         -0.0371697433293
         -0.0371058955789
         -0.0370419695973
         -0.0369779653847
         -0.0369138792157
         -0.0368497148156
         -0.0367854721844
         -0.0367211475968
         -0.0366567447782
         -0.0365922600031
         -0.0365276969969
         -0.0364630520344
         -0.0363983288407
         -0.0363335236907
         -0.0362686403096
         -0.0362036749721
         -0.0361386276782
         -0.0360735021532
         -0.0360082946718
         -0.035943005234
         -0.0358776338398
         -0.0358121842146
         -0.035746652633
         -0.0356810390949
         -0.0356153436005
         -0.0355495661497
         -0.0354837067425
         -0.0354177691042
         -0.0353517457843
         -0.0352856405079
         -0.0352194570005
         -0.0351531878114
         -0.0350868366659
         -0.035020403564
         -0.0349538885057
         -0.034887291491
         -0.0348206087947
         -0.034753844142
         -0.0346869975328
         -0.0346200689673
         -0.0345530584455
         -0.0344859622419
         -0.0344187803566
         -0.0343515202403
         -0.0342841744423
         -0.0342167429626
         -0.0341492295265
         -0.0340816341341
         -0.0340139530599
         -0.0339461863041
         -0.0338783375919
         -0.033810403198
         -0.0337423868477
         -0.0336742848158
         -0.0336060971022
         -0.0335378237069
         -0.0334694683552
         -0.0334010273218
         -0.0333325006068
         -0.0332638882101
         -0.0331951901317
         -0.0331264100969
         -0.0330575443804
         -0.032988589257
         -0.0329195521772
         -0.0328504256904
         -0.0327812172472
         -0.0327119193971
         -0.0326425395906
         -0.0325730703771
         -0.0325035154819
         -0.0324338749051
         -0.0323641486466
         -0.0322943329811
         -0.0322244353592
         -0.0321544446051
         -0.0320843718946
         -0.0320142097771
         -0.031943961978
         -0.0318736247718
         -0.031803201884
         -0.0317326933146
         -0.0316620953381
         -0.0315914079547
         -0.0315206348896
         -0.0314497761428
         -0.0313788242638
         -0.0313077867031
         -0.0312366615981
         -0.0311654489487
         -0.0310941450298
         -0.0310227554291
         -0.0309512745589
         -0.0308797061443
         -0.0308080501854
         -0.0307363029569
         -0.0306644681841
         -0.0305925440043
         -0.0305205304176
         -0.0304484274238
         -0.0303762331605
         -0.0303039513528
         -0.0302315801382
         -0.030159117654
         -0.0300865657628
         -0.0300139226019
         -0.0299411900342
         -0.0298683680594
         -0.029795454815
         -0.0297224521637
         -0.0296493582428
         -0.0295761730522
         -0.029502896592
         -0.0294295288622
         -0.0293560717255
         -0.0292825214565
         -0.0292088817805
         -0.0291351489723
         -0.0290613267571
         -0.0289874114096
         -0.0289134047925
         -0.0288393050432
         -0.0287651140243
         -0.0286908317357
         -0.0286164563149
         -0.0285419877619
         -0.0284674279392
         -0.0283927749842
         -0.0283180307597
         -0.0282431915402
         -0.0281682610512
         -0.0280932374299
         -0.0280181188136
         -0.0279429089278
         -0.0278676059097
         -0.0277922078967
         -0.0277167167515
         -0.0276411306113
         -0.0275654532015
         -0.0274896807969
         -0.0274138133973
         -0.0273378528655
         -0.0272617973387
         -0.0271856468171
         -0.0271094031632
         -0.0270330645144
         -0.0269566308707
         -0.0268801022321
         -0.0268034767359
         -0.0267267581075
         -0.0266499444842
         -0.026573035866
         -0.0264960303903
         -0.0264189299196
         -0.0263417325914
         -0.0262644402683
         -0.0261870529503
         -0.0261095687747
         -0.0260319877416
         -0.0259543098509
         -0.0258765369654
         -0.0257986672223
         -0.0257207006216
         -0.0256426371634
         -0.0255644768476
         -0.0254862196743
         -0.0254078656435
         -0.0253294128925
         -0.0252508632839
         -0.0251722168177
         -0.0250934716314
         -0.0250146295875
         -0.0249356906861
         -0.0248566512018
         -0.02477751486
         -0.024698279798
         -0.0246189478785
         -0.0245395153761
         -0.0244599860162
         -0.024380357936
         -0.0243006292731
         -0.0242208018899
         -0.0241408757865
         -0.024060850963
         -0.0239807274193
         -0.0239005032927
         -0.0238201785833
         -0.0237397551537
         -0.0236592330039
         -0.0235786084086
         -0.0234978850931
         -0.0234170611948
         -0.0233361385763
         -0.0232551135123
         -0.0231739878654
         -0.0230927634984
         -0.0230114366859
         -0.0229300074279
         -0.0228484794497
         -0.0227668490261
         -0.0226851180196
         -0.0226032845676
         -0.0225213505328
         -0.0224393140525
         -0.0223571769893
         -0.022274935618
         -0.0221925936639
         -0.0221101492643
         -0.0220276024193
         -0.0219449531287
         -0.0218622013927
         -0.0217793472111
         -0.0216963887215
         -0.0216133277863
         -0.0215301644057
         -0.0214468985796
         -0.0213635265827
         -0.021280054003
         -0.0211964752525
         -0.0211127940565
         -0.0210290085524
         -0.0209451187402
         -0.0208611264825
         -0.020777028054
         -0.0206928253174
         -0.0206085182726
         -0.0205241069198
         -0.0204395912588
         -0.020354969427
         -0.0202702432871
         -0.0201854128391
         -0.0201004743576
         -0.0200154334307
         -0.0199302844703
         -0.0198450312018
         -0.0197596717626
         -0.0196742061526
         -0.0195886343718
         -0.0195029564202
         -0.0194171722978
         -0.0193312820047
         -0.0192452836782
         -0.0191591791809
         -0.0190729685128
         -0.0189866498113
         -0.018900224939
         -0.0188136920333
         -0.0187270510942
         -0.0186403039843
         -0.018553448841
         -0.0184664838016
         -0.0183794125915
         -0.0182922333479
         -0.0182049460709
         -0.0181175507605
         -0.018030045554
         -0.0179424323142
         -0.0178547091782
         -0.0177668780088
         -0.0176789388061
         -0.0175908897072
         -0.0175027307123
         -0.0174144618213
         -0.0173260848969
         -0.0172375980765
         -0.0171489994973
         -0.0170602928847
         -0.0169714745134
         -0.0168825481087
         -0.0167935099453
         -0.0167043600231
         -0.0166151002049
         -0.0165257304907
         -0.0164362490177
         -0.016346655786
         -0.0162569526583
         -0.0161671377718
         -0.0160772111267
         -0.0159871727228
         -0.0158970225602
         -0.015806760639
         -0.015716386959
         -0.0156258996576
         -0.0155353015289
         -0.0154445907101
         -0.0153537672013
         -0.0152628300712
         -0.015171780251
         -0.0150806177408
         -0.0149893425405
         -0.0148979527876
         -0.0148064503446
         -0.0147148342803
         -0.0146231045946
         -0.0145312603563
         -0.0144393024966
         -0.0143472300842
         -0.0142550440505
         -0.0141627425328
         -0.0140703273937
         -0.0139777967706
         -0.0138851515949
         -0.0137923909351
         -0.0136995157227
         -0.0136065250263
         -0.0135134188458
         -0.0134201971814
         -0.0133268591017
         -0.0132334055379
         -0.0131398364902
         -0.0130461500958
         -0.0129523482174
         -0.0128584299237
         -0.0127643942833
         -0.0126702422276
         -0.0125759737566
         -0.012481587939
         -0.0123870847747
         -0.0122924642637
         -0.0121977264062
         -0.0121028702706
         -0.0120078967884
         -0.0119128059596
         -0.0118175959215
         -0.0117222685367
         -0.011626822874
         -0.0115312580019
         -0.0114355748519
         -0.0113397724926
         -0.0112438518554
         -0.0111478120089
         -0.0110516520217
         -0.0109553737566
         -0.0108589753509
         -0.0107624568045
         -0.0106658190489
         -0.0105690611526
         -0.0104721831158
         -0.0103751849383
         -0.0102780666202
         -0.0101808272302
         -0.0100834667683
         -0.0099859861657
         -0.00988838355988
         -0.00979066081345
         -0.00969281606376
         -0.00959484931082
         -0.00949676148593
         -0.00939855258912
         -0.00930022075772
         -0.00920176692307
         -0.00910319108516
         -0.00900449324399
         -0.00890567246825
         -0.00880672875792
         -0.00870766211301
         -0.00860847253352
         -0.00850916001946
         -0.00840972457081
         -0.00831016525626
         -0.00821048207581
         -0.00811067502946
         -0.0080107441172
         -0.00791068933904
         -0.00781051022932
         -0.00771020678803
         -0.00760977901518
         -0.00750922597945
         -0.00740854861215
         -0.00730774598196
         -0.00720681808889
         -0.00710576493293
         -0.00700458651409
         -0.00690328190103
         -0.00680185202509
         -0.00670029595494
         -0.00659861415625
         -0.00649680569768
         -0.0063948710449
         -0.00629280973226
         -0.00619062129408
         -0.0060883066617
         -0.00598586443812
         -0.00588329508901
         -0.00578059861436
         -0.00567777454853
         -0.00557482242584
         -0.00547174317762
         -0.00536853540689
         -0.0052651995793
         -0.00516173522919
         -0.00505814282224
         -0.0049544214271
         -0.00485057150945
         -0.00474659260362
         -0.00464248424396
         -0.00453824689612
         -0.00443388009444
         -0.00432938383892
         -0.00422475766391
         -0.00412000156939
         -0.00401511555538
         -0.00391009869054
         -0.00380495213903
         -0.00369967473671
         -0.00359426648356
         -0.00348872761242
         -0.0033830574248
         -0.00327725615352
         -0.00317132356577
         -0.00306525942869
         -0.00295906350948
         -0.00285273557529
         -0.00274627585895
         -0.00263968389481
         -0.00253295945004
         -0.00242610252462
         -0.00231911288574
         -0.0022119905334
         -0.00210473500192
         -0.00199734652415
         -0.00188982440159
         -0.00178216886707
         -0.00167437968776
         -0.00156645663083
         -0.00145839957986
         -0.00135020841844
         -0.00124188279733
         -0.00113342271652
         -0.00102482794318
         -0.000916098302696
         -0.000807233678643
         -0.000698233838193
         -0.000589098664932
         -0.000479827984236
         -0.000370421592379
         -0.000260879372945
         -0.000151201107656
         -4.13866509916e-05
         6.8564164394e-05
         0.0001786515204
         0.000288875569822
         0.000399236480007
         0.000509734440129
         0.000620369624812
         0.000731142179575
         0.00084205227904
         0.000953100097831
         0.00106428586878
         0.00117560965009
         0.00128707161639
         0.00139867211692
         0.00151041115168
         0.0016222888371
         0.0017343055224
         0.00184646132402
         0.00195875647478
         0.00207119085826
         0.00218376494013
         0.00229647895321
         0.00240933289751
         0.00252232677303
         0.00263546104543
         0.00274873594753
         0.00286215147935
         0.00297570764087
         0.00308940489776
         0.00320324348286
         0.00331722339615
         0.00343134463765
         0.00354560790583
         0.00366001273505
         0.0037745598238
         0.00388924917206
         0.00400408077985
         0.00411905487999
         0.00423417193815
         0.00434943195432
         0.00446483539417
         0.00458038179204
         0.00469607161358
         0.00481190532446
         0.00492788245901
         0.00504400394857
         0.00516026979312
         0.00527667952701
         0.00539323408157
         0.00550993345678
         0.00562677765265
         0.00574376713485
         0.0058609014377
         0.00597818149254
         0.00609560729936
         0.0062131783925
         0.00633089616895
         0.00644875969738
         0.00656676944345
         0.00668492633849
         0.00680322945118
         0.00692167971283
         0.00704027665779
         0.00715902121738
         0.00727791339159
         0.00739695271477
         0.00751614011824
         0.007635475602
         0.00775495916605
         0.00787459127605
         0.00799437146634
         0.00811430066824
         0.00823437888175
         0.00835460610688
         0.00847498327494
         0.00859550945461
         0.00871618464589
         0.00883701071143
         0.00895798578858
         0.00907911173999
         0.00920038763434
         0.00932181440294
         0.0094433920458
         0.00956512056291
         0.00968700088561
         0.00980903208256
         0.00993121415377
         0.0100535489619
         0.0101760346442
         0.0102986730635
         0.0104214642197
         0.0105444071814
         0.0106675028801
         0.0107907513157
         0.0109141534194
         0.0110377082601
         0.011161416769
         0.0112852780148
         0.0114092938602
         0.0115334633738
         0.0116577874869
         0.0117822661996
         0.0119068985805
         0.0120316864923
         0.0121566290036
         0.0122817270458
         0.0124069796875
         0.0125323887914
         0.0126579524949
         0.0127836735919
         0.0129095492885
         0.0130355823785
         0.0131617709994
         0.0132881170139
         0.0134146204218
         0.013541280292
         0.0136680975556
         0.0137950722128
         0.0139222042635
         0.014049494639
         0.0141769424081
         0.014304548502
         0.014432313852
         0.0145602375269
         0.0146883195266
         0.0148165617138
         0.0149449622259
         0.0150735219941
         0.0152022419497
         0.0153311220929
         0.0154601614922
         0.015589361079
         0.0157187208533
         0.0158482436091
         0.0159779246897
         0.0161077678204
         0.0162377711385
         0.0163679365069
         0.0164982639253
         0.0166287533939
         0.0167594049126
         0.0168902166188
         0.0170211922377
         0.0171523317695
         0.0172836333513
         0.0174150969833
         0.0175467245281
         0.0176785159856
         0.0178104694933
         0.0179425887764
         0.0180748701096
         0.0182073172182
         0.0183399282396
         0.0184727050364
         0.018605645746
         0.0187387503684
         0.0188720226288
         0.019005458802
         0.0191390607506
         0.0192728303373
         0.0194067638367
         0.0195408649743
         0.0196751318872
         0.0198095645756
         0.0199441667646
         0.0200789347291
         0.0202138703316
         0.0203489717096
         0.0204842425883
         0.020619681105
         0.0207552891225
         0.0208910629153
         0.0210270080715
         0.0211631190032
         0.0212994012982
         0.0214358530939
         0.0215724725276
         0.0217092633247
         0.0218462217599
         0.0219833515584
         0.0221206527203
         0.0222581233829
         0.0223957635462
         0.0225335769355
         0.0226715598255
         0.0228097140789
         0.0229480415583
         0.0230865385383
         0.0232252087444
         0.0233640503138
         0.0235030651093
         0.0236422531307
         0.0237816125154
         0.0239211451262
         0.0240608528256
         0.0242007318884
         0.0243407860398
         0.0244810134172
         0.0246214140207
         0.0247619915754
         0.0249027404934
         0.0250436663628
         0.0251847673208
         0.0253260415047
         0.02546749264
         0.0256091188639
         0.0257509220392
         0.025892900303
         0.0260350555182
         0.0261773876846
         0.0263198949397
         0.026462579146
         0.0266054421663
         0.0267484821379
         0.0268916990608
         0.0270350947976
         0.0271786674857
         0.0273224189878
         0.0274663493037
         0.027610456571
         0.0277547445148
         0.0278992112726
         0.028043858707
         0.0281886830926
         0.0283336900175
         0.0284788757563
         0.028624240309
         0.028769787401
         0.0289155151695
         0.029061421752
         0.0292075127363
         0.0293537825346
         0.0295002348721
         0.0296468697488
         0.0297936853021
         0.0299406833947
         0.0300878658891
         0.0302352290601
         0.0303827766329
         0.030530506745
         0.0306784193963
         0.0308265164495
         0.0309747979045
         0.0311232637614
         0.0312719121575
         0.0314207486808
         0.0315697677433
         0.0317189693451
         0.0318683609366
         0.0320179350674
         0.0321676954627
         0.0323176421225
         0.0324677750468
         0.0326180942357
         0.032768599689
         0.0329192914069
         0.0330701731145
         0.0332212410867
         0.0333724953234
         0.0335239358246
         0.0336755663157
         0.0338273867965
         0.0339793935418
         0.034131590277
         0.0342839770019
         0.0344365499914
         0.0345893129706
         0.034742269665
         0.0348954126239
         0.0350487455726
         0.0352022685111
         0.0353559851646
         0.0355098880827
         0.0356639847159
         0.0358182750642
         0.0359727554023
         0.0361274257302
         0.0362822897732
         0.036437343806
         0.0365925952792
         0.0367480330169
         0.036903668195
         0.0370594970882
         0.0372155159712
         0.0373717322946
         0.037528142333
         0.0376847423613
         0.03784153983
         0.037998534739
         0.0381557196379
         0.0383131019771
         0.0384706817567
         0.0386284552515
         0.0387864224613
         0.0389445871115
         0.0391029492021
         0.039261508733
         0.0394202619791
         0.0395792163908
         0.0397383645177
         0.0398977138102
         0.0400572605431
         0.0402170009911
         0.0403769426048
         0.0405370853841
         0.0406974256039
         0.040857963264
         0.0410186983645
         0.041179638356
         0.0413407757878
         0.0415021106601
         0.0416636504233
         0.0418253876269
         0.0419873259962
         0.0421494655311
         0.042311809957
         0.0424743518233
         0.0426370948553
         0.0428000427783
         0.0429631918669
         0.0431265458465
         0.0432901009917
         0.0434538573027
         0.0436178185046
         0.0437819845974
         0.043946351856
         0.0441109240055
         0.044275701046
         0.0444406829774
         0.0446058697999
         0.0447712615132
         0.0449368581176
         0.0451026596129
         0.0452686697245
         0.045434884727
         0.0456013046205
         0.0457679331303
         0.0459347702563
         0.046101808548
         0.0462690591812
         0.0464365184307
         0.0466041825712
         0.0467720553279
         0.0469401367009
         0.0471084266901
         0.0472769252956
         0.0474456362426
         0.0476145520806
         0.0477836802602
         0.047953017056
         0.0481225661933
         0.048292323947
         0.0484622940421
         0.0486324727535
         0.0488028675318
         0.0489734709263
         0.049144282937
         0.0493153110147
         0.0494865514338
         0.0496580041945
         0.0498296692967
         0.0500015467405
         0.0501736402512
         0.0503459461033
         0.0505184642971
         0.0506911985576
         0.0508641451597
         0.0510373078287
         0.0512106865644
         0.0513842813671
         0.0515580885112
         0.0517321154475
         0.0519063547254
         0.0520808137953
         0.0522554852068
         0.0524303764105
         0.052605483681
         0.0527808107436
         0.052956353873
         0.0531321130693
         0.0533080920577
         0.0534842908382
         0.0536607056856
         0.0538373440504
         0.054014198482
         0.0541912727058
         0.0543685667217
         0.0545460805297
         0.0547238178551
         0.0549017712474
         0.0550799481571
         0.0552583448589
         0.0554369650781
         0.0556158088148
         0.0557948686182
         0.0559741556644
         0.0561536662281
         0.0563333965838
         0.056513350457
         0.0566935278475
         0.0568739287555
         0.0570545569062
         0.0572354048491
         0.0574164800346
         0.0575977787375
         0.0577793046832
         0.0579610541463
         0.0581430271268
         0.0583252310753
         0.0585076585412
         0.0586903132498
         0.0588731952012
         0.0590563006699
         0.0592396371067
         0.0594232007861
         0.0596069917083
         0.0597910098732
         0.059975259006
         0.0601597353816
         0.0603444427252
         0.0605293773115
