aces_1.0.2/luts/Dolby_PQ_1000_nits_Shaper_to_linear.spi1d
Version 1
From 0.000000 1.000000
Length 4096
Components 3
{
         4.39453142462e-05 4.39453142462e-05 4.39453142462e-05
         4.40132353106e-05 4.40132353106e-05 4.40132353106e-05
         4.41732881882e-05 4.41732881882e-05 4.41732881882e-05
         4.44016404799e-05 4.44016404799e-05 4.44016404799e-05
         4.46894664492e-05 4.46894664492e-05 4.46894664492e-05
         4.50318329968e-05 4.50318329968e-05 4.50318329968e-05
         4.5425582357e-05 4.5425582357e-05 4.5425582357e-05
         4.58685208287e-05 4.58685208287e-05 4.58685208287e-05
         4.63589822175e-05 4.63589822175e-05 4.63589822175e-05
         4.68957478006e-05 4.68957478006e-05 4.68957478006e-05
         4.74778535136e-05 4.74778535136e-05 4.74778535136e-05
         4.81045499328e-05 4.81045499328e-05 4.81045499328e-05
         4.87752040499e-05 4.87752040499e-05 4.87752040499e-05
         4.94893210998e-05 4.94893210998e-05 4.94893210998e-05
         5.0246482715e-05 5.0246482715e-05 5.0246482715e-05
         5.10464124091e-05 5.10464124091e-05 5.10464124091e-05
         5.18888118677e-05 5.18888118677e-05 5.18888118677e-05
         5.27735537617e-05 5.27735537617e-05 5.27735537617e-05
         5.37004016223e-05 5.37004016223e-05 5.37004016223e-05
         5.46692281205e-05 5.46692281205e-05 5.46692281205e-05
         5.56799641345e-05 5.56799641345e-05 5.56799641345e-05
         5.67325769225e-05 5.67325769225e-05 5.67325769225e-05
         5.78270082769e-05 5.78270082769e-05 5.78270082769e-05
         5.89631999901e-05 5.89631999901e-05 5.89631999901e-05
         6.01410429226e-05 6.01410429226e-05 6.01410429226e-05
         6.13608426647e-05 6.13608426647e-05 6.13608426647e-05
         6.26224791631e-05 6.26224791631e-05 6.26224791631e-05
         6.39258505544e-05 6.39258505544e-05 6.39258505544e-05
         6.52714006719e-05 6.52714006719e-05 6.52714006719e-05
         6.66587293381e-05 6.66587293381e-05 6.66587293381e-05
         6.80884550093e-05 6.80884550093e-05 6.80884550093e-05
         6.95601338521e-05 6.95601338521e-05 6.95601338521e-05
         7.10740714567e-05 7.10740714567e-05 7.10740714567e-05
         7.26302969269e-05 7.26302969269e-05 7.26302969269e-05
         7.42290721973e-05 7.42290721973e-05 7.42290721973e-05
         7.58707610657e-05 7.58707610657e-05 7.58707610657e-05
         7.75549051468e-05 7.75549051468e-05 7.75549051468e-05
         7.92820937932e-05 7.92820937932e-05 7.92820937932e-05
         8.10518977232e-05 8.10518977232e-05 8.10518977232e-05
         8.28654301586e-05 8.28654301586e-05 8.28654301586e-05
         8.47217743285e-05 8.47217743285e-05 8.47217743285e-05
         8.66218324518e-05 8.66218324518e-05 8.66218324518e-05
         8.85654008016e-05 8.85654008016e-05 8.85654008016e-05
         9.05529523152e-05 9.05529523152e-05 9.05529523152e-05
         9.25842905417e-05 9.25842905417e-05 9.25842905417e-05
         9.46590589592e-05 9.46590589592e-05 9.46590589592e-05
         9.67788655544e-05 9.67788655544e-05 9.67788655544e-05
         9.89427717286e-05 9.89427717286e-05 9.89427717286e-05
         0.000101151148556 0.000101151148556 0.000101151148556
         0.000103405138361 0.000103405138361 0.000103405138361
         0.000105702791188 0.000105702791188 0.000105702791188
         0.000108046791865 0.000108046791865 0.000108046791865
         0.000110435787064 0.000110435787064 0.000110435787064
         0.000112869412987 0.000112869412987 0.000112869412987
         0.000115349845146 0.000115349845146 0.000115349845146
         0.000117875162687 0.000117875162687 0.000117875162687
         0.000120447817608 0.000120447817608 0.000120447817608
         0.000123065867228 0.000123065867228 0.000123065867228
         0.000125730264699 0.000125730264699 0.000125730264699
         0.000128441577544 0.000128441577544 0.000128441577544
         0.000131199558382 0.000131199558382 0.000131199558382
         0.000134004687425 0.000134004687425 0.000134004687425
         0.000136857532198 0.000136857532198 0.000136857532198
         0.000139757743455 0.000139757743455 0.000139757743455
         0.000142705335747 0.000142705335747 0.000142705335747
         0.000145701167639 0.000145701167639 0.000145701167639
         0.000148744729813 0.000148744729813 0.000148744729813
         0.000151837375597 0.000151837375597 0.000151837375597
         0.000154977082275 0.000154977082275 0.000154977082275
         0.000158167415066 0.000158167415066 0.000158167415066
         0.000161405681865 0.000161405681865 0.000161405681865
         0.000164693090483 0.000164693090483 0.000164693090483
         0.0001680298883 0.0001680298883 0.0001680298883
         0.000171417239471 0.000171417239471 0.000171417239471
         0.000174852626515 0.000174852626515 0.000174852626515
         0.000178340138518 0.000178340138518 0.000178340138518
         0.000181875831913 0.000181875831913 0.000181875831913
         0.000185464145034 0.000185464145034 0.000185464145034
         0.00018910257495 0.00018910257495 0.00018910257495
         0.000192790583242 0.000192790583242 0.000192790583242
         0.000196530949324 0.000196530949324 0.000196530949324
         0.000200323280296 0.000200323280296 0.000200323280296
         0.000204164854949 0.000204164854949 0.000204164854949
         0.000208061072044 0.000208061072044 0.000208061072044
         0.000212009486859 0.000212009486859 0.000212009486859
         0.000216007101699 0.000216007101699 0.000216007101699
         0.000220059911953 0.000220059911953 0.000220059911953
         0.000224164585234 0.000224164585234 0.000224164585234
         0.000228323493502 0.000228323493502 0.000228323493502
         0.000232536476688 0.000232536476688 0.000232536476688
         0.000236799824052 0.000236799824052 0.000236799824052
         0.00024111768289 0.00024111768289 0.00024111768289
         0.000245492265094 0.000245492265094 0.000245492265094
         0.000249918783084 0.000249918783084 0.000249918783084
         0.000254400423728 0.000254400423728 0.000254400423728
         0.000258937914623 0.000258937914623 0.000258937914623
         0.000263527210336 0.000263527210336 0.000263527210336
         0.000268173986115 0.000268173986115 0.000268173986115
         0.000272874312941 0.000272874312941 0.000272874312941
         0.000277634040685 0.000277634040685 0.000277634040685
         0.000282446562778 0.000282446562778 0.000282446562778
         0.000287317321636 0.000287317321636 0.000287317321636
         0.000292246346362 0.000292246346362 0.000292246346362
         0.000297226535622 0.000297226535622 0.000297226535622
         0.000302266562358 0.000302266562358 0.000302266562358
         0.000307363865431 0.000307363865431 0.000307363865431
         0.00031251978362 0.00031251978362 0.00031251978362
         0.000317732454278 0.000317732454278 0.000317732454278
         0.000323003449012 0.000323003449012 0.000323003449012
         0.000328329624608 0.000328329624608 0.000328329624608
         0.000333717092872 0.000333717092872 0.000333717092872
         0.000339166261256 0.000339166261256 0.000339166261256
         0.000344668573234 0.000344668573234 0.000344668573234
         0.00035023491364 0.00035023491364 0.00035023491364
         0.000355857657269 0.000355857657269 0.000355857657269
         0.000361540587619 0.000361540587619 0.000361540587619
         0.000367283239029 0.000367283239029 0.000367283239029
         0.000373088871129 0.000373088871129 0.000373088871129
         0.000378953176551 0.000378953176551 0.000378953176551
         0.000384876213502 0.000384876213502 0.000384876213502
         0.000390866014641 0.000390866014641 0.000390866014641
         0.000396913557779 0.000396913557779 0.000396913557779
         0.000403021404054 0.000403021404054 0.000403021404054
         0.00040919217281 0.00040919217281 0.00040919217281
         0.000415427843109 0.000415427843109 0.000415427843109
         0.000421724282205 0.000421724282205 0.000421724282205
         0.000428081024438 0.000428081024438 0.000428081024438
         0.00043450348312 0.00043450348312 0.00043450348312
         0.000440989795607 0.000440989795607 0.000440989795607
         0.000447535770945 0.000447535770945 0.000447535770945
         0.000454151129816 0.000454151129816 0.000454151129816
         0.000460830226075 0.000460830226075 0.000460830226075
         0.000467567355372 0.000467567355372 0.000467567355372
         0.000474372180179 0.000474372180179 0.000474372180179
         0.000481241964735 0.000481241964735 0.000481241964735
         0.000488178571686 0.000488178571686 0.000488178571686
         0.000495176413096 0.000495176413096 0.000495176413096
         0.000502244511154 0.000502244511154 0.000502244511154
         0.00050937832566 0.00050937832566 0.00050937832566
         0.000516574422363 0.000516574422363 0.000516574422363
         0.000523842521943 0.000523842521943 0.000523842521943
         0.00053117191419 0.00053117191419 0.00053117191419
         0.000538574531674 0.000538574531674 0.000538574531674
         0.000546036695596 0.000546036695596 0.000546036695596
         0.000553571269847 0.000553571269847 0.000553571269847
         0.000561179593205 0.000561179593205 0.000561179593205
         0.000568846066017 0.000568846066017 0.000568846066017
         0.000576583377551 0.000576583377551 0.000576583377551
         0.000584393390454 0.000584393390454 0.000584393390454
         0.000592268246692 0.000592268246692 0.000592268246692
         0.000600222090725 0.000600222090725 0.000600222090725
         0.000608232687227 0.000608232687227 0.000608232687227
         0.000616321514826 0.000616321514826 0.000616321514826
         0.000624473323114 0.000624473323114 0.000624473323114
         0.000632704293821 0.000632704293821 0.000632704293821
         0.000641005462967 0.000641005462967 0.000641005462967
         0.000649369787425 0.000649369787425 0.000649369787425
         0.000657812284771 0.000657812284771 0.000657812284771
         0.000666323583573 0.000666323583573 0.000666323583573
         0.000674904556945 0.000674904556945 0.000674904556945
         0.000683573656715 0.000683573656715 0.000683573656715
         0.000692293338943 0.000692293338943 0.000692293338943
         0.000701100041624 0.000701100041624 0.000701100041624
         0.000709975487553 0.000709975487553 0.000709975487553
         0.000718926952686 0.000718926952686 0.000718926952686
         0.00072794832522 0.00072794832522 0.00072794832522
         0.000737036287319 0.000737036287319 0.000737036287319
         0.000746210571378 0.000746210571378 0.000746210571378
         0.000755462620873 0.000755462620873 0.000755462620873
         0.000764782074839 0.000764782074839 0.000764782074839
         0.000774178188294 0.000774178188294 0.000774178188294
         0.000783651019447 0.000783651019447 0.000783651019447
         0.000793197075836 0.000793197075836 0.000793197075836
         0.000802821363322 0.000802821363322 0.000802821363322
         0.000812523474451 0.000812523474451 0.000812523474451
         0.000822297821287 0.000822297821287 0.000822297821287
         0.000832160061691 0.000832160061691 0.000832160061691
         0.000842088251375 0.000842088251375 0.000842088251375
         0.00085210124962 0.00085210124962 0.00085210124962
         0.000862187705934 0.000862187705934 0.000862187705934
         0.000872363627423 0.000872363627423 0.000872363627423
         0.000882600608747 0.000882600608747 0.000882600608747
         0.000892924203072 0.000892924203072 0.000892924203072
         0.000903333828319 0.000903333828319 0.000903333828319
         0.000913817901164 0.000913817901164 0.000913817901164
         0.000924387248233 0.000924387248233 0.000924387248233
         0.000935015792493 0.000935015792493 0.000935015792493
         0.000945758947637 0.000945758947637 0.000945758947637
         0.000956560077611 0.000956560077611 0.000956560077611
         0.000967447995208 0.000967447995208 0.000967447995208
         0.000978421187028 0.000978421187028 0.000978421187028
         0.00098946550861 0.00098946550861 0.00098946550861
         0.00100059644319 0.00100059644319 0.00100059644319
         0.00101181154605 0.00101181154605 0.00101181154605
         0.00102311291266 0.00102311291266 0.00102311291266
         0.00103450007737 0.00103450007737 0.00103450007737
         0.00104595697485 0.00104595697485 0.00104595697485
         0.00105751329102 0.00105751329102 0.00105751329102
         0.00106914120261 0.00106914120261 0.00106914120261
         0.00108085048851 0.00108085048851 0.00108085048851
         0.00109266268555 0.00109266268555 0.00109266268555
         0.00110454158857 0.00110454158857 0.00110454158857
         0.00111652316991 0.00111652316991 0.00111652316991
         0.00112858589273 0.00112858589273 0.00112858589273
         0.00114073522855 0.00114073522855 0.00114073522855
         0.00115296849981 0.00115296849981 0.00115296849981
         0.00116528500803 0.00116528500803 0.00116528500803
         0.00117768486962 0.00117768486962 0.00117768486962
         0.00119018298574 0.00119018298574 0.00119018298574
         0.00120276678354 0.00120276678354 0.00120276678354
         0.00121543277055 0.00121543277055 0.00121543277055
         0.00122820062097 0.00122820062097 0.00122820062097
         0.00124105077703 0.00124105077703 0.00124105077703
         0.00125398172531 0.00125398172531 0.00125398172531
         0.00126699684188 0.00126699684188 0.00126699684188
         0.00128013023641 0.00128013023641 0.00128013023641
         0.00129332754295 0.00129332754295 0.00129332754295
         0.001306625898 0.001306625898 0.001306625898
         0.00132000341546 0.00132000341546 0.00132000341546
         0.00133348535746 0.00133348535746 0.00133348535746
         0.00134706450626 0.00134706450626 0.00134706450626
         0.00136072689202 0.00136072689202 0.00136072689202
         0.00137448986061 0.00137448986061 0.00137448986061
         0.00138833059464 0.00138833059464 0.00138833059464
         0.00140227540396 0.00140227540396 0.00140227540396
         0.00141629786231 0.00141629786231 0.00141629786231
         0.00143042474519 0.00143042474519 0.00143042474519
         0.00144465151243 0.00144465151243 0.00144465151243
         0.00145897397306 0.00145897397306 0.00145897397306
         0.00147338001989 0.00147338001989 0.00147338001989
         0.00148788641673 0.00148788641673 0.00148788641673
         0.00150249327999 0.00150249327999 0.00150249327999
         0.00151717779227 0.00151717779227 0.00151717779227
         0.00153198710177 0.00153198710177 0.00153198710177
         0.00154687440954 0.00154687440954 0.00154687440954
         0.00156186078675 0.00156186078675 0.00156186078675
         0.00157694693189 0.00157694693189 0.00157694693189
         0.00159213552251 0.00159213552251 0.00159213552251
         0.00160740048159 0.00160740048159 0.00160740048159
         0.00162279093638 0.00162279093638 0.00162279093638
         0.00163828092627 0.00163828092627 0.00163828092627
         0.00165384553839 0.00165384553839 0.00165384553839
         0.00166951236315 0.00166951236315 0.00166951236315
         0.00168530514929 0.00168530514929 0.00168530514929
         0.00170117162634 0.00170117162634 0.00170117162634
         0.00171716581099 0.00171716581099 0.00171716581099
         0.00173323124181 0.00173323124181 0.00173323124181
         0.00174940004945 0.00174940004945 0.00174940004945
         0.00176569446921 0.00176569446921 0.00176569446921
         0.00178206036799 0.00178206036799 0.00178206036799
         0.00179858447518 0.00179858447518 0.00179858447518
         0.00181514874566 0.00181514874566 0.00181514874566
         0.00183184526395 0.00183184526395 0.00183184526395
         0.00184864213225 0.00184864213225 0.00184864213225
         0.0018655351596 0.0018655351596 0.0018655351596
         0.00188255542889 0.00188255542889 0.00188255542889
         0.0018996486906 0.0018996486906 0.0018996486906
         0.00191687082406 0.00191687082406 0.00191687082406
         0.00193419284187 0.00193419284187 0.00193419284187
         0.00195161404554 0.00195161404554 0.00195161404554
         0.00196916423738 0.00196916423738 0.00196916423738
         0.00198678020388 0.00198678020388 0.00198678020388
         0.00200452911668 0.00200452911668 0.00200452911668
         0.00202237744816 0.00202237744816 0.00202237744816
         0.00204035406932 0.00204035406932 0.00204035406932
         0.00205839937553 0.00205839937553 0.00205839937553
         0.0020765743684 0.0020765743684 0.0020765743684
         0.00209487648681 0.00209487648681 0.00209487648681
         0.00211328361183 0.00211328361183 0.00211328361183
         0.00213175150566 0.00213175150566 0.00213175150566
         0.00215038564056 0.00215038564056 0.00215038564056
         0.00216911803 0.00216911803 0.00216911803
         0.00218798546121 0.00218798546121 0.00218798546121
         0.00220691179857 0.00220691179857 0.00220691179857
         0.00222597224638 0.00222597224638 0.00222597224638
         0.0022451300174 0.0022451300174 0.0022451300174
         0.00226441631094 0.00226441631094 0.00226441631094
         0.00228383927606 0.00228383927606 0.00228383927606
         0.00230332417414 0.00230332417414 0.00230332417414
         0.0023229799699 0.0023229799699 0.0023229799699
         0.00234268815257 0.00234268815257 0.00234268815257
         0.00236257631332 0.00236257631332 0.00236257631332
         0.00238251523115 0.00238251523115 0.00238251523115
         0.00240259128623 0.00240259128623 0.00240259128623
         0.00242280401289 0.00242280401289 0.00242280401289
         0.00244310987182 0.00244310987182 0.00244310987182
         0.00246355310082 0.00246355310082 0.00246355310082
         0.00248412741348 0.00248412741348 0.00248412741348
         0.00250475620851 0.00250475620851 0.00250475620851
         0.00252556637861 0.00252556637861 0.00252556637861
         0.00254646292888 0.00254646292888 0.00254646292888
         0.0025675042998 0.0025675042998 0.0025675042998
         0.00258863624185 0.00258863624185 0.00258863624185
         0.00260989950038 0.00260989950038 0.00260989950038
         0.00263126031496 0.00263126031496 0.00263126031496
         0.00265275733545 0.00265275733545 0.00265275733545
         0.00267439405434 0.00267439405434 0.00267439405434
         0.00269616139121 0.00269616139121 0.00269616139121
         0.00271802488714 0.00271802488714 0.00271802488714
         0.00273997918703 0.00273997918703 0.00273997918703
         0.00276206969284 0.00276206969284 0.00276206969284
         0.00278434972279 0.00278434972279 0.00278434972279
         0.00280666630715 0.00280666630715 0.00280666630715
         0.00282917218283 0.00282917218283 0.00282917218283
         0.00285176746547 0.00285176746547 0.00285176746547
         0.00287449965253 0.00287449965253 0.00287449965253
         0.00289732567035 0.00289732567035 0.00289732567035
         0.0029203358572 0.0029203358572 0.0029203358572
         0.00294344010763 0.00294344010763 0.00294344010763
         0.00296663027257 0.00296663027257 0.00296663027257
         0.00299001182429 0.00299001182429 0.00299001182429
         0.00301352585666 0.00301352585666 0.00301352585666
         0.00303713255562 0.00303713255562 0.00303713255562
         0.00306083005853 0.00306083005853 0.00306083005853
         0.00308471475728 0.00308471475728 0.00308471475728
         0.00310873822309 0.00310873822309 0.00310873822309
         0.00313285272568 0.00313285272568 0.00313285272568
         0.00315710809082 0.00315710809082 0.00315710809082
         0.00318150152452 0.00318150152452 0.00318150152452
         0.00320597575046 0.00320597575046 0.00320597575046
         0.00323064927943 0.00323064927943 0.00323064927943
         0.00325546041131 0.00325546041131 0.00325546041131
         0.00328036304563 0.00328036304563 0.00328036304563
         0.00330540467985 0.00330540467985 0.00330540467985
         0.00333058461547 0.00333058461547 0.00333058461547
         0.00335590657778 0.00335590657778 0.00335590657778
         0.00338136591017 0.00338136591017 0.00338136591017
         0.00340691418387 0.00340691418387 0.00340691418387
         0.00343259982765 0.00343259982765 0.00343259982765
         0.00345849012956 0.00345849012956 0.00345849012956
         0.00348445679992 0.00348445679992 0.00348445679992
         0.00351062649861 0.00351062649861 0.00351062649861
         0.00353688350879 0.00353688350879 0.00353688350879
         0.00356321292929 0.00356321292929 0.00356321292929
         0.00358974630944 0.00358974630944 0.00358974630944
         0.00361643265933 0.00361643265933 0.00361643265933
         0.00364324799739 0.00364324799739 0.00364324799739
         0.00367021281272 0.00367021281272 0.00367021281272
         0.00369731686078 0.00369731686078 0.00369731686078
         0.00372450449504 0.00372450449504 0.00372450449504
         0.00375189096667 0.00375189096667 0.00375189096667
         0.00377942668274 0.00377942668274 0.00377942668274
         0.00380703248084 0.00380703248084 0.00380703248084
         0.00383484875783 0.00383484875783 0.00383484875783
         0.00386281777173 0.00386281777173 0.00386281777173
         0.00389085174538 0.00389085174538 0.00389085174538
         0.00391903892159 0.00391903892159 0.00391903892159
         0.00394742703065 0.00394742703065 0.00394742703065
         0.00397596601397 0.00397596601397 0.00397596601397
         0.00400458136573 0.00400458136573 0.00400458136573
         0.00403340067714 0.00403340067714 0.00403340067714
         0.00406229635701 0.00406229635701 0.00406229635701
         0.00409140530974 0.00409140530974 0.00409140530974
         0.00412065768614 0.00412065768614 0.00412065768614
         0.00415006047115 0.00415006047115 0.00415006047115
         0.00417960248888 0.00417960248888 0.00417960248888
         0.00420921621844 0.00420921621844 0.00420921621844
         0.00423911726102 0.00423911726102 0.00423911726102
         0.00426909141243 0.00426909141243 0.00426909141243
         0.00429913541302 0.00429913541302 0.00429913541302
         0.00432946858928 0.00432946858928 0.00432946858928
         0.00435988418758 0.00435988418758 0.00435988418758
         0.00439042737707 0.00439042737707 0.00439042737707
         0.00442120619118 0.00442120619118 0.00442120619118
         0.00445203995332 0.00445203995332 0.00445203995332
         0.00448309676722 0.00448309676722 0.00448309676722
         0.00451430538669 0.00451430538669 0.00451430538669
         0.00454557919875 0.00454557919875 0.00454557919875
         0.00457715429366 0.00457715429366 0.00457715429366
         0.00460879504681 0.00460879504681 0.00460879504681
         0.00464049819857 0.00464049819857 0.00464049819857
         0.00467250263318 0.00467250263318 0.00467250263318
         0.00470458390191 0.00470458390191 0.00470458390191
         0.00473688030615 0.00473688030615 0.00473688030615
         0.00476933177561 0.00476933177561 0.00476933177561
         0.00480191828683 0.00480191828683 0.00480191828683
         0.00483466032892 0.00483466032892 0.00483466032892
         0.00486753787845 0.00486753787845 0.00486753787845
         0.00490056630224 0.00490056630224 0.00490056630224
         0.00493382848799 0.00493382848799 0.00493382848799
         0.00496723037213 0.00496723037213 0.00496723037213
         0.0050006872043 0.0050006872043 0.0050006872043
         0.00503437733278 0.00503437733278 0.00503437733278
         0.0050683026202 0.0050683026202 0.0050683026202
         0.00510229822248 0.00510229822248 0.00510229822248
         0.00513651454821 0.00513651454821 0.00513651454821
         0.00517088221386 0.00517088221386 0.00517088221386
         0.00520538771525 0.00520538771525 0.00520538771525
         0.00524004548788 0.00524004548788 0.00524004548788
         0.00527484063059 0.00527484063059 0.00527484063059
