aces_1.0.2/luts/Log2_1000_nits_Shaper_to_linear.spi1d
Version 1
From 0.000000 1.000000
Length 4096
Components 1
{
         4.39453142462e-05
         4.41092524852e-05
         4.42738382844e-05
         4.44390025223e-05
         4.46048143203e-05
         4.4771215471e-05
         4.4938238716e-05
         4.51059131592e-05
         4.5274180593e-05
         4.5443081035e-05
         4.56126363133e-05
         4.5782799134e-05
         4.59536240669e-05
         4.61250601802e-05
         4.62971293018e-05
         4.64698750875e-05
         4.66432356916e-05
         4.681723658e-05
         4.69919250463e-05
         4.71672283311e-05
         4.73432228318e-05
         4.7519839427e-05
         4.76971181342e-05
         4.78750844195e-05
         4.80536837131e-05
         4.82329523948e-05
         4.84129195684e-05
         4.85935233883e-05
         4.8774840252e-05
         4.89567974e-05
         4.91394348501e-05
         4.9322788982e-05
         4.95067870361e-05
         4.96914763062e-05
         4.98768822581e-05
         5.00629503222e-05
         5.0249745982e-05
         5.0437207392e-05
         5.06253672938e-05
         5.08142620674e-05
         5.10038298671e-05
         5.11940997967e-05
         5.13851191499e-05
         5.15768115292e-05
         5.17692606081e-05
         5.19623863511e-05
         5.21562360518e-05
         5.23508424521e-05
         5.25461364305e-05
         5.27421652805e-05
         5.29389617441e-05
         5.31364530616e-05
         5.33347156306e-05
         5.35336839675e-05
         5.37333908142e-05
         5.39338871022e-05
         5.41350891581e-05
         5.43370406376e-05
         5.45397888345e-05
         5.47432500753e-05
         5.49475116713e-05
         5.51524972252e-05
         5.53582467546e-05
         5.55648002774e-05
         5.57720850338e-05
         5.59801519557e-05
         5.6189022871e-05
         5.63986395719e-05
         5.6609074818e-05
         5.68202594877e-05
         5.70322299609e-05
         5.72450335312e-05
         5.74585865252e-05
         5.76729398745e-05
         5.78881299589e-05
         5.81040840189e-05
         5.83208857279e-05
         5.85384550504e-05
         5.87568356423e-05
         5.89760675211e-05
         5.91960815655e-05
         5.9416921431e-05
         5.96386162215e-05
         5.98611040914e-05
         6.00844614382e-05
         6.03086082265e-05
         6.05335881119e-05
         6.07594556641e-05
         6.09861235716e-05
         6.12136354903e-05
         6.14420350757e-05
         6.16712495685e-05
         6.1901359004e-05
         6.21322833467e-05
         6.23640735284e-05
         6.25967659289e-05
         6.28302877885e-05
         6.30646827631e-05
         6.32999872323e-05
         6.35361357126e-05
         6.37732082396e-05
         6.40111175017e-05
         6.42499071546e-05
         6.4489642682e-05
         6.47302222205e-05
         6.49717039778e-05
         6.52141243336e-05
         6.54574105283e-05
         6.57016498735e-05
         6.59467550577e-05
         6.61927697365e-05
         6.64397521177e-05
         6.66876076139e-05
         6.69363871566e-05
         6.71861416777e-05
         6.74367911415e-05
         6.76884083077e-05
         6.79409204167e-05
         6.81943784002e-05
         6.84488259139e-05
         6.87041829224e-05
         6.89604858053e-05
         6.92177927704e-05
         6.94760165061e-05
         6.9735244324e-05
         6.99954034644e-05
         7.02565230313e-05
         7.05186612322e-05
         7.07817380317e-05
         7.10457970854e-05
         7.13108820491e-05
         7.15769056114e-05
         7.18439841876e-05
         7.21120013623e-05
         7.23810153431e-05
         7.26510843378e-05
         7.2922113759e-05
         7.31941545382e-05
         7.34672576073e-05
         7.37413356546e-05
         7.40164759918e-05
         7.42926058592e-05
         7.45697543607e-05
         7.48479942558e-05
         7.51272164052e-05
         7.54074862925e-05
         7.56888475735e-05
         7.59712129366e-05
         7.62546769693e-05
         7.65391450841e-05
         7.68246827647e-05
         7.71113336668e-05
         7.7399003203e-05
         7.7687742305e-05
         7.79776164563e-05
         7.82685092418e-05
         7.85605516285e-05
         7.88536199252e-05
         7.91477868916e-05
         7.94431107352e-05
         7.97394823167e-05
         8.00369525678e-05
         8.03355869721e-05
         8.06352836662e-05
         8.09361517895e-05
         8.12380894786e-05
         8.15411549411e-05
         8.18453991087e-05
         8.215073467e-05
         8.24571980047e-05
         8.27648618724e-05
         8.30736244097e-05
         8.33835874801e-05
         8.36946564959e-05
         8.40068823891e-05
         8.43203379191e-05
         8.46348993946e-05
         8.49506322993e-05
         8.52676021168e-05
         8.55856997077e-05
         8.59050414874e-05
         8.62255110405e-05
         8.65471811267e-05
         8.68701026775e-05
         8.71941811056e-05
         8.75194673426e-05
         8.78460195963e-05
         8.81737360032e-05
         8.85027257027e-05
         8.88328941073e-05
         8.91642921488e-05
         8.94969853107e-05
         8.98308644537e-05
         9.01660314412e-05
         9.05024062376e-05
         9.08400324988e-05
         9.11789757083e-05
         9.15191194508e-05
         9.18605364859e-05
         9.22032995732e-05
         9.25472704694e-05
         9.28925219341e-05
         9.3239119451e-05
         9.35869611567e-05
         9.39361489145e-05
         9.4286588137e-05
         9.463832248e-05
         9.4991439255e-05
         9.53458147706e-05
         9.57015654421e-05
         9.60585966823e-05
         9.64169448707e-05
         9.6776690043e-05
         9.71377230599e-05
         9.75001021288e-05
         9.78639000095e-05
         9.82289857347e-05
         9.859543934e-05
         9.89633190329e-05
         9.93325011223e-05
         9.97031384031e-05
         0.000100075085356
         0.000100448429293
         0.000100823221146
         0.000101199351775
         0.000101576944871
         0.00010195588402
         0.000102336234704
         0.00010271807696
         0.000103101265267
         0.000103485894215
         0.000103872029285
         0.00010425952496
         0.000104648475826
         0.000105038947368
         0.000105430801341
         0.000105824183265
         0.000106218962173
         0.000106615225377
         0.000107013031084
         0.000107412248326
         0.000107813022623
         0.000108215223008
         0.000108618929517
         0.000109024214908
         0.000109430933662
         0.000109839165816
         0.000110249013233
         0.000110660301289
         0.000111073117296
         0.000111487563117
         0.000111903471407
         0.00011232100951
         0.000112740024633
         0.000113160611363
         0.000113582842459
         0.000114006565127
         0.000114431946713
         0.000114858848974
         0.000115287330118
         0.000115717499284
         0.000116149189125
         0.000116582494229
         0.000117017494631
         0.00011745403026
         0.000117892195703
         0.000118332078273
         0.000118773517897
         0.000119216696476
         0.000119661439385
         0.000120107848488
         0.000120555996546
         0.000121005738038
         0.000121457240311
         0.00012191033602
         0.000122365134303
         0.000122821715195
         0.000123279896798
         0.000123739795526
         0.000124201498693
         0.000124664846226
         0.000125129910884
         0.000125596794533
         0.000126065351651
         0.000126535727759
         0.000127007777337
         0.000127481587697
         0.00012795724615
         0.000128434592625
         0.000128913816297
         0.000129394727992
         0.000129877444124
         0.000130362052005
         0.000130848377012
         0.000131336521008
         0.000131826571305
         0.00013231835328
         0.000132811968797
         0.000133307519718
         0.000133804831421
         0.000134304093081
         0.000134805115522
         0.00013530801516
         0.000135812879307
         0.00013631953334
         0.000136828180985
         0.000137338633067
         0.000137850976898
         0.000138365328894
         0.000138881514431
         0.000139399620821
         0.000139919749927
         0.000140441727126
         0.000140965654282
         0.000141491618706
         0.000142019474879
         0.000142549382872
         0.000143081168062
         0.000143614932313
         0.000144150792039
         0.000144688558066
         0.000145228419569
         0.000145770201925
         0.000146314021549
         0.000146859951201
         0.000147407816257
         0.000147957733134
         0.000148509789142
         0.000149063809658
         0.000149619911099
         0.000150178180775
         0.000150738429511
         0.000151300861035
         0.000151865300722
         0.000152431835886
         0.000153000597493
         0.000153571381816
         0.000154144392582
         0.000154719426064
         0.000155296613229
         0.000155876070494
         0.000156457579578
         0.000157041242346
         0.000157627204317
         0.000158215232659
         0.000158805472893
         0.000159398012329
         0.000159992647241
         0.000160589625011
         0.000161188712809
         0.000161790041602
         0.000162393713254
         0.000162999538588
         0.000163607721333
         0.000164218057762
         0.000164830693393
         0.000165445715538
         0.000166062920471
         0.000166682424606
         0.000167304358911
         0.000167928490555
         0.000168554965057
         0.000169183884282
         0.000169815029949
         0.000170448649442
         0.000171084524482
         0.000171722756932
         0.000172363492311
         0.000173006512341
         0.000173652035301
         0.000174299842911
         0.000174950080691
         0.000175602865056
         0.000176257963176
         0.000176915491465
         0.000177575609996
         0.000178238071385
         0.000178902992047
         0.000179570532055
         0.000180240429472
         0.000180912946234
         0.000181587864063
         0.000182265386684
         0.000182945354027
         0.000183627824299
         0.000184312986676
         0.000185000579222
         0.000185690747458
         0.000186383593245
         0.000187078912859
         0.000187776822713
         0.000188477453776
         0.000189180587768
         0.000189886326552
         0.000190594844753
         0.000191305865883
         0.000192019666429
         0.000192735999008
         0.000193455154658
         0.000194176856894
         0.000194901236682
         0.000195628454094
         0.000196358261746
         0.000197090805159
         0.000197826186195
         0.000198564186576
         0.000199304937269
         0.000200048583793
         0.000200794893317
         0.000201543953153
         0.000202295967028
         0.000203050643904
         0.000203808274819
         0.000204568583285
         0.000205331889447
         0.000206097887713
         0.000206866738154
         0.000207638615393
         0.000208413228393
         0.000209190722671
         0.000209971243748
         0.000210754558793
         0.000211540798773
         0.000212330109207
         0.000213122213609
         0.000213917286601
         0.000214715444599
         0.000215516469325
         0.00021632060816
         0.000217127599171
         0.000217937747948
         0.000218750792556
         0.00021956684941
         0.000220386107685
         0.000221208261792
         0.000222033500904
         0.000222861941438
         0.000223693350563
         0.000224527844694
         0.000225365627557
         0.000226206349907
         0.000227050244575
         0.000227897413424
         0.00022874759452
         0.000229601108003
         0.000230457648286
         0.000231317535508
         0.000232180464081
         0.000233046637732
         0.000233916187426
         0.000234788836678
         0.000235664716456
         0.000236544045038
         0.000237426487729
         0.000238312204601
         0.000239201413933
         0.000240093751927
         0.000240989451413
         0.000241888643359
         0.000242791007622
         0.000243696922553
         0.000244606053457
         0.00024551874958
         0.000246434647124
         0.000247354008025
         0.000248276919592
         0.000249203148996
         0.000250132812653
         0.000251066114288
         0.00025200273376
         0.000252942845691
         0.000253886624705
         0.00025483375066
         0.000255784427281
         0.000256738829194
         0.00025769660715
         0.000258658110397
         0.000259623077
         0.000260591797996
         0.000261563953245
         0.000262539717369
         0.000263519323198
         0.000264502392383
         0.000265489128651
         0.000266479706625
         0.000267473864369
         0.000268471689196
         0.000269473384833
         0.000270478689345
         0.000271487719147
         0.000272500707069
         0.000273517303867
         0.000274537858786
         0.00027556202258
         0.000276590202702
         0.000277622020803
         0.000278657709714
         0.000279697444057
         0.00028074090369
         0.000281788205029
         0.000282839610009
         0.000283894769382
         0.000284953857772
         0.00028601710801
         0.000287084083539
         0.000288155075395
         0.000289230258204
         0.000290309253614
         0.000291392439976
         0.000292479497148
         0.000293570803478
         0.000294666009722
         0.000295765261399
         0.000296868820442
         0.000297976308502
         0.000299087929307
         0.000300203915685
         0.000301323831081
         0.000302447937429
         0.000303576438455
         0.000304708955809
         0.000305845896946
         0.000306986854412
         0.000308132322971
         0.000309281807858
         0.000310435600113
         0.000311593903461
         0.000312756339554
         0.000313923083013
         0.000315094395773
         0.000316269870382
         0.000317449739669
         0.000318634236464
         0.000319822895108
         0.000321016035741
         0.000322213803884
         0.000323415850289
         0.000324622582411
         0.000325833621901
         0.00032704937621
         0.000328269437887
         0.000329494068865
         0.000330723501975
         0.000331957271555
         0.000333195639541
         0.000334438896971
         0.000335686549079
         0.000336938828696
         0.00033819602686
         0.00033945767791
         0.000340724043781
         0.000341995357303
         0.000343271211023
         0.000344552012393
         0.000345837412169
         0.0003471277887
         0.00034842279274
         0.000349722569808
         0.000351027469151
         0.000352336996002
         0.000353651412297
         0.00035497097997
         0.00035629523336
         0.000357624376193
         0.000358958786819
         0.000360297883162
         0.000361642014468
         0.00036299135536
         0.000364345556591
         0.000365704996511
         0.000367069296772
         0.000368438893929
         0.000369813409634
         0.000371192960301
         0.000372578011593
         0.000373967923224
         0.000375363015337
         0.00037676357897
         0.000378169148462
         0.000379579898436
         0.000380996207241
         0.000382417551009
         0.00038384416257
         0.000385276362067
         0.000386713654734
         0.000388156593544
         0.000389604625525
         0.000391058332752
         0.000392517220462
         0.000393981521484
         0.00039545155596
         0.000396926800022
         0.000398407544708
         0.00039989411016
         0.000401385943405
         0.000402883306378
         0.000404386577429
         0.000405895174481
         0.000407409388572
         0.000408929510741
         0.000410455075325
         0.000411986577092
         0.000413523521274
         0.000415066460846
         0.000416614871938
         0.000418169103796
         0.00041972938925
         0.000421295204433
         0.000422866869485
         0.000424444675446
         0.000426028098445
         0.000427617429523
         0.000429212959716
         0.000430814165156
         0.000432421365986
         0.000434034795035
         0.000435654015746
         0.000437279493781
         0.000438910792582
         0.000440548494225
         0.000442191958427
         0.000443841621745
         0.000445497658802
         0.00044715963304
         0.000448827806395
         0.000450502469903
         0.000452183070593
         0.000453869986814
         0.000455563509604
         0.000457262969576
         0.000458968861494
         0.000460681359982
         0.000462399941171
         0.000464125274448
         0.000465856719529
         0.000467594916699
         0.000469339312986
         0.00047109022853
         0.00047284795437
         0.000474611966638
         0.000476382498164
         0.000478160014609
         0.000479943817481
         0.000481734285131
         0.0004835317377
         0.000485335593112
         0.000487146171508
         0.000488963793032
         0.00049078790471
         0.000492619117722
         0.0004944569082
         0.000496301800013
         0.000498153327499
         0.000500011723489
         0.000501877395436
         0.000503749644849
         0.000505628879182
         0.000507515564095
         0.000509408826474
         0.000511309248395
         0.000513217062689
         0.000515131629072
         0.000517053354997
         0.000518982589711
         0.000520918692928
         0.000522862363141
         0.000524812960066
         0.000526771123987
         0.000528736272827
         0.000530708755832
         0.000532688980456
         0.00053467619
         0.000536670791917
         0.000538673251867
         0.000540682813153
         0.000542699883226
         0.000544724753127
         0.000546756957192
         0.000548796611838
         0.000550844299141
         0.000552899262402
         0.00055496225832
         0.000557032588404
         0.000559111009352
         0.000561196822673
         0.000563290377613
         0.000565392139833
         0.000567501410842
         0.000569618481677
         0.000571743818
         0.000573876779526
         0.000576017657295
         0.000578166916966
         0.000580323743634
         0.000582488719374
         0.000584662135225
         0.000586843234487
         0.000589032890275
         0.000591230287682
         0.000593436299823
         0.000595650169998
         0.000597872305661
         0.000600103056058
         0.000602341780905
         0.000604588887654
         0.000606844725553
         0.000609108596109
         0.000611380906776
         0.000613662123214
         0.000615951430518
         0.00061824923614
         0.00062055606395
         0.00062287109904
         0.000625195156317
         0.00062752753729
         0.00062986894045
         0.000632218725514
         0.000634577241726
         0.000636945012957
         0.000639321166091
         0.000641706166789
         0.000644100538921
         0.000646503409371
         0.000648915185593
         0.000651336449664
         0.000653766328469
         0.000656205229461
         0.00065865367651
         0.0006611107965
         0.000663577578962
         0.000666053092573
         0.000668538268656
         0.000671032292303
         0.000673535629176
         0.000676048744936
         0.000678570766468
         0.000681102275848
         0.000683643622324
         0.000686193932779
         0.000688753847498
         0.000691323715728
         0.000693902780768
         0.000696491450071
         0.0006990901893
         0.000701698183548
         0.000704316073097
         0.000706943799742
         0.000709581363481
         0.000712228764314
         0.000714885769412
         0.00071755296085
         0.000720230047591
         0.000722917146049
         0.000725614023395
         0.000728321203496
         0.000731038511731
         0.00073376588989
         0.000736503279768
         0.000739251088817
         0.000742009200621
         0.000744777556974
         0.000747555983253
         0.000750345061533
         0.000753144442569
         0.0007559544174
         0.000758774520364
         0.000761605391745
         0.00076444685692
         0.000767298974097
         0.00077016139403
         0.000773034815211
         0.000775918946601
         0.000778813788202
         0.000781719223596
         0.000784635660239
         0.000787563039921
         0.000790501420852
         0.000793450453784
         0.000796410662588
         0.000799382047262
         0.000802364433184
         0.000805357703939
         0.000808362441603
         0.00081137829693
         0.000814405502751
         0.000817443709821
         0.000820493442006
         0.000823554641102
         0.000826627248898
         0.000829711032566
         0.000832806574181
         0.000835913640913
         0.000839032407384
         0.000842162466142
         0.000845304515678
         0.000848458206747
         0.00085162371397
         0.000854800746311
         0.000857989944052
         0.000861190957949
         0.000864404020831
         0.000867628667038
         0.000870865769684
         0.000874114863109
         0.000877376063727
         0.000880649196915
         0.000883934844751
         0.000887232716195
         0.000890542811248
         0.000893865071703
         0.000897199963219
         0.000900547369383
         0.000903907173779
         0.000907279259991
         0.000910664210096
         0.000914061849471
         0.000917472119909
         0.000920894788578
         0.000924330495764
         0.000927779066842
         0.000931240560021
         0.000934714567848
         0.000938201905228
         0.000941702222917
         0.000945215579122
         0.00094874179922
         0.000952281465288
         0.000955834286287
         0.000959400495049
         0.000962979567703
         0.00096657226095
         0.000970178516582
         0.000973798159976
         0.000977430958301
         0.000981077668257
         0.000984737998806
         0.000988411949947
         0.000992099172436
         0.000995800597593
         0.000999515876174
         0.00100324500818
         0.00100698764436
         0.00101074459963
         0.00101451552473
         0.0010183006525
         0.00102209940087
         0.00102591281757
         0.00102974032052
         0.00103358214255
         0.00103743805084
         0.00104130862746
         0.00104519363958
         0.0010490930872
         0.00105300685391
         0.00105693552177
         0.00106087874155
         0.0010648368625
         0.00106880930252
         0.00107279687654
         0.00107679935172
         0.00108081672806
         0.00108484877273
         0.00108889630064
         0.00109295884613
         0.00109703652561
         0.00110112910625
         0.00110523728654
         0.00110936083365
         0.00111349974759
         0.00111765379552
         0.00112182355952
         0.00112600903958
         0.00113021000288
         0.00113442621659
         0.00113865872845
         0.00114290695637
         0.00114717101678
         0.00115145056043
         0.00115574651863
         0.00116005842574
         0.00116438651457
         0.00116873043589
         0.00117309077177
         0.0011774674058
         0.00118186045438
         0.00118626945186
         0.00119069532957
         0.00119513762183
         0.00119959656149
         0.00120407179929
         0.00120856403373
         0.00121307303198
