aces_1.0.2/luts/Protune_Flat_to_linear.spi1d
Version 1
From 0.000000 1.000000
Length 4096
Components 1
{
         0.0
         1.03133561424e-05
         2.06386248465e-05
         3.09758215735e-05
         4.1324958147e-05
         5.16860454809e-05
         6.2059101765e-05
         7.24441488273e-05
         8.28411793918e-05
         9.32502298383e-05
         0.000103671292891
         0.000114104404929
         0.000124549565953
         0.000135006775963
         0.000145476078615
         0.000155957473908
         0.000166450976394
         0.000176956600626
         0.000187474361155
         0.000198004272534
         0.000208546334761
         0.000219100591494
         0.000229667028179
         0.00024024565937
         0.000250836543273
         0.000261439621681
         0.000272054981906
         0.000282682565739
         0.000293322460493
         0.000303974637063
         0.00031463909545
         0.000325315893861
         0.000336005032295
         0.000346706510754
         0.000357420329237
         0.000368146545952
         0.000378885131795
         0.000389636144973
         0.000400399585487
         0.000411175424233
         0.000421963719418
         0.000432764500147
         0.000443577737315
         0.000454403460026
         0.000465241697384
         0.000476092449389
         0.000486955745146
         0.000497831555549
         0.000508719997015
         0.000519620953128
         0.000530534540303
         0.000541460700333
         0.000552399491426
         0.000563350913581
         0.000574315025005
         0.000585291767493
         0.00059628119925
         0.000607283320278
         0.000618298130576
         0.000629325688351
         0.000640365935396
         0.000651418988127
         0.000662484788336
         0.00067356339423
         0.000684654805809
         0.000695758964866
         0.000706875987817
         0.00071800587466
         0.000729148567189
         0.000740304181818
         0.00075147266034
         0.000762654060964
         0.00077384832548
         0.000785055570304
         0.00079627573723
         0.000807508884463
         0.000818754953798
         0.000830014061648
         0.000841286149807
         0.000852571276482
         0.000863869441673
         0.00087518064538
         0.000886504945811
         0.000897842284758
         0.000909192720428
         0.00092055631103
         0.000931932998355
         0.000943322782405
         0.000954725779593
         0.000966141931713
         0.000977571238764
         0.000989013817161
         0.00100046955049
         0.00101193855517
         0.00102342083119
         0.00103491637856
         0.00104642508086
         0.00105794717092
         0.00106948253233
         0.0010810312815
         0.00109259330202
         0.0011041687103
         0.00111575750634
         0.00112735969014
         0.00113897526171
         0.00115060422104
         0.00116224668454
         0.00117390253581
         0.00118557189126
         0.00119725463446
         0.00120895099826
         0.00122066074982
         0.00123238412198
         0.00124412099831
         0.00125587137882
         0.00126763537992
         0.00127941300161
         0.0012912042439
         0.00130300899036
         0.00131482747383
         0.0013266595779
         0.00133850541897
         0.00135036488064
         0.00136223796289
         0.00137412489858
         0.00138602545485
         0.00139793974813
         0.00140986789484
         0.00142180977855
         0.00143376551569
         0.00144573498983
         0.0014577183174
         0.00146971549839
         0.00148172641639
         0.00149375142064
         0.0015057901619
         0.001517842873
         0.00152990943752
         0.00154198997188
         0.00155408447608
         0.00156619295012
         0.001578315394
         0.00159045192413
         0.0016026024241
         0.00161476689391
         0.00162694544997
         0.00163913809229
         0.00165134482086
         0.00166356563568
         0.00167580053676
         0.00168804964051
         0.00170031283051
         0.00171259022318
         0.00172488181852
         0.00173718750011
         0.00174950750079
         0.00176184170414
         0.00177419022657
         0.00178655283526
         0.00179892987944
         0.0018113211263
         0.00182372680865
         0.00183614669368
         0.0018485810142
         0.00186102965381
         0.0018734926125
         0.00188597012311
         0.00189846195281
         0.001910968218
         0.00192348891869
         0.00193602405488
         0.00194857374299
         0.0019611378666
         0.00197371654212
         0.00198630965315
         0.0019989174325
         0.00201153964736
         0.00202417653054
         0.00203682808205
         0.00204949406907
         0.00206217495725
         0.00207487028092
         0.00208758027293
         0.00210030493326
         0.00211304449476
         0.00212579849176
         0.00213856738992
         0.00215135095641
         0.00216414942406
         0.00217696256004
         0.00218979036435
         0.00220263330266
         0.00221549090929
         0.00222836341709
         0.00224125059322
         0.00225415290333
         0.00226706988178
         0.00228000199422
         0.00229294900782
         0.00230591092259
         0.00231888773851
         0.00233187968843
         0.0023448865395
         0.00235790852457
         0.0023709454108
         0.00238399743102
         0.00239706458524
         0.00241014687344
         0.00242324406281
         0.002436356619
         0.00244948407635
         0.00246262690052
         0.00247578485869
         0.00248895795085
         0.00250214640982
         0.00251534976996
         0.00252856872976
         0.00254180282354
         0.00255505228415
         0.00256831687875
         0.00258159684017
         0.00259489216842
         0.00260820286348
         0.00262152892537
         0.00263487058692
         0.00264822738245
         0.00266159977764
         0.00267498753965
         0.00268839066848
         0.00270180939697
         0.00271524349228
         0.00272869318724
         0.00274215848185
         0.00275563937612
         0.00276913563721
         0.00278264773078
         0.00279617519118
         0.00280971848406
         0.00282327737659
         0.00283685186878
         0.00285044196062
         0.00286404788494
         0.00287766964175
         0.00289130699821
         0.00290495995432
         0.00291862874292
         0.00293231359683
         0.00294601405039
         0.00295973033644
         0.00297346245497
         0.00298721040599
         0.00300097418949
         0.0030147540383
         0.0030285497196
         0.00304236123338
         0.00305618881248
         0.00307003245689
         0.00308389193378
         0.00309776747599
         0.00311165908352
         0.00312556675635
         0.0031394904945
         0.00315343006514
         0.00316738593392
         0.00318135810085
         0.00319534610026
         0.00320935039781
         0.00322337099351
         0.00323740765452
         0.00325146038085
         0.00326552963816
         0.00327961496077
         0.00329371658154
         0.00330783450045
         0.0033219687175
         0.0033361192327
         0.00335028604604
         0.00336446939036
         0.00337866903283
         0.00339288497344
         0.00340711744502
         0.00342136644758
         0.00343563174829
         0.00344991357997
         0.00346421194263
         0.00347852683626
         0.00349285826087
         0.00350720621645
         0.00352157070301
         0.00353595172055
         0.00355034950189
         0.00356476381421
         0.00357919489034
         0.00359364249744
         0.00360810686834
         0.00362258800305
         0.00363708566874
         0.00365160033107
         0.00366613152437
         0.00368067971431
         0.00369524443522
         0.00370982615277
         0.00372442486696
         0.00373904034495
         0.00375367258675
         0.00376832182519
         0.00378298782744
         0.00379767105915
         0.00381237105466
         0.00382708804682
         0.00384182203561
         0.00385657302104
         0.00387134100311
         0.00388612621464
         0.00390092842281
         0.00391574762762
         0.00393058406189
         0.00394543772563
         0.00396030861884
         0.00397519627586
         0.00399010162801
         0.00400502374396
         0.00401996308938
         0.00403492012993
         0.00404989393428
         0.00406488543376
         0.00407989416271
         0.00409492012113
         0.00410996377468
         0.00412502419204
         0.00414010230452
         0.00415519811213
         0.00417031114921
         0.00418544141576
         0.00420058937743
         0.00421575503424
         0.00423093792051
         0.00424613850191
         0.00426135631278
         0.00427659228444
         0.00429184548557
         0.00430711591616
         0.00432240450755
         0.00433771079406
         0.0043530347757
         0.00436837598681
         0.00438373535872
         0.00439911242574
         0.0044145071879
         0.00442991964519
         0.00444534979761
         0.00446079811081
         0.00447626411915
         0.00449174782261
         0.00450724968687
         0.00452276924625
         0.00453830696642
         0.00455386238173
         0.00456943595782
         0.0045850276947
         0.00460063712671
         0.00461626471952
         0.00463191000745
         0.00464757392183
         0.00466325553134
         0.00467895530164
         0.00469467323273
         0.00471040979028
         0.00472616404295
         0.00474193645641
         0.00475772703066
         0.00477353623137
         0.00478936359286
         0.00480520911515
         0.00482107279822
         0.00483695510775
         0.00485285557806
         0.00486877420917
         0.00488471146673
         0.00490066735074
         0.00491664139554
         0.00493263406679
         0.00494864489883
         0.00496467435732
         0.00498072244227
         0.00499678915367
         0.00501287402585
         0.00502897799015
         0.00504510011524
         0.00506124133244
         0.00507740071043
         0.00509357871488
         0.00510977581143
         0.00512599153444
         0.0051422258839
         0.00515847885981
         0.00517475092784
         0.00519104162231
         0.00520735094324
         0.00522367935628
         0.00524002686143
         0.00525639252737
         0.00527277775109
         0.00528918160126
         0.00530560454354
         0.00532204611227
         0.00533850723878
         0.00535498699173
         0.0053714858368
         0.00538800377399
         0.00540454080328
         0.00542109692469
         0.00543767213821
         0.00545426644385
         0.00547088030726
         0.00548751279712
         0.00550416484475
         0.0055208359845
         0.00553752668202
         0.00555423600599
         0.0055709653534
         0.00558771379292
         0.00560448132455
         0.00562126841396
         0.00563807506114
         0.00565490080044
         0.00567174609751
         0.00568861095235
         0.0057054948993
         0.00572239886969
         0.0057393219322
         0.00575626501814
         0.00577322719619
         0.00579020939767
         0.00580721069127
         0.00582423200831
         0.00584127288312
         0.00585833378136
         0.00587541377172
         0.00589251378551
         0.00590963382274
         0.00592677341774
         0.00594393257052
         0.00596111174673
         0.00597831094638
         0.0059955297038
         0.00601276848465
         0.00603002728894
         0.00604730565101
         0.00606460450217
         0.00608192291111
         0.00609926134348
         0.00611661979929
         0.00613399874419
         0.00615139724687
         0.00616881623864
         0.00618625525385
         0.0062037142925
         0.00622119335458
         0.00623869290575
         0.00625621248037
         0.00627375254408
         0.00629131263122
         0.0063088927418
         0.00632649380714
         0.00634411489591
         0.00636175600812
         0.00637941807508
         0.00639710016549
         0.00641480274498
         0.00643252581358
         0.00645026937127
         0.00646803341806
         0.00648581795394
         0.00650362297893
         0.006521448493
         0.00653929496184
         0.00655716191977
         0.0065750493668
         0.00659295730293
         0.00661088619381
         0.00662883603945
         0.00664680637419
         0.00666479719803
         0.00668280897662
         0.00670084170997
         0.00671889539808
         0.00673696957529
         0.00675506470725
         0.00677318079397
         0.00679131783545
         0.00680947583169
         0.00682765478268
         0.00684585468844
         0.00686407554895
         0.00688231782988
         0.00690058106557
         0.00691886525601
         0.00693717040122
         0.00695549696684
         0.00697384448722
         0.00699221342802
         0.00701060332358
         0.00702901463956
         0.00704744691029
         0.00706590106711
         0.00708437617868
         0.00710287271068
         0.00712139019743
         0.00713992957026
         0.00715849036351
         0.00717707257718
         0.00719567574561
         0.00721430080011
         0.0072329477407
         0.00725161563605
         0.00727030541748
         0.00728901661932
         0.00730774970725
         0.0073265042156
         0.00734528014436
         0.00736407795921
         0.00738289766014
         0.00740173878148
         0.00742060178891
         0.00743948668242
         0.007458393462
         0.00747732212767
         0.00749627221376
         0.00751524465159
         0.0075342389755
         0.00755325518548
         0.00757229328156
         0.00759135326371
         0.00761043513194
         0.00762953935191
         0.00764866545796
         0.00766781391576
         0.00768698425964
         0.00770617695525
         0.00772539153695
         0.00774462847039
         0.00776388775557
         0.00778316892684
         0.0078024729155
         0.00782179832458
         0.00784114655107
         0.00786051806062
         0.0078799109906
         0.00789932627231
         0.00791876390576
         0.00793822389096
         0.00795770715922
         0.0079772118479
         0.00799673981965
         0.00801629014313
         0.00803586281836
         0.00805545877665
         0.00807507708669
         0.00809471774846
         0.0081143816933
         0.00813406798989
         0.00815377663821
         0.0081735085696
         0.00819326285273
         0.00821304041892
         0.00823284033686
         0.00825266353786
         0.0082725090906
         0.00829237885773
         0.00831227004528
         0.00833218544722
         0.00835212320089
         0.00837208330631
         0.00839206762612
         0.00841207429767
         0.0084321051836
         0.00845215842128
         0.0084722340107
         0.0084923338145
         0.00851245690137
         0.00853260327131
         0.00855277199298
         0.00857296492904
         0.00859318114817
         0.00861341971904
         0.0086336825043
         0.00865396857262
         0.00867427885532
         0.00869461148977
         0.00871496740729
         0.00873534753919
         0.00875575095415
         0.0087761785835
         0.00879662949592
         0.0088171036914
         0.00883760116994
         0.00885812286288
         0.00887866877019
         0.00889923702925
         0.00891983043402
         0.00894044712186
         0.00896108709276
         0.00898175127804
         0.00900243967772
         0.00902315136045
         0.0090438881889
         0.00906464736909
         0.00908543169498
         0.00910623930395
         0.0091270711273
         0.00914792716503
         0.00916880741715
         0.00918971188366
         0.00921063963324
         0.00923159252852
         0.00925256963819
         0.00927357003093
         0.00929459556937
         0.0093156453222
         0.0093367183581
         0.0093578165397
         0.00937893986702
         0.0094000864774
         0.00942125730217
         0.00944245327264
         0.0094636734575
         0.00948491878808
         0.00950618833303
         0.00952748209238
         0.00954880006611
         0.00957014318556
         0.00959151145071
         0.00961290393025
         0.00963432062417
         0.00965576339513
         0.00967722944915
         0.00969872064888
         0.00972023699433
         0.00974177848548
         0.00976334419101
         0.00978493597358
         0.00980655103922
         0.00982819218189
         0.00984985847026
         0.00987154897302
         0.0098932646215
         0.009915006347
         0.00993677228689
         0.00995856337249
         0.0099803796038
         0.0100022219121
         0.0100240884349
         0.0100459810346
         0.0100678978488
         0.01008984074
         0.0101118087769
         0.0101338019595
         0.0101558212191
         0.0101778656244
         0.0101999351755
         0.0102220308036
         0.0102441515774
         0.0102662974969
         0.0102884694934
         0.0103106666356
         0.0103328898549
         0.0103551391512
         0.0103774135932
         0.0103997141123
         0.010422039777
         0.0104443915188
         0.0104667693377
         0.0104891732335
         0.0105116022751
         0.0105340573937
         0.0105565385893
         0.010579045862
         0.0106015792117
         0.0106241377071
         0.0106467232108
         0.0106693347916
         0.0106919724494
         0.0107146361843
         0.0107373259962
         0.0107600418851
         0.010782783851
         0.010805551894
         0.0108283469453
         0.0108511680737
         0.0108740162104
         0.0108968894929
         0.0109197897837
         0.0109427170828
         0.0109656695276
         0.0109886499122
         0.0110116563737
         0.0110346889123
         0.0110577484593
         0.0110808340833
         0.0111039476469
         0.0111270863563
         0.0111502530053
         0.0111734457314
         0.0111966654658
         0.0112199122086
         0.0112431859598
         0.0112664857879
         0.0112898135558
         0.0113131674007
         0.0113365482539
         0.0113599570468
         0.0113833919168
         0.0114068537951
         0.011430343613
         0.0114538604394
         0.0114774033427
         0.0115009741858
         0.0115245729685
         0.0115481978282
         0.0115718506277
         0.0115955304354
         0.0116192381829
         0.0116429729387
         0.0116667347029
         0.0116905244067
         0.0117143411189
         0.0117381857708
         0.0117620583624
         0.0117859579623
         0.0118098845705
         0.0118338400498
         0.0118578225374
         0.0118818329647
         0.0119058704004
         0.011929936707
         0.011954030022
         0.0119781512767
         0.0120023004711
         0.0120264776051
         0.0120506826788
         0.0120749156922
         0.0120991766453
         0.0121234664693
         0.0121477833018
         0.0121721280739
         0.012196501717
         0.0122209032997
         0.0122453328222
         0.0122697912157
         0.0122942766175
         0.0123187908903
         0.0123433340341
         0.0123679051176
         0.0123925050721
         0.0124171329662
         0.0124417888001
         0.0124664735049
         0.0124911870807
         0.0125159285963
         0.0125406989828
         0.0125654982403
         0.0125903263688
         0.012615182437
         0.0126400673762
         0.0126649811864
         0.0126899238676
         0.0127148954198
         0.012739895843
         0.0127649251372
         0.0127899833024
         0.0128150703385
         0.0128401862457
         0.0128653310239
         0.0128905046731
         0.0129157081246
         0.0129409404472
         0.0129662016407
         0.0129914926365
         0.0130168125033
         0.0130421612412
         0.0130675397813
         0.0130929471925
         0.013118384406
         0.0131438504905
         0.0131693463773
         0.0131948711351
         0.0132204256952
         0.0132460100576
         0.0132716242224
         0.0132972672582
         0.0133229400963
         0.0133486427367
         0.0133743751794
         0.0134001374245
         0.0134259294719
         0.0134517503902
         0.0134776020423
         0.0135034834966
         0.0135293947533
         0.0135553358123
         0.0135813066736
         0.0136073082685
         0.0136333387345
         0.0136593999341
         0.013685490936
         0.0137116126716
         0.0137377642095
         0.013763946481
         0.0137901585549
         0.0138164004311
         0.0138426730409
         0.0138689763844
         0.0138953095302
         0.0139216734096
         0.0139480670914
         0.0139744924381
         0.0140009475872
         0.0140274334699
         0.0140539491549
         0.0140804965049
         0.0141070745885
         0.0141336824745
         0.0141603220254
         0.0141869913787
         0.0142136923969
         0.0142404241487
         0.0142671866342
         0.0142939798534
         0.0143208038062
         0.0143476594239
         0.0143745457754
         0.0144014628604
         0.0144284116104
         0.0144553910941
         0.0144824013114
         0.0145094431937
         0.0145365167409
         0.0145636210218
         0.0145907569677
         0.0146179236472
         0.0146451219916
         0.0146723520011
         0.0146996136755
         0.0147269060835
         0.0147542301565
         0.0147815868258
         0.0148089742288
         0.0148363932967
         0.0148638440296
         0.0148913264275
         0.0149188404903
         0.0149463871494
         0.0149739645422
         0.0150015745312
         0.0150292161852
         0.0150568895042
         0.0150845954195
         0.0151123329997
         0.0151401022449
         0.0151679040864
         0.0151957375929
         0.0152236036956
         0.0152515014634
         0.0152794318274
         0.0153073938563
         0.0153353894129
         0.0153634166345
         0.015391475521
         0.0154195679352
         0.0154476920143
         0.015475849621
         0.0155040388927
         0.0155322607607
         0.0155605152249
         0.0155888022855
         0.0156171228737
         0.0156454760581
         0.0156738609076
         0.0157022792846
         0.0157307293266
         0.0157592128962
         0.0157877299935
         0.0158162806183
         0.0158448629081
         0.0158734787256
         0.0159021262079
         0.0159308090806
         0.0159595236182
         0.0159882716835
         0.0160170532763
         0.0160458683968
         0.0160747151822
         0.0161035973579
         0.0161325111985
         0.0161614604294
         0.0161904413253
         0.0162194557488
         0.0162485036999
         0.0162775870413
         0.0163067020476
         0.0163358505815
         0.0163650345057
         0.0163942500949
         0.0164235010743
         0.0164527837187
         0.0164821017534
         0.0165114533156
         0.0165408402681
         0.0165702588856
         0.0165997128934
         0.0166292004287
         0.0166587214917
         0.0166882779449
         0.0167178679258
         0.0167474914342
         0.0167771503329
         0.0168068427593
         0.0168365705758
         0.01686633192
         0.0168961267918
         0.0169259570539
         0.0169558208436
         0.0169857200235
         0.0170156527311
         0.0170456208289
         0.0170756243169
         0.0171056613326
         0.0171357337385
         0.0171658396721
         0.0171959828585
         0.01722615771
