aces_1.0.2/luts/S-Log1_to_linear.spi1d
Version 1
From 0.000000 1.000000
Length 4096
Components 1
{
         -0.0185509044677
         -0.0184995736927
         -0.018448241055
         -0.0183969084173
         -0.0183455757797
         -0.018294243142
         -0.018242912367
         -0.0181915797293
         -0.0181402470917
         -0.018088914454
         -0.018037583679
         -0.0179862510413
         -0.0179349184036
         -0.017883585766
         -0.0178322531283
         -0.0177809223533
         -0.0177295897156
         -0.0176782570779
         -0.0176269244403
         -0.0175755918026
         -0.0175242610276
         -0.0174729283899
         -0.0174215957522
         -0.0173702631146
         -0.0173189323395
         -0.0172675997019
         -0.0172162670642
         -0.0171649344265
         -0.0171136017889
         -0.0170622710139
         -0.0170109383762
         -0.0169596057385
         -0.0169082731009
         -0.0168569423258
         -0.0168056096882
         -0.0167542770505
         -0.0167029444128
         -0.0166516117752
         -0.0166002810001
         -0.0165489483625
         -0.0164976157248
         -0.0164462830871
         -0.0163949523121
         -0.0163436196744
         -0.0162922870368
         -0.0162409543991
         -0.0161896217614
         -0.0161382909864
         -0.0160869583488
         -0.0160356257111
         -0.0159842930734
         -0.0159329604357
         -0.0158816296607
         -0.0158302970231
         -0.0157789643854
         -0.0157276317477
         -0.0156763009727
         -0.015624968335
         -0.0155736356974
         -0.0155223030597
         -0.0154709713534
         -0.0154196387157
         -0.0153683070093
         -0.0153169743717
         -0.0152656426653
         -0.0152143100277
         -0.0151629783213
         -0.0151116456836
         -0.015060313046
         -0.0150089813396
         -0.014957648702
         -0.0149063169956
         -0.014854984358
         -0.0148036526516
         -0.0147523200139
         -0.0147009873763
         -0.0146496556699
         -0.0145983230323
         -0.0145469913259
         -0.0144956586882
         -0.0144443269819
         -0.0143929943442
         -0.0143416626379
         -0.0142903300002
         -0.0142389973626
         -0.0141876656562
         -0.0141363330185
         -0.0140850013122
         -0.0140336686745
         -0.0139823369682
         -0.0139310043305
         -0.0138796726242
         -0.0138283399865
         -0.0137770073488
         -0.0137256756425
         -0.0136743430048
         -0.0136230112985
         -0.0135716786608
         -0.0135203469545
         -0.0134690143168
         -0.0134176816791
         -0.0133663499728
         -0.0133150173351
         -0.0132636856288
         -0.0132123529911
         -0.0131610212848
         -0.0131096886471
         -0.0130583569407
         -0.0130070243031
         -0.0129556916654
         -0.0129043599591
         -0.0128530273214
         -0.0128016956151
         -0.0127503629774
         -0.012699031271
         -0.0126476986334
         -0.0125963659957
         -0.0125450342894
         -0.0124937016517
         -0.0124423699453
         -0.0123910373077
         -0.0123397056013
         -0.0122883729637
         -0.0122370412573
         -0.0121857086197
         -0.012134375982
         -0.0120830442756
         -0.012031711638
         -0.0119803799316
         -0.011929047294
         -0.0118777155876
         -0.0118263829499
         -0.0117750503123
         -0.0117237186059
         -0.0116723859683
         -0.0116210542619
         -0.0115697216243
         -0.0115183899179
         -0.0114670572802
         -0.0114157255739
         -0.0113643929362
         -0.0113130602986
         -0.0112617285922
         -0.0112103959545
         -0.0111590642482
         -0.0111077316105
         -0.0110563999042
         -0.0110050672665
         -0.0109537346289
         -0.0109024029225
         -0.0108510702848
         -0.0107997385785
         -0.0107484059408
         -0.0106970742345
         -0.0106457415968
         -0.0105944098905
         -0.0105430772528
         -0.0104917446151
         -0.0104404129088
         -0.0103890802711
         -0.0103377485648
         -0.0102864159271
         -0.0102350842208
         -0.0101837515831
         -0.0101324198768
         -0.0100810872391
         -0.0100297546014
         -0.00997842289507
         -0.00992709025741
         -0.00987575855106
         -0.00982442591339
         -0.00977309420705
         -0.00972176156938
         -0.00967042893171
         -0.00961909722537
         -0.0095677645877
         -0.00951643288136
         -0.00946510024369
         -0.00941376853734
         -0.00936243589967
         -0.00931110419333
         -0.00925977155566
         -0.00920843891799
         -0.00915710721165
         -0.00910577457398
         -0.00905444286764
         -0.00900311022997
         -0.00895177852362
         -0.00890044588596
         -0.00884911324829
         -0.00879778154194
         -0.00874644890428
         -0.00869511719793
         -0.00864378456026
         -0.00859245285392
         -0.00854112021625
         -0.00848978850991
         -0.00843845587224
         -0.00838712323457
         -0.00833579152822
         -0.00828445889056
         -0.00823312718421
         -0.00818179454654
         -0.0081304628402
         -0.00807913020253
         -0.00802779756486
         -0.00797646585852
         -0.00792513322085
         -0.00787380151451
         -0.00782246887684
         -0.00777113670483
         -0.00771980453283
         -0.00766847236082
         -0.00761714018881
         -0.00756580801681
         -0.0075144758448
         -0.00746314367279
         -0.00741181103513
         -0.00736047886312
         -0.00730914669111
         -0.00725781451911
         -0.0072064823471
         -0.00715515017509
         -0.00710381800309
         -0.00705248583108
         -0.00700115365908
         -0.00694982102141
         -0.0068984888494
         -0.0068471566774
         -0.00679582450539
         -0.00674449233338
         -0.00669316016138
         -0.00664182798937
         -0.00659049581736
         -0.0065391631797
         -0.00648783100769
         -0.00643649883568
         -0.00638516666368
         -0.00633383449167
         -0.00628250231966
         -0.00623117014766
         -0.00617983797565
         -0.00612850533798
         -0.00607717316598
         -0.00602584099397
         -0.00597450882196
         -0.00592317664996
         -0.00587184447795
         -0.00582051230595
         -0.00576918013394
         -0.00571784749627
         -0.00566651532426
         -0.00561518315226
         -0.00556385098025
         -0.00551251880825
         -0.00546118663624
         -0.00540985446423
         -0.00535852229223
         -0.00530718965456
         -0.00525585748255
         -0.00520452531055
         -0.00515319313854
         -0.00510186096653
         -0.00505052879453
         -0.00499919662252
         -0.00494786445051
         -0.00489653181285
         -0.00484519964084
         -0.00479386746883
         -0.00474253529683
         -0.00469120312482
         -0.00463987095281
         -0.00458853878081
         -0.0045372066088
         -0.00448587397113
         -0.00443454179913
         -0.00438320962712
         -0.00433187745512
         -0.00428054528311
         -0.0042292131111
         -0.0041778809391
         -0.00412654876709
         -0.00407521612942
         -0.00402388395742
         -0.00397255178541
         -0.0039212196134
         -0.0038698874414
         -0.00381855526939
         -0.00376722286455
         -0.00371589069255
         -0.00366455852054
         -0.00361322634853
         -0.0035618939437
         -0.00351056177169
         -0.00345922959968
         -0.00340789742768
         -0.00335656502284
         -0.00330523285083
         -0.00325390067883
         -0.00320256850682
         -0.00315123633482
         -0.00309990392998
         -0.00304857175797
         -0.00299723958597
         -0.00294590741396
         -0.00289457500912
         -0.00284324283712
         -0.00279191066511
         -0.0027405784931
         -0.00268924608827
         -0.00263791391626
         -0.00258658174425
         -0.00253524957225
         -0.00248391716741
         -0.0024325849954
         -0.0023812528234
         -0.00232992065139
         -0.00227858824655
         -0.00222725607455
         -0.00217592390254
         -0.00212459173054
         -0.0020732593257
         -0.00202192715369
         -0.00197059498169
         -0.00191926269326
         -0.00186793052126
         -0.00181659823284
         -0.00176526606083
         -0.00171393377241
         -0.0016626016004
         -0.00161126931198
         -0.00155993713997
         -0.00150860485155
         -0.00145727267954
         -0.00140594039112
         -0.00135460821912
         -0.0013032759307
         -0.00125194375869
         -0.00120061147027
         -0.00114927929826
         -0.00109794700984
         -0.00104661483783
         -0.000995282549411
         -0.000943950377405
         -0.000892618147191
         -0.000841285916977
         -0.000789953686763
         -0.000738621456549
         -0.000687289226335
         -0.000635956996121
         -0.000584624765906
         -0.000533292535692
         -0.000481960305478
         -0.000430628075264
         -0.00037929584505
         -0.000327963614836
         -0.000276631384622
         -0.000225299139856
         -0.000173966909642
         -0.000122634679428
         -7.13024564902e-05
         -1.99644618988e-05
         3.13767486659e-05
         8.27959302114e-05
         0.000134293208248
         0.000185868688277
         0.000237522501266
         0.000289254763629
         0.000341065577231
         0.000392955087591
         0.000444923411123
         0.000496970664244
         0.000549096963368
         0.000601302424911
         0.000653587165289
         0.000705951300915
         0.000758394948207
         0.000810918281786
         0.000863521359861
         0.000916204357054
         0.000968967331573
         0.00102181045804
         0.00107473379467
         0.00112773757428
         0.00118082179688
         0.0012339866953
         0.00128723226953
         0.00134055875242
         0.00139396626037
         0.00144745479338
         0.00150102458429
         0.0015546757495
         0.00160840840545
         0.00166222266853
         0.00171611865517
         0.00177009648178
         0.00182415626477
         0.00187829812057
         0.001932522282
         0.00198682886548
         0.00204121763818
         0.00209568929859
         0.00215024361387
         0.00220488081686
         0.00225960090756
         0.00231440411881
         0.00236929045059
         0.00242426036857
         0.00247931363992
         0.00253445049748
         0.00258967117406
         0.00264497566968
         0.00270036421716
         0.0027558368165
         0.00281139370054
         0.00286703486927
         0.00292276078835
         0.00297857099213
         0.00303446617909
         0.00309044634923
         0.00314651126973
         0.00320266140625
         0.00325889699161
         0.00331521779299
         0.00337162427604
         0.00342811620794
         0.00348469428718
         0.0035413580481
         0.00359810772352
         0.00365494377911
         0.00371186621487
         0.0037688750308
         0.00382597045973
         0.00388315250166
         0.00394042162225
         0.00399777758867
         0.00405522063375
         0.00411275075749
         0.00417036842555
         0.00422807363793
         0.00428586639464
         0.00434374669567
         0.00440171500668
         0.00445977179334
         0.00451791658998
         0.0045761493966
         0.00463447067887
         0.00469288090244
         0.00475137960166
         0.00480996677652
         0.00486864335835
         0.00492740888149
         0.00498626381159
         0.00504520814866
         0.0051042418927
         0.00516336550936
         0.00522257853299
         0.00528188189492
         0.00534127512947
         0.00540075823665
         0.00546033214778
         0.0055199963972
         0.00557975145057
         0.00563959684223
         0.0056995335035
         0.00575956096873
         0.00581967970356
         0.00587988970801
         0.00594019098207
         0.00600058399141
         0.00606106873602
         0.0061216452159
         0.00618231389672
         0.00624307477847
         0.00630392739549
         0.00636487314478
         0.00642591109499
         0.00648704171181
         0.00654826499522
         0.00660958141088
         0.00667099142447
         0.00673249410465
         0.00679409038275
         0.00685578025877
         0.00691756373271
         0.00697944127023
         0.00704141240567
         0.00710347807035
         0.00716563779861
         0.00722789159045
         0.00729024037719
         0.00735268369317
         0.00741522200406
         0.00747785484418
         0.00754058314487
         0.00760340690613
         0.00766632566229
         0.00772934034467
         0.00779245048761
         0.00785565655679
         0.00791895855218
         0.0079823564738
         0.00804585125297
         0.00810944195837
         0.00817312952131
         0.0082369139418
         0.00830079521984
         0.00836477335542
         0.00842884834856
         0.00849302113056
         0.00855729077011
         0.00862165819854
         0.00868612434715
         0.00875068735331
         0.00881534907967
         0.00888010859489
         0.00894496589899
         0.0090099228546
         0.00907497759908
         0.00914013106376
         0.00920538417995
         0.00927073601633
         0.00933618750423
         0.00940173771232
         0.00946738757193
         0.00953313801438
         0.00959898717701
         0.00966493692249
         0.0097309872508
         0.00979713723063
         0.0098633877933
         0.00992973893881
         0.00999619066715
         0.0100627439097
         0.010129397735
         0.0101961530745
         0.0102630099282
         0.010329968296
         0.010397028178
         0.0104641895741
         0.0105314534158
         0.0105988187715
         0.0106662875041
         0.0107338577509
         0.0108015304431
         0.0108693065122
         0.010937185958
         0.0110051678494
         0.0110732531175
         0.0111414417624
         0.0112097337842
         0.0112781301141
         0.0113466298208
         0.0114152338356
         0.0114839421585
         0.0115527538583
         0.0116216707975
         0.0116906929761
         0.0117598185316
         0.0118290502578
         0.0118983872235
         0.0119678284973
         0.0120373759419
         0.0121070286259
         0.0121767874807
         0.0122466525063
         0.0123166227713
         0.0123867001384
         0.0124568836764
         0.012527173385
         0.0125975701958
         0.0126680741087
         0.0127386841923
         0.0128094023094
         0.0128802275285
         0.0129511607811
         0.0130222011358
         0.0130933504552
         0.0131646068767
         0.0132359713316
         0.0133074447513
         0.0133790262043
         0.0134507175535
         0.0135225169361
         0.0135944252834
         0.0136664425954
         0.0137385698035
         0.0138108059764
         0.0138831520453
         0.0139556080103
         0.0140281748027
         0.0141008505598
         0.0141736380756
         0.0142465345562
         0.0143195427954
         0.0143926618621
         0.0144658917561
         0.0145392324775
         0.014612685889
         0.0146862491965
         0.0147599251941
         0.0148337129503
         0.0149076124653
         0.0149816246703
         0.0150557495654
         0.0151299862191
         0.0152043355629
         0.015278798528
         0.0153533741832
         0.0154280634597
         0.0155028654262
         0.0155777810141
         0.0156528111547
         0.015727955848
         0.0158032122999
         0.0158785842359
         0.0159540716559
         0.0160296726972
         0.0161053892225
         0.0161812193692
         0.0162571668625
         0.0163332279772
         0.0164094045758
         0.0164856985211
         0.0165621060878
         0.0166386310011
         0.0167152713984
         0.0167920291424
         0.0168689023703
         0.0169458929449
         0.0170230008662
         0.0171002261341
         0.0171775687486
         0.0172550268471
         0.0173326041549
         0.0174102988094
         0.0174881126732
         0.0175660438836
         0.0176440924406
         0.0177222602069
         0.0178005471826
         0.0178789533675
         0.017957476899
         0.0180361215025
         0.0181148834527
         0.0181937664747
         0.0182727705687
         0.0183518920094
         0.0184311363846
         0.0185104981065
         0.0185899827629
         0.0186695866287
         0.0187493115664
         0.0188291594386
         0.0189091265202
         0.0189892165363
         0.0190694257617
         0.0191497597843
         0.0192302130163
         0.0193107910454
         0.0193914901465
         0.0194723121822
         0.0195532552898
         0.0196343231946
         0.019715514034
         0.019796827808
         0.0198782645166
         0.0199598260224
         0.0200415104628
         0.0201233197004
         0.0202052537352
         0.0202873107046
         0.0203694924712
         0.0204517990351
         0.0205342322588
         0.0206167884171
         0.0206994712353
         0.0207822788507
         0.0208652131259
         0.0209482740611
         0.0210314597934
         0.0211147721857
         0.0211982112378
         0.0212817769498
         0.0213654693216
         0.0214492883533
         0.0215332359076
         0.0216173101217
         0.0217015128583
         0.0217858422548
         0.0218703001738
         0.0219548866153
         0.0220396015793
         0.0221244450659
         0.0222094170749
         0.0222945176065
         0.0223797485232
         0.0224651098251
         0.0225505996495
         0.0226362179965
         0.0227219685912
         0.0228078477085
         0.0228938572109
         0.0229799989611
         0.0230662710965
         0.023152673617
         0.0232392065227
         0.0233258716762
         0.0234126690775
         0.0234995987266
         0.0235866587609
         0.023673851043
         0.0237611774355
         0.0238486360759
         0.023936226964
         0.0240239500999
         0.0241118073463
         0.0241997968405
         0.0242879223078
         0.024376180023
         0.0244645718485
         0.0245530977845
         0.0246417596936
         0.0247305538505
         0.0248194839805
         0.0249085500836
         0.0249977502972
         0.0250870864838
         0.0251765586436
         0.0252661667764
         0.0253559090197
         0.0254457890987
         0.0255358070135
         0.0256259590387
         0.0257162488997
         0.0258066765964
         0.0258972421288
         0.0259879436344
         0.0260787829757
         0.0261697620153
         0.0262608770281
         0.0263521317393
         0.0264435242862
         0.0265350565314
         0.0266267266124
         0.0267185363919
         0.0268104858696
         0.0269025750458
         0.0269948039204
         0.027087174356
         0.0271796826273
         0.0272723324597
         0.0273651238531
         0.0274580549449
         0.0275511275977
         0.0276443418115
         0.0277376957238
         0.0278311930597
         0.0279248338193
         0.0280186142772
         0.0281125381589
         0.0282066054642
         0.0283008143306
         0.0283951666206
         0.0284896623343
         0.0285843014717
         0.0286790840328
         0.0287740118802
         0.0288690831512
         0.028964297846
         0.029059657827
         0.0291551630944
         0.0292508136481
         0.0293466094881
         0.0294425487518
         0.0295386351645
         0.0296348687261
         0.0297312475741
         0.0298277717084
         0.0299244429916
         0.0300212614238
         0.030118227005
         0.0302153397352
         0.0303125996143
         0.0304100066423
         0.030507562682
         0.0306052677333
         0.0307031199336
         0.0308011192828
         0.0308992695063
         0.0309975687414
         0.0310960169882
         0.0311946142465
         0.0312933623791
         0.0313922576606
         0.0314913056791
         0.0315905027092
         0.0316898524761
         0.0317893512547
         0.0318890027702
         0.0319888032973
         0.0320887602866
         0.0321888625622
         0.0322891213
         0.0323895290494
         0.032490093261
         0.0325908064842
         0.0326916761696
         0.0327926948667
         0.0328938700259
         0.032995197922
         0.0330966822803
         0.0331983156502
         0.0333001054823
         0.0334020517766
         0.0335041508079
         0.0336064063013
         0.0337088182569
         0.0338113829494
         0.033914104104
         0.0340169817209
         0.0341200158
         0.0342232063413
         0.0343265533447
         0.0344300568104
         0.0345337167382
         0.0346375368536
         0.0347415134311
         0.0348456464708
         0.034949939698
         0.0350543893874
         0.0351589992642
         0.0352637656033
         0.0353686921299
         0.0354737788439
         0.0355790257454
         0.0356844328344
         0.0357899963856
         0.0358957238495
         0.036001611501
         0.0361076593399
         0.0362138673663
         0.0363202393055
         0.0364267714322
         0.0365334637463
         0.0366403199732
         0.0367473363876
         0.0368545167148
         0.0369618609548
         0.0370693653822
         0.0371770374477
         0.0372848697007
         0.0373928658664
         0.0375010259449
         0.0376093499362
         0.0377178415656
         0.0378264971077
         0.0379353128374
         0.0380442999303
         0.0381534509361
         0.0382627658546
         0.0383722484112
         0.0384818948805
         0.038591708988
         0.0387016907334
         0.038811840117
         0.0389221571386
         0.039032638073
         0.0391432903707
         0.0392541103065
         0.0393650978804
         0.0394762530923
         0.0395875759423
         0.0396990701556
         0.0398107357323
         0.0399225652218
         0.0400345697999
         0.0401467420161
         0.0402590855956
         0.0403716005385
         0.0404842831194
         0.040597140789
         0.0407101660967
         0.040823366493
         0.0409367345273
         0.0410502776504
         0.041163995862
         0.0412778817117
         0.0413919426501
         0.0415061786771
         0.0416205860674
         0.0417351648211
         0.0418499223888
         0.0419648513198
         0.0420799553394
         0.0421952344477
         0.0423106886446
         0.0424263179302
         0.0425421223044
         0.0426581054926
         0.0427742637694
         0.0428905971348
         0.0430071055889
         0.0431237928569
         0.0432406589389
         0.0433577001095
         0.043474920094
         0.0435923151672
         0.0437098927796
         0.0438276454806
         0.0439455807209
         0.0440636910498
         0.044181983918
         0.0443004556
         0.044419106096
         0.0445379391313
         0.0446569509804
         0.0447761453688
         0.0448955185711
         0.0450150743127
         0.0451348088682
         0.0452547296882
         0.0453748293221
         0.0454951114953
         0.0456155762076
         0.0457362271845
         0.0458570569754
         0.0459780730307
         0.0460992716253
         0.0462206564844
