aces_1.0.2/luts/V3_LogC_400_to_linear.spi1d
Version 1
From 0.000000 1.000000
Length 4096
Components 1
{
         -0.0166540257633
         -0.0166101995856
         -0.0165663734078
         -0.0165225453675
         -0.0164787191898
         -0.016434893012
         -0.0163910668343
         -0.016347238794
         -0.0163034126163
         -0.0162595864385
         -0.0162157583982
         -0.0161719322205
         -0.0161281060427
         -0.016084279865
         -0.0160404518247
         -0.0159966256469
         -0.0159527994692
         -0.0159089732915
         -0.0158651452512
         -0.0158213190734
         -0.0157774928957
         -0.015733666718
         -0.0156898386776
         -0.0156460124999
         -0.0156021853909
         -0.0155583592132
         -0.0155145321041
         -0.0154707059264
         -0.0154268788174
         -0.0153830526397
         -0.0153392255306
         -0.0152953993529
         -0.0152515722439
         -0.0152077460662
         -0.0151639189571
         -0.0151200927794
         -0.0150762656704
         -0.0150324394926
         -0.0149886123836
         -0.0149447852746
         -0.0149009590968
         -0.0148571319878
         -0.0148133058101
         -0.0147694787011
         -0.0147256525233
         -0.0146818254143
         -0.0146379992366
         -0.0145941721275
         -0.0145503459498
         -0.0145065188408
         -0.0144626926631
         -0.014418865554
         -0.0143750393763
         -0.0143312122673
         -0.0142873851582
         -0.0142435589805
         -0.0141997318715
         -0.0141559056938
         -0.0141120785847
         -0.014068252407
         -0.014024425298
         -0.0139805991203
         -0.0139367720112
         -0.0138929458335
         -0.0138491187245
         -0.0138052925467
         -0.0137614654377
         -0.01371763926
         -0.013673812151
         -0.0136299850419
         -0.0135861588642
         -0.0135423317552
         -0.0134985055774
         -0.0134546784684
         -0.0134108522907
         -0.0133670251817
         -0.0133231990039
         -0.0132793718949
         -0.0132355457172
         -0.0131917186081
         -0.0131478924304
         -0.0131040653214
         -0.0130602391437
         -0.0130164120346
         -0.0129725858569
         -0.0129287587479
         -0.0128849316388
         -0.0128411054611
         -0.0127972783521
         -0.0127534521744
         -0.0127096250653
         -0.0126657988876
         -0.0126219717786
         -0.0125781456009
         -0.0125343184918
         -0.0124904923141
         -0.0124466652051
         -0.0124028390273
         -0.0123590119183
         -0.0123151857406
         -0.0122713586316
         -0.0122275315225
         -0.0121837053448
         -0.0121398782358
         -0.012096052058
         -0.012052224949
         -0.0120083987713
         -0.0119645716622
         -0.0119207454845
         -0.0118769183755
         -0.0118330921978
         -0.0117892650887
         -0.011745438911
         -0.011701611802
         -0.0116577856243
         -0.0116139585152
         -0.0115701314062
         -0.0115263052285
         -0.0114824781194
         -0.0114386519417
         -0.0113948248327
         -0.011350998655
         -0.0113071715459
         -0.0112633453682
         -0.0112195182592
         -0.0111756920815
         -0.0111318649724
         -0.0110880387947
         -0.0110442116857
         -0.0110003855079
         -0.0109565583989
         -0.0109127312899
         -0.0108689051121
         -0.0108250780031
         -0.0107812518254
         -0.0107374247164
         -0.0106935985386
         -0.0106497714296
         -0.0106059452519
         -0.0105621181428
         -0.0105182919651
         -0.0104744648561
         -0.0104306386784
         -0.0103868115693
         -0.0103429853916
         -0.0102991582826
         -0.0102553311735
         -0.0102115049958
         -0.0101676778868
         -0.0101238517091
         -0.0100800246
         -0.0100361984223
         -0.00999237131327
         -0.00994854513556
         -0.00990471802652
         -0.0098608918488
         -0.00981706473976
         -0.00977323856205
         -0.00972941145301
         -0.00968558527529
         -0.00964175816625
         -0.00959793105721
         -0.0095541048795
         -0.00951027777046
         -0.00946645159274
         -0.0094226244837
         -0.00937879830599
         -0.00933497119695
         -0.00929114501923
         -0.00924731791019
         -0.00920349173248
         -0.00915966462344
         -0.00911583844572
         -0.00907201133668
         -0.00902818515897
         -0.00898435804993
         -0.00894053187221
         -0.00889670476317
         -0.00885287765414
         -0.00880905147642
         -0.00876522436738
         -0.00872139818966
         -0.00867757108063
         -0.00863374490291
         -0.00858991779387
         -0.00854609161615
         -0.00850226450711
         -0.0084584383294
         -0.00841461122036
         -0.00837078504264
         -0.0083269579336
         -0.00828313175589
         -0.00823930464685
         -0.00819547753781
         -0.00815165136009
         -0.00810782425106
         -0.00806399807334
         -0.0080201709643
         -0.00797634478658
         -0.00793251767755
         -0.00788869149983
         -0.00784486439079
         -0.00780103774741
         -0.00775721110404
         -0.00771338446066
         -0.00766955781728
         -0.0076257311739
         -0.00758190453053
         -0.00753807788715
         -0.00749425124377
         -0.00745042460039
         -0.00740659795702
         -0.00736277131364
         -0.00731894467026
         -0.00727511802688
         -0.00723129091784
         -0.00718746427447
         -0.00714363763109
         -0.00709981098771
         -0.00705598434433
         -0.00701215770096
         -0.00696833105758
         -0.0069245044142
         -0.00688067777082
         -0.00683685112745
         -0.00679302448407
         -0.00674919784069
         -0.00670537119731
         -0.00666154455394
         -0.00661771791056
         -0.00657389080152
         -0.00653006415814
         -0.00648623751476
         -0.00644241087139
         -0.00639858422801
         -0.00635475758463
         -0.00631093094125
         -0.00626710429788
         -0.0062232776545
         -0.00617945101112
         -0.00613562436774
         -0.00609179772437
         -0.00604797108099
         -0.00600414443761
         -0.00596031779423
         -0.00591649068519
         -0.00587266404182
         -0.00582883739844
         -0.00578501075506
         -0.00574118411168
         -0.00569735746831
         -0.00565353082493
         -0.00560970418155
         -0.00556587753817
         -0.0055220508948
         -0.00547822425142
         -0.00543439760804
         -0.00539057096466
         -0.00534674432129
         -0.00530291767791
         -0.00525909103453
         -0.00521526392549
         -0.00517143728212
         -0.00512761063874
         -0.00508378399536
         -0.00503995735198
         -0.00499613070861
         -0.00495230406523
         -0.00490847742185
         -0.00486465077847
         -0.00482082413509
         -0.00477699749172
         -0.00473317084834
         -0.00468934420496
         -0.00464551756158
         -0.00460169091821
         -0.00455786380917
         -0.00451403716579
         -0.00447021052241
         -0.00442638387904
         -0.00438255723566
         -0.00433873059228
         -0.0042949039489
         -0.00425107730553
         -0.00420725066215
         -0.00416342401877
         -0.00411959737539
         -0.00407577073202
         -0.00403194408864
         -0.00398811744526
         -0.00394429080188
         -0.00390046392567
         -0.0038566372823
         -0.00381281063892
         -0.00376898399554
         -0.00372515711933
         -0.00368133047596
         -0.00363750383258
         -0.0035936771892
         -0.00354985054582
         -0.00350602390245
         -0.00346219725907
         -0.00341837061569
         -0.00337454373948
         -0.00333071709611
         -0.00328689045273
         -0.00324306380935
         -0.00319923716597
         -0.0031554105226
         -0.00311158387922
         -0.00306775700301
         -0.00302393035963
         -0.00298010371625
         -0.00293627707288
         -0.0028924504295
         -0.00284862378612
         -0.00280479714274
         -0.00276097049937
         -0.00271714362316
         -0.00267331697978
         -0.0026294903364
         -0.00258566369303
         -0.00254183704965
         -0.00249801040627
         -0.00245418376289
         -0.00241035711952
         -0.00236653024331
         -0.00232270359993
         -0.00227887695655
         -0.00223505031317
         -0.0021912236698
         -0.00214739702642
         -0.00210357038304
         -0.00205974350683
         -0.00201591686346
         -0.00197209022008
         -0.0019282635767
         -0.00188443693332
         -0.00184061028995
         -0.00179678353015
         -0.00175295688678
         -0.0017091302434
         -0.00166530360002
         -0.00162147684023
         -0.00157765019685
         -0.00153382355347
         -0.0014899969101
         -0.0014461701503
         -0.00140234350692
         -0.00135851686355
         -0.00131469022017
         -0.00127086346038
         -0.001227036817
         -0.00118321017362
         -0.00113938353024
         -0.00109555677045
         -0.00105173012707
         -0.0010079034837
         -0.000964076782111
         -0.000920250080526
         -0.000876423437148
         -0.000832596735563
         -0.000788770092186
         -0.0007449433906
         -0.000701116747223
         -0.000657290045638
         -0.00061346340226
         -0.000569636700675
         -0.000525810057297
         -0.000481983355712
         -0.000438156683231
         -0.000394330010749
         -0.000350503338268
         -0.000306676665787
         -0.000262849993305
         -0.000219023320824
         -0.000175196648343
         -0.000131369975861
         -8.75433033798e-05
         -4.37166272604e-05
         1.10045576207e-07
         4.39367177023e-05
         8.77633938217e-05
         0.000131590073579
         0.00017541674606
         0.000219243418542
         0.000263070076471
         0.000306896748953
         0.000350723421434
         0.000394550123019
         0.000438376795501
         0.000482203467982
         0.000526030140463
         0.000569856783841
         0.000613683485426
         0.000657510128804
         0.000701336830389
         0.000745163473766
         0.000788990175352
         0.000832816818729
         0.000876643520314
         0.000920470221899
         0.000964296865277
         0.00100812350865
         0.00105195026845
         0.00109577691182
         0.0011396035552
         0.00118343019858
         0.00122725695837
         0.00127108360175
         0.00131491024513
         0.00135873688851
         0.0014025636483
         0.00144639029168
         0.00149021693505
         0.00153404357843
         0.00157787033822
         0.0016216969816
         0.00166552362498
         0.00170935026836
         0.00175317702815
         0.00179700367153
         0.0018408303149
         0.0018846570747
         0.00192848371807
         0.00197231047787
         0.00201613712125
         0.00205996376462
         0.002103790408
         0.00214761705138
         0.00219144369476
         0.00223527033813
         0.00227909698151
         0.00232292385772
         0.0023667505011
         0.00241057714447
         0.00245440378785
         0.00249823043123
         0.00254205707461
         0.00258588371798
         0.00262971036136
         0.00267353723757
         0.00271736388095
         0.00276119052432
         0.0028050171677
         0.00284884381108
         0.00289267045446
         0.00293649709783
         0.00298032397404
         0.00302415061742
         0.0030679772608
         0.00311180390418
         0.00315563054755
         0.00319945719093
         0.00324328383431
         0.00328711047769
         0.00333093735389
         0.00337476399727
         0.00341859064065
         0.00346241728403
         0.0035062439274
         0.00355007057078
         0.00359389721416
         0.00363772385754
         0.00368155073375
         0.00372537737712
         0.0037692040205
         0.00381303066388
         0.00385685730726
         0.00390068395063
         0.00394451059401
         0.00398833723739
         0.00403216388077
         0.00407599052414
         0.00411981716752
         0.00416364427656
         0.00420747091994
         0.00425129756331
         0.00429512420669
         0.00433895085007
         0.00438277749345
         0.00442660413682
         0.0044704307802
         0.00451425742358
         0.00455808406696
         0.00460191071033
         0.00464573735371
         0.00468956399709
         0.00473339064047
         0.00477721728384
         0.00482104439288
         0.00486487103626
         0.00490869767964
         0.00495252432302
         0.00499635096639
         0.00504017760977
         0.00508400425315
         0.00512783089653
         0.0051716575399
         0.00521548418328
         0.00525931082666
         0.00530313747004
         0.00534696411341
         0.00539079075679
         0.00543461740017
         0.00547844404355
         0.00552227115259
         0.00556609779596
         0.00560992443934
         0.00565375108272
         0.0056975777261
         0.00574140436947
         0.00578523101285
         0.00582905765623
         0.00587288429961
         0.00591671094298
         0.00596053758636
         0.00600436422974
         0.00604819087312
         0.00609201751649
         0.00613584415987
         0.00617967126891
         0.00622349791229
         0.00626732455567
         0.00631115119904
         0.00635497784242
         0.0063988044858
         0.00644263112918
         0.00648645777255
         0.00653028441593
         0.00657411105931
         0.00661793770269
         0.00666176434606
         0.00670559098944
         0.00674941763282
         0.0067932442762
         0.00683707138523
         0.00688089802861
         0.00692472467199
         0.00696855131537
         0.00701237795874
         0.00705620460212
         0.0071000312455
         0.00714385788888
         0.00718768453225
         0.00723151117563
         0.00727533781901
         0.00731916446239
         0.00736299110577
         0.00740681774914
         0.00745064439252
         0.0074944710359
         0.00753829814494
         0.00758212478831
         0.00762595143169
         0.00766977807507
         0.00771360471845
         0.00775743136182
         0.0078012580052
         0.00784508511424
         0.00788891129196
         0.007932738401
         0.00797656457871
         0.00802039168775
         0.00806421786547
         0.00810804497451
         0.00815187115222
         0.00819569826126
         0.00823952443898
         0.00828335154802
         0.0083271805197
         0.00837107468396
         0.0084150666371
         0.00845915358514
         0.00850333832204
         0.0085476199165
         0.0085919983685
         0.00863647460938
         0.0086810477078
         0.00872571859509
         0.00877048820257
         0.00881535559893
         0.00886032171547
         0.00890538562089
         0.00895054917783
         0.00899581145495
         0.00904117338359
         0.00908663403243
         0.0091321952641
         0.00917785614729
         0.00922361761332
         0.00926947873086
         0.00931544136256
         0.00936150364578
         0.00940766744316
         0.0094539327547
         0.0095002995804
         0.00954676792026
         0.0095933387056
         0.0096400110051
         0.00968678575009
         0.00973366387188
         0.00978064350784
         0.00982772745192
         0.00987491384149
         0.00992220453918
         0.00996959861368
         0.010017096065
         0.0100646987557
         0.0101124048233
         0.0101602161303
         0.0102081326768
         0.0102561535314
         0.0103042796254
         0.0103525118902
         0.0104008503258
         0.0104492940009
         0.010497844778
         0.0105465007946
         0.0105952648446
         0.0106441350654
         0.0106931133196
         0.0107421977445
         0.0107913911343
         0.0108406916261
         0.0108901001513
         0.0109396176413
         0.010989244096
         0.0110389785841
         0.011088822037
         0.0111387753859
         0.0111888386309
         0.0112390108407
         0.0112892938778
         0.011339686811
         0.0113901905715
         0.0114408051595
         0.0114915305749
         0.0115423668176
         0.011593314819
         0.0116443745792
         0.0116955470294
         0.0117468312383
         0.0117982281372
         0.0118497377262
         0.0119013600051
         0.0119530959055
         0.0120049444959
         0.0120569076389
         0.0121089844033
         0.0121611757204
         0.0122134815902
         0.0122659020126
         0.0123184369877
         0.0123710883781
         0.0124238543212
         0.0124767357484
         0.0125297345221
         0.0125828487799
         0.0126360794529
         0.0126894265413
         0.0127428909764
         0.0127964727581
         0.0128501718864
         0.0129039892927
         0.0129579249769
         0.0130119780079
         0.0130661502481
         0.0131204416975
         0.013174851425
         0.0132293812931
         0.0132840303704
         0.0133387986571
         0.0133936880156
         0.0134486975148
         0.0135038271546
         0.0135590787977
         0.0136144505814
         0.0136699443683
         0.0137255601585
         0.0137812979519
         0.0138371577486
         0.0138931404799
         0.0139492452145
         0.0140054738149
         0.0140618253499
         0.0141183007509
         0.0141748990864
         0.0142316222191
         0.014288470149
         0.0143454428762
         0.0144025404006
         0.0144597627223
         0.0145171107724
         0.0145745845512
         0.0146321849898
         0.0146899111569
         0.0147477649152
         0.0148057444021
         0.0148638514802
         0.0149220861495
         0.0149804484099
         0.0150389391929
         0.0150975575671
         0.0151563053951
         0.0152151817456
         0.0152741866186
         0.0153333218768
         0.0153925865889
         0.0154519807547
         0.0155115053058
         0.0155711611733
         0.015630947426
         0.0156908649951
         0.0157509129494
         0.0158110950142
         0.0158714074641
         0.0159318521619
         0.0159924291074
         0.0160531401634
         0.0161139834672
         0.0161749608815
         0.0162360724062
         0.0162973161787
         0.0163586959243
         0.0164202097803
         0.0164818596095
         0.0165436435491
         0.0166055615991
         0.0166676174849
         0.0167298093438
         0.0167921371758
         0.0168546028435
         0.0169172044843
         0.0169799439609
         0.0170428194106
         0.0171058345586
         0.0171689875424
         0.0172322802246
         0.0172957107425
         0.0173592790961
         0.0174229890108
         0.0174868367612
         0.0175508260727
         0.0176149550825
         0.0176792256534
         0.0177436359227
         0.017808187753
         0.0178728811443
         0.0179377179593
         0.0180026944727
         0.0180678162724
         0.0181330796331
         0.0181984845549
         0.018264034763
         0.0183297283947
         0.0183955673128
         0.0184615496546
         0.01852767542
         0.0185939483345
         0.0186603665352
         0.0187269300222
         0.0187936387956
         0.018860494718
         0.0189274959266
         0.0189946461469
         0.0190619416535
         0.0191293861717
         0.0191969778389
         0.0192647185177
         0.0193326082081
         0.0194006450474
         0.019468832761
         0.0195371694863
         0.0196056552231
         0.0196742936969
         0.0197430811822
         0.0198120195419
         0.0198811087757
         0.0199503488839
         0.0200197435915
         0.0200892873108
         0.0201589856297
         0.0202288366854
         0.0202988404781
         0.0203689988703
         0.0204393099993
         0.020509775728
         0.0205803960562
         0.0206511709839
         0.0207221023738
         0.0207931883633
         0.0208644289523
         0.0209358278662
         0.0210073832422
         0.0210790950805
         0.0211509633809
         0.0212229918689
         0.021295176819
         0.0213675200939
         0.0214400216937
         0.0215126816183
         0.0215855035931
         0.0216584838927
         0.0217316225171
         0.0218049231917
         0.0218783859164
         0.0219520088285
         0.0220257919282
         0.0220997389406
         0.0221738461405
         0.0222481172532
         0.0223225522786
         0.0223971493542
         0.0224719084799
         0.0225468333811
         0.022621922195
         0.0226971767843
         0.0227725952864
         0.0228481795639
         0.0229239296168
         0.0229998473078
         0.0230759289116
         0.023152180016
         0.0232285968959
         0.0233051814139
         0.0233819335699
         0.0234588552266
         0.0235359445214
         0.0236132033169
         0.0236906316131
         0.0237682294101
         0.0238459985703
         0.0239239372313
         0.0240020472556
         0.0240803286433
         0.024158783257
         0.0242374073714
         0.0243162047118
         0.0243951752782
         0.0244743209332
         0.0245536379516
         0.024633128196
         0.0247127953917
         0.0247926358134
         0.0248726513237
         0.0249528419226
         0.0250332094729
         0.0251137539744
         0.0251944735646
         0.0252753701061
         0.0253564454615
         0.0254376977682
         0.0255191288888
         0.0256007388234
         0.0256825275719
         0.0257644951344
         0.0258466433734
         0.0259289704263
         0.0260114800185
         0.0260941684246
         0.0261770393699
         0.0262600928545
         0.0263433288783
         0.0264267455786
         0.0265103466809
         0.0265941303223
         0.0266780983657
         0.0267622508109
         0.0268465857953
         0.0269311089069
         0.0270158145577
         0.0271007083356
         0.0271857865155
         0.0272710528225
         0.027356505394
         0.0274421460927
         0.0275279749185
         0.0276139900088
         0.027700195089
         0.0277865901589
         0.0278731733561
         0.027959946543
         0.0280469115824
         0.0281340666115
         0.0282214116305
         0.0283089503646
         0.0283966790885
         0.0284846015275
         0.0285727158189
         0.0286610238254
         0.0287495274097
         0.0288382228464
         0.0289271138608
         0.0290161985904
         0.0291054807603
         0.0291949566454
         0.0292846299708
         0.0293745007366
         0.0294645689428
         0.0295548327267
         0.0296452958137
         0.029735956341
         0.0298268161714
         0.0299178771675
         0.0300091356039
         0.030100595206
         0.0301922559738
         0.0302841160446
         0.0303761791438
         0.0304684434086
         0.0305609107018
         0.0306535810232
         0.030746454373
         0.0308395307511
         0.0309328120202
         0.0310262963176
         0.0311199873686
         0.0312138851732
         0.0313079878688
         0.0314022935927
         0.0314968116581
         0.0315915346146
         0.0316864661872
         0.0317816026509
         0.0318769514561
