aces_1.0.2/luts/V3_LogC_2000_to_linear.spi1d
Version 1
From 0.000000 1.000000
Length 4096
Components 1
{
         -0.0182104073465
         -0.0181625019759
         -0.0181145984679
         -0.0180666930974
         -0.0180187877268
         -0.0179708823562
         -0.0179229769856
         -0.017875071615
         -0.0178271662444
         -0.0177792608738
         -0.0177313555032
         -0.0176834501326
         -0.017635544762
         -0.0175876412541
         -0.0175397358835
         -0.0174918305129
         -0.0174439251423
         -0.0173960197717
         -0.0173481144011
         -0.0173002090305
         -0.0172523036599
         -0.0172043982893
         -0.0171564929187
         -0.0171085875481
         -0.0170606840402
         -0.0170127786696
         -0.016964873299
         -0.0169169679284
         -0.0168690625578
         -0.0168211571872
         -0.0167732518166
         -0.016725346446
         -0.0166774410754
         -0.0166295357049
         -0.0165816321969
         -0.0165337268263
         -0.0164858214557
         -0.0164379160851
         -0.0163900107145
         -0.0163421053439
         -0.0162941999733
         -0.0162462946028
         -0.0161983892322
         -0.0161504838616
         -0.016102578491
         -0.016054674983
         -0.0160067696124
         -0.0159588642418
         -0.0159109588712
         -0.0158630535007
         -0.0158151481301
         -0.0157672427595
         -0.0157193373889
         -0.0156714320183
         -0.015623527579
         -0.0155756222084
         -0.0155277168378
         -0.0154798114672
         -0.015431907028
         -0.0153840016574
         -0.0153360962868
         -0.0152881909162
         -0.0152402855456
         -0.015192380175
         -0.0151444757357
         -0.0150965703651
         -0.0150486649945
         -0.0150007596239
         -0.0149528542534
         -0.0149049498141
         -0.0148570444435
         -0.0148091390729
         -0.0147612337023
         -0.0147133283317
         -0.0146654238924
         -0.0146175185218
         -0.0145696131513
         -0.0145217077807
         -0.0144738024101
         -0.0144258970395
         -0.0143779926002
         -0.0143300872296
         -0.014282181859
         -0.0142342764884
         -0.0141863711178
         -0.0141384666786
         -0.014090561308
         -0.0140426559374
         -0.0139947505668
         -0.0139468451962
         -0.0138989407569
         -0.0138510353863
         -0.0138031300157
         -0.0137552246451
         -0.0137073192745
         -0.013659413904
         -0.0136115094647
         -0.0135636040941
         -0.0135156987235
         -0.0134677933529
         -0.0134198879823
         -0.013371983543
         -0.0133240781724
         -0.0132761728019
         -0.0132282674313
         -0.0131803620607
         -0.0131324576214
         -0.0130845522508
         -0.0130366468802
         -0.0129887415096
         -0.012940836139
         -0.0128929307684
         -0.0128450263292
         -0.0127971209586
         -0.012749215588
         -0.0127013102174
         -0.0126534048468
         -0.0126055004075
         -0.0125575950369
         -0.0125096896663
         -0.0124617842957
         -0.0124138789251
         -0.0123659744859
         -0.0123180691153
         -0.0122701637447
         -0.0122222583741
         -0.0121743530035
         -0.0121264485642
         -0.0120785431936
         -0.012030637823
         -0.0119827324525
         -0.0119348270819
         -0.0118869217113
         -0.011839017272
         -0.0117911119014
         -0.0117432065308
         -0.0116953011602
         -0.0116473957896
         -0.0115994913504
         -0.0115515859798
         -0.0115036806092
         -0.0114557752386
         -0.011407869868
         -0.0113599654287
         -0.0113120600581
         -0.0112641546875
         -0.0112162493169
         -0.0111683439463
         -0.0111204385757
         -0.0110725341365
         -0.0110246287659
         -0.0109767233953
         -0.0109288180247
         -0.0108809126541
         -0.0108330082148
         -0.0107851028442
         -0.0107371974736
         -0.0106892921031
         -0.0106413867325
         -0.0105934822932
         -0.0105455769226
         -0.010497671552
         -0.0104497661814
         -0.0104018608108
         -0.0103539554402
         -0.010306051001
         -0.0102581456304
         -0.0102102402598
         -0.0101623348892
         -0.0101144295186
         -0.0100665250793
         -0.0100186197087
         -0.00997071433812
         -0.00992280896753
         -0.00987490359694
         -0.00982699915767
         -0.00977909378707
         -0.00973118841648
         -0.00968328304589
         -0.00963537767529
         -0.0095874723047
         -0.00953956786543
         -0.00949166249484
         -0.00944375712425
         -0.00939585175365
         -0.00934794638306
         -0.00930004194379
         -0.0092521365732
         -0.0092042312026
         -0.00915632583201
         -0.00910842046142
         -0.00906051602215
         -0.00901261065155
         -0.00896470528096
         -0.00891679991037
         -0.00886889453977
         -0.00882098916918
         -0.00877308472991
         -0.00872517935932
         -0.00867727398872
         -0.00862936861813
         -0.00858146324754
         -0.00853355880827
         -0.00848565343767
         -0.00843774806708
         -0.00838984269649
         -0.00834193732589
         -0.00829403288662
         -0.00824612751603
         -0.00819822214544
         -0.00815031677485
         -0.00810241140425
         -0.00805450603366
         -0.00800660159439
         -0.0079586962238
         -0.0079107908532
         -0.00786288548261
         -0.00781498011202
         -0.00776707520708
         -0.00771917030215
         -0.00767126493156
         -0.00762335956097
         -0.00757545465603
         -0.00752754928544
         -0.00747964391485
         -0.00743173900992
         -0.00738383363932
         -0.00733592873439
         -0.0072880233638
         -0.00724011799321
         -0.00719221308827
         -0.00714430771768
         -0.00709640234709
         -0.00704849744216
         -0.00700059207156
         -0.00695268716663
         -0.00690478179604
         -0.00685687642545
         -0.00680897152051
         -0.00676106614992
         -0.00671316077933
         -0.0066652558744
         -0.0066173505038
         -0.00656944559887
         -0.00652154022828
         -0.00647363485768
         -0.00642572995275
         -0.00637782458216
         -0.00632991921157
         -0.00628201430663
         -0.00623410893604
         -0.00618620403111
         -0.00613829866052
         -0.00609039328992
         -0.00604248838499
         -0.0059945830144
         -0.00594667764381
         -0.00589877273887
         -0.00585086736828
         -0.00580296246335
         -0.00575505709276
         -0.00570715172216
         -0.00565924681723
         -0.00561134144664
         -0.00556343607605
         -0.00551553117111
         -0.00546762580052
         -0.00541972089559
         -0.005371815525
         -0.0053239101544
         -0.00527600524947
         -0.00522809987888
         -0.00518019450828
         -0.00513228960335
         -0.00508438423276
         -0.00503647932783
         -0.00498857395723
         -0.00494066858664
         -0.00489276368171
         -0.00484485831112
         -0.00479695294052
         -0.00474904803559
         -0.004701142665
         -0.00465323776007
         -0.00460533238947
         -0.00455742701888
         -0.00450952211395
         -0.00446161674336
         -0.00441371137276
         -0.00436580646783
         -0.00431790109724
         -0.00426999619231
         -0.00422209082171
         -0.00417418545112
         -0.00412628054619
         -0.0040783751756
         -0.004030469805
         -0.00398256490007
         -0.00393465952948
         -0.00388675439171
         -0.00383884925395
         -0.00379094411619
         -0.0037430387456
         -0.00369513360783
         -0.00364722847007
         -0.00359932333231
         -0.00355141796172
         -0.00350351282395
         -0.00345560768619
         -0.00340770254843
         -0.00335979717784
         -0.00331189204007
         -0.00326398690231
         -0.00321608176455
         -0.00316817639396
         -0.00312027125619
         -0.00307236611843
         -0.00302446098067
         -0.00297655561008
         -0.00292865047231
         -0.00288074533455
         -0.00283284019679
         -0.0027849348262
         -0.00273702968843
         -0.00268912455067
         -0.00264121941291
         -0.00259331404231
         -0.00254540890455
         -0.00249750376679
         -0.00244959862903
         -0.00240169325843
         -0.00235378812067
         -0.00230588298291
         -0.00225797784515
         -0.00221007247455
         -0.00216216733679
         -0.00211426219903
         -0.00206635706127
         -0.00201845169067
         -0.00197054655291
         -0.00192264141515
         -0.00187473616097
         -0.00182683102321
         -0.00177892576903
         -0.00173102063127
         -0.00168311537709
         -0.00163521023933
         -0.00158730498515
         -0.00153939984739
         -0.00149149459321
         -0.00144358945545
         -0.00139568420127
         -0.00134777906351
         -0.00129987380933
         -0.00125196867157
         -0.00120406341739
         -0.00115615827963
         -0.00110825302545
         -0.00106034788769
         -0.00101244263351
         -0.00096453743754
         -0.000916632241569
         -0.000868727045599
         -0.000820821849629
         -0.000772916653659
         -0.000725011457689
         -0.000677106261719
         -0.000629201065749
         -0.000581295869779
         -0.000533390673809
         -0.000485485506942
         -0.000437580310972
         -0.000389675115002
         -0.000341769919032
         -0.000293864723062
         -0.000245959527092
         -0.000198054331122
         -0.000150149135152
         -0.000102243939182
         -5.43387432117e-05
         -6.43354815111e-06
         4.14716487285e-05
         8.93768446986e-05
         0.000137282040669
         0.000185187236639
         0.000233092432609
         0.000280997628579
         0.000328902824549
         0.000376808020519
         0.000424713216489
         0.000472618412459
         0.000520523579326
         0.000568428775296
         0.000616333971266
         0.000664239167236
         0.000712144363206
         0.000760049559176
         0.000807954755146
         0.000855859951116
         0.000903765147086
         0.000951670343056
         0.000999575597234
         0.001047480735
         0.00109538598917
         0.00114329112694
         0.00119119638111
         0.00123910151888
         0.00128700677305
         0.00133491191082
         0.00138281716499
         0.00143072230276
         0.00147862755693
         0.0015265326947
         0.00157443794888
         0.00162234308664
         0.00167024834082
         0.00171815347858
         0.00176605873276
         0.00181396387052
         0.0018618691247
         0.00190977426246
         0.00195767940022
         0.00200558477081
         0.00205348990858
         0.00210139504634
         0.0021493001841
         0.00219720555469
         0.00224511069246
         0.00229301583022
         0.00234092096798
         0.00238882633857
         0.00243673147634
         0.0024846366141
         0.00253254175186
         0.00258044712245
         0.00262835226022
         0.00267625739798
         0.00272416253574
         0.00277206790633
         0.0028199730441
         0.00286787818186
         0.00291578331962
         0.00296368869022
         0.00301159382798
         0.00305949896574
         0.0031074041035
         0.0031553094741
         0.00320321461186
         0.00325111974962
         0.00329902488738
         0.00334693025798
         0.00339483539574
         0.0034427405335
         0.00349064567126
         0.00353855104186
         0.00358645617962
         0.00363436131738
         0.00368226645514
         0.00373017182574
         0.0037780769635
         0.00382598210126
         0.00387388723902
         0.00392179237679
         0.00396969774738
         0.00401760311797
         0.0040655080229
         0.0041134133935
         0.00416131829843
         0.00420922366902
         0.00425712903962
         0.00430503394455
         0.00435293931514
         0.00440084468573
         0.00444874959067
         0.00449665496126
         0.00454455986619
         0.00459246523678
         0.00464037060738
         0.00468827551231
         0.0047361808829
         0.00478408625349
         0.00483199115843
         0.00487989652902
         0.00492780143395
         0.00497570680454
         0.00502361217514
         0.00507151708007
         0.00511942245066
         0.00516732782125
         0.00521523272619
         0.00526313809678
         0.00531104300171
         0.0053589483723
         0.0054068537429
         0.00545475864783
         0.00550266401842
         0.00555056938902
         0.00559847429395
         0.00564637966454
         0.00569428456947
         0.00574218994007
         0.00579009531066
         0.00583800021559
         0.00588590558618
         0.00593381095678
         0.00598171586171
         0.0060296212323
         0.00607752613723
         0.00612543150783
         0.00617333687842
         0.00622124178335
         0.00626914715394
         0.00631705252454
         0.00636495742947
         0.00641286280006
         0.00646076770499
         0.00650867307559
         0.00655657844618
         0.00660448335111
         0.0066523887217
         0.0067002940923
         0.00674819899723
         0.00679610436782
         0.00684400927275
         0.00689191464335
         0.00693982001394
         0.00698772491887
         0.00703563028947
         0.00708353566006
         0.00713144056499
         0.00717934593558
         0.00722725084051
         0.00727515621111
         0.0073230615817
         0.00737096648663
         0.00741887185723
         0.00746677722782
         0.00751468213275
         0.00756258750334
         0.00761049240828
         0.00765839777887
         0.00770630314946
         0.00775420805439
         0.00780211342499
         0.00785001832992
         0.00789792370051
         0.0079458290711
         0.0079937344417
         0.00804163981229
         0.00808954425156
         0.00813744962215
         0.00818535499275
         0.00823326036334
         0.00828116573393
         0.0083290701732
         0.0083769755438
         0.00842488091439
         0.00847278628498
         0.00852069165558
         0.00856859609485
         0.00861650146544
         0.00866440683603
         0.00871231220663
         0.00876021757722
         0.00880812294781
         0.00885602738708
         0.00890393275768
         0.00895183812827
         0.00899974349886
         0.00904764886945
         0.00909555330873
         0.00914345867932
         0.00919136404991
         0.0092392694205
         0.0092871747911
         0.00933507923037
         0.00938298460096
         0.00943088997155
         0.00947879534215
         0.00952670071274
         0.00957460608333
         0.0096225105226
         0.0096704158932
         0.00971832126379
         0.00976622663438
         0.00981413200498
         0.00986203644425
         0.00990994181484
         0.00995784718543
         0.010005752556
         0.0100536579266
         0.0101015623659
         0.0101494677365
         0.0101973731071
         0.0102452784777
         0.0102931838483
         0.0103410892189
         0.0103889936581
         0.0104368990287
         0.0104848043993
         0.0105327097699
         0.0105806151405
         0.0106285195798
         0.0106764249504
         0.010724330321
         0.0107722356915
         0.0108201410621
         0.0108680455014
         0.010915950872
         0.0109638562426
         0.0110117616132
         0.0110596669838
         0.0111075723544
         0.0111554767936
         0.0112033821642
         0.0112512875348
         0.0112991929054
         0.011347098276
         0.0113950027153
         0.0114429080859
         0.0114908134565
         0.0115387188271
         0.0115866241977
         0.0116345286369
         0.0116824340075
         0.0117303393781
         0.0117782447487
         0.0118261501193
         0.0118740554899
         0.0119219599292
         0.0119698652998
         0.0120177706704
         0.0120656760409
         0.0121135814115
         0.0121614858508
         0.0122093912214
         0.012257296592
         0.0123052019626
         0.0123531073332
         0.0124010117725
         0.012448917143
         0.0124968225136
         0.0125447278842
         0.0125926332548
         0.0126405376941
         0.0126884430647
         0.0127363484353
         0.0127842538059
         0.0128321591765
         0.0128800645471
         0.0129279689863
         0.0129758743569
         0.0130237797275
         0.0130716850981
         0.0131195904687
         0.013167494908
         0.0132154002786
         0.0132633056492
         0.0133112110198
         0.0133591163903
         0.0134070208296
         0.0134549262002
         0.0135028315708
         0.0135507369414
         0.013598642312
         0.0136465476826
         0.0136944521219
         0.0137423574924
         0.013790262863
         0.0138381682336
         0.0138860736042
         0.013934048824
         0.0139821385965
         0.0140303429216
         0.0140786636621
         0.0141271008179
         0.0141756534576
         0.0142243225127
         0.0142731079832
         0.0143220108002
         0.014371030964
         0.0144201684743
         0.0144694242626
         0.0145187973976
         0.0145682897419
         0.0146179003641
         0.0146676301956
         0.0147174792364
         0.0147674474865
         0.0148175358772
         0.0148677444085
         0.0149180730805
         0.014968521893
         0.0150190927088
         0.0150697845966
         0.0151205975562
         0.0151715334505
         0.0152225904167
         0.0152737703174
         0.0153250731528
         0.0153764979914
         0.0154280476272
         0.0154797192663
         0.0155315157026
         0.0155834369361
         0.0156354811043
         0.0156876519322
         0.0157399475574
         0.0157923679799
         0.0158449131995
         0.0158975850791
         0.0159503836185
         0.0160033088177
         0.0160563606769
         0.0161095410585
         0.0161628481001
         0.0162162818015
         0.016269845888
         0.0163235366344
         0.0163773559034
         0.0164313055575
         0.0164853837341
         0.0165395922959
         0.0165939293802
         0.0166483987123
         0.0167029984295
         0.0167577266693
         0.0168125890195
         0.0168675817549
         0.0169227067381
         0.0169779639691
         0.0170333534479
         0.0170888751745
         0.0171445310116
         0.0172003190964
         0.0172562412918
         0.0173122975975
         0.0173684898764
         0.0174248162657
         0.0174812767655
         0.0175378732383
         0.0175946056843
         0.0176514741033
         0.0177084784955
         0.0177656188607
         0.0178228970617
         0.0178803130984
         0.0179378669709
         0.0179955586791
         0.0180533882231
         0.0181113556027
         0.0181694626808
         0.0182277094573
         0.0182860959321
         0.018344623968
         0.0184032898396
         0.0184620972723
         0.018521046266
         0.0185801368207
         0.0186393670738
         0.0186987407506
         0.018758257851
         0.0188179165125
         0.0188777185977
         0.0189376622438
         0.018997753039
         0.0190579853952
         0.0191183630377
         0.0191788859665
         0.019239552319
         0.0193003658205
         0.0193613246083
         0.0194224286824
         0.0194836817682
         0.0195450801402
         0.0196066256613
         0.0196683183312
         0.0197301600128
         0.0197921488434
         0.0198542866856
         0.019916575402
         0.0199790112674
         0.0200415980071
         0.0201043337584
         0.0201672203839
         0.0202302578837
         0.0202934481204
         0.0203567873687
         0.0204202793539
         0.020483924076
         0.020547721535
         0.0206116717309
         0.0206757746637
         0.020740032196
         0.020804444328
         0.0208690091968
         0.0209337305278
         0.0209986064583
         0.0210636369884
         0.0211288239807
         0.0211941692978
         0.0212596692145
         0.0213253255934
         0.0213911421597
         0.0214571133256
         0.021523244679
         0.0215895343572
         0.0216559842229
         0.0217225905508
         0.0217893589288
         0.0218562874943
         0.0219233743846
         0.0219906233251
         0.0220580343157
         0.0221256073564
         0.0221933405846
         0.0222612377256
         0.0223292969167
         0.0223975200206
         0.0224659051746
         0.022534456104
         0.0226031709462
         0.0226720497012
         0.0227410942316
         0.0228103045374
         0.0228796806186
         0.0229492224753
         0.02301893197
         0.0230888091028
         0.023158852011
         0.0232290644199
         0.0232994444668
         0.0233699940145
         0.0234407130629
         0.0235115997493
         0.0235826577991
         0.0236538872123
         0.0237252861261
         0.0237968564034
         0.0238685980439
         0.0239405129105
         0.0240125991404
         0.0240848585963
         0.0241572912782
         0.0242298971862
         0.0243026781827
         0.0243756324053
         0.0244487617165
         0.024522067979
         0.0245955493301
         0.0246692057699
         0.0247430410236
         0.024817051366
         0.0248912405223
         0.0249656066298
         0.0250401515514
         0.0251148752868
         0.0251897778362
         0.0252648610622
         0.0253401231021
         0.0254155658185
         0.0254911892116
         0.0255669951439
         0.0256429817528
         0.0257191509008
         0.0257955025882
         0.0258720386773
         0.0259487573057
         0.0260256584734
         0.0261027459055
         0.0261800177395
         0.0262574739754
         0.0263351183385
         0.0264129471034
         0.0264909621328
         0.0265691652894
         0.0266475565732
         0.0267261341214
         0.0268049016595
         0.0268838573247
         0.0269630011171
         0.027042336762
         0.0271218623966
         0.027201578021
         0.0272814836353
         0.0273615829647
         0.0274418741465
         0.0275223571807
         0.0276030320674
         0.0276839025319
         0.0277649667114
         0.027846224606
         0.0279276780784
         0.0280093252659
         0.0280911698937
         0.0281732100993
         0.0282554477453
         0.028337880969
         0.0284205134958
         0.0285033434629
         0.0285863727331
         0.0286695994437
         0.0287530273199
         0.0288366544992
         0.0289204828441
         0.0290045123547
         0.029088743031
         0.029173174873
         0.0292578097433
         0.0293426495045
         0.0294276904315
         0.0295129362494
         0.0295983850956
         0.0296840406954
         0.0297699011862
         0.029855966568
         0.0299422387034
         0.030028719455
         0.0301154050976
         0.0302023012191
         0.0302894040942
         0.0303767155856
         0.0304642375559
         0.0305519681424
         0.0306399092078
         0.0307280626148
         0.0308164265007
         0.0309050027281
