aces_1.0.2/luts/V3_LogC_3200_to_linear.spi1d
Version 1
From 0.000000 1.000000
Length 4096
Components 1
{
         -0.0187212731689
         -0.0186720285565
         -0.0186227858067
         -0.0185735430568
         -0.0185242984444
         -0.0184750556946
         -0.0184258129448
         -0.0183765683323
         -0.0183273255825
         -0.01827808097
         -0.0182288382202
         -0.0181795954704
         -0.018130350858
         -0.0180811081082
         -0.0180318634957
         -0.0179826207459
         -0.0179333779961
         -0.0178841333836
         -0.0178348906338
         -0.017785647884
         -0.0177364032716
         -0.0176871605217
         -0.0176379159093
         -0.0175886731595
         -0.0175394304097
         -0.0174901857972
         -0.0174409430474
         -0.0173917002976
         -0.0173424556851
         -0.0172932129353
         -0.0172439683229
         -0.0171947255731
         -0.0171454828233
         -0.0170962382108
         -0.017046995461
         -0.0169977527112
         -0.0169485080987
         -0.0168992653489
         -0.0168500207365
         -0.0168007779866
         -0.0167515352368
         -0.0167022906244
         -0.0166530478746
         -0.0166038051248
         -0.0165545605123
         -0.0165053177625
         -0.01645607315
         -0.0164068304002
         -0.0163575876504
         -0.016308343038
         -0.0162591002882
         -0.0162098556757
         -0.0161606129259
         -0.0161113701761
         -0.0160621255636
         -0.0160128828138
         -0.015963640064
         -0.0159143954515
         -0.0158651527017
         -0.0158159080893
         -0.0157666653395
         -0.0157174225897
         -0.0156681779772
         -0.0156189352274
         -0.0155696915463
         -0.0155204478651
         -0.0154712051153
         -0.0154219614342
         -0.0153727177531
         -0.0153234740719
         -0.0152742313221
         -0.015224987641
         -0.0151757439598
         -0.0151265002787
         -0.0150772575289
         -0.0150280138478
         -0.0149787701666
         -0.0149295264855
         -0.0148802837357
         -0.0148310400546
         -0.0147817963734
         -0.0147325526923
         -0.0146833099425
         -0.0146340662614
         -0.0145848225802
         -0.0145355788991
         -0.0144863361493
         -0.0144370924681
         -0.014387848787
         -0.0143386051059
         -0.0142893623561
         -0.0142401186749
         -0.0141908749938
         -0.0141416313127
         -0.0140923876315
         -0.0140431448817
         -0.0139939012006
         -0.0139446575195
         -0.0138954138383
         -0.0138461710885
         -0.0137969274074
         -0.0137476837263
         -0.0136984400451
         -0.0136491972953
         -0.0135999536142
         -0.013550709933
         -0.0135014662519
         -0.0134522235021
         -0.013402979821
         -0.0133537361398
         -0.0133044924587
         -0.0132552497089
         -0.0132060060278
         -0.0131567623466
         -0.0131075186655
         -0.0130582759157
         -0.0130090322345
         -0.0129597885534
         -0.0129105448723
         -0.0128613021225
         -0.0128120584413
         -0.0127628147602
         -0.0127135710791
         -0.0126643283293
         -0.0126150846481
         -0.012565840967
         -0.0125165972859
         -0.0124673545361
         -0.0124181108549
         -0.0123688671738
         -0.0123196234927
         -0.0122703807428
         -0.0122211370617
         -0.0121718933806
         -0.0121226496994
         -0.0120734069496
         -0.0120241632685
         -0.0119749195874
         -0.0119256759062
         -0.0118764322251
         -0.0118271894753
         -0.0117779457942
         -0.011728702113
         -0.0116794584319
         -0.0116302156821
         -0.011580972001
         -0.0115317283198
         -0.0114824846387
         -0.0114332418889
         -0.0113839982077
         -0.0113347545266
         -0.0112855108455
         -0.0112362680957
         -0.0111870244145
         -0.0111377807334
         -0.0110885370523
         -0.0110392943025
         -0.0109900506213
         -0.0109408069402
         -0.0108915632591
         -0.0108423205093
         -0.0107930768281
         -0.010743833147
         -0.0106945894659
         -0.010645346716
         -0.0105961030349
         -0.0105468593538
         -0.0104976156726
         -0.0104483729228
         -0.0103991292417
         -0.0103498855606
         -0.0103006418794
         -0.0102513991296
         -0.0102021554485
         -0.0101529117674
         -0.0101036680862
         -0.0100544253364
         -0.0100051816553
         -0.00995593797415
         -0.00990669429302
         -0.00985745061189
         -0.00980820786208
         -0.00975896418095
         -0.00970972049981
         -0.00966047681868
         -0.00961123406887
         -0.00956199038774
         -0.0095127467066
         -0.00946350302547
         -0.00941426027566
         -0.00936501659453
         -0.0093157729134
         -0.00926652923226
         -0.00921728648245
         -0.00916804280132
         -0.00911879912019
         -0.00906955543905
         -0.00902031268924
         -0.00897106900811
         -0.00892182532698
         -0.00887258164585
         -0.00882333889604
         -0.0087740952149
         -0.00872485153377
         -0.00867560785264
         -0.00862636510283
         -0.00857712142169
         -0.00852787774056
         -0.00847863405943
         -0.00842939130962
         -0.00838014762849
         -0.00833090394735
         -0.00828166026622
         -0.00823241751641
         -0.00818317383528
         -0.00813393015414
         -0.00808468647301
         -0.0080354437232
         -0.00798620004207
         -0.00793695636094
         -0.0078877126798
         -0.00783846992999
         -0.00778922624886
         -0.00773998256773
         -0.00769073888659
         -0.00764149567112
         -0.00759225198999
         -0.00754300877452
         -0.00749376509339
         -0.00744452187791
         -0.00739527819678
         -0.00734603498131
         -0.00729679130018
         -0.00724754808471
         -0.00719830440357
         -0.0071490611881
         -0.00709981750697
         -0.0070505742915
         -0.00700133061036
         -0.00695208739489
         -0.00690284371376
         -0.00685360049829
         -0.00680435681716
         -0.00675511360168
         -0.00670586992055
         -0.00665662670508
         -0.00660738302395
         -0.00655813980848
         -0.00650889612734
         -0.00645965291187
         -0.00641040923074
         -0.00636116601527
         -0.00631192233413
         -0.00626267911866
         -0.00621343543753
         -0.00616419222206
         -0.00611494854093
         -0.00606570532545
         -0.00601646164432
         -0.00596721842885
         -0.00591797474772
         -0.00586873153225
         -0.00581948785111
         -0.00577024463564
         -0.00572100095451
         -0.00567175773904
         -0.0056225140579
         -0.00557327037677
         -0.0055240271613
         -0.00547478348017
         -0.0054255402647
         -0.00537629658356
         -0.00532705336809
         -0.00527780968696
         -0.00522856647149
         -0.00517932279035
         -0.00513007957488
         -0.00508083589375
         -0.00503159267828
         -0.00498234899715
         -0.00493310578167
         -0.00488386210054
         -0.00483461888507
         -0.00478537520394
         -0.00473613198847
         -0.00468688830733
         -0.00463764509186
         -0.00458840141073
         -0.00453915819526
         -0.00448991451412
         -0.00444067129865
         -0.00439142761752
         -0.00434218440205
         -0.00429294072092
         -0.00424369750544
         -0.00419445382431
         -0.00414521060884
         -0.00409596692771
         -0.00404672371224
         -0.0039974800311
         -0.00394823681563
         -0.0038989931345
         -0.0038497496862
         -0.00380050623789
         -0.00375126278959
         -0.00370201934129
         -0.00365277589299
         -0.00360353244469
         -0.00355428899638
         -0.00350504554808
         -0.00345580209978
         -0.00340655865148
         -0.00335731520317
         -0.00330807175487
         -0.00325882830657
         -0.00320958485827
         -0.00316034140997
         -0.00311109796166
         -0.00306185451336
         -0.00301261106506
         -0.00296336761676
         -0.00291412416846
         -0.00286488072015
         -0.00281563727185
         -0.00276639382355
         -0.00271715037525
         -0.00266790692694
         -0.00261866347864
         -0.00256942003034
         -0.00252017658204
         -0.00247093313374
         -0.0024216894526
         -0.0023724460043
         -0.002323202556
         -0.0022739591077
         -0.00222471565939
         -0.00217547221109
         -0.00212622876279
         -0.00207698531449
         -0.00202774186619
         -0.00197849841788
         -0.001929255086
         -0.00188001152128
         -0.00183076807298
         -0.00178152462468
         -0.00173228117637
         -0.00168303772807
         -0.00163379427977
         -0.00158455083147
         -0.00153530738316
         -0.00148606393486
         -0.00143682048656
         -0.00138757703826
         -0.00133833358996
         -0.00128909014165
         -0.00123984669335
         -0.00119060324505
         -0.00114135979675
         -0.00109211634845
         -0.00104287290014
         -0.000993629451841
         -0.000944385945331
         -0.000895142497029
         -0.000845899048727
         -0.000796655600425
         -0.000747412152123
         -0.000698168703821
         -0.000648925255518
         -0.000599681807216
         -0.000550438300706
         -0.000501194852404
         -0.000451951404102
         -0.0004027079558
         -0.000353464507498
         -0.000304221059196
         -0.000254977610894
         -0.000205734148039
         -0.000156490699737
         -0.000107247244159
         -5.80037885811e-05
         -8.760334822e-06
         4.04831189371e-05
         8.97265708772e-05
         0.000138970019179
         0.000188213482033
         0.000237456930336
         0.000286700378638
         0.00033594382694
         0.000385187304346
         0.000434430752648
         0.00048367420095
         0.000532917678356
         0.000582161126658
         0.00063140457496
         0.000680648023263
         0.000729891471565
         0.000779134919867
         0.000828378368169
         0.000877621816471
         0.000926865264773
         0.000976108713076
         0.00102535216138
         0.00107459560968
         0.00112383905798
         0.00117308250628
         0.00122232595459
         0.00127156940289
         0.00132081296761
         0.00137005641591
         0.00141929986421
         0.00146854331251
         0.00151778676081
         0.00156703020912
         0.00161627365742
         0.00166551710572
         0.00171476055402
         0.00176400400233
         0.00181324745063
         0.00186249089893
         0.00191173434723
         0.00196097791195
         0.00201022136025
         0.00205946480855
         0.00210870825686
         0.00215795170516
         0.00220719515346
         0.00225643860176
         0.00230568205006
         0.00235492549837
         0.00240416894667
         0.00245341239497
         0.00250265584327
         0.00255189929157
         0.00260114273988
         0.00265038618818
         0.00269962963648
         0.00274887308478
         0.00279811653309
         0.00284735998139
         0.00289660342969
         0.00294584687799
         0.00299509032629
         0.0030443337746
         0.0030935772229
         0.0031428206712
         0.0031920641195
         0.00324130756781
         0.00329055101611
         0.00333979446441
         0.00338903791271
         0.00343828136101
         0.00348752480932
         0.00353676825762
         0.00358601170592
         0.00363525515422
         0.00368449860252
         0.00373374205083
         0.00378298549913
         0.00383222894743
         0.00388147239573
         0.00393071584404
         0.00397995952517
         0.00402920274064
         0.00407844642177
         0.00412768963724
         0.00417693331838
         0.00422617653385
         0.00427542021498
         0.00432466343045
         0.00437390711159
         0.00442315032706
         0.00447239400819
         0.00452163722366
         0.00457088090479
         0.00462012412027
         0.0046693678014
         0.00471861101687
         0.004767854698
         0.00481709791347
         0.00486634159461
         0.00491558481008
         0.00496482849121
         0.00501407217234
         0.00506331538782
         0.00511255906895
         0.00516180228442
         0.00521104596555
         0.00526028918102
         0.00530953286216
         0.00535877607763
         0.00540801975876
         0.00545726297423
         0.00550650665537
         0.00555574987084
         0.00560499355197
         0.00565423676744
         0.00570348044857
         0.00575272366405
         0.00580196734518
         0.00585121056065
         0.00590045424178
         0.00594969745725
         0.00599894113839
         0.00604818435386
         0.00609742803499
         0.00614667125046
         0.0061959149316
         0.00624515814707
         0.0062944018282
         0.00634364504367
         0.0063928887248
         0.00644213194028
         0.00649137562141
         0.00654061883688
         0.00658986251801
         0.00663910573348
         0.00668834941462
         0.00673759263009
         0.00678683631122
         0.00683607952669
         0.00688532320783
         0.0069345664233
         0.00698381010443
         0.0070330533199
         0.00708229700103
         0.00713154068217
         0.00718078389764
         0.00723002757877
         0.00727927079424
         0.00732851447538
         0.00737775769085
         0.00742700137198
         0.00747624458745
         0.00752548826858
         0.00757473148406
         0.00762397516519
         0.00767321838066
         0.00772246206179
         0.00777170527726
         0.0078209489584
         0.00787019263953
         0.00791943538934
         0.00796867907047
         0.00801792275161
         0.00806716643274
         0.00811640918255
         0.00816565286368
         0.00821489654481
         0.00826414022595
         0.00831338297576
         0.00836262665689
         0.00841187033802
         0.00846111401916
         0.00851035676897
         0.0085596004501
         0.00860884413123
         0.00865808781236
         0.00870733056217
         0.00875657424331
         0.00880581792444
         0.00885506160557
         0.00890430435538
         0.00895354803652
         0.00900279171765
         0.00905203539878
         0.00910127814859
         0.00915052182972
         0.00919976551086
         0.00924900919199
         0.00929825287312
         0.00934749562293
         0.00939673930407
         0.0094459829852
         0.00949522666633
         0.00954446941614
         0.00959371309727
         0.00964295677841
         0.00969220045954
         0.00974144320935
         0.00979068689048
         0.00983993057162
         0.00988917425275
         0.00993841700256
         0.00998766068369
         0.0100369043648
         0.010086148046
         0.0101353907958
         0.0101846344769
         0.010233878158
         0.0102831218392
         0.010332364589
         0.0103816082701
         0.0104308519512
         0.0104800956324
         0.0105293383822
         0.0105785820633
         0.0106278257445
         0.0106770694256
         0.0107263121754
         0.0107755558565
         0.0108247995377
         0.0108740432188
         0.0109232859686
         0.0109725296497
         0.0110217733309
         0.011071017012
         0.0111202597618
         0.0111695034429
         0.0112187471241
         0.0112679908052
         0.011317233555
         0.0113664772362
         0.0114157209173
         0.0114649645984
         0.0115142082796
         0.0115634510294
         0.0116126947105
         0.0116619383916
         0.0117111820728
         0.0117604248226
         0.0118096685037
         0.0118589121848
         0.011908155866
         0.0119573986158
         0.0120066422969
         0.012055885978
         0.0121051296592
         0.012154372409
         0.0122036160901
         0.0122528597713
         0.0123021034524
         0.0123513462022
         0.0124005898833
         0.0124498335645
         0.0124990772456
         0.0125483199954
         0.0125975636765
         0.0126468073577
         0.0126960510388
         0.0127452937886
         0.0127945374697
         0.0128437811509
         0.012893024832
         0.0129422675818
         0.012991511263
         0.0130407549441
         0.0130899986252
         0.013139241375
         0.0131884850562
         0.0132377287373
         0.0132869724184
         0.0133362151682
         0.0133854588494
         0.0134347025305
         0.0134839462116
         0.0135331898928
         0.0135824326426
         0.0136316763237
         0.0136809200048
         0.013730163686
         0.0137794064358
         0.0138286501169
         0.0138778937981
         0.0139271374792
         0.013976380229
         0.0140256239101
         0.0140748675913
         0.0141241112724
         0.0141733540222
         0.0142225977033
         0.0142718413845
         0.0143210850656
         0.0143703278154
         0.0144195714965
         0.0144688151777
         0.0145180588588
         0.0145673016086
         0.0146165452898
         0.0146657889709
         0.014715032652
         0.0147642754018
         0.014813519083
         0.0148627627641
         0.0149120064452
         0.014961249195
         0.0150104928762
         0.0150597365573
         0.0151089802384
         0.0151582229882
         0.0152074666694
         0.0152567103505
         0.0153059540316
         0.0153551967815
         0.0154044404626
         0.0154536841437
         0.0155029278249
         0.0155521705747
         0.0156014142558
         0.0156506579369
         0.0156999006867
         0.0157491825521
         0.0157985817641
         0.015848102048
         0.0158977452666
         0.0159475114197
         0.0159974005073
         0.0160474106669
         0.0160975456238
         0.0161478035152
         0.0161981862038
         0.0162486918271
         0.0162993222475
         0.0163500793278
         0.0164009593427
         0.0164519660175
         0.0165030974895
         0.0165543556213
         0.0166057404131
         0.016657250002
         0.0167088881135
         0.0167606547475
         0.0168125461787
         0.0168645679951
         0.0169167164713
         0.0169689934701
         0.017021400854
         0.0170739367604
         0.0171266011894
         0.0171793960035
         0.0172323212028
         0.0172853767872
         0.0173385646194
         0.0173918809742
         0.0174453295767
         0.0174989104271
         0.0175526235253
         0.0176064688712
         0.017660446465
         0.0177145581692
         0.0177688021213
         0.0178231801838
         0.0178776923567
         0.0179323386401
         0.0179871208966
         0.0180420372635
         0.0180970896035
         0.018152276054
         0.0182076003402
         0.0182630605996
         0.018318656832
         0.0183743909001
         0.0184302609414
         0.018486270681
         0.0185424163938
         0.0185987018049
         0.0186551269144
         0.0187116898596
         0.0187683925033
         0.0188252348453
         0.0188822168857
         0.0189393404871
         0.0189966037869
         0.0190540086478
         0.0191115550697
         0.0191692430526
         0.0192270744592
         0.0192850474268
         0.0193431619555
         0.0194014217705
         0.0194598250091
         0.0195183716714
         0.0195770636201
         0.0196358989924
         0.0196948796511
         0.019754005596
         0.01981327869
         0.0198726970702
         0.0199322607368
         0.019991973415
         0.0200518313795
         0.0201118383557
         0.0201719924808
         0.0202322956175
         0.0202927459031
         0.0203533452004
         0.020414095372
         0.0204749945551
         0.0205360446125
         0.0205972436816
         0.0206585954875
         0.0207200981677
         0.0207817517221
         0.0208435561508
         0.020905515179
         0.0209676250815
         0.0210298895836
         0.0210923068225
         0.021154878661
         0.0212176032364
         0.021280484274
         0.0213435199112
         0.0214067101479
         0.0214700568467
         0.0215335581452
         0.0215972177684
         0.0216610338539
         0.0217250064015
         0.0217891391367
         0.0218534264714
         0.0219178758562
         0.0219824817032
         0.0220472477376
         0.022112172097
         0.0221772585064
         0.0222425032407
         0.0223079100251
         0.0223734788597
         0.0224392078817
         0.0225051008165
         0.0225711539388
         0.0226373709738
         0.0227037519217
         0.0227702949196
         0.022837003693
         0.0229038745165
         0.0229709129781
         0.0230381153524
         0.0231054835021
         0.0231730174273
         0.0232407171279
         0.0233085863292
         0.0233766213059
         0.0234448239207
         0.0235131941736
         0.0235817339271
         0.0236504413188
         0.0237193182111
         0.0237883664668
         0.0238575842232
         0.0239269714803
         0.0239965319633
         0.0240662619472
         0.024136165157
         0.0242062397301
         0.0242764875293
         0.0243469085544
         0.0244175028056
         0.0244882721454
         0.0245592147112
         0.0246303323656
         0.0247016269714
         0.0247730948031
         0.0248447395861
         0.0249165613204
         0.0249885618687
         0.0250607375056
         0.0251330919564
         0.0252056252211
         0.0252783354372
         0.0253512263298
         0.025424297899
         0.0254975482821
         0.0255709793419
         0.0256445910782
         0.025718383491
         0.0257923603058
         0.0258665177971
         0.0259408578277
         0.0260153822601
         0.0260900910944
         0.0261649824679
         0.0262400582433
         0.0263153202832
         0.0263907667249
         0.0264663994312
         0.0265422202647
         0.0266182255
         0.0266944207251
         0.0267708022147
         0.0268473718315
         0.0269241295755
         0.0270010791719
         0.0270782150328
         0.0271555446088
         0.027233062312
         0.0273107718676
         0.0273886732757
         0.0274667665362
         0.0275450516492
         0.0276235304773
         0.0277022030205
         0.0277810692787
         0.0278601292521
         0.0279393848032
         0.0280188340694
         0.028098480776
         0.0281783249229
         0.0282583646476
         0.0283386018127
         0.0284190364182
         0.0284996703267
         0.0285805016756
         0.0286615323275
         0.0287427641451
         0.0288241952658
         0.0289058275521
         0.0289876610041
         0.0290696956217
         0.0291519314051
         0.0292343720794
         0.029317015782
         0.0293998625129
         0.0294829141349
         0.0295661687851
         0.0296496301889
         0.0297332964838
         0.0298171695322
         0.0299012493342
         0.0299855377525
         0.0300700329244
         0.0301547348499
         0.0302396472543
         0.030324768275
         0.0304100997746
         0.0304956417531
         0.0305813942105
         0.0306673590094
         0.0307535342872
