aces_1.0.2/luts/V3_LogC_800_to_linear.spi1d
Version 1
From 0.000000 1.000000
Length 4096
Components 1
{
         -0.017290500924
         -0.0172450076789
         -0.0171995125711
         -0.0171540174633
         -0.0171085223556
         -0.0170630272478
         -0.01701753214
         -0.0169720388949
         -0.0169265437871
         -0.0168810486794
         -0.0168355535716
         -0.0167900584638
         -0.016744563356
         -0.0166990682483
         -0.0166535750031
         -0.0166080798954
         -0.0165625847876
         -0.0165170896798
         -0.0164715945721
         -0.0164260994643
         -0.0163806062192
         -0.0163351111114
         -0.0162896160036
         -0.0162441208959
         -0.0161986257881
         -0.0161531306803
         -0.0161076355726
         -0.0160621423274
         -0.0160166472197
         -0.0159711521119
         -0.0159256570041
         -0.0158801618963
         -0.0158346667886
         -0.0157891735435
         -0.0157436784357
         -0.0156981833279
         -0.0156526882201
         -0.0156071931124
         -0.0155616989359
         -0.0155162038282
         -0.0154707087204
         -0.0154252145439
         -0.0153797194362
         -0.0153342243284
         -0.015288730152
         -0.0152432350442
         -0.0151977399364
         -0.01515224576
         -0.0151067506522
         -0.0150612555444
         -0.0150157604367
         -0.0149702662602
         -0.0149247711524
         -0.0148792760447
         -0.0148337818682
         -0.0147882867604
         -0.0147427916527
         -0.0146972974762
         -0.0146518023685
         -0.0146063072607
         -0.0145608130842
         -0.0145153179765
         -0.0144698228687
         -0.0144243286923
         -0.0143788335845
         -0.0143333384767
         -0.0142878433689
         -0.0142423491925
         -0.0141968540847
         -0.014151358977
         -0.0141058648005
         -0.0140603696927
         -0.014014874585
         -0.0139693804085
         -0.0139238853008
         -0.013878390193
         -0.0138328960165
         -0.0137874009088
         -0.013741905801
         -0.0136964116246
         -0.0136509165168
         -0.013605421409
         -0.0135599263012
         -0.0135144321248
         -0.013468937017
         -0.0134234419093
         -0.0133779477328
         -0.013332452625
         -0.0132869575173
         -0.0132414633408
         -0.013195968233
         -0.0131504731253
         -0.0131049789488
         -0.0130594838411
         -0.0130139887333
         -0.0129684945568
         -0.0129229994491
         -0.0128775043413
         -0.0128320092335
         -0.0127865150571
         -0.0127410199493
         -0.0126955248415
         -0.0126500306651
         -0.0126045355573
         -0.0125590404496
         -0.0125135462731
         -0.0124680511653
         -0.0124225560576
         -0.0123770618811
         -0.0123315667734
         -0.0122860716656
         -0.0122405774891
         -0.0121950823814
         -0.0121495872736
         -0.0121040921658
         -0.0120585979894
         -0.0120131028816
         -0.0119676077738
         -0.0119221135974
         -0.0118766184896
         -0.0118311233819
         -0.0117856292054
         -0.0117401340976
         -0.0116946389899
         -0.0116491448134
         -0.0116036497056
         -0.0115581545979
         -0.0115126594901
         -0.0114671653137
         -0.0114216702059
         -0.0113761750981
         -0.0113306809217
         -0.0112851858139
         -0.0112396907061
         -0.0111941965297
         -0.0111487014219
         -0.0111032063141
         -0.0110577121377
         -0.0110122170299
         -0.0109667219222
         -0.0109212277457
         -0.0108757326379
         -0.0108302375302
         -0.0107847424224
         -0.010739248246
         -0.0106937531382
         -0.0106482580304
         -0.010602763854
         -0.0105572687462
         -0.0105117736384
         -0.010466279462
         -0.0104207843542
         -0.0103752892464
         -0.01032979507
         -0.0102842999622
         -0.0102388048545
         -0.010193310678
         -0.0101478155702
         -0.0101023204625
         -0.0100568253547
         -0.0100113311782
         -0.00996583607048
         -0.00992034096271
         -0.00987484678626
         -0.00982935167849
         -0.00978385657072
         -0.00973836239427
         -0.0096928672865
         -0.00964737217873
         -0.00960187800229
         -0.00955638289452
         -0.00951088778675
         -0.0094653936103
         -0.00941989850253
         -0.00937440339476
         -0.00932890828699
         -0.00928341411054
         -0.00923791900277
         -0.009192423895
         -0.00914692971855
         -0.00910143461078
         -0.00905593950301
         -0.00901044532657
         -0.0089649502188
         -0.00891945511103
         -0.00887396093458
         -0.00882846582681
         -0.00878297071904
         -0.00873747654259
         -0.00869198143482
         -0.00864648632705
         -0.00860099121928
         -0.00855549704283
         -0.00851000193506
         -0.00846450682729
         -0.00841901265085
         -0.00837351754308
         -0.00832802243531
         -0.00828252825886
         -0.00823703315109
         -0.00819153804332
         -0.00814604386687
         -0.0081005487591
         -0.00805505365133
         -0.00800955947489
         -0.00796406436712
         -0.00791856925935
         -0.00787307415158
         -0.00782757997513
         -0.00778208486736
         -0.00773659022525
         -0.00769109511748
         -0.00764560047537
         -0.00760010583326
         -0.00755461072549
         -0.00750911608338
         -0.00746362144127
         -0.0074181263335
         -0.0073726316914
         -0.00732713658363
         -0.00728164194152
         -0.00723614729941
         -0.00719065219164
         -0.00714515754953
         -0.00709966290742
         -0.00705416779965
         -0.00700867315754
         -0.00696317804977
         -0.00691768340766
         -0.00687218876556
         -0.00682669365779
         -0.00678119901568
         -0.00673570437357
         -0.0066902092658
         -0.00664471462369
         -0.00659921951592
         -0.00655372487381
         -0.0065082302317
         -0.00646273512393
         -0.00641724048182
         -0.00637174583972
         -0.00632625073195
         -0.00628075608984
         -0.00623526098207
         -0.00618976633996
         -0.00614427169785
         -0.00609877659008
         -0.00605328194797
         -0.00600778730586
         -0.00596229219809
         -0.00591679755598
         -0.00587130244821
         -0.0058258078061
         -0.005780313164
         -0.00573481805623
         -0.00568932341412
         -0.00564382877201
         -0.00559833366424
         -0.00555283902213
         -0.00550734391436
         -0.00546184927225
         -0.00541635463014
         -0.00537085952237
         -0.00532536488026
         -0.00527987023816
         -0.00523437513039
         -0.00518888048828
         -0.00514338538051
         -0.0050978907384
         -0.00505239609629
         -0.00500690098852
         -0.00496140634641
         -0.0049159117043
         -0.00487041659653
         -0.00482492195442
         -0.00477942684665
         -0.00473393220454
         -0.00468843756244
         -0.00464294245467
         -0.00459744781256
         -0.00455195317045
         -0.00450645806268
         -0.00446096342057
         -0.0044154683128
         -0.00436997367069
         -0.00432447902858
         -0.00427898392081
         -0.0042334892787
         -0.0041879946366
         -0.00414249952883
         -0.00409700488672
         -0.00405150977895
         -0.00400601513684
         -0.00396052049473
         -0.00391502538696
         -0.00386953074485
         -0.00382403586991
         -0.00377854099497
         -0.00373304612003
         -0.00368755147792
         -0.00364205660298
         -0.00359656172805
         -0.00355106685311
         -0.003505572211
         -0.00346007733606
         -0.00341458246112
         -0.00336908758618
         -0.00332359294407
         -0.00327809806913
         -0.00323260319419
         -0.00318710831925
         -0.00314161367714
         -0.0030961188022
         -0.00305062392727
         -0.00300512905233
         -0.00295963441022
         -0.00291413953528
         -0.00286864466034
         -0.0028231497854
         -0.00277765514329
         -0.00273216026835
         -0.00268666539341
         -0.00264117051847
         -0.00259567587636
         -0.00255018100142
         -0.00250468612649
         -0.00245919125155
         -0.00241369660944
         -0.0023682017345
         -0.00232270685956
         -0.00227721198462
         -0.00223171734251
         -0.00218622246757
         -0.00214072759263
         -0.00209523271769
         -0.00204973807558
         -0.00200424320064
         -0.00195874832571
         -0.00191325356718
         -0.00186775869224
         -0.00182226393372
         -0.00177676905878
         -0.00173127430025
         -0.00168577942532
         -0.00164028466679
         -0.00159478979185
         -0.00154929503333
         -0.00150380015839
         -0.00145830539986
         -0.00141281052493
         -0.0013673157664
         -0.00132182089146
         -0.00127632613294
         -0.001230831258
         -0.00118533649947
         -0.00113984162454
         -0.00109434686601
         -0.00104885199107
         -0.00100335723255
         -0.000957862415817
         -0.000912367599085
         -0.000866872782353
         -0.000821377965622
         -0.00077588314889
         -0.000730388332158
         -0.000684893515427
         -0.000639398698695
         -0.000593903881963
         -0.000548409065232
         -0.0005029142485
         -0.000457419402665
         -0.000411924585933
         -0.000366429769201
         -0.00032093495247
         -0.000275440135738
         -0.000229945319006
         -0.000184450502275
         -0.000138955685543
         -9.34608688112e-05
         -4.79660520796e-05
         -2.47123398367e-06
         4.30235813837e-05
         8.85183981154e-05
         0.000134013214847
         0.000179508031579
         0.00022500284831
         0.000270497665042
         0.000315992481774
         0.000361487298505
         0.000406982115237
         0.000452476931969
         0.000497971777804
         0.000543466594536
         0.000588961411268
         0.000634456227999
         0.000679951044731
         0.000725445861463
         0.000770940678194
         0.000816435494926
         0.000861930311657
         0.000907425128389
         0.000952919945121
         0.000998414703645
         0.00104390957858
         0.00108940433711
         0.00113489921205
         0.00118039397057
         0.00122588884551
         0.00127138360403
         0.00131687847897
         0.0013623732375
         0.00140786811244
         0.00145336287096
         0.0014988577459
         0.00154435250442
         0.00158984737936
         0.00163534213789
         0.00168083701283
         0.00172633177135
         0.00177182664629
         0.00181732140481
         0.00186281627975
         0.00190831103828
         0.0019538057968
         0.00199930067174
         0.00204479554668
         0.00209029042162
         0.00213578506373
         0.00218127993867
         0.00222677481361
         0.00227226968855
         0.00231776433066
         0.00236325920559
         0.00240875408053
         0.00245424895547
         0.00249974359758
         0.00254523847252
         0.00259073334746
         0.0026362282224
         0.00268172286451
         0.00272721773945
         0.00277271261439
         0.00281820748933
         0.00286370213144
         0.00290919700637
         0.00295469188131
         0.00300018675625
         0.00304568139836
         0.0030911762733
         0.00313667114824
         0.00318216602318
         0.00322766066529
         0.00327315554023
         0.00331865041517
         0.00336414529011
         0.00340963993222
         0.00345513480715
         0.00350062968209
         0.00354612455703
         0.00359161919914
         0.00363711407408
         0.00368260894902
         0.00372810382396
         0.0037735986989
         0.00381909334101
         0.00386458821595
         0.00391008285806
         0.00395557796583
         0.00400107260793
         0.0040465677157
         0.00409206235781
         0.00413755699992
         0.00418305210769
         0.0042285467498
         0.00427404139191
         0.00431953649968
         0.00436503114179
         0.00441052624956
         0.00445602089167
         0.00450151553378
         0.00454701064155
         0.00459250528365
         0.00463799992576
         0.00468349503353
         0.00472898967564
         0.00477448478341
         0.00481997942552
         0.00486547406763
         0.0049109691754
         0.00495646381751
         0.00500195845962
         0.00504745356739
         0.00509294820949
         0.00513844331726
         0.00518393795937
         0.00522943260148
         0.00527492770925
         0.00532042235136
         0.00536591699347
         0.00541141210124
         0.00545690674335
         0.00550240185112
         0.00554789649323
         0.00559339113533
         0.0056388862431
         0.00568438088521
         0.00572987552732
         0.00577537063509
         0.0058208652772
         0.00586636038497
         0.00591185502708
         0.00595734966919
         0.00600284477696
         0.00604833941907
         0.00609383406118
         0.00613932916895
         0.00618482381105
         0.00623031891882
         0.00627581356093
         0.00632130820304
         0.00636680331081
         0.00641229795292
         0.00645779259503
         0.0065032877028
         0.00654878234491
         0.00659427745268
         0.00663977209479
         0.00668526673689
         0.00673076184466
         0.00677625648677
         0.00682175112888
         0.00686724623665
         0.00691274087876
         0.00695823598653
         0.00700373062864
         0.00704922527075
         0.00709472037852
         0.00714021502063
         0.00718570966274
         0.00723120477051
         0.00727669941261
         0.00732219452038
         0.00736768916249
         0.0074131838046
         0.00745867891237
         0.00750417355448
         0.00754966819659
         0.00759516330436
         0.00764065794647
         0.00768615305424
         0.00773164769635
         0.00777714233845
         0.00782263744622
         0.00786813255399
         0.00791362673044
         0.00795912183821
         0.00800461694598
         0.00805011112243
         0.0080956062302
         0.00814110133797
         0.00818659551442
         0.00823209062219
         0.00827758572996
         0.0083230799064
         0.00836857501417
         0.00841407012194
         0.00845956429839
         0.00850505940616
         0.00855055451393
         0.0085960496217
         0.00864154379815
         0.00868703890592
         0.00873253401369
         0.00877802819014
         0.00882352329791
         0.00886901840568
         0.00891451258212
         0.00896000768989
         0.00900550279766
         0.00905099697411
         0.00909649208188
         0.00914198718965
         0.0091874813661
         0.00923297647387
         0.00927847158164
         0.00932396668941
         0.00936946086586
         0.00941495597363
         0.0094604510814
         0.00950594525784
         0.00955144036561
         0.00959693547338
         0.00964242964983
         0.0096879247576
         0.00973341986537
         0.00977891404182
         0.00982440914959
         0.00986990425736
         0.0099153984338
         0.00996089354157
         0.0100063886493
         0.0100518837571
         0.0100973779336
         0.0101428730413
         0.0101883681491
         0.0102338623255
         0.0102793574333
         0.0103248525411
         0.0103703467175
         0.0104158418253
         0.0104613369331
         0.0105068311095
         0.0105523262173
         0.0105978222564
         0.0106433844194
         0.0106890499592
         0.0107348198071
         0.0107806939632
         0.0108266724274
         0.0108727551997
         0.0109189432114
         0.0109652364627
         0.0110116349533
         0.0110581396148
         0.0111047495157
         0.0111514665186
         0.0111982887611
         0.0112452181056
         0.0112922545522
         0.011339398101
         0.0113866487518
         0.011434007436
         0.0114814732224
         0.0115290479735
         0.011576730758
         0.0116245215759
         0.0116724213585
         0.0117204310372
         0.0117685496807
         0.0118167772889
         0.0118651157245
         0.0119135631248
         0.0119621213526
         0.0120107904077
         0.0120595702901
         0.012108461
         0.0121574634686
         0.0122065767646
         0.0122558027506
         0.0123051404953
         0.01235459093
         0.0124041531235
         0.0124538289383
         0.0125036174431
         0.0125535195693
         0.0126035353169
         0.0126536646858
         0.0127039086074
         0.0127542670816
         0.0128047401085
         0.0128553276882
         0.0129060307518
         0.0129568492994
         0.013007783331
         0.0130588337779
         0.0131099997088
         0.0131612829864
         0.0132126826793
         0.0132641997188
         0.013315834105
         0.0133675858378
         0.0134194549173
         0.0134714432061
         0.0135235488415
         0.0135757736862
         0.0136281177402
         0.0136805810034
         0.013733163476
         0.0137858651578
         0.0138386869803
         0.0138916298747
         0.0139446929097
         0.0139978770167
         0.0140511821955
         0.0141046084464
         0.0141581557691
         0.0142118260264
         0.014265618287
         0.0143195334822
         0.0143735706806
         0.0144277308136
         0.0144820148125
         0.0145364226773
         0.014590954408
         0.0146456100047
         0.0147003894672
         0.0147552946582
         0.0148103246465
         0.014865479432
         0.0149207608774
         0.01497616712
         0.0150317000225
         0.0150873595849
         0.0151431458071
         0.0151990586892
         0.0152550991625
         0.0153112672269
         0.0153675638139
         0.0154239879921
         0.0154805406928
         0.015537221916
         0.0155940325931
         0.015650972724
         0.0157080423087
         0.0157652422786
         0.015822570771
         0.0158800315112
         0.0159376226366
         0.0159953460097
         0.0160531997681
         0.0161111857742
         0.0161693021655
         0.0162275526673
         0.0162859354168
         0.0163444522768
         0.016403099522
         0.0164618827403
         0.016520800069
         0.0165798496455
         0.0166390351951
         0.0166983548552
         0.0167578086257
         0.016817400232
         0.0168771259487
         0.0169369876385
         0.0169969853014
         0.0170571208
         0.0171173922718
         0.0171778015792
         0.0172383487225
         0.0172990337014
         0.0173598565161
         0.0174208171666
         0.0174819175154
         0.0175431575626
         0.0176045354456
         0.0176660548896
         0.0177277121693
         0.0177895128727
         0.0178514514118
         0.0179135333747
         0.0179757550359
         0.0180381182581
         0.018100624904
         0.018163273111
         0.0182260647416
         0.0182889979333
         0.0183520745486
         0.0184152964503
         0.0184786617756
         0.0185421705246
         0.0186058245599
         0.0186696238816
         0.0187335666269
         0.0187976565212
         0.0188618935645
         0.0189262740314
         0.01899080351
         0.0190554782748
         0.0191203020513
         0.0191852729768
         0.0192503910512
         0.0193156581372
         0.0193810723722
         0.0194466374815
         0.0195123497397
         0.0195782128721
         0.0196442268789
         0.0197103898972
         0.0197767056525
         0.0198431704193
         0.0199097860605
         0.0199765544385
         0.0200434755534
         0.0201105494052
         0.0201777741313
         0.0202451534569
         0.0203126855195
         0.0203803703189
         0.0204482115805
         0.020516205579
         0.0205843541771
         0.0206526592374
         0.0207211188972
         0.0207897350192
         0.0208585076034
         0.0209274366498
         0.0209965221584
         0.0210657659918
         0.0211351662874
         0.0212047249079
         0.0212744437158
         0.0213443189859
         0.0214143544436
         0.0214845500886
         0.0215549040586
         0.021625418216
         0.0216960944235
         0.0217669308186
         0.0218379274011
         0.0219090878963
         0.0219804085791
         0.0220518931746
         0.0221235398203
         0.0221953485161
         0.0222673229873
         0.0223394595087
         0.0224117618054
         0.0224842280149
         0.0225568581372
         0.0226296558976
         0.0227026175708
         0.022775746882
         0.0228490419686
         0.0229225028306
         0.0229961331934
         0.0230699293315
         0.0231438949704
         0.0232180282474
         0.023292331025
         0.0233668014407
         0.0234414432198
         0.0235162544996
         0.02359123528
         0.0236663874239
         0.0237417109311
         0.0238172058016
         0.0238928738981
         0.023968713358
         0.0240447241813
         0.0241209100932
         0.0241972673684
         0.0242737997323
         0.0243505071849
         0.0244273878634
         0.0245044454932
         0.024581676349
         0.0246590841562
         0.0247366689146
         0.0248144287616
         0.0248923674226
         0.0249704830348
         0.0250487755984
         0.0251272469759
         0.0252058971673
         0.0252847261727
         0.0253637358546
         0.0254429243505
         0.025522293523
         0.025601843372
         0.0256815757602
         0.0257614869624
         0.0258415825665
         0.0259218588471
         0.0260023195297
         0.0260829627514
         0.0261637885123
         0.0262447986752
         0.0263259951025
         0.0264073759317
         0.0264889411628
         0.0265706926584
         0.0266526285559
         0.0267347525805
         0.0268170647323
         0.0268995631486
         0.0269822496921
         0.0270651243627
         0.0271481871605
         0.0272314399481
         0.0273148827255
         0.02739851363
         0.027482336387
         0.0275663509965
         0.0276505555958
         0.0277349520475
         0.0278195403516
         0.0279043223709
         0.0279892962426
         0.028074465692
         0.0281598269939
         0.0282453838736
         0.0283311344683
         0.0284170806408
         0.0285032242537
         0.0285895615816
         0.0286760982126
         0.0287628304213
         0.0288497600704
         0.0289368871599
         0.0290242135525
         0.0291117373854
         0.029199462384
         0.0292873866856
         0.0293755102903
         0.0294638350606
         0.0295523609966
         0.0296410899609
         0.0297300182283
         0.0298191513866
         0.0299084857106
         0.0299980249256
         0.0300877671689
         0.0301777143031
         0.0302678663284
         0.0303582232445
         0.0304487869143
         0.0305395554751
         0.0306305307895
         0.0307217147201
         0.0308131054044
         0.0309047047049
         0.030996510759
         0.031088527292
         0.0311807543039
         0.0312731899321
         0.0313658379018
