aces_1.0.2/luts/V3_LogC_200_to_linear.spi1d
Version 1
From 0.000000 1.000000
Length 4096
Components 1
{
         -0.0160626843572
         -0.0160204079002
         -0.0159781314433
         -0.0159358549863
         -0.0158935785294
         -0.0158513020724
         -0.0158090256155
         -0.0157667491585
         -0.0157244727015
         -0.0156821962446
         -0.0156399197876
         -0.0155976423994
         -0.0155553659424
         -0.0155130894855
         -0.0154708130285
         -0.0154285365716
         -0.0153862601146
         -0.0153439836577
         -0.0153017062694
         -0.0152594298124
         -0.0152171533555
         -0.0151748768985
         -0.0151326004416
         -0.0150903239846
         -0.0150480475277
         -0.0150057710707
         -0.0149634946138
         -0.0149212181568
         -0.0148789416999
         -0.0148366652429
         -0.014794388786
         -0.0147521113977
         -0.0147098349407
         -0.0146675584838
         -0.0146252820268
         -0.0145830055699
         -0.0145407291129
         -0.014498452656
         -0.014456176199
         -0.0144138997421
         -0.0143716232851
         -0.0143293468282
         -0.0142870703712
         -0.0142447929829
         -0.014202516526
         -0.014160240069
         -0.0141179636121
         -0.0140756871551
         -0.0140334106982
         -0.0139911342412
         -0.0139488577843
         -0.0139065813273
         -0.0138643048704
         -0.0138220284134
         -0.0137797519565
         -0.0137374745682
         -0.0136951981112
         -0.0136529216543
         -0.0136106451973
         -0.0135683687404
         -0.0135260922834
         -0.0134838158265
         -0.0134415393695
         -0.0133992629126
         -0.0133569864556
         -0.0133147099987
         -0.0132724335417
         -0.0132301561534
         -0.0131878796965
         -0.0131456032395
         -0.0131033267826
         -0.0130610503256
         -0.0130187738687
         -0.0129764974117
         -0.0129342209548
         -0.0128919444978
         -0.0128496680409
         -0.0128073915839
         -0.012765115127
         -0.0127228377387
         -0.0126805612817
         -0.0126382848248
         -0.0125960083678
         -0.0125537319109
         -0.0125114554539
         -0.012469178997
         -0.01242690254
         -0.0123846260831
         -0.0123423496261
         -0.0123000731692
         -0.0122577967122
         -0.0122155193239
         -0.012173242867
         -0.01213096641
         -0.0120886899531
         -0.0120464134961
         -0.0120041370392
         -0.0119618605822
         -0.0119195841253
         -0.0118773076683
         -0.0118350312114
         -0.0117927547544
         -0.0117504782975
         -0.0117082009092
         -0.0116659244522
         -0.0116236479953
         -0.0115813715383
         -0.0115390950814
         -0.0114968186244
         -0.0114545421675
         -0.0114122657105
         -0.0113699892536
         -0.0113277127966
         -0.0112854363397
         -0.0112431598827
         -0.0112008824944
         -0.0111586060375
         -0.0111163295805
         -0.0110740531236
         -0.0110317766666
         -0.0109895002097
         -0.0109472237527
         -0.0109049472958
         -0.0108626708388
         -0.0108203943819
         -0.0107781179249
         -0.010735841468
         -0.0106935640797
         -0.0106512876227
         -0.0106090111658
         -0.0105667347088
         -0.0105244582519
         -0.0104821817949
         -0.010439905338
         -0.010397628881
         -0.0103553524241
         -0.0103130759671
         -0.0102707995102
         -0.0102285230532
         -0.010186245665
         -0.010143969208
         -0.010101692751
         -0.0100594162941
         -0.0100171398371
         -0.00997486338019
         -0.00993258692324
         -0.00989031046629
         -0.00984803400934
         -0.00980575755239
         -0.00976348109543
         -0.00972120463848
         -0.00967892725021
         -0.00963665079325
         -0.0095943743363
         -0.00955209787935
         -0.0095098214224
         -0.00946754496545
         -0.00942526850849
         -0.00938299205154
         -0.00934071559459
         -0.00929843913764
         -0.00925616268069
         -0.00921388622373
         -0.00917160883546
         -0.00912933237851
         -0.00908705592155
         -0.0090447794646
         -0.00900250300765
         -0.0089602265507
         -0.00891795009375
         -0.00887567363679
         -0.00883339717984
         -0.00879112072289
         -0.00874884426594
         -0.00870656780899
         -0.00866429042071
         -0.00862201396376
         -0.00857973750681
         -0.00853746104985
         -0.0084951845929
         -0.00845290813595
         -0.008410631679
         -0.00836835522205
         -0.00832607876509
         -0.00828380230814
         -0.00824152585119
         -0.00819924939424
         -0.00815697200596
         -0.00811469554901
         -0.00807241909206
         -0.00803014263511
         -0.00798786617815
         -0.0079455897212
         -0.00790331326425
         -0.0078610368073
         -0.00781876035035
         -0.00777648342773
         -0.00773420697078
         -0.00769193051383
         -0.00764965405688
         -0.00760737759992
         -0.00756510114297
         -0.00752282422036
         -0.00748054776341
         -0.00743827130646
         -0.0073959948495
         -0.00735371839255
         -0.0073114419356
         -0.00726916501299
         -0.00722688855603
         -0.00718461209908
         -0.00714233564213
         -0.00710005918518
         -0.00705778272822
         -0.00701550580561
         -0.00697322934866
         -0.00693095289171
         -0.00688867643476
         -0.0068463999778
         -0.00680412352085
         -0.00676184659824
         -0.00671957014129
         -0.00667729368433
         -0.00663501722738
         -0.00659274077043
         -0.00655046431348
         -0.00650818739086
         -0.00646591093391
         -0.00642363447696
         -0.00638135802001
         -0.00633908156306
         -0.0062968051061
         -0.00625452818349
         -0.00621225172654
         -0.00616997526959
         -0.00612769881263
         -0.00608542235568
         -0.00604314589873
         -0.00600086944178
         -0.00595859251916
         -0.00591631606221
         -0.00587403960526
         -0.00583176314831
         -0.00578948669136
         -0.0057472102344
         -0.00570493331179
         -0.00566265685484
         -0.00562038039789
         -0.00557810394093
         -0.00553582748398
         -0.00549355102703
         -0.00545127410442
         -0.00540899764746
         -0.00536672119051
         -0.00532444473356
         -0.00528216827661
         -0.00523989181966
         -0.00519761489704
         -0.00515533844009
         -0.00511306198314
         -0.00507078552619
         -0.00502850906923
         -0.00498623261228
         -0.00494395568967
         -0.00490167923272
         -0.00485940277576
         -0.00481712631881
         -0.00477484986186
         -0.00473257340491
         -0.00469029648229
         -0.00464802002534
         -0.00460574356839
         -0.00456346711144
         -0.00452119065449
         -0.00447891419753
         -0.00443663727492
         -0.00439436081797
         -0.00435208436102
         -0.00430980790406
         -0.00426753144711
         -0.00422525499016
         -0.00418297806755
         -0.00414070161059
         -0.00409842515364
         -0.00405614869669
         -0.00401387223974
         -0.00397159578279
         -0.00392931886017
         -0.00388704240322
         -0.00384476594627
         -0.00380248948932
         -0.00376021279953
         -0.00371793634258
         -0.00367565988563
         -0.00363338319585
         -0.0035911067389
         -0.00354883028194
         -0.00350655359216
         -0.00346427713521
         -0.00342200067826
         -0.00337972398847
         -0.00333744753152
         -0.00329517107457
         -0.00325289438479
         -0.00321061792783
         -0.00316834147088
         -0.0031260647811
         -0.00308378832415
         -0.0030415118672
         -0.00299923517741
         -0.00295695872046
         -0.00291468226351
         -0.00287240557373
         -0.00283012911677
         -0.00278785265982
         -0.00274557597004
         -0.00270329951309
         -0.00266102305613
         -0.00261874636635
         -0.0025764699094
         -0.00253419345245
         -0.00249191676266
         -0.00244964030571
         -0.00240736384876
         -0.00236508715898
         -0.00232281070203
         -0.00228053424507
         -0.00223825755529
         -0.00219598109834
         -0.00215370464139
         -0.0021114279516
         -0.00206915149465
         -0.0020268750377
         -0.00198459834792
         -0.00194232189097
         -0.00190004543401
         -0.00185776886065
         -0.00181549228728
         -0.00177321583033
         -0.00173093925696
         -0.00168866268359
         -0.00164638622664
         -0.00160410965327
         -0.0015618330799
         -0.00151955662295
         -0.00147728004958
         -0.00143500347622
         -0.00139272701927
         -0.0013504504459
         -0.00130817387253
         -0.00126589741558
         -0.00122362084221
         -0.00118134426884
         -0.00113906781189
         -0.00109679123852
         -0.00105451466516
         -0.0010122382082
         -0.000969961634837
         -0.000927685119677
         -0.00088540854631
         -0.00084313203115
         -0.00080085551599
         -0.000758578942623
         -0.000716302427463
         -0.000674025912303
         -0.000631749338936
         -0.000589472823776
         -0.000547196308617
         -0.000504919793457
         -0.000462643220089
         -0.00042036670493
         -0.000378090160666
         -0.000335813616402
         -0.000293537101243
         -0.000251260556979
         -0.000208984027267
         -0.000166707497556
         -0.000124430953292
         -8.21544235805e-05
         -3.98778902309e-05
         2.39864539253e-06
         4.46751801064e-05
         8.69517170941e-05
         0.000129228254082
         0.000171504783793
         0.000213781313505
         0.000256057857769
         0.000298334372928
         0.000340610917192
         0.000382887461456
         0.000425163976615
         0.000467440520879
         0.000509717036039
         0.000551993609406
         0.000594270124566
         0.000636546639726
         0.000678823213093
         0.000721099728253
         0.000763376243412
         0.00080565281678
         0.00084792933194
         0.000890205847099
         0.000932482420467
         0.000974758935627
         0.00101703545079
         0.00105931202415
         0.00110158848111
         0.00114386505447
         0.00118614162784
         0.00122841808479
         0.00127069465816
         0.00131297123153
         0.00135524768848
         0.00139752426185
         0.00143980083521
         0.00148207729217
         0.00152435386553
         0.0015666304389
         0.00160890689585
         0.00165118346922
         0.00169346004259
         0.00173573649954
         0.00177801307291
         0.00182028964628
         0.00186256610323
         0.00190484267659
         0.00194711924996
         0.00198939582333
         0.00203167228028
         0.00207394873723
         0.00211622542702
         0.00215850188397
         0.00220077834092
         0.0022430550307
         0.00228533148766
         0.00232760794461
         0.00236988463439
         0.00241216109134
         0.00245443754829
         0.00249671423808
         0.00253899069503
         0.00258126715198
         0.00262354384176
         0.00266582029872
         0.00270809675567
         0.00275037344545
         0.0027926499024
         0.00283492635936
         0.00287720304914
         0.00291947950609
         0.00296175596304
         0.00300403265283
         0.00304630910978
         0.00308858556673
         0.00313086225651
         0.00317313871346
         0.00321541517042
         0.0032576918602
         0.00329996831715
         0.0033422447741
         0.00338452146389
         0.00342679792084
         0.00346907437779
         0.00351135106757
         0.00355362752452
         0.00359590398148
         0.00363818067126
         0.00368045712821
         0.00372273358516
         0.00376501027495
         0.0038072867319
         0.00384956318885
         0.00389183987863
         0.00393411610276
         0.00397639302537
         0.00401866948232
         0.00406094593927
         0.00410322239622
         0.00414549885318
         0.00418777531013
         0.00423005223274
         0.00427232868969
         0.00431460514665
         0.0043568816036
         0.00439915806055
         0.0044414345175
         0.00448371144012
         0.00452598789707
         0.00456826435402
         0.00461054081097
         0.00465281726792
         0.00469509372488
         0.00473737064749
         0.00477964710444
         0.00482192356139
         0.00486420001835
         0.0049064764753
         0.00494875293225
         0.00499102985486
         0.00503330631182
         0.00507558276877
         0.00511785922572
         0.00516013568267
         0.00520241213962
         0.00524468906224
         0.00528696551919
         0.00532924197614
         0.00537151843309
         0.00541379489005
         0.005456071347
         0.00549834826961
         0.00554062472656
         0.00558290118352
         0.00562517764047
         0.00566745409742
         0.00570973055437
         0.00575200747699
         0.00579428393394
         0.00583656039089
         0.00587883684784
         0.00592111330479
         0.00596338976175
         0.00600566668436
         0.00604794314131
         0.00609021959826
         0.00613249605522
         0.00617477251217
         0.00621705083176
         0.00625939061865
         0.00630181981251
         0.00634433887899
         0.0063869478181
         0.0064296470955
         0.00647243671119
         0.00651531666517
         0.0065582874231
         0.00660134898499
         0.00664450181648
         0.00668774591759
         0.00673108175397
         0.00677450885996
         0.00681802816689
         0.00686163967475
         0.00690534338355
         0.00694913929328
         0.00699302833527
         0.0070370095782
         0.00708108441904
         0.00712525239214
         0.00716951396316
         0.0072138691321
         0.00725831789896
         0.00730286119506
         0.00734749808908
         0.007392229978
         0.00743705639616
         0.00748197780922
         0.00752699375153
         0.00757210562006
         0.00761731248349
         0.00766261527315
         0.00770801352337
         0.00775350816548
         0.00779909919947
         0.00784478615969
         0.00789057090878
         0.0079364515841
         0.00798242911696
         0.0080285044387
         0.0080746775493
         0.00812094844878
         0.0081673162058
         0.00821378268301
         0.00826034788042
         0.0083070108667
         0.0083537735045
         0.00840063393116
         0.00844759494066
         0.00849465373904
         0.00854181312025
         0.00858907215297
         0.00863643083721
         0.00868389010429
         0.00873144995421
         0.00877911038697
         0.00882687140256
         0.00887473393232
         0.00892269704491
         0.00897076167166
         0.0090189287439
         0.0090671973303
         0.00911556836218
         0.00916404090822
         0.00921261683106
         0.00926129519939
         0.00931007694453
         0.00935896113515
         0.0094079496339
         0.00945704150945
         0.00950623676181
         0.0095555363223
         0.00960494019091
         0.00965444929898
         0.00970406271517
         0.00975378137082
         0.00980360433459
         0.00985353346914
         0.00990356784314
         0.00995370838791
         0.0100039551035
         0.0100543079898
         0.0101047679782
         0.0101553341374
         0.0102060073987
         0.010256787762
         0.0103076761588
         0.0103586716577
         0.0104097751901
         0.0104609867558
         0.0105123072863
         0.0105637358502
         0.0106152733788
         0.0106669198722
         0.0107186753303
         0.0107705406845
         0.0108225159347
         0.010874601081
         0.0109267961234
         0.0109791019931
         0.0110315186903
         0.0110840452835
         0.0111366845667
         0.011189433746
         0.0112422956154
         0.0112952692434
         0.0113483546302
         0.0114015517756
         0.0114548625425
         0.0115082859993
         0.0115618221462
         0.0116154719144
         0.0116692343727
         0.0117231113836
         0.0117771020159
         0.0118312072009
         0.0118854269385
         0.0119397612289
         0.0119942100719
         0.0120487743989
         0.0121034542099
         0.0121582504362
         0.0122131621465
         0.0122681893408
         0.0123233338818
         0.0123785948381
         0.0124339722097
         0.0124894678593
         0.0125450799242
         0.012600810267
         0.0126566579565
         0.0127126248553
         0.0127687091008
         0.0128249125555
         0.0128812342882
         0.0129376761615
         0.0129942372441
         0.013050917536
         0.0131077179685
         0.0131646385416
         0.0132216801867
         0.0132788419724
         0.0133361248299
         0.0133935287595
         0.0134510546923
         0.013508701697
         0.013566470705
         0.0136243626475
         0.0136823765934
         0.0137405125424
         0.0137987723574
         0.0138571560383
         0.0139156626537
         0.0139742922038
         0.0140330474824
         0.0140919256955
         0.0141509296373
         0.0142100574449
         0.014269310981
         0.0143286893144
         0.0143881933764
         0.0144478240982
         0.0145075805485
         0.0145674636588
         0.0146274734288
         0.0146876098588
         0.01474787388
         0.014808264561
         0.0148687837645
         0.0149294314906
         0.0149902068079
         0.0150511106476
         0.0151121439412
         0.0151733066887
         0.0152345979586
         0.0152960196137
         0.0153575707227
         0.0154192522168
         0.0154810640961
         0.0155430072919
         0.0156050808728
         0.0156672857702
         0.0157296229154
         0.0157920923084
         0.0158546939492
         0.0159174259752
         0.0159802921116
         0.0160432923585
         0.0161064248532
         0.0161696914583
         0.0162330903113
         0.0162966251373
         0.0163602940738
         0.0164240971208
         0.0164880361408
         0.0165521092713
         0.0166163183749
         0.0166806634516
         0.0167451445013
         0.0168097633868
         0.0168745163828
         0.0169394090772
         0.0170044377446
         0.0170696042478
         0.0171349085867
         0.0172003507614
         0.0172659307718
         0.0173316504806
         0.0173975098878
         0.0174635089934
         0.0175296459347
         0.017595924437
         0.0176623426378
         0.0177289005369
         0.017795599997
         0.0178624410182
         0.0179294217378
         0.017996545881
         0.0180638115853
         0.0181312207133
         0.0181987714022
         0.0182664636523
         0.0183343011886
         0.0184022821486
         0.0184704065323
         0.0185386743397
         0.0186070874333
         0.0186756458133
         0.018744347617
         0.0188131965697
         0.0188821908087
         0.0189513303339
         0.0190206170082
         0.0190900489688
         0.0191596280783
         0.0192293561995
         0.019299229607
         0.0193692520261
         0.0194394234568
         0.0195097420365
         0.0195802096277
         0.0196508262306
         0.0197215937078
         0.0197925083339
         0.0198635756969
         0.0199347920716
         0.0200061593205
         0.0200776774436
         0.020149346441
         0.0202211681753
         0.0202931407839
         0.0203652661294
         0.0204375442117
         0.0205099768937
         0.0205825604498
         0.0206552986056
         0.0207281894982
         0.020801236853
         0.0208744369447
         0.0209477934986
         0.0210213027894
         0.0210949704051
         0.0211687926203
         0.0212427712977
         0.0213169064373
         0.0213911980391
         0.021465646103
         0.0215402524918
         0.0216150172055
         0.021689940244
         0.0217650216073
         0.0218402612954
         0.0219156611711
         0.0219912193716
         0.0220669377595
         0.0221428181976
         0.0222188569605
         0.0222950577736
         0.0223714187741
         0.0224479418248
         0.0225246269256
         0.0226014759392
         0.0226784851402
         0.022755658254
         0.0228329952806
         0.0229104943573
         0.0229881592095
         0.0230659861118
         0.0231439806521
         0.0232221372426
         0.0233004614711
         0.023378951475
         0.0234576053917
         0.0235364269465
         0.0236154161394
         0.0236945711076
         0.0237738955766
         0.023853385821
         0.0239330455661
         0.0240128729492
         0.0240928698331
         0.0241730362177
         0.024253372103
         0.024333877489
         0.0244145523757
         0.0244954004884
         0.0245764181018
         0.0246576070786
         0.0247389674187
         0.0248205009848
         0.0249022059143
         0.0249840859324
         0.0250661373138
         0.0251483619213
         0.0252307616174
         0.0253133364022
         0.0253960844129
         0.0254790075123
         0.025562107563
         0.0256453827024
         0.0257288329303
         0.0258124601096
         0.0258962661028
         0.0259802471846
         0.0260644070804
         0.0261487457901
         0.0262332614511
         0.0263179577887
         0.0264028310776
         0.026487885043
         0.0265731196851
         0.026658533141
         0.0267441291362
         0.026829905808
         0.0269158631563
         0.0270020030439
         0.027088323608
         0.0271748285741
         0.0272615160793
         0.0273483879864
         0.0274354424328
         0.027522681281
         0.027610104531
         0.0276977140456
         0.0277855079621
         0.0278734881431
         0.0279616527259
         0.0280500054359
         0.0281385462731
         0.0282272733748
         0.028316186741
         0.028405290097
         0.0284945815802
         0.0285840611905
         0.0286737307906
         0.0287635903805
         0.0288536399603
         0.0289438795298
         0.0290343109518
         0.0291249342263
         0.0292157474905
         0.0293067544699
         0.0293979533017
         0.0294893439859
         0.0295809302479
         0.0296727083623
         0.0297646820545
         0.0298568494618
         0.0299492124468
         0.0300417710096
         0.0301345251501
         0.0302274767309
         0.0303206238896
         0.0304139684886
         0.0305075086653
         0.0306012500077
         0.0306951869279
         0.0307893250138
         0.03088366054
         0.0309781953692
         0.0310729313642
         0.0311678685248
         0.0312630049884
         0.0313583426178
         0.031453885138
         0.0315496250987
         0.0316455699503
         0.0317417196929
         0.0318380706012
         0.0319346264005
         0.0320313870907
         0.0321283489466
         0.0322255194187
         0.0323228947818
         0.0324204750359
         0.0325182639062
         0.0326162576675
