aces_1.0.2/luts/V3_LogC_2560_to_linear.spi1d
Version 1
From 0.000000 1.000000
Length 4096
Components 1
{
         -0.0184752065688
         -0.0184266064316
         -0.018378008157
         -0.0183294098824
         -0.0182808097452
         -0.0182322114706
         -0.018183613196
         -0.0181350130588
         -0.0180864147842
         -0.0180378165096
         -0.0179892163724
         -0.0179406180978
         -0.0178920198232
         -0.017843419686
         -0.0177948214114
         -0.0177462231368
         -0.0176976229995
         -0.017649024725
         -0.0176004264504
         -0.0175518263131
         -0.0175032280385
         -0.017454629764
         -0.0174060296267
         -0.0173574313521
         -0.0173088330775
         -0.0172602329403
         -0.0172116346657
         -0.0171630363911
         -0.0171144362539
         -0.0170658379793
         -0.0170172397047
         -0.0169686395675
         -0.0169200412929
         -0.0168714430183
         -0.0168228428811
         -0.0167742446065
         -0.0167256463319
         -0.0166770461947
         -0.0166284479201
         -0.0165798496455
         -0.0165312495083
         -0.0164826512337
         -0.0164340529591
         -0.0163854528219
         -0.0163368545473
         -0.0162882562727
         -0.0162396561354
         -0.0161910578609
         -0.0161424595863
         -0.016093859449
         -0.0160452611744
         -0.0159966628999
         -0.0159480627626
         -0.015899464488
         -0.0158508662134
         -0.0158022660762
         -0.0157536678016
         -0.015705069527
         -0.0156564693898
         -0.0156078711152
         -0.0155592719093
         -0.0155106736347
         -0.0154620744288
         -0.0154134752229
         -0.0153648769483
         -0.0153162777424
         -0.0152676785365
         -0.0152190802619
         -0.015170481056
         -0.0151218827814
         -0.0150732835755
         -0.0150246843696
         -0.014976086095
         -0.0149274868891
         -0.0148788876832
         -0.0148302894086
         -0.0147816902027
         -0.0147330909967
         -0.0146844927222
         -0.0146358935162
         -0.0145872943103
         -0.0145386960357
         -0.0144900968298
         -0.0144414976239
         -0.0143928993493
         -0.0143443001434
         -0.0142957009375
         -0.0142471026629
         -0.014198503457
         -0.0141499042511
         -0.0141013059765
         -0.0140527067706
         -0.0140041075647
         -0.0139555092901
         -0.0139069100842
         -0.0138583108783
         -0.0138097126037
         -0.0137611133978
         -0.0137125141919
         -0.0136639159173
         -0.0136153167114
         -0.0135667175055
         -0.0135181192309
         -0.013469520025
         -0.013420920819
         -0.0133723225445
         -0.0133237233385
         -0.0132751241326
         -0.013226525858
         -0.0131779266521
         -0.0131293274462
         -0.0130807291716
         -0.0130321299657
         -0.0129835307598
         -0.0129349324852
         -0.0128863332793
         -0.0128377350047
         -0.0127891357988
         -0.0127405365929
         -0.0126919383183
         -0.0126433391124
         -0.0125947399065
         -0.0125461416319
         -0.012497542426
         -0.0124489432201
         -0.0124003449455
         -0.0123517457396
         -0.0123031465337
         -0.0122545482591
         -0.0122059490532
         -0.0121573498473
         -0.0121087515727
         -0.0120601523668
         -0.0120115531608
         -0.0119629548863
         -0.0119143556803
         -0.0118657564744
         -0.0118171581998
         -0.0117685589939
         -0.011719959788
         -0.0116713615134
         -0.0116227623075
         -0.0115741631016
         -0.011525564827
         -0.0114769656211
         -0.0114283664152
         -0.0113797681406
         -0.0113311689347
         -0.0112825697288
         -0.0112339714542
         -0.0111853722483
         -0.0111367730424
         -0.0110881747678
         -0.0110395755619
         -0.010990976356
         -0.0109423780814
         -0.0108937788755
         -0.0108451796696
         -0.010796581395
         -0.0107479821891
         -0.0106993829831
         -0.0106507847086
         -0.0106021855026
         -0.0105535872281
         -0.0105049880221
         -0.0104563888162
         -0.0104077905416
         -0.0103591913357
         -0.0103105921298
         -0.0102619938552
         -0.0102133946493
         -0.0101647954434
         -0.0101161971688
         -0.0100675979629
         -0.010018998757
         -0.00997040048242
         -0.0099218012765
         -0.00987320207059
         -0.00982460379601
         -0.00977600459009
         -0.00972740538418
         -0.00967880710959
         -0.00963020790368
         -0.00958160869777
         -0.00953301042318
         -0.00948441121727
         -0.00943581201136
         -0.00938721373677
         -0.00933861453086
         -0.00929001532495
         -0.00924141705036
         -0.00919281784445
         -0.00914421863854
         -0.00909562036395
         -0.00904702115804
         -0.00899842195213
         -0.00894982367754
         -0.00890122447163
         -0.00885262526572
         -0.00880402699113
         -0.00875542778522
         -0.00870682857931
         -0.00865823030472
         -0.00860963109881
         -0.0085610318929
         -0.00851243361831
         -0.0084638344124
         -0.00841523520648
         -0.0083666369319
         -0.00831803772599
         -0.0082694394514
         -0.00822084024549
         -0.00817224103957
         -0.00812364276499
         -0.00807504355907
         -0.00802644435316
         -0.00797784607857
         -0.00792924687266
         -0.00788064766675
         -0.00783204939216
         -0.00778345018625
         -0.007734851446
         -0.00768625224009
         -0.00763765349984
         -0.00758905475959
         -0.00754045555368
         -0.00749185681343
         -0.00744325807318
         -0.00739465886727
         -0.00734606012702
         -0.00729746138677
         -0.00724886218086
         -0.00720026344061
         -0.00715166470036
         -0.00710306549445
         -0.0070544667542
         -0.00700586801395
         -0.00695726880804
         -0.00690867006779
         -0.00686007132754
         -0.00681147212163
         -0.00676287338138
         -0.00671427464113
         -0.00666567543522
         -0.00661707669497
         -0.00656847795472
         -0.00651987921447
         -0.00647128000855
         -0.0064226812683
         -0.00637408252805
         -0.00632548332214
         -0.00627688458189
         -0.00622828584164
         -0.00617968663573
         -0.00613108789548
         -0.00608248915523
         -0.00603388994932
         -0.00598529120907
         -0.00593669246882
         -0.00588809326291
         -0.00583949452266
         -0.00579089578241
         -0.0057422965765
         -0.00569369783625
         -0.005645099096
         -0.00559649989009
         -0.00554790114984
         -0.00549930240959
         -0.00545070366934
         -0.00540210446343
         -0.00535350572318
         -0.00530490698293
         -0.00525630777702
         -0.00520770903677
         -0.00515911029652
         -0.00511051109061
         -0.00506191235036
         -0.00501331361011
         -0.0049647144042
         -0.00491611566395
         -0.0048675169237
         -0.00481891771778
         -0.00477031897753
         -0.00472172023728
         -0.00467312103137
         -0.00462452229112
         -0.00457592355087
         -0.00452732434496
         -0.00447872560471
         -0.00443012686446
         -0.00438152765855
         -0.0043329289183
         -0.00428433017805
         -0.0042357314378
         -0.00418713223189
         -0.00413853349164
         -0.00408993475139
         -0.00404133554548
         -0.00399273680523
         -0.00394413806498
         -0.0038955390919
         -0.00384694011882
         -0.00379834114574
         -0.00374974240549
         -0.00370114343241
         -0.00365254445933
         -0.00360394571908
         -0.003555346746
         -0.00350674800575
         -0.00345814903267
         -0.00340955005959
         -0.00336095131934
         -0.00331235234626
         -0.00326375337318
         -0.00321515463293
         -0.00316655565985
         -0.00311795668676
         -0.00306935794652
         -0.00302075897343
         -0.00297216000035
         -0.0029235612601
         -0.00287496228702
         -0.00282636354677
         -0.00277776457369
         -0.00272916560061
         -0.00268056686036
         -0.00263196788728
         -0.0025833689142
         -0.00253477017395
         -0.00248617120087
         -0.00243757222779
         -0.00238897348754
         -0.00234037451446
         -0.00229177577421
         -0.00224317680113
         -0.00219457782805
         -0.0021459790878
         -0.00209738011472
         -0.00204878114164
         -0.00200018240139
         -0.00195158342831
         -0.00190298457164
         -0.00185438571498
         -0.0018057867419
         -0.00175718788523
         -0.00170858902857
         -0.0016599901719
         -0.00161139119882
         -0.00156279234216
         -0.00151419348549
         -0.00146559451241
         -0.00141699565575
         -0.00136839679908
         -0.00131979794241
         -0.00127119896933
         -0.00122260011267
         -0.001174001256
         -0.00112540228292
         -0.00107680342626
         -0.00102820456959
         -0.000979605712928
         -0.000931006798055
         -0.000882407883182
         -0.000833809026517
         -0.000785210111644
         -0.000736611254979
         -0.000688012340106
         -0.000639413425233
         -0.000590814568568
         -0.000542215653695
         -0.00049361679703
         -0.000445017911261
         -0.000396418996388
         -0.000347820110619
         -0.00029922122485
         -0.000250622339081
         -0.000202023453312
         -0.000153424567543
         -0.000104825674498
         -5.6226788729e-05
         -7.62789841247e-06
         4.0970990085e-05
         8.95698758541e-05
         0.000138168761623
         0.000186767661944
         0.000235366547713
         0.000283965433482
         0.000332564319251
         0.00038116320502
         0.000429762090789
         0.000478360976558
         0.000526959891431
         0.000575558748096
         0.000624157662969
         0.000672756519634
         0.000721355434507
         0.00076995434938
         0.000818553206045
         0.000867152120918
         0.000915750977583
         0.000964349892456
         0.00101294880733
         0.00106154766399
         0.00111014652066
         0.00115874537732
         0.00120734435041
         0.00125594320707
         0.00130454206374
         0.00135314103682
         0.00140173989348
         0.00145033875015
         0.00149893760681
         0.00154753657989
         0.00159613543656
         0.00164473429322
         0.0016933332663
         0.00174193212297
         0.00179053097963
         0.0018391298363
         0.00188772880938
         0.00193632766604
         0.00198492663912
         0.00203352537937
         0.00208212435246
         0.00213072309271
         0.00217932206579
         0.00222792103887
         0.00227651977912
         0.0023251187522
         0.00237371772528
         0.00242231646553
         0.00247091543861
         0.00251951441169
         0.00256811315194
         0.00261671212502
         0.0026653110981
         0.00271390983835
         0.00276250881143
         0.00281110755168
         0.00285970652476
         0.00290830549784
         0.00295690423809
         0.00300550321117
         0.00305410218425
         0.0031027009245
         0.00315129989758
         0.00319989887066
         0.00324849761091
         0.00329709658399
         0.00334569532424
         0.00339429429732
         0.0034428932704
         0.00349149201065
         0.00354009098373
         0.00358868995681
         0.00363728869706
         0.00368588767014
         0.00373448664322
         0.00378308538347
         0.00383168435656
         0.00388028309681
         0.00392888206989
         0.00397748081014
         0.00402608001605
         0.0040746787563
         0.00412327749655
         0.00417187670246
         0.00422047544271
         0.00426907418296
         0.00431767338887
         0.00436627212912
         0.00441487086937
         0.00446347007528
         0.00451206881553
         0.00456066755578
         0.00460926676169
         0.00465786550194
         0.00470646424219
         0.00475506298244
         0.00480366218835
         0.0048522609286
         0.00490085966885
         0.00494945887476
         0.00499805761501
         0.00504665635526
         0.00509525556117
         0.00514385430142
         0.00519245304167
         0.00524105224758
         0.00528965098783
         0.00533824972808
         0.00538684893399
         0.00543544767424
         0.00548404641449
         0.00553264562041
         0.00558124436066
         0.00562984310091
         0.00567844230682
         0.00572704104707
         0.00577563978732
         0.00582423852757
         0.00587283773348
         0.00592143647373
         0.00597003521398
         0.00601863441989
         0.00606723316014
         0.00611583190039
         0.0061644311063
         0.00621302984655
         0.0062616285868
         0.00631022779271
         0.00635882653296
         0.00640742527321
         0.00645602447912
         0.00650462321937
         0.00655322195962
         0.00660182116553
         0.00665041990578
         0.00669901864603
         0.00674761785194
         0.00679621659219
         0.00684481533244
         0.00689341453835
         0.0069420132786
         0.00699061201885
         0.0070392107591
         0.00708780996501
         0.00713640870526
         0.00718500744551
         0.00723360665143
         0.00728220539168
         0.00733080413193
         0.00737940333784
         0.00742800207809
         0.00747660081834
         0.00752520002425
         0.0075737987645
         0.00762239750475
         0.00767099671066
         0.00771959545091
         0.00776819419116
         0.00781679339707
         0.00786539167166
         0.00791399087757
         0.00796259008348
         0.00801118835807
         0.00805978756398
         0.00810838676989
         0.00815698504448
         0.00820558425039
         0.0082541834563
         0.00830278173089
         0.0083513809368
         0.00839998014271
         0.0084485784173
         0.00849717762321
         0.00854577682912
         0.00859437510371
         0.00864297430962
         0.00869157351553
         0.00874017179012
         0.00878877099603
         0.00883737020195
         0.00888596847653
         0.00893456768245
         0.00898316688836
         0.00903176516294
         0.00908036436886
         0.00912896357477
         0.00917756184936
         0.00922616105527
         0.00927476026118
         0.00932335853577
         0.00937195774168
         0.00942055694759
         0.00946915522218
         0.00951775442809
         0.009566353634
         0.00961495190859
         0.0096635511145
         0.00971215032041
         0.009760748595
         0.00980934780091
         0.0098579460755
         0.00990654528141
         0.00995514448732
         0.0100037427619
         0.0100523419678
         0.0101009411737
         0.0101495394483
         0.0101981386542
         0.0102467378601
         0.0102953361347
         0.0103439353406
         0.0103925345466
         0.0104411328211
         0.0104897320271
         0.010538331233
         0.0105869295076
         0.0106355287135
         0.0106841279194
         0.010732726194
         0.0107813253999
         0.0108299246058
         0.0108785228804
         0.0109271220863
         0.0109757212922
         0.0110243195668
         0.0110729187727
         0.0111215179786
         0.0111701162532
         0.0112187154591
         0.011267314665
         0.0113159129396
         0.0113645121455
         0.0114131113514
         0.011461709626
         0.0115103088319
         0.0115589080378
         0.0116075063124
         0.0116561055183
         0.0117047047243
         0.0117533029988
         0.0118019022048
         0.0118505014107
         0.0118990996853
         0.0119476988912
         0.0119962980971
         0.0120448963717
         0.0120934955776
         0.0121420938522
         0.0121906930581
         0.012239292264
         0.0122878905386
         0.0123364897445
         0.0123850889504
         0.012433687225
         0.0124822864309
         0.0125308856368
         0.0125794839114
         0.0126280831173
         0.0126766823232
         0.0127252805978
         0.0127738798037
         0.0128224790096
         0.0128710772842
         0.0129196764901
         0.012968275696
         0.0130168739706
         0.0130654731765
         0.0131140723825
         0.013162670657
         0.0132112698629
         0.0132598690689
         0.0133084673434
         0.0133570665494
         0.0134056657553
         0.0134542640299
         0.0135028632358
         0.0135514624417
         0.0136000607163
         0.0136486599222
         0.0136972591281
         0.0137458574027
         0.0137944566086
         0.0138430558145
         0.0138916540891
         0.013940253295
         0.0139888525009
         0.0140374507755
         0.0140860499814
         0.0141346491873
         0.0141832474619
         0.0142318466678
         0.0142804458737
         0.0143290441483
         0.0143776433542
         0.0144262416288
         0.0144748408347
         0.0145234400406
         0.0145720383152
         0.0146206375211
         0.0146692367271
         0.0147178350016
         0.0147664342076
         0.0148150334135
         0.0148636614904
         0.01491240412
         0.0149612640962
         0.015010244213
         0.0150593426079
         0.0151085611433
         0.015157898888
         0.0152073567733
         0.0152569347993
         0.0153066329658
         0.0153564531356
         0.0154063943774
         0.015456456691
         0.015506641008
         0.0155569473282
         0.0156073756516
         0.0156579278409
         0.0157086011022
         0.0157593991607
         0.0158103201538
         0.0158613659441
         0.015912534669
         0.0159638281912
         0.0160152483732
         0.0160667914897
         0.0161184594035
         0.0161702558398
         0.0162221752107
         0.0162742231041
         0.0163263976574
         0.0163786970079
         0.0164311248809
         0.0164836812764
         0.0165363643318
         0.0165891759098
         0.0166421160102
         0.0166951846331
         0.0167483817786
         0.0168017093092
         0.016855167225
         0.0169087536633
         0.0169624723494
         0.017016319558
         0.0170702990144
         0.0171244107187
         0.0171786528081
         0.0172330252826
         0.0172875318676
         0.0173421725631
         0.0173969436437
         0.0174518488348
         0.0175068881363
         0.0175620596856
         0.017617367208
         0.0176728088409
         0.0177283845842
         0.0177840963006
         0.0178399439901
         0.0178959276527
         0.0179520454258
         0.0180083028972
         0.0180646944791
         0.0181212238967
         0.0181778911501
         0.0182346962392
         0.0182916410267
         0.0183487217873
         0.018405944109
         0.0184633024037
         0.0185208022594
         0.0185784418136
         0.0186362210661
         0.0186941418797
         0.0187522042543
         0.0188104063272
         0.0188687499613
         0.0189272351563
         0.018985863775
         0.0190446358174
         0.0191035494208
         0.0191626064479
         0.0192218068987
         0.0192811526358
         0.0193406417966
         0.0194002762437
         0.0194600541145
         0.0195199791342
         0.0195800494403
         0.0196402668953
         0.0197006296366
         0.019761139527
         0.0198217965662
         0.0198826007545
         0.0199435539544
         0.0200046543032
         0.0200659036636
         0.0201273020357
         0.020188851282
         0.0202505476773
         0.0203123949468
         0.0203743949533
         0.0204365439713
         0.0204988438636
         0.0205612946302
         0.0206238981336
         0.020686654374
         0.0207495633513
         0.0208126250654
         0.0208758413792
         0.0209392104298
         0.02100273408
         0.021066410467
         0.0211302433163
         0.0211942307651
         0.0212583746761
         0.0213226750493
         0.0213871318847
         0.0214517433196
         0.021516514942
         0.021581441164
         0.0216465275735
         0.0217117723078
         0.0217771753669
         0.0218427367508
         0.0219084583223
         0.0219743400812
         0.022040380165
         0.0221065822989
         0.0221729464829
         0.0222394708544
         0.022306157276
         0.0223730057478
         0.0224400181323
         0.022507192567
         0.0225745309144
         0.0226420331746
         0.0227096993476
         0.0227775294334
         0.0228455252945
         0.0229136850685
         0.0229820124805
         0.0230505056679
         0.0231191664934
         0.0231879930943
         0.0232569873333
         0.0233261492103
         0.0233954787254
         0.0234649777412
         0.0235346462578
         0.023604484275
         0.0236744917929
         0.0237446688116
         0.0238150190562
         0.0238855388016
         0.0239562299103
         0.0240270923823
         0.0240981280804
         0.0241693370044
         0.0242407191545
         0.0243122745305
         0.0243840031326
         0.0244559086859
         0.0245279874653
         0.0246002413332
         0.0246726721525
         0.0247452780604
         0.0248180609196
         0.0248910207301
         0.0249641574919
         0.0250374730676
         0.0251109674573
         0.0251846406609
         0.0252584926784
         0.0253325235099
         0.0254067350179
         0.0254811272025
         0.0255557019264
         0.0256304554641
         0.0257053915411
         0.02578051202
         0.0258558131754
         0.0259312968701
         0.0260069668293
         0.0260828193277
         0.026158856228
         0.0262350775301
         0.0263114850968
         0.026388078928
         0.0264648590237
         0.0265418253839
         0.0266189780086
         0.0266963206232
         0.0267738495022
         0.0268515683711
         0.0269294753671
         0.0270075723529
         0.0270858593285
         0.0271643362939
         0.0272430051118
         0.0273218657821
         0.0274009164423
         0.0274801608175
         0.0275595970452
         0.027639226988
         0.0277190506458
         0.0277990680188
         0.0278792809695
         0.0279596894979
         0.0280402917415
         0.0281210914254
         0.0282020885497
         0.0282832812518
         0.0283646713942
         0.0284462608397
         0.0285280477256
         0.0286100339144
         0.0286922194064
         0.0287746042013
         0.0288571901619
         0.0289399772882
         0.0290229655802
         0.0291061550379
         0.0291895475239
         0.0292731430382
         0.0293569434434
         0.0294409450144
         0.0295251514763
         0.0296095646918
         0.0296941809356
         0.0297790039331
         0.0298640336841
         0.0299492701888
         0.0300347153097
         0.0301203653216
         0.0302062258124
         0.0302922949195
         0.0303785726428
         0.030465060845
         0.0305517595261
         0.0306386705488
         0.0307257901877
         0.0308131240308
