aces_1.1/luts/ACEScct_to_linear.spi1d
Version 1
From -0.249136 1.468000
Length 4096
Components 1
{
         -0.0305535439402
         -0.0305137615651
         -0.03047397919
         -0.0304341986775
         -0.0303944125772
         -0.0303546283394
         -0.0303148459643
         -0.0302750654519
         -0.0302352774888
         -0.0301954951137
         -0.0301557127386
         -0.0301159285009
         -0.0300761442631
         -0.0300363637507
         -0.029996579513
         -0.0299567934126
         -0.0299170129001
         -0.029877230525
         -0.0298374481499
         -0.0297976620495
         -0.0297578796744
         -0.0297180972993
         -0.0296783149242
         -0.0296385288239
         -0.0295987445861
         -0.0295589640737
         -0.0295191816986
         -0.0294793955982
         -0.0294396113604
         -0.029399830848
         -0.0293600484729
         -0.0293202660978
         -0.0292804837227
         -0.0292406976223
         -0.0292009133846
         -0.0291611328721
         -0.0291213467717
         -0.029081562534
         -0.0290417820215
         -0.0290019959211
         -0.0289622172713
         -0.0289224348962
         -0.0288826487958
         -0.0288428664207
         -0.0288030840456
         -0.0287632998079
         -0.0287235192955
         -0.0286837331951
         -0.0286439470947
         -0.0286041684449
         -0.0285643823445
         -0.0285245999694
         -0.028484813869
         -0.0284450314939
         -0.0284052491188
         -0.0283654667437
         -0.0283256806433
         -0.0282858982682
         -0.0282461158931
         -0.028206333518
         -0.0281665511429
         -0.0281267650425
         -0.0280869826674
         -0.028047202155
         -0.0280074179173
         -0.0279676318169
         -0.0279278494418
         -0.0278880670667
         -0.0278482846916
         -0.0278085023165
         -0.0277687180787
         -0.027728933841
         -0.0276891514659
         -0.0276493672282
         -0.0276095848531
         -0.0275698006153
         -0.0275300182402
         -0.0274902340025
         -0.02745045349
         -0.0274106673896
         -0.0273708831519
         -0.0273311026394
         -0.0272913184017
         -0.0272515360266
         -0.0272117499262
         -0.0271719694138
         -0.027132185176
         -0.0270924046636
         -0.0270526204258
         -0.0270128343254
         -0.0269730519503
         -0.0269332695752
         -0.0268934853375
         -0.0268537010998
         -0.026813916862
         -0.0267741344869
         -0.0267343521118
         -0.0266945715994
         -0.026654785499
         -0.0266150012612
         -0.0265752207488
         -0.026535436511
         -0.0264956541359
         -0.0264558680356
         -0.0264160856605
         -0.0263763032854
         -0.0263365227729
         -0.0262967366725
         -0.0262569524348
         -0.0262171700597
         -0.0261773876846
         -0.0261376034468
         -0.0260978192091
         -0.026058036834
         -0.0260182525963
         -0.0259784702212
         -0.0259386878461
         -0.0258989017457
         -0.0258591193706
         -0.0258193388581
         -0.0257795546204
         -0.0257397722453
         -0.0256999880075
         -0.0256602037698
         -0.0256204213947
         -0.0255806390196
         -0.0255408547819
         -0.0255010705441
         -0.0254612900317
         -0.0254215057939
         -0.0253817215562
         -0.0253419373184
         -0.0253021549433
         -0.0252623707056
         -0.0252225883305
         -0.0251828059554
         -0.025143019855
         -0.0251032374799
         -0.0250634551048
         -0.0250236727297
         -0.0249838866293
         -0.0249441042542
         -0.0249043218791
         -0.0248645395041
         -0.024824757129
         -0.0247849710286
         -0.0247451886535
         -0.0247054062784
         -0.0246656239033
         -0.0246258396655
         -0.0245860554278
         -0.0245462730527
         -0.0245064888149
         -0.0244667083025
         -0.0244269222021
         -0.0243871379644
         -0.0243473555893
         -0.0243075732142
         -0.0242677908391
         -0.0242280047387
         -0.0241882223636
         -0.0241484399885
         -0.0241086576134
         -0.0240688771009
         -0.0240290891379
         -0.0239893067628
         -0.0239495243877
         -0.0239097438753
         -0.0238699559122
         -0.0238301716745
         -0.023790391162
         -0.0237506069243
         -0.0237108245492
         -0.0236710403115
         -0.0236312560737
         -0.0235914736986
         -0.0235516913235
         -0.0235119089484
         -0.023472122848
         -0.0234323404729
         -0.0233925580978
         -0.0233527757227
         -0.0233129896224
         -0.0232732072473
         -0.0232334248722
         -0.0231936424971
         -0.0231538619846
         -0.0231140740216
         -0.0230742916465
         -0.0230345092714
         -0.0229947250336
         -0.0229549445212
         -0.0229151584208
         -0.0228753741831
         -0.0228355899453
         -0.0227958112955
         -0.0227560251951
         -0.0227162409574
         -0.0226764604449
         -0.0226366780698
         -0.0225968938321
         -0.0225571077317
         -0.0225173272192
         -0.0224775411189
         -0.0224377624691
         -0.022397980094
         -0.0223581939936
         -0.0223184116185
         -0.0222786273807
         -0.022238843143
         -0.0221990607679
         -0.0221592783928
         -0.0221194960177
         -0.0220797099173
         -0.0220399294049
         -0.0220001451671
         -0.0219603590667
         -0.0219205785543
         -0.0218807961792
         -0.0218410138041
         -0.021801225841
         -0.0217614453286
         -0.0217216610909
         -0.0216818805784
         -0.0216420926154
         -0.0216023121029
         -0.0215625297278
         -0.0215227473527
         -0.021482963115
         -0.0214431788772
         -0.0214033946395
         -0.0213636122644
         -0.0213238280267
         -0.0212840456516
         -0.0212442632765
         -0.0212044790387
         -0.0211646966636
         -0.0211249142885
         -0.0210851281881
         -0.021045345813
         -0.0210055634379
         -0.0209657792002
         -0.0209259968251
         -0.0208862125874
         -0.0208464302123
         -0.0208066478372
         -0.0207668654621
         -0.0207270812243
         -0.0206872969866
         -0.0206475127488
         -0.0206077303737
         -0.0205679479986
         -0.0205281637609
         -0.0204883813858
         -0.0204485971481
         -0.0204088129103
         -0.0203690305352
         -0.0203292462975
         -0.0202894639224
         -0.0202496815473
         -0.0202098991722
         -0.0201701149344
         -0.0201303306967
         -0.020090546459
         -0.0200507640839
         -0.0200109817088
         -0.019971197471
         -0.0199314150959
         -0.0198916327208
         -0.0198518484831
         -0.019812066108
         -0.0197722800076
         -0.0197324976325
         -0.0196927133948
         -0.0196529310197
         -0.0196131486446
         -0.0195733625442
         -0.0195335801691
         -0.019493797794
         -0.0194540154189
         -0.0194142311811
         -0.0193744469434
         -0.0193346645683
         -0.0192948821932
         -0.0192550998181
         -0.0192153137177
         -0.0191755313426
         -0.0191357489675
         -0.0190959665924
         -0.0190561823547
         -0.0190163981169
         -0.0189766157418
         -0.0189368333668
         -0.0188970509917
         -0.0188572648913
         -0.0188174825162
         -0.0187776982784
         -0.0187379159033
         -0.0186981316656
         -0.0186583511531
         -0.0186185650527
         -0.0185787845403
         -0.0185390021652
         -0.0184992160648
         -0.0184594318271
         -0.018419649452
         -0.0183798670769
         -0.0183400847018
         -0.018300300464
         -0.0182605180889
         -0.0182207357138
         -0.0181809514761
         -0.0181411672384
         -0.0181013830006
         -0.0180616006255
         -0.0180218182504
         -0.0179820340127
         -0.0179422516376
         -0.0179024655372
         -0.0178626831621
         -0.017822900787
         -0.0177831184119
         -0.0177433341742
         -0.0177035517991
         -0.0176637675613
         -0.0176239851862
         -0.0175842028111
         -0.0175444185734
         -0.0175046343356
         -0.0174648519605
         -0.0174250695854
         -0.0173852853477
         -0.0173455029726
         -0.0173057187349
         -0.0172659344971
         -0.0172261539847
         -0.0171863678843
         -0.0171465855092
         -0.0171068012714
         -0.0170670188963
         -0.0170272365212
         -0.0169874522835
         -0.0169476680458
         -0.0169078856707
         -0.0168681032956
         -0.0168283190578
         -0.0167885348201
         -0.016748752445
         -0.0167089700699
         -0.0166691876948
         -0.0166294053197
         -0.0165896192193
         -0.0165498368442
         -0.0165100526065
         -0.016470272094
         -0.0164304859936
         -0.0163907036185
         -0.0163509193808
         -0.0163111388683
         -0.0162713527679
         -0.0162315685302
         -0.0161917861551
         -0.0161520056427
         -0.0161122232676
         -0.0160724371672
         -0.0160326529294
         -0.015992872417
         -0.0159530900419
         -0.0159133039415
         -0.0158735215664
         -0.0158337391913
         -0.0157939568162
         -0.0157541707158
         -0.0157143902034
         -0.0156746059656
         -0.0156348235905
         -0.0155950393528
         -0.0155552560464
         -0.0155154727399
         -0.0154756875709
         -0.0154359051958
         -0.0153961228207
         -0.0153563385829
         -0.0153165562078
         -0.0152767719701
         -0.015236989595
         -0.0151972062886
         -0.0151574229822
         -0.0151176387444
         -0.0150778563693
         -0.0150380721316
         -0.0149982906878
         -0.0149585064501
         -0.0149187222123
         -0.0148789398372
         -0.0148391574621
         -0.0147993722931
         -0.0147595908493
         -0.0147198056802
         -0.0146800242364
         -0.0146402418613
         -0.0146004566923
         -0.0145606733859
         -0.0145208910108
         -0.0144811086357
         -0.0144413253292
         -0.0144015420228
         -0.0143617559224
         -0.0143219735473
         -0.0142821911722
         -0.0142424069345
         -0.0142026245594
         -0.0141628403217
         -0.0141230579466
         -0.0140832755715
         -0.0140434913337
         -0.014003707096
         -0.0139639247209
         -0.0139241423458
         -0.0138843590394
         -0.0138445757329
         -0.0138047914952
         -0.0137650091201
         -0.013725226745
         -0.0136854415759
         -0.0136456592008
         -0.0136058749631
         -0.013566092588
         -0.0135263102129
         -0.0134865259752
         -0.0134467426687
         -0.013406958431
         -0.0133671760559
         -0.0133273936808
         -0.0132876103744
         -0.0132478252053
         -0.0132080428302
         -0.0131682613865
         -0.0131284771487
         -0.0130886938423
         -0.0130489096045
         -0.0130091262981
         -0.012969343923
         -0.0129295596853
         -0.0128897763789
         -0.0128499940038
         -0.0128102106974
         -0.0127704273909
         -0.0127306450158
         -0.0126908598468
         -0.0126510774717
         -0.0126112941653
         -0.0125715099275
         -0.0125317275524
         -0.0124919433147
         -0.0124521609396
         -0.0124123785645
         -0.0123725943267
         -0.0123328119516
         -0.0122930277139
         -0.0122532444075
         -0.0122134620324
         -0.0121736777946
         -0.0121338935569
         -0.0120941111818
         -0.0120543288067
         -0.012014544569
         -0.0119747621939
         -0.0119349779561
         -0.011895195581
         -0.0118554122746
         -0.0118156280369
         -0.0117758456618
         -0.011736061424
         -0.0116962790489
         -0.0116564957425
         -0.0116167124361
         -0.0115769291297
         -0.0115371458232
         -0.0114973625168
         -0.0114575792104
         -0.0114177949727
         -0.0113780125976
         -0.0113382302225
         -0.0112984459847
         -0.0112586636096
         -0.0112188812345
         -0.0111790969968
         -0.0111393136904
         -0.0110995313153
         -0.0110597480088
         -0.0110199637711
         -0.0109801795334
         -0.0109403980896
         -0.0109006129205
         -0.0108608305454
         -0.010821047239
         -0.0107812648639
         -0.0107414815575
         -0.0107016973197
         -0.0106619140133
         -0.0106221316382
         -0.0105823483318
         -0.0105425640941
         -0.010502781719
         -0.0104629984125
         -0.0104232151061
         -0.010383432731
         -0.0103436484933
         -0.0103038651869
         -0.0102640828118
         -0.010224298574
         -0.0101845152676
         -0.0101447319612
         -0.0101049495861
         -0.0100651653484
         -0.0100253820419
         -0.00998559873551
         -0.00994581636041
         -0.00990603305399
         -0.00986624881625
         -0.00982646550983
         -0.00978668127209
         -0.00974689889699
         -0.00970711559057
         -0.00966733228415
         -0.00962754990906
         -0.00958776567131
         -0.00954798329622
         -0.00950819905847
         -0.00946841668338
         -0.00942863244563
         -0.00938884913921
         -0.00934906583279
         -0.00930928252637
         -0.0092695010826
         -0.00922971591353
         -0.00918993353844
         -0.00915015023202
         -0.00911036785692
         -0.00907058361918
         -0.00903080031276
         -0.00899101700634
         -0.0089512327686
         -0.0089114503935
         -0.00887166708708
         -0.00883188378066
         -0.00879210140556
         -0.00875231716782
         -0.00871253479272
         -0.0086727514863
         -0.00863296724856
         -0.00859318394214
         -0.00855340063572
         -0.00851361826062
         -0.00847383402288
         -0.00843405164778
         -0.00839426927269
         -0.00835448503494
         -0.00831470265985
         -0.0082749184221
         -0.00823513604701
         -0.00819535180926
         -0.00815556943417
         -0.00811578519642
         -0.00807600282133
         -0.00803621858358
         -0.00799643620849
         -0.00795665197074
         -0.00791686959565
         -0.0078770853579
         -0.00783730298281
         -0.00779751967639
         -0.00775773636997
         -0.00771795259789
         -0.00767816929147
         -0.00763838598505
         -0.00759860267863
         -0.00755881937221
         -0.00751903606579
         -0.00747925322503
         -0.00743946991861
         -0.00739968614653
         -0.00735990284011
         -0.00732011999935
         -0.00728033669293
         -0.00724055431783
         -0.00720077101141
         -0.00716098677367
         -0.00712120346725
         -0.00708142016083
         -0.00704163685441
         -0.00700185447931
         -0.00696207117289
         -0.00692228786647
         -0.00688250456005
         -0.00684272078797
         -0.00680293748155
         -0.00676315464079
         -0.00672337133437
         -0.00668358802795
         -0.0066438051872
         -0.00660402141511
         -0.00656423810869
         -0.00652445480227
         -0.00648467196152
         -0.0064448886551
         -0.00640510534868
         -0.00636532250792
         -0.00632553873584
         -0.00628575496376
         -0.00624597165734
         -0.00620618928224
         -0.00616640597582
         -0.00612662220374
         -0.00608683889732
         -0.0060470555909
         -0.00600727228448
         -0.00596748897806
         -0.0059277061373
         -0.00588792236522
         -0.00584813952446
         -0.00580835621804
         -0.00576857291162
         -0.0057287896052
         -0.00568900629878
         -0.00564922299236
         -0.00560943968594
         -0.00556965684518
         -0.00552987400442
         -0.00549008976668
         -0.00545030646026
         -0.00541052315384
         -0.00537074077874
         -0.00533095700666
         -0.0052911741659
         -0.00525139085948
         -0.00521160755306
         -0.00517182424664
         -0.00513204094023
         -0.00509225763381
         -0.00505247479305
         -0.00501269102097
         -0.00497290818021
         -0.00493312440813
         -0.00489334063604
         -0.00485355779529
         -0.00481377495453
         -0.00477399164811
         -0.00473420834169
         -0.00469442456961
         -0.00465464126319
         -0.00461485795677
         -0.00457507465035
         -0.00453529180959
         -0.00449550850317
         -0.00445572519675
         -0.00441594189033
         -0.00437615858391
         -0.00433637574315
         -0.00429659197107
         -0.00425680913031
         -0.00421702582389
         -0.00417724251747
         -0.00413745921105
         -0.00409767590463
         -0.00405789213255
         -0.00401810882613
         -0.00397832598537
         -0.00393854267895
         -0.00389875983819
         -0.00385897629894
         -0.00381919299252
         -0.0037794096861
         -0.00373962661251
         -0.00369984307326
         -0.00366005999967
         -0.00362027715892
         -0.00358049338683
         -0.00354071008042
         -0.003500926774
         -0.00346114393324
         -0.00342136039399
         -0.0033815773204
         -0.00334179401398
         -0.00330201070756
         -0.00326222740114
         -0.00322244409472
         -0.00318266125396
         -0.00314287748188
         -0.00310309417546
         -0.00306331110187
         -0.00302352779545
         -0.00298374448903
         -0.00294396118261
         -0.00290417810902
         -0.0028643948026
         -0.00282461126335
         -0.00278482842259
         -0.00274504488334
         -0.00270526157692
         -0.0026654782705
         -0.00262569542974
         -0.00258591212332
         -0.0025461288169
         -0.00250634551048
         -0.00246656220406
         -0.00242677889764
         -0.00238699559122
         -0.0023472122848
         -0.00230742897838
         -0.00226764567196
         -0.00222786259837
         -0.00218807929195
         -0.00214829598553
         -0.00210851291195
         -0.00206872960553
         -0.00202894606628
         -0.00198916275986
         -0.0019493799191
         -0.00190959649626
         -0.00186981318984
         -0.00183003023267
         -0.00179024669342
         -0.001750463387
         -0.00171068008058
         -0.00167089700699
         -0.00163111370057
         -0.00159133027773
         -0.00155154732056
         -0.00151176389772
         -0.0014719805913
         -0.00143219716847
         -0.0013924142113
         -0.00135263078846
         -0.00131284748204
         -0.00127306440845
         -0.00123328110203
         -0.00119349779561
         -0.00115371448919
         -0.00111393129919
         -0.00107414799277
         -0.00103436468635
         -0.000994581729174
         -0.000954797898885
         -0.000915015232749
         -0.000875231868122
         -0.000835448503494
         -0.000795665138867
         -0.000755881774239
         -0.000716098467819
         -0.000676315044984
         -0.000636532378849
         -0.000596749014221
         -0.000556965649594
         -0.000517182343174
         -0.000477398949442
         -0.000437615584815
         -0.000397832249291
         -0.000358049583156
         -0.000318266189424
         -0.000278482824797
         -0.000238699474721
         -0.000198916124646
         -0.000159132760018
         -0.000119349388115
         -7.95667219791e-05
         -3.97833609895e-05
         0.0
         3.97833609895e-05
         7.95667219791e-05
         0.000119350093883
         0.000159133443958
         0.000198916124646
         0.000238699474721
         0.000278482824797
         0.000318266189424
         0.000358049583156
         0.000397832947783
         0.000437616283307
         0.000477398949442
         0.000517182343174
         0.000556965649594
         0.000596749014221
         0.000636532378849
         0.000676315743476
         0.000716099166311
         0.000755881774239
         0.000795665138867
         0.000835448503494
         0.000875231868122
         0.000915015232749
         0.000954798539169
         0.00099458207842
         0.00103436468635
         0.00107414799277
         0.00111393129919
         0.00115371472202
         0.00119349802844
         0.00123328156769
         0.0012730647577
         0.00131284748204
         0.00135263078846
         0.0013924142113
         0.00143219763413
         0.00147198094055
         0.00151176436339
         0.00155154766981
         0.00159133027773
         0.00163111370057
         0.00167089700699
         0.00171068042982
         0.00175046373624
         0.00179024715908
         0.0018300304655
         0.00186981318984
         0.00190959649626
         0.0019493799191
         0.00198916345835
         0.00202894676477
         0.00206873007119
         0.00210851337761
         0.00214829598553
         0.00218807929195
         0.00222786259837
         0.00226764590479
         0.00230742944404
         0.00234721275046
         0.00238699605688
         0.00242677889764
         0.00246656220406
         0.00250634551048
         0.0025461288169
         0.00258591212332
         0.00262569566257
         0.00266547896899
         0.00270526157692
         0.00274504488334
         0.00278482842259
         0.00282461172901
         0.00286439526826
         0.00290417834185
         0.0029439618811
         0.00298374448903
         0.00302352779545
         0.00306331110187
         0.00310309464112
         0.00314287794754
         0.00318266125396
         0.00322244456038
         0.00326222740114
         0.00330201070756
         0.00334179401398
         0.00338157755323
         0.00342136085965
         0.00346114416607
         0.00350092747249
         0.00354071008042
         0.00358049338683
         0.00362027715892
         0.00366006046534
         0.00369984377176
         0.00373962707818
         0.0037794103846
         0.00381919299252
         0.00385897629894
         0.00389875983819
         0.00393854267895
         0.00397832691669
         0.00401810975745
         0.00405789352953
         0.00409767590463
         0.00413745921105
         0.00417724251747
         0.00421702582389
         0.00425680913031
         0.00429659243673
         0.00433637574315
         0.00437615858391
         0.00441594189033
         0.00445572519675
         0.00449550850317
         0.00453529180959
         0.00457507558167
         0.00461485795677
         0.00465464126319
         0.00469442456961
         0.00473420834169
         0.00477399164811
         0.00481377495453
         0.00485355826095
         0.00489334063604
         0.00493312440813
         0.00497290818021
         0.00501269148663
         0.00505247479305
         0.00509225763381
         0.00513204140589
         0.00517182424664
         0.00521160801873
         0.00525139085948
         0.00529117463157
         0.00533095700666
         0.00537073984742
         0.00541052455083
         0.00545030646026
         0.00549009116367
         0.00552987400442
         0.0055696577765
         0.00560944061726
         0.0056492225267
         0.00568900676444
