aces_1.1/luts/Canon-Log_to_linear.spi1d
Version 1
From 0 1
Length 4096
Components 1
{
 -4.1681136936e-02
 -4.1622892022e-02
 -4.1564576328e-02
 -4.1506186128e-02
 -4.1447725147e-02
 -4.1389189661e-02
 -4.1330583394e-02
 -4.1271906346e-02
 -4.1213151067e-02
 -4.1154325008e-02
 -4.1095428169e-02
 -4.1036456823e-02
 -4.0977410972e-02
 -4.0918290615e-02
 -4.0859099478e-02
 -4.0799833834e-02
 -4.0740497410e-02
 -4.0681082755e-02
 -4.0621597320e-02
 -4.0562037379e-02
 -4.0502402931e-02
 -4.0442693979e-02
 -4.0382914245e-02
 -4.0323056281e-02
 -4.0263123810e-02
 -4.0203120559e-02
 -4.0143039078e-02
 -4.0082886815e-02
 -4.0022656322e-02
 -3.9962351322e-02
 -3.9901975542e-02
 -3.9841521531e-02
 -3.9780993015e-02
 -3.9720386267e-02
 -3.9659708738e-02
 -3.9598952979e-02
 -3.9538122714e-02
 -3.9477217942e-02
 -3.9416234940e-02
 -3.9355181158e-02
 -3.9294045419e-02
 -3.9232838899e-02
 -3.9171554148e-02
 -3.9110191166e-02
 -3.9048757404e-02
 -3.8987241685e-02
 -3.8925651461e-02
 -3.8863986731e-02
 -3.8802243769e-02
 -3.8740426302e-02
 -3.8678526878e-02
 -3.8616556674e-02
 -3.8554504514e-02
 -3.8492377847e-02
 -3.8430172950e-02
 -3.8367893547e-02
 -3.8305535913e-02
 -3.8243096322e-02
 -3.8180585951e-02
 -3.8117993623e-02
 -3.8055323064e-02
 -3.7992578000e-02
 -3.7929750979e-02
 -3.7866849452e-02
 -3.7803869694e-02
 -3.7740807980e-02
 -3.7677671760e-02
 -3.7614457309e-02
 -3.7551160902e-02
 -3.7487789989e-02
 -3.7424337119e-02
 -3.7360806018e-02
 -3.7297196686e-02
 -3.7233509123e-02
 -3.7169743329e-02
 -3.7105895579e-02
 -3.7041969597e-02
 -3.6977965385e-02
 -3.6913879216e-02
 -3.6849714816e-02
 -3.6785472184e-02
 -3.6721147597e-02
 -3.6656744778e-02
 -3.6592260003e-02
 -3.6527696997e-02
 -3.6463052034e-02
 -3.6398328841e-02
 -3.6333523691e-02
 -3.6268640310e-02
 -3.6203674972e-02
 -3.6138627678e-02
 -3.6073502153e-02
 -3.6008294672e-02
 -3.5943005234e-02
 -3.5877633840e-02
 -3.5812184215e-02
 -3.5746652633e-02
 -3.5681039095e-02
 -3.5615343601e-02
 -3.5549566150e-02
 -3.5483706743e-02
 -3.5417769104e-02
 -3.5351745784e-02
 -3.5285640508e-02
 -3.5219457000e-02
 -3.5153187811e-02
 -3.5086836666e-02
 -3.5020403564e-02
 -3.4953888506e-02
 -3.4887291491e-02
 -3.4820608795e-02
 -3.4753844142e-02
 -3.4686997533e-02
 -3.4620068967e-02
 -3.4553058445e-02
 -3.4485962242e-02
 -3.4418780357e-02
 -3.4351520240e-02
 -3.4284174442e-02
 -3.4216742963e-02
 -3.4149229527e-02
 -3.4081634134e-02
 -3.4013953060e-02
 -3.3946186304e-02
 -3.3878337592e-02
 -3.3810403198e-02
 -3.3742386848e-02
 -3.3674284816e-02
 -3.3606097102e-02
 -3.3537823707e-02
 -3.3469468355e-02
 -3.3401027322e-02
 -3.3332500607e-02
 -3.3263888210e-02
 -3.3195190132e-02
 -3.3126410097e-02
 -3.3057544380e-02
 -3.2988589257e-02
 -3.2919552177e-02
 -3.2850425690e-02
 -3.2781217247e-02
 -3.2711919397e-02
 -3.2642539591e-02
 -3.2573070377e-02
 -3.2503515482e-02
 -3.2433874905e-02
 -3.2364148647e-02
 -3.2294332981e-02
 -3.2224435359e-02
 -3.2154444605e-02
 -3.2084371895e-02
 -3.2014209777e-02
 -3.1943961978e-02
 -3.1873624772e-02
 -3.1803201884e-02
 -3.1732693315e-02
 -3.1662095338e-02
 -3.1591407955e-02
 -3.1520634890e-02
 -3.1449776143e-02
 -3.1378824264e-02
 -3.1307786703e-02
 -3.1236661598e-02
 -3.1165448949e-02
 -3.1094145030e-02
 -3.1022755429e-02
 -3.0951274559e-02
 -3.0879706144e-02
 -3.0808050185e-02
 -3.0736302957e-02
 -3.0664468184e-02
 -3.0592544004e-02
 -3.0520530418e-02
 -3.0448427424e-02
 -3.0376233160e-02
 -3.0303951353e-02
 -3.0231580138e-02
 -3.0159117654e-02
 -3.0086565763e-02
 -3.0013922602e-02
 -2.9941190034e-02
 -2.9868368059e-02
 -2.9795454815e-02
 -2.9722452164e-02
 -2.9649358243e-02
 -2.9576173052e-02
 -2.9502896592e-02
 -2.9429528862e-02
 -2.9356071725e-02
 -2.9282521456e-02
 -2.9208881781e-02
 -2.9135148972e-02
 -2.9061326757e-02
 -2.8987411410e-02
 -2.8913404793e-02
 -2.8839305043e-02
 -2.8765114024e-02
 -2.8690831736e-02
 -2.8616456315e-02
 -2.8541987762e-02
 -2.8467427939e-02
 -2.8392774984e-02
 -2.8318030760e-02
 -2.8243191540e-02
 -2.8168261051e-02
 -2.8093237430e-02
 -2.8018118814e-02
 -2.7942908928e-02
 -2.7867605910e-02
 -2.7792207897e-02
 -2.7716716751e-02
 -2.7641130611e-02
 -2.7565453202e-02
 -2.7489680797e-02
 -2.7413813397e-02
 -2.7337852865e-02
 -2.7261797339e-02
 -2.7185646817e-02
 -2.7109403163e-02
 -2.7033064514e-02
 -2.6956630871e-02
 -2.6880102232e-02
 -2.6803476736e-02
 -2.6726758108e-02
 -2.6649944484e-02
 -2.6573035866e-02
 -2.6496030390e-02
 -2.6418929920e-02
 -2.6341732591e-02
 -2.6264440268e-02
 -2.6187052950e-02
 -2.6109568775e-02
 -2.6031987742e-02
 -2.5954309851e-02
 -2.5876536965e-02
 -2.5798667222e-02
 -2.5720700622e-02
 -2.5642637163e-02
 -2.5564476848e-02
 -2.5486219674e-02
 -2.5407865644e-02
 -2.5329412892e-02
 -2.5250863284e-02
 -2.5172216818e-02
 -2.5093471631e-02
 -2.5014629588e-02
 -2.4935690686e-02
 -2.4856651202e-02
 -2.4777514860e-02
 -2.4698279798e-02
 -2.4618947878e-02
 -2.4539515376e-02
 -2.4459986016e-02
 -2.4380357936e-02
 -2.4300629273e-02
 -2.4220801890e-02
 -2.4140875787e-02
 -2.4060850963e-02
 -2.3980727419e-02
 -2.3900503293e-02
 -2.3820178583e-02
 -2.3739755154e-02
 -2.3659233004e-02
 -2.3578608409e-02
 -2.3497885093e-02
 -2.3417061195e-02
 -2.3336138576e-02
 -2.3255113512e-02
 -2.3173987865e-02
 -2.3092763498e-02
 -2.3011436686e-02
 -2.2930007428e-02
 -2.2848479450e-02
 -2.2766849026e-02
 -2.2685118020e-02
 -2.2603284568e-02
 -2.2521350533e-02
 -2.2439314052e-02
 -2.2357176989e-02
 -2.2274935618e-02
 -2.2192593664e-02
 -2.2110149264e-02
 -2.2027602419e-02
 -2.1944953129e-02
 -2.1862201393e-02
 -2.1779347211e-02
 -2.1696388721e-02
 -2.1613327786e-02
 -2.1530164406e-02
 -2.1446898580e-02
 -2.1363526583e-02
 -2.1280054003e-02
 -2.1196475253e-02
 -2.1112794057e-02
 -2.1029008552e-02
 -2.0945118740e-02
 -2.0861126482e-02
 -2.0777028054e-02
 -2.0692825317e-02
 -2.0608518273e-02
 -2.0524106920e-02
 -2.0439591259e-02
 -2.0354969427e-02
 -2.0270243287e-02
 -2.0185412839e-02
 -2.0100474358e-02
 -2.0015433431e-02
 -1.9930284470e-02
 -1.9845031202e-02
 -1.9759671763e-02
 -1.9674206153e-02
 -1.9588634372e-02
 -1.9502956420e-02
 -1.9417172298e-02
 -1.9331282005e-02
 -1.9245283678e-02
 -1.9159179181e-02
 -1.9072968513e-02
 -1.8986649811e-02
 -1.8900224939e-02
 -1.8813692033e-02
 -1.8727051094e-02
 -1.8640303984e-02
 -1.8553448841e-02
 -1.8466483802e-02
 -1.8379412591e-02
 -1.8292233348e-02
 -1.8204946071e-02
 -1.8117550761e-02
 -1.8030045554e-02
 -1.7942432314e-02
 -1.7854709178e-02
 -1.7766878009e-02
 -1.7678938806e-02
 -1.7590889707e-02
 -1.7502730712e-02
 -1.7414461821e-02
 -1.7326084897e-02
 -1.7237598076e-02
 -1.7148999497e-02
 -1.7060292885e-02
 -1.6971474513e-02
 -1.6882548109e-02
 -1.6793509945e-02
 -1.6704360023e-02
 -1.6615100205e-02
 -1.6525730491e-02
 -1.6436249018e-02
 -1.6346655786e-02
 -1.6256952658e-02
 -1.6167137772e-02
 -1.6077211127e-02
 -1.5987172723e-02
 -1.5897022560e-02
 -1.5806760639e-02
 -1.5716386959e-02
 -1.5625899658e-02
 -1.5535301529e-02
 -1.5444590710e-02
 -1.5353767201e-02
 -1.5262830071e-02
 -1.5171780251e-02
 -1.5080617741e-02
 -1.4989342541e-02
 -1.4897952788e-02
 -1.4806450345e-02
 -1.4714834280e-02
 -1.4623104595e-02
 -1.4531260356e-02
 -1.4439302497e-02
 -1.4347230084e-02
 -1.4255044051e-02
 -1.4162742533e-02
 -1.4070327394e-02
 -1.3977796771e-02
 -1.3885151595e-02
 -1.3792390935e-02
 -1.3699515723e-02
 -1.3606525026e-02
 -1.3513418846e-02
 -1.3420197181e-02
 -1.3326859102e-02
 -1.3233405538e-02
 -1.3139836490e-02
 -1.3046150096e-02
 -1.2952348217e-02
 -1.2858429924e-02
 -1.2764394283e-02
 -1.2670242228e-02
 -1.2575973757e-02
 -1.2481587939e-02
 -1.2387084775e-02
 -1.2292464264e-02
 -1.2197726406e-02
 -1.2102870271e-02
 -1.2007896788e-02
 -1.1912805960e-02
 -1.1817595921e-02
 -1.1722268537e-02
 -1.1626822874e-02
 -1.1531258002e-02
 -1.1435574852e-02
 -1.1339772493e-02
 -1.1243851855e-02
 -1.1147812009e-02
 -1.1051652022e-02
 -1.0955373757e-02
 -1.0858975351e-02
 -1.0762456805e-02
 -1.0665819049e-02
 -1.0569061153e-02
 -1.0472183116e-02
 -1.0375184938e-02
 -1.0278066620e-02
 -1.0180827230e-02
 -1.0083466768e-02
 -9.9859861657e-03
 -9.8883835599e-03
 -9.7906608135e-03
 -9.6928160638e-03
 -9.5948493108e-03
 -9.4967614859e-03
 -9.3985525891e-03
 -9.3002207577e-03
 -9.2017669231e-03
 -9.1031910852e-03
 -9.0044932440e-03
 -8.9056724682e-03
 -8.8067287579e-03
 -8.7076621130e-03
 -8.6084725335e-03
 -8.5091600195e-03
 -8.4097245708e-03
 -8.3101652563e-03
 -8.2104820758e-03
 -8.1106750295e-03
 -8.0107441172e-03
 -7.9106893390e-03
 -7.8105102293e-03
 -7.7102067880e-03
 -7.6097790152e-03
 -7.5092259794e-03
 -7.4085486121e-03
 -7.3077459820e-03
 -7.2068180889e-03
 -7.1057649329e-03
 -7.0045865141e-03
 -6.9032819010e-03
 -6.8018520251e-03
 -6.7002959549e-03
 -6.5986141562e-03
 -6.4968056977e-03
 -6.3948710449e-03
 -6.2928097323e-03
 -6.1906212941e-03
 -6.0883066617e-03
 -5.9858644381e-03
 -5.8832950890e-03
 -5.7805986144e-03
 -5.6777745485e-03
 -5.5748224258e-03
 -5.4717431776e-03
 -5.3685354069e-03
 -5.2651995793e-03
 -5.1617352292e-03
 -5.0581428222e-03
 -4.9544214271e-03
 -4.8505715095e-03
 -4.7465926036e-03
 -4.6424842440e-03
 -4.5382468961e-03
 -4.4338800944e-03
 -4.3293838389e-03
 -4.2247576639e-03
 -4.1200015694e-03
 -4.0151155554e-03
 -3.9100986905e-03
 -3.8049521390e-03
 -3.6996747367e-03
 -3.5942664836e-03
 -3.4887276124e-03
 -3.3830574248e-03
 -3.2772561535e-03
 -3.1713235658e-03
 -3.0652594287e-03
 -2.9590635095e-03
 -2.8527355753e-03
 -2.7462758590e-03
 -2.6396838948e-03
 -2.5329594500e-03
 -2.4261025246e-03
 -2.3191128857e-03
 -2.2119905334e-03
 -2.1047350019e-03
 -1.9973465241e-03
 -1.8898244016e-03
 -1.7821688671e-03
 -1.6743796878e-03
 -1.5664566308e-03
 -1.4583995799e-03
 -1.3502084184e-03
 -1.2418827973e-03
 -1.1334227165e-03
 -1.0248279432e-03
 -9.1609830270e-04
 -8.0723367864e-04
 -6.9823383819e-04
 -5.8909866493e-04
 -4.7982798424e-04
 -3.7042159238e-04
 -2.6087937295e-04
 -1.5120110766e-04
 -4.1386650992e-05
 6.8564164394e-05
 1.7865152040e-04
 2.8887556982e-04
 3.9923648001e-04
 5.0973444013e-04
 6.2036962481e-04
 7.3114217957e-04
 8.4205227904e-04
 9.5310009783e-04
 1.0642858688e-03
 1.1756096501e-03
 1.2870716164e-03
 1.3986721169e-03
 1.5104111517e-03
 1.6222888371e-03
 1.7343055224e-03
 1.8464613240e-03
 1.9587564748e-03
 2.0711908583e-03
 2.1837649401e-03
 2.2964789532e-03
 2.4093328975e-03
 2.5223267730e-03
 2.6354610454e-03
 2.7487359475e-03
 2.8621514793e-03
 2.9757076409e-03
 3.0894048978e-03
 3.2032434829e-03
 3.3172233962e-03
 3.4313446376e-03
 3.5456079058e-03
 3.6600127351e-03
 3.7745598238e-03
 3.8892491721e-03
 4.0040807799e-03
 4.1190548800e-03
 4.2341719382e-03
 4.3494319543e-03
 4.4648353942e-03
 4.5803817920e-03
 4.6960716136e-03
 4.8119053245e-03
 4.9278824590e-03
 5.0440039486e-03
 5.1602697931e-03
 5.2766795270e-03
 5.3932340816e-03
 5.5099334568e-03
 5.6267776527e-03
 5.7437671348e-03
 5.8609014377e-03
 5.9781814925e-03
 6.0956072994e-03
 6.2131783925e-03
 6.3308961689e-03
 6.4487596974e-03
 6.5667694435e-03
 6.6849263385e-03
 6.8032294512e-03
 6.9216797128e-03
 7.0402766578e-03
 7.1590212174e-03
 7.2779133916e-03
 7.3969527148e-03
 7.5161401182e-03
 7.6354756020e-03
 7.7549591660e-03
 7.8745912760e-03
 7.9943714663e-03
 8.1143006682e-03
 8.2343788818e-03
 8.3546061069e-03
 8.4749832749e-03
 8.5955094546e-03
 8.7161846459e-03
 8.8370107114e-03
 8.9579857886e-03
 9.0791117400e-03
 9.2003876343e-03
 9.3218144029e-03
 9.4433920458e-03
 9.5651205629e-03
 9.6870008856e-03
 9.8090320826e-03
 9.9312141538e-03
 1.0053548962e-02
 1.0176034644e-02
 1.0298673064e-02
 1.0421464220e-02
 1.0544407181e-02
 1.0667502880e-02
 1.0790751316e-02
 1.0914153419e-02
 1.1037708260e-02
 1.1161416769e-02
 1.1285278015e-02
 1.1409293860e-02
 1.1533463374e-02
 1.1657787487e-02
 1.1782266200e-02
 1.1906898580e-02
 1.2031686492e-02
 1.2156629004e-02
 1.2281727046e-02
 1.2406979688e-02
 1.2532388791e-02
 1.2657952495e-02
 1.2783673592e-02
 1.2909549288e-02
 1.3035582379e-02
 1.3161770999e-02
 1.3288117014e-02
 1.3414620422e-02
 1.3541280292e-02
 1.3668097556e-02
 1.3795072213e-02
 1.3922204264e-02
 1.4049494639e-02
 1.4176942408e-02
 1.4304548502e-02
 1.4432313852e-02
 1.4560237527e-02
 1.4688319527e-02
 1.4816561714e-02
 1.4944962226e-02
 1.5073521994e-02
 1.5202241950e-02
 1.5331122093e-02
 1.5460161492e-02
 1.5589361079e-02
 1.5718720853e-02
 1.5848243609e-02
 1.5977924690e-02
 1.6107767820e-02
 1.6237771139e-02
 1.6367936507e-02
 1.6498263925e-02
 1.6628753394e-02
 1.6759404913e-02
 1.6890216619e-02
 1.7021192238e-02
 1.7152331769e-02
 1.7283633351e-02
 1.7415096983e-02
 1.7546724528e-02
 1.7678515986e-02
 1.7810469493e-02
 1.7942588776e-02
 1.8074870110e-02
 1.8207317218e-02
 1.8339928240e-02
 1.8472705036e-02
 1.8605645746e-02
 1.8738750368e-02
 1.8872022629e-02
 1.9005458802e-02
 1.9139060751e-02
 1.9272830337e-02
 1.9406763837e-02
 1.9540864974e-02
 1.9675131887e-02
 1.9809564576e-02
 1.9944166765e-02
 2.0078934729e-02
 2.0213870332e-02
 2.0348971710e-02
 2.0484242588e-02
 2.0619681105e-02
 2.0755289122e-02
 2.0891062915e-02
 2.1027008072e-02
 2.1163119003e-02
 2.1299401298e-02
 2.1435853094e-02
 2.1572472528e-02
 2.1709263325e-02
 2.1846221760e-02
 2.1983351558e-02
 2.2120652720e-02
 2.2258123383e-02
 2.2395763546e-02
 2.2533576936e-02
 2.2671559826e-02
 2.2809714079e-02
 2.2948041558e-02
 2.3086538538e-02
 2.3225208744e-02
 2.3364050314e-02
 2.3503065109e-02
 2.3642253131e-02
 2.3781612515e-02
 2.3921145126e-02
 2.4060852826e-02
 2.4200731888e-02
 2.4340786040e-02
 2.4481013417e-02
 2.4621414021e-02
 2.4761991575e-02
 2.4902740493e-02
 2.5043666363e-02
 2.5184767321e-02
 2.5326041505e-02
 2.5467492640e-02
 2.5609118864e-02
 2.5750922039e-02
 2.5892900303e-02
 2.6035055518e-02
 2.6177387685e-02
 2.6319894940e-02
 2.6462579146e-02
 2.6605442166e-02
 2.6748482138e-02
 2.6891699061e-02
 2.7035094798e-02
 2.7178667486e-02
 2.7322418988e-02
 2.7466349304e-02
 2.7610456571e-02
 2.7754744515e-02
 2.7899211273e-02
 2.8043858707e-02
 2.8188683093e-02
 2.8333690017e-02
 2.8478875756e-02
 2.8624240309e-02
 2.8769787401e-02
 2.8915515170e-02
 2.9061421752e-02
 2.9207512736e-02
 2.9353782535e-02
 2.9500234872e-02
 2.9646869749e-02
 2.9793685302e-02
 2.9940683395e-02
 3.0087865889e-02
 3.0235229060e-02
 3.0382776633e-02
 3.0530506745e-02
 3.0678419396e-02
 3.0826516449e-02
 3.0974797904e-02
 3.1123263761e-02
 3.1271912158e-02
 3.1420748681e-02
 3.1569767743e-02
 3.1718969345e-02
 3.1868360937e-02
 3.2017935067e-02
 3.2167695463e-02
 3.2317642123e-02
 3.2467775047e-02
 3.2618094236e-02
 3.2768599689e-02
 3.2919291407e-02
 3.3070173115e-02
 3.3221241087e-02
 3.3372495323e-02
 3.3523935825e-02
 3.3675566316e-02
 3.3827386796e-02
 3.3979393542e-02
 3.4131590277e-02
 3.4283977002e-02
 3.4436549991e-02
 3.4589312971e-02
 3.4742269665e-02
 3.4895412624e-02
 3.5048745573e-02
 3.5202268511e-02
 3.5355985165e-02
 3.5509888083e-02
 3.5663984716e-02
 3.5818275064e-02
 3.5972755402e-02
 3.6127425730e-02
 3.6282289773e-02
 3.6437343806e-02
 3.6592595279e-02
 3.6748033017e-02
 3.6903668195e-02
 3.7059497088e-02
 3.7215515971e-02
 3.7371732295e-02
 3.7528142333e-02
 3.7684742361e-02
 3.7841539830e-02
 3.7998534739e-02
 3.8155719638e-02
 3.8313101977e-02
 3.8470681757e-02
 3.8628455251e-02
 3.8786422461e-02
 3.8944587111e-02
 3.9102949202e-02
 3.9261508733e-02
 3.9420261979e-02
 3.9579216391e-02
 3.9738364518e-02
 3.9897713810e-02
 4.0057260543e-02
 4.0217000991e-02
 4.0376942605e-02
 4.0537085384e-02
 4.0697425604e-02
 4.0857963264e-02
 4.1018698364e-02
 4.1179638356e-02
 4.1340775788e-02
 4.1502110660e-02
 4.1663650423e-02
 4.1825387627e-02
 4.1987325996e-02
 4.2149465531e-02
 4.2311809957e-02
 4.2474351823e-02
 4.2637094855e-02
 4.2800042778e-02
 4.2963191867e-02
 4.3126545846e-02
 4.3290100992e-02
 4.3453857303e-02
 4.3617818505e-02
 4.3781984597e-02
 4.3946351856e-02
 4.4110924006e-02
 4.4275701046e-02
 4.4440682977e-02
 4.4605869800e-02
 4.4771261513e-02
 4.4936858118e-02
 4.5102659613e-02
 4.5268669724e-02
 4.5434884727e-02
 4.5601304621e-02
 4.5767933130e-02
 4.5934770256e-02
 4.6101808548e-02
 4.6269059181e-02
 4.6436518431e-02
 4.6604182571e-02
 4.6772055328e-02
 4.6940136701e-02
 4.7108426690e-02
 4.7276925296e-02
 4.7445636243e-02
 4.7614552081e-02
 4.7783680260e-02
 4.7953017056e-02
 4.8122566193e-02
 4.8292323947e-02
 4.8462294042e-02
 4.8632472754e-02
 4.8802867532e-02
 4.8973470926e-02
 4.9144282937e-02
 4.9315311015e-02
 4.9486551434e-02
 4.9658004194e-02
 4.9829669297e-02
 5.0001546741e-02
 5.0173640251e-02
 5.0345946103e-02
 5.0518464297e-02
 5.0691198558e-02
 5.0864145160e-02
 5.1037307829e-02
 5.1210686564e-02
 5.1384281367e-02
 5.1558088511e-02
 5.1732115448e-02
 5.1906354725e-02
 5.2080813795e-02
 5.2255485207e-02
 5.2430376410e-02
 5.2605483681e-02
 5.2780810744e-02
 5.2956353873e-02
 5.3132113069e-02
 5.3308092058e-02
 5.3484290838e-02
 5.3660705686e-02
 5.3837344050e-02
 5.4014198482e-02
 5.4191272706e-02
 5.4368566722e-02
 5.4546080530e-02
 5.4723817855e-02
 5.4901771247e-02
 5.5079948157e-02
 5.5258344859e-02
 5.5436965078e-02
 5.5615808815e-02
 5.5794868618e-02
 5.5974155664e-02
 5.6153666228e-02
 5.6333396584e-02
 5.6513350457e-02
 5.6693527848e-02
 5.6873928756e-02
 5.7054556906e-02
 5.7235404849e-02
 5.7416480035e-02
 5.7597778738e-02
 5.7779304683e-02
 5.7961054146e-02
 5.8143027127e-02
 5.8325231075e-02
 5.8507658541e-02
 5.8690313250e-02
 5.8873195201e-02
 5.9056300670e-02
 5.9239637107e-02
 5.9423200786e-02
 5.9606991708e-02
 5.9791009873e-02
 5.9975259006e-02
 6.0159735382e-02
 6.0344442725e-02
 6.0529377311e-02
 6.0714542866e-02
 6.0899935663e-02
 6.1085563153e-02
 6.1271417886e-02
 6.1457503587e-02
 6.1643820256e-02
 6.1830367893e-02
 6.2017150223e-02
 6.2204159796e-02
 6.2391407788e-02
 6.2578879297e-02
 6.2766589224e-02
 6.2954537570e-02
 6.3142709434e-02
 6.3331119716e-02
 6.3519768417e-02
 6.3708640635e-02
 6.3897758722e-02
 6.4087100327e-02
 6.4276687801e-02
 6.4466506243e-02
 6.4656555653e-02
 6.4846850932e-02
 6.5037377179e-02
 6.5228134394e-02
 6.5419137478e-02
 6.5610371530e-02
 6.5801844001e-02
 6.5993562341e-02
 6.6185511649e-02
 6.6377699375e-02
 6.6570125520e-02
 6.6762790084e-02
 6.6955693066e-02
 6.7148841918e-02
 6.7342221737e-02
 6.7535847425e-02
 6.7729711533e-02
 6.7923821509e-02
 6.8118169904e-02
 6.8312756717e-02
 6.8507581949e-02
 6.8702653050e-02
 6.8897970021e-02
 6.9093525410e-02
 6.9289326668e-02
 6.9485366344e-02
 6.9681651890e-02
 6.9878183305e-02
 7.0074960589e-02
 7.0271976292e-02
 7.0469237864e-02
 7.0666745305e-02
 7.0864498615e-02
 7.1062497795e-02
 7.1260742843e-02
 7.1459233761e-02
 7.1657970548e-02
 7.1856953204e-02
 7.2056181729e-02
 7.2255663574e-02
 7.2455391288e-02
 7.2655364871e-02
 7.2855584323e-02
 7.3056057096e-02
 7.3256775737e-02
 7.3457747698e-02
 7.3658965528e-02
 7.3860429227e-02
 7.4062153697e-02
 7.4264116585e-02
 7.4466340244e-02
 7.4668809772e-02
 7.4871532619e-02
 7.5074508786e-02
 7.5277730823e-02
 7.5481213629e-02
 7.5684942305e-02
 7.5888931751e-02
 7.6093167067e-02
 7.6297655702e-02
 7.6502405107e-02
 7.6707400382e-02
 7.6912656426e-02
 7.7118165791e-02
 7.7323928475e-02
 7.7529944479e-02
 7.7736221254e-02
 7.7942751348e-02
 7.8149542212e-02
 7.8356586397e-02
 7.8563891351e-02
 7.8771449625e-02
 7.8979268670e-02
 7.9187341034e-02
 7.9395674169e-02
 7.9604268074e-02
 7.9813115299e-02
 8.0022230744e-02
 8.0231599510e-02
 8.0441229045e-02
 8.0651119351e-02
 8.0861270428e-02
 8.1071682274e-02
 8.1282354891e-02
 8.1493288279e-02
 8.1704482436e-02
 8.1915944815e-02
 8.2127667964e-02
 8.2339651883e-02
 8.2551896572e-02
 8.2764409482e-02
 8.2977183163e-02
 8.3190225065e-02
 8.3403527737e-02
 8.3617098629e-02
 8.3830930293e-02
 8.4045030177e-02
 8.4259398282e-02
 8.4474027157e-02
 8.4688924253e-02
 8.4904089570e-02
 8.5119523108e-02
 8.5335224867e-02
 8.5551187396e-02
 8.5767425597e-02
 8.5983932018e-02
 8.6200706661e-02
 8.6417749524e-02
 8.6635060608e-02
 8.6852639914e-02
 8.7070494890e-02
 8.7288610637e-02
 8.7507009506e-02
 8.7725669146e-02
 8.7944604456e-02
 8.8163815439e-02
 8.8383294642e-02
 8.8603049517e-02
 8.8823072612e-02
 8.9043371379e-02
 8.9263945818e-02
 8.9484788477e-02
 8.9705906808e-02
 8.9927308261e-02
 9.0148977935e-02
 9.0370923281e-02
 9.0593136847e-02
 9.0815633535e-02
 9.1038413346e-02
 9.1261461377e-02
 9.1484785080e-02
 9.1708391905e-02
 9.1932274401e-02
 9.2156432569e-02
 9.2380866408e-02
 9.2605583370e-02
 9.2830583453e-02
 9.3055851758e-02
 9.3281410635e-02
 9.3507245183e-02
 9.3733362854e-02
 9.3959756196e-02
 9.4186432660e-02
 9.4413392246e-02
 9.4640634954e-02
 9.4868153334e-02
 9.5095962286e-02
 9.5324046910e-02
 9.5552422106e-02
 9.5781072974e-02
 9.6010014415e-02
 9.6239231527e-02
 9.6468739212e-02
 9.6698537469e-02
 9.6928611398e-02
 9.7158975899e-02
 9.7389623523e-02
 9.7620561719e-02
 9.7851783037e-02
 9.8083294928e-02
 9.8315089941e-02
 9.8547175527e-02
 9.8779551685e-02
 9.9012210965e-02
 9.9245168269e-02
 9.9478408694e-02
 9.9711932242e-02
 9.9945753813e-02
 1.0017986596e-01
 1.0041426867e-01
 1.0064896196e-01
 1.0088394582e-01
 1.0111922026e-01
 1.0135478526e-01
 1.0159064829e-01
 1.0182679445e-01
 1.0206324607e-01
 1.0229998082e-01
 1.0253701359e-01
 1.0277434438e-01
 1.0301196575e-01
 1.0324988514e-01
 1.0348809510e-01
 1.0372661054e-01
 1.0396540910e-01
 1.0420451313e-01
 1.0444391519e-01
 1.0468360782e-01
 1.0492359847e-01
 1.0516389459e-01
 1.0540448129e-01
 1.0564537346e-01
 1.0588655621e-01
 1.0612804443e-01
 1.0636983067e-01
 1.0661192238e-01
 1.0685431212e-01
 1.0709699988e-01
 1.0733998567e-01
 1.0758327693e-01
 1.0782687366e-01
 1.0807076842e-01
 1.0831496865e-01
 1.0855947435e-01
 1.0880427808e-01
 1.0904938728e-01
 1.0929480195e-01
 1.0954052210e-01
 1.0978654772e-01
 1.1003287882e-01
 1.1027951539e-01
 1.1052645743e-01
 1.1077370495e-01
 1.1102126539e-01
 1.1126912385e-01
 1.1151729524e-01
 1.1176577210e-01
 1.1201456189e-01
 1.1226365715e-01
 1.1251306534e-01
 1.1276277900e-01
 1.1301280558e-01
 1.1326314509e-01
 1.1351379007e-01
 1.1376474798e-01
 1.1401601881e-01
 1.1426760256e-01
 1.1451949924e-01
 1.1477170140e-01
 1.1502422392e-01
 1.1527705938e-01
 1.1553020775e-01
 1.1578366905e-01
 1.1603744328e-01
 1.1629153788e-01
 1.1654594541e-01
 1.1680066586e-01
 1.1705570668e-01
 1.1731106788e-01
 1.1756674200e-01
 1.1782272905e-01
 1.1807903647e-01
 1.1833566427e-01
 1.1859261245e-01
 1.1884987354e-01
 1.1910746247e-01
 1.1936536431e-01
 1.1962359399e-01
 1.1988213658e-01
 1.2014099956e-01
 1.2040019035e-01
 1.2065970153e-01
 1.2091953307e-01
 1.2117968500e-01
 1.2144016474e-01
 1.2170096487e-01
 1.2196208537e-01
 1.2222354114e-01
 1.2248530984e-01
 1.2274741381e-01
 1.2300983816e-01
 1.2327258289e-01
 1.2353566289e-01
 1.2379906327e-01
 1.2406279147e-01
 1.2432685494e-01
 1.2459123880e-01
 1.2485595047e-01
 1.2512099743e-01
 1.2538637221e-01
 1.2565205991e-01
 1.2591810524e-01
 1.2618446350e-01
 1.2645114958e-01
 1.2671817839e-01
 1.2698553503e-01
 1.2725321949e-01
 1.2752123177e-01
 1.2778958678e-01
 1.2805826962e-01
 1.2832729518e-01
 1.2859664857e-01
 1.2886632979e-01
 1.2913635373e-01
 1.2940672040e-01
 1.2967741489e-01
 1.2994843721e-01
 1.3021980226e-01
 1.3049151003e-01
 1.3076354563e-01
 1.3103592396e-01
 1.3130864501e-01
 1.3158169389e-01
 1.3185508549e-01
 1.3212881982e-01
 1.3240289688e-01
 1.3267731667e-01
 1.3295206428e-01
 1.3322716951e-01
 1.3350260258e-01
 1.3377837837e-01
 1.3405449688e-01
 1.3433097303e-01
 1.3460777700e-01
 1.3488492370e-01
 1.3516242802e-01
 1.3544026017e-01
 1.3571844995e-01
 1.3599698246e-01
 1.3627585769e-01
 1.3655507565e-01
 1.3683465123e-01
 1.3711456954e-01
 1.3739483058e-01
 1.3767544925e-01
 1.3795641065e-01
 1.3823771477e-01
 1.3851937652e-01
 1.3880138099e-01
 1.3908374310e-01
 1.3936646283e-01
 1.3964951038e-01
 1.3993293047e-01
 1.4021669328e-01
 1.4050081372e-01
 1.4078527689e-01
 1.4107009768e-01
 1.4135527611e-01
 1.4164081216e-01
 1.4192669094e-01
 1.4221294224e-01
 1.4249953628e-01
 1.4278648794e-01
 1.4307379723e-01
 1.4336144924e-01
 1.4364947379e-01
 1.4393785596e-01
 1.4422659576e-01
 1.4451569319e-01
 1.4480514824e-01
 1.4509496093e-01
 1.4538513124e-01
 1.4567567408e-01
 1.4596655965e-01
 1.4625781775e-01
 1.4654943347e-01
 1.4684142172e-01
 1.4713376760e-01
