aces_1.1/luts/Protune_Flat_to_linear.spi1d
Version 1
From 0 1
Length 4096
Components 1
{
 0.0000000000e+00
 1.0313356142e-05
 2.0638624846e-05
 3.0975821574e-05
 4.1324958147e-05
 5.1686045481e-05
 6.2059101765e-05
 7.2444148827e-05
 8.2841179392e-05
 9.3250229838e-05
 1.0367129289e-04
 1.1410440493e-04
 1.2454956595e-04
 1.3500677596e-04
 1.4547607861e-04
 1.5595747391e-04
 1.6645097639e-04
 1.7695660063e-04
 1.8747436116e-04
 1.9800427253e-04
 2.0854633476e-04
 2.1910059149e-04
 2.2966702818e-04
 2.4024565937e-04
 2.5083654327e-04
 2.6143962168e-04
 2.7205498191e-04
 2.8268256574e-04
 2.9332246049e-04
 3.0397463706e-04
 3.1463909545e-04
 3.2531589386e-04
 3.3600503230e-04
 3.4670651075e-04
 3.5742032924e-04
 3.6814654595e-04
 3.7888513179e-04
 3.8963614497e-04
 4.0039958549e-04
 4.1117542423e-04
 4.2196371942e-04
 4.3276450015e-04
 4.4357773731e-04
 4.5440346003e-04
 4.6524169738e-04
 4.7609244939e-04
 4.8695574515e-04
 4.9783155555e-04
 5.0871999701e-04
 5.1962095313e-04
 5.3053454030e-04
 5.4146070033e-04
 5.5239949143e-04
 5.6335091358e-04
 5.7431502501e-04
 5.8529176749e-04
 5.9628119925e-04
 6.0728332028e-04
 6.1829813058e-04
 6.2932568835e-04
 6.4036593540e-04
 6.5141898813e-04
 6.6248478834e-04
 6.7356339423e-04
 6.8465480581e-04
 6.9575896487e-04
 7.0687598782e-04
 7.1800587466e-04
 7.2914856719e-04
 7.4030418182e-04
 7.5147266034e-04
 7.6265406096e-04
 7.7384832548e-04
 7.8505557030e-04
 7.9627573723e-04
 8.0750888446e-04
 8.1875495380e-04
 8.3001406165e-04
 8.4128614981e-04
 8.5257127648e-04
 8.6386944167e-04
 8.7518064538e-04
 8.8650494581e-04
 8.9784228476e-04
 9.0919272043e-04
 9.2055631103e-04
 9.3193299836e-04
 9.4332278240e-04
 9.5472577959e-04
 9.6614193171e-04
 9.7757123876e-04
 9.8901381716e-04
 1.0004695505e-03
 1.0119385552e-03
 1.0234208312e-03
 1.0349163786e-03
 1.0464250809e-03
 1.0579471709e-03
 1.0694825323e-03
 1.0810312815e-03
 1.0925933020e-03
 1.1041687103e-03
 1.1157575063e-03
 1.1273596901e-03
 1.1389752617e-03
 1.1506042210e-03
 1.1622466845e-03
 1.1739025358e-03
 1.1855718913e-03
 1.1972546345e-03
 1.2089509983e-03
 1.2206607498e-03
 1.2323841220e-03
 1.2441209983e-03
 1.2558713788e-03
 1.2676353799e-03
 1.2794130016e-03
 1.2912042439e-03
 1.3030089904e-03
 1.3148274738e-03
 1.3266595779e-03
 1.3385054190e-03
 1.3503648806e-03
 1.3622379629e-03
 1.3741248986e-03
 1.3860254548e-03
 1.3979397481e-03
 1.4098678948e-03
 1.4218097785e-03
 1.4337655157e-03
 1.4457349898e-03
 1.4577183174e-03
 1.4697154984e-03
 1.4817264164e-03
 1.4937514206e-03
 1.5057901619e-03
 1.5178428730e-03
 1.5299094375e-03
 1.5419899719e-03
 1.5540844761e-03
 1.5661929501e-03
 1.5783153940e-03
 1.5904519241e-03
 1.6026024241e-03
 1.6147668939e-03
 1.6269454500e-03
 1.6391380923e-03
 1.6513448209e-03
 1.6635656357e-03
 1.6758005368e-03
 1.6880496405e-03
 1.7003128305e-03
 1.7125902232e-03
 1.7248818185e-03
 1.7371875001e-03
 1.7495075008e-03
 1.7618417041e-03
 1.7741902266e-03
 1.7865528353e-03
 1.7989298794e-03
 1.8113211263e-03
 1.8237268087e-03
 1.8361466937e-03
 1.8485810142e-03
 1.8610296538e-03
 1.8734926125e-03
 1.8859701231e-03
 1.8984619528e-03
 1.9109682180e-03
 1.9234889187e-03
 1.9360240549e-03
 1.9485737430e-03
 1.9611378666e-03
 1.9737165421e-03
 1.9863096531e-03
 1.9989174325e-03
 2.0115396474e-03
 2.0241765305e-03
 2.0368280821e-03
 2.0494940691e-03
 2.0621749572e-03
 2.0748702809e-03
 2.0875802729e-03
 2.1003049333e-03
 2.1130444948e-03
 2.1257984918e-03
 2.1385673899e-03
 2.1513509564e-03
 2.1641494241e-03
 2.1769625600e-03
 2.1897903644e-03
 2.2026333027e-03
 2.2154909093e-03
 2.2283634171e-03
 2.2412505932e-03
 2.2541529033e-03
 2.2670698818e-03
 2.2800019942e-03
 2.2929490078e-03
 2.3059109226e-03
 2.3188877385e-03
 2.3318796884e-03
 2.3448865395e-03
 2.3579085246e-03
 2.3709454108e-03
 2.3839974310e-03
 2.3970645852e-03
 2.4101468734e-03
 2.4232440628e-03
 2.4363566190e-03
 2.4494840764e-03
 2.4626269005e-03
 2.4757848587e-03
 2.4889579508e-03
 2.5021464098e-03
 2.5153497700e-03
 2.5285687298e-03
 2.5418028235e-03
 2.5550522842e-03
 2.5683168788e-03
 2.5815968402e-03
 2.5948921684e-03
 2.6082028635e-03
 2.6215289254e-03
 2.6348705869e-03
 2.6482273825e-03
 2.6615997776e-03
 2.6749875396e-03
 2.6883906685e-03
 2.7018093970e-03
 2.7152434923e-03
 2.7286931872e-03
 2.7421584819e-03
 2.7556393761e-03
 2.7691356372e-03
 2.7826477308e-03
 2.7961751912e-03
 2.8097184841e-03
 2.8232773766e-03
 2.8368518688e-03
 2.8504419606e-03
 2.8640478849e-03
 2.8776696417e-03
 2.8913069982e-03
 2.9049599543e-03
 2.9186287429e-03
 2.9323135968e-03
 2.9460140504e-03
 2.9597303364e-03
 2.9734624550e-03
 2.9872104060e-03
 3.0009741895e-03
 3.0147540383e-03
 3.0285497196e-03
 3.0423612334e-03
 3.0561888125e-03
 3.0700324569e-03
 3.0838919338e-03
 3.0977674760e-03
 3.1116590835e-03
 3.1255667564e-03
 3.1394904945e-03
 3.1534300651e-03
 3.1673859339e-03
 3.1813581008e-03
 3.1953461003e-03
 3.2093503978e-03
 3.2233709935e-03
 3.2374076545e-03
 3.2514603809e-03
 3.2655296382e-03
 3.2796149608e-03
 3.2937165815e-03
 3.3078345004e-03
 3.3219687175e-03
 3.3361192327e-03
 3.3502860460e-03
 3.3644693904e-03
 3.3786690328e-03
 3.3928849734e-03
 3.4071174450e-03
 3.4213664476e-03
 3.4356317483e-03
 3.4499135800e-03
 3.4642119426e-03
 3.4785268363e-03
 3.4928582609e-03
 3.5072062165e-03
 3.5215707030e-03
 3.5359517206e-03
 3.5503495019e-03
 3.5647638142e-03
 3.5791948903e-03
 3.5936424974e-03
 3.6081068683e-03
 3.6225880031e-03
 3.6370856687e-03
 3.6516003311e-03
 3.6661315244e-03
 3.6806797143e-03
 3.6952444352e-03
 3.7098261528e-03
 3.7244248670e-03
 3.7390403450e-03
 3.7536725868e-03
 3.7683218252e-03
 3.7829878274e-03
 3.7976710591e-03
 3.8123710547e-03
 3.8270880468e-03
 3.8418220356e-03
 3.8565730210e-03
 3.8713410031e-03
 3.8861262146e-03
 3.9009284228e-03
 3.9157476276e-03
 3.9305840619e-03
 3.9454377256e-03
 3.9603086188e-03
 3.9751962759e-03
 3.9901016280e-03
 4.0050237440e-03
 4.0199630894e-03
 4.0349201299e-03
 4.0498939343e-03
 4.0648854338e-03
 4.0798941627e-03
 4.0949201211e-03
 4.1099637747e-03
 4.1250241920e-03
 4.1401023045e-03
 4.1551981121e-03
 4.1703111492e-03
 4.1854414158e-03
 4.2005893774e-03
 4.2157550342e-03
 4.2309379205e-03
 4.2461385019e-03
 4.2613563128e-03
 4.2765922844e-03
 4.2918454856e-03
 4.3071159162e-03
 4.3224045075e-03
 4.3377107941e-03
 4.3530347757e-03
 4.3683759868e-03
 4.3837353587e-03
 4.3991124257e-03
 4.4145071879e-03
 4.4299196452e-03
 4.4453497976e-03
 4.4607981108e-03
 4.4762641191e-03
 4.4917478226e-03
 4.5072496869e-03
 4.5227692463e-03
 4.5383069664e-03
 4.5538623817e-03
 4.5694359578e-03
 4.5850276947e-03
 4.6006371267e-03
 4.6162647195e-03
 4.6319100074e-03
 4.6475739218e-03
 4.6632555313e-03
 4.6789553016e-03
 4.6946732327e-03
 4.7104097903e-03
 4.7261640429e-03
 4.7419364564e-03
 4.7577270307e-03
 4.7735362314e-03
 4.7893635929e-03
 4.8052091151e-03
 4.8210727982e-03
 4.8369551077e-03
 4.8528555781e-03
 4.8687742092e-03
 4.8847114667e-03
 4.9006673507e-03
 4.9166413955e-03
 4.9326340668e-03
 4.9486448988e-03
 4.9646743573e-03
 4.9807224423e-03
 4.9967891537e-03
 5.0128740259e-03
 5.0289779902e-03
 5.0451001152e-03
 5.0612413324e-03
 5.0774007104e-03
 5.0935787149e-03
 5.1097758114e-03
 5.1259915344e-03
 5.1422258839e-03
 5.1584788598e-03
 5.1747509278e-03
 5.1910416223e-03
 5.2073509432e-03
 5.2236793563e-03
 5.2400268614e-03
 5.2563925274e-03
 5.2727777511e-03
 5.2891816013e-03
 5.3056045435e-03
 5.3220461123e-03
 5.3385072388e-03
 5.3549869917e-03
 5.3714858368e-03
 5.3880037740e-03
 5.4045408033e-03
 5.4210969247e-03
 5.4376721382e-03
 5.4542664438e-03
 5.4708803073e-03
 5.4875127971e-03
 5.5041648448e-03
 5.5208359845e-03
 5.5375266820e-03
 5.5542360060e-03
 5.5709653534e-03
 5.5877137929e-03
 5.6044813246e-03
 5.6212684140e-03
 5.6380750611e-03
 5.6549008004e-03
 5.6717460975e-03
 5.6886109523e-03
 5.7054948993e-03
 5.7223988697e-03
 5.7393219322e-03
 5.7562650181e-03
 5.7732271962e-03
 5.7902093977e-03
 5.8072106913e-03
 5.8242320083e-03
 5.8412728831e-03
 5.8583337814e-03
 5.8754137717e-03
 5.8925137855e-03
 5.9096338227e-03
 5.9267734177e-03
 5.9439325705e-03
 5.9611117467e-03
 5.9783109464e-03
 5.9955297038e-03
 6.0127684847e-03
 6.0300272889e-03
 6.0473056510e-03
 6.0646045022e-03
 6.0819229111e-03
 6.0992613435e-03
 6.1166197993e-03
 6.1339987442e-03
 6.1513972469e-03
 6.1688162386e-03
 6.1862552539e-03
 6.2037142925e-03
 6.2211933546e-03
 6.2386929058e-03
 6.2562124804e-03
 6.2737525441e-03
 6.2913126312e-03
 6.3088927418e-03
 6.3264938071e-03
 6.3441148959e-03
 6.3617560081e-03
 6.3794180751e-03
 6.3971001655e-03
 6.4148027450e-03
 6.4325258136e-03
 6.4502693713e-03
 6.4680334181e-03
 6.4858179539e-03
 6.5036229789e-03
 6.5214484930e-03
 6.5392949618e-03
 6.5571619198e-03
 6.5750493668e-03
 6.5929573029e-03
 6.6108861938e-03
 6.6288360395e-03
 6.6468063742e-03
 6.6647971980e-03
 6.6828089766e-03
 6.7008417100e-03
 6.7188953981e-03
 6.7369695753e-03
 6.7550647072e-03
 6.7731807940e-03
 6.7913178355e-03
 6.8094758317e-03
 6.8276547827e-03
 6.8458546884e-03
 6.8640755489e-03
 6.8823178299e-03
 6.9005810656e-03
 6.9188652560e-03
 6.9371704012e-03
 6.9554969668e-03
 6.9738444872e-03
 6.9922134280e-03
 7.0106033236e-03
 7.0290146396e-03
 7.0474469103e-03
 7.0659010671e-03
 7.0843761787e-03
 7.1028727107e-03
 7.1213901974e-03
 7.1399295703e-03
 7.1584903635e-03
 7.1770725772e-03
 7.1956757456e-03
 7.2143008001e-03
 7.2329477407e-03
 7.2516156361e-03
 7.2703054175e-03
 7.2890166193e-03
 7.3077497073e-03
 7.3265042156e-03
 7.3452801444e-03
 7.3640779592e-03
 7.3828976601e-03
 7.4017387815e-03
 7.4206017889e-03
 7.4394866824e-03
 7.4583934620e-03
 7.4773221277e-03
 7.4962722138e-03
 7.5152446516e-03
 7.5342389755e-03
 7.5532551855e-03
 7.5722932816e-03
 7.5913532637e-03
 7.6104351319e-03
 7.6295393519e-03
 7.6486654580e-03
 7.6678139158e-03
 7.6869842596e-03
 7.7061769553e-03
 7.7253915370e-03
 7.7446284704e-03
 7.7638877556e-03
 7.7831689268e-03
 7.8024729155e-03
 7.8217983246e-03
 7.8411465511e-03
 7.8605180606e-03
 7.8799109906e-03
 7.8993262723e-03
 7.9187639058e-03
 7.9382238910e-03
 7.9577071592e-03
 7.9772118479e-03
 7.9967398196e-03
 8.0162901431e-03
 8.0358628184e-03
 8.0554587767e-03
 8.0750770867e-03
 8.0947177485e-03
 8.1143816933e-03
 8.1340679899e-03
 8.1537766382e-03
 8.1735085696e-03
 8.1932628527e-03
 8.2130404189e-03
 8.2328403369e-03
 8.2526635379e-03
 8.2725090906e-03
 8.2923788577e-03
 8.3122700453e-03
 8.3321854472e-03
 8.3521232009e-03
 8.3720833063e-03
 8.3920676261e-03
 8.4120742977e-03
 8.4321051836e-03
 8.4521584213e-03
 8.4722340107e-03
 8.4923338145e-03
 8.5124569014e-03
 8.5326032713e-03
 8.5527719930e-03
 8.5729649290e-03
 8.5931811482e-03
 8.6134197190e-03
 8.6336825043e-03
 8.6539685726e-03
 8.6742788553e-03
 8.6946114898e-03
 8.7149674073e-03
 8.7353475392e-03
 8.7557509542e-03
 8.7761785835e-03
 8.7966294959e-03
 8.8171036914e-03
 8.8376011699e-03
 8.8581228629e-03
 8.8786687702e-03
 8.8992370293e-03
 8.9198304340e-03
 8.9404471219e-03
 8.9610870928e-03
 8.9817512780e-03
 9.0024396777e-03
 9.0231513605e-03
 9.0438881889e-03
 9.0646473691e-03
 9.0854316950e-03
 9.1062393039e-03
 9.1270711273e-03
 9.1479271650e-03
 9.1688074172e-03
 9.1897118837e-03
 9.2106396332e-03
 9.2315925285e-03
 9.2525696382e-03
 9.2735700309e-03
 9.2945955694e-03
 9.3156453222e-03
 9.3367183581e-03
 9.3578165397e-03
 9.3789398670e-03
 9.4000864774e-03
 9.4212573022e-03
 9.4424532726e-03
 9.4636734575e-03
 9.4849187881e-03
 9.5061883330e-03
 9.5274820924e-03
 9.5488000661e-03
 9.5701431856e-03
 9.5915114507e-03
 9.6129039302e-03
 9.6343206242e-03
 9.6557633951e-03
 9.6772294492e-03
 9.6987206489e-03
 9.7202369943e-03
 9.7417784855e-03
 9.7633441910e-03
 9.7849359736e-03
 9.8065510392e-03
 9.8281921819e-03
 9.8498584703e-03
 9.8715489730e-03
 9.8932646215e-03
 9.9150063470e-03
 9.9367722869e-03
 9.9585633725e-03
 9.9803796038e-03
 1.0002221912e-02
 1.0024088435e-02
 1.0045981035e-02
 1.0067897849e-02
 1.0089840740e-02
 1.0111808777e-02
 1.0133801959e-02
 1.0155821219e-02
 1.0177865624e-02
 1.0199935175e-02
 1.0222030804e-02
 1.0244151577e-02
 1.0266297497e-02
 1.0288469493e-02
 1.0310666636e-02
 1.0332889855e-02
 1.0355139151e-02
 1.0377413593e-02
 1.0399714112e-02
 1.0422039777e-02
 1.0444391519e-02
 1.0466769338e-02
 1.0489173234e-02
 1.0511602275e-02
 1.0534057394e-02
 1.0556538589e-02
 1.0579045862e-02
 1.0601579212e-02
 1.0624137707e-02
 1.0646723211e-02
 1.0669334792e-02
 1.0691972449e-02
 1.0714636184e-02
 1.0737325996e-02
 1.0760041885e-02
 1.0782783851e-02
 1.0805551894e-02
 1.0828346945e-02
 1.0851168074e-02
 1.0874016210e-02
 1.0896889493e-02
 1.0919789784e-02
 1.0942717083e-02
 1.0965669528e-02
 1.0988649912e-02
 1.1011656374e-02
 1.1034688912e-02
 1.1057748459e-02
 1.1080834083e-02
 1.1103947647e-02
 1.1127086356e-02
 1.1150253005e-02
 1.1173445731e-02
 1.1196665466e-02
 1.1219912209e-02
 1.1243185960e-02
 1.1266485788e-02
 1.1289813556e-02
 1.1313167401e-02
 1.1336548254e-02
 1.1359957047e-02
 1.1383391917e-02
 1.1406853795e-02
 1.1430343613e-02
 1.1453860439e-02
 1.1477403343e-02
 1.1500974186e-02
 1.1524572968e-02
 1.1548197828e-02
 1.1571850628e-02
 1.1595530435e-02
 1.1619238183e-02
 1.1642972939e-02
 1.1666734703e-02
 1.1690524407e-02
 1.1714341119e-02
 1.1738185771e-02
 1.1762058362e-02
 1.1785957962e-02
 1.1809884571e-02
 1.1833840050e-02
 1.1857822537e-02
 1.1881832965e-02
 1.1905870400e-02
 1.1929936707e-02
 1.1954030022e-02
 1.1978151277e-02
 1.2002300471e-02
 1.2026477605e-02
 1.2050682679e-02
 1.2074915692e-02
 1.2099176645e-02
 1.2123466469e-02
 1.2147783302e-02
 1.2172128074e-02
 1.2196501717e-02
 1.2220903300e-02
 1.2245332822e-02
 1.2269791216e-02
 1.2294276617e-02
 1.2318790890e-02
 1.2343334034e-02
 1.2367905118e-02
 1.2392505072e-02
 1.2417132966e-02
 1.2441788800e-02
 1.2466473505e-02
 1.2491187081e-02
 1.2515928596e-02
 1.2540698983e-02
 1.2565498240e-02
 1.2590326369e-02
 1.2615182437e-02
 1.2640067376e-02
 1.2664981186e-02
 1.2689923868e-02
 1.2714895420e-02
 1.2739895843e-02
 1.2764925137e-02
 1.2789983302e-02
 1.2815070339e-02
 1.2840186246e-02
 1.2865331024e-02
 1.2890504673e-02
 1.2915708125e-02
 1.2940940447e-02
 1.2966201641e-02
 1.2991492637e-02
 1.3016812503e-02
 1.3042161241e-02
 1.3067539781e-02
 1.3092947192e-02
 1.3118384406e-02
 1.3143850490e-02
 1.3169346377e-02
 1.3194871135e-02
 1.3220425695e-02
 1.3246010058e-02
 1.3271624222e-02
 1.3297267258e-02
 1.3322940096e-02
 1.3348642737e-02
 1.3374375179e-02
 1.3400137424e-02
 1.3425929472e-02
 1.3451750390e-02
 1.3477602042e-02
 1.3503483497e-02
 1.3529394753e-02
 1.3555335812e-02
 1.3581306674e-02
 1.3607308269e-02
 1.3633338735e-02
 1.3659399934e-02
 1.3685490936e-02
 1.3711612672e-02
 1.3737764210e-02
 1.3763946481e-02
 1.3790158555e-02
 1.3816400431e-02
 1.3842673041e-02
 1.3868976384e-02
 1.3895309530e-02
 1.3921673410e-02
 1.3948067091e-02
 1.3974492438e-02
 1.4000947587e-02
 1.4027433470e-02
 1.4053949155e-02
 1.4080496505e-02
 1.4107074589e-02
 1.4133682474e-02
 1.4160322025e-02
 1.4186991379e-02
 1.4213692397e-02
 1.4240424149e-02
 1.4267186634e-02
 1.4293979853e-02
 1.4320803806e-02
 1.4347659424e-02
 1.4374545775e-02
 1.4401462860e-02
 1.4428411610e-02
 1.4455391094e-02
 1.4482401311e-02
 1.4509443194e-02
 1.4536516741e-02
 1.4563621022e-02
 1.4590756968e-02
 1.4617923647e-02
 1.4645121992e-02
 1.4672352001e-02
 1.4699613675e-02
 1.4726906084e-02
 1.4754230157e-02
 1.4781586826e-02
 1.4808974229e-02
 1.4836393297e-02
 1.4863844030e-02
 1.4891326427e-02
 1.4918840490e-02
 1.4946387149e-02
 1.4973964542e-02
 1.5001574531e-02
 1.5029216185e-02
 1.5056889504e-02
 1.5084595419e-02
 1.5112333000e-02
 1.5140102245e-02
 1.5167904086e-02
 1.5195737593e-02
 1.5223603696e-02
 1.5251501463e-02
 1.5279431827e-02
 1.5307393856e-02
 1.5335389413e-02
 1.5363416635e-02
 1.5391475521e-02
 1.5419567935e-02
 1.5447692014e-02
 1.5475849621e-02
 1.5504038893e-02
 1.5532260761e-02
 1.5560515225e-02
 1.5588802285e-02
 1.5617122874e-02
 1.5645476058e-02
 1.5673860908e-02
 1.5702279285e-02
 1.5730729327e-02
 1.5759212896e-02
 1.5787729993e-02
 1.5816280618e-02
 1.5844862908e-02
 1.5873478726e-02
 1.5902126208e-02
 1.5930809081e-02
 1.5959523618e-02
 1.5988271683e-02
 1.6017053276e-02
 1.6045868397e-02
 1.6074715182e-02
 1.6103597358e-02
 1.6132511199e-02
 1.6161460429e-02
 1.6190441325e-02
 1.6219455749e-02
 1.6248503700e-02
 1.6277587041e-02
 1.6306702048e-02
 1.6335850582e-02
 1.6365034506e-02
 1.6394250095e-02
 1.6423501074e-02
 1.6452783719e-02
 1.6482101753e-02
 1.6511453316e-02
 1.6540840268e-02
 1.6570258886e-02
 1.6599712893e-02
 1.6629200429e-02
 1.6658721492e-02
 1.6688277945e-02
 1.6717867926e-02
 1.6747491434e-02
 1.6777150333e-02
 1.6806842759e-02
 1.6836570576e-02
 1.6866331920e-02
 1.6896126792e-02
 1.6925957054e-02
 1.6955820844e-02
 1.6985720024e-02
 1.7015652731e-02
 1.7045620829e-02
 1.7075624317e-02
 1.7105661333e-02
 1.7135733739e-02
 1.7165839672e-02
 1.7195982859e-02
 1.7226157710e-02
 1.7256369814e-02
 1.7286615446e-02
 1.7316896468e-02
 1.7347212881e-02
 1.7377564684e-02
 1.7407950014e-02
 1.7438370734e-02
 1.7468826845e-02
 1.7499318346e-02
 1.7529845238e-02
 1.7560407519e-02
 1.7591005191e-02
 1.7621638253e-02
 1.7652306706e-02
 1.7683008686e-02
 1.7713747919e-02
 1.7744522542e-02
 1.7775332555e-02
 1.7806177959e-02
 1.7837058753e-02
 1.7867976800e-02
 1.7898928374e-02
 1.7929917201e-02
 1.7960941419e-02
 1.7992001027e-02
 1.8023097888e-02
 1.8054228276e-02
 1.8085395917e-02
 1.8116600811e-02
 1.8147839233e-02
 1.8179116771e-02
 1.8210427836e-02
 1.8241776153e-02
 1.8273159862e-02
 1.8304580823e-02
 1.8336037174e-02
 1.8367530778e-02
 1.8399061635e-02
 1.8430626020e-02
 1.8462229520e-02
 1.8493868411e-02
 1.8525544554e-02
 1.8557256088e-02
 1.8589004874e-02
 1.8620790914e-02
 1.8652612343e-02
 1.8684471026e-02
 1.8716366962e-02
 1.8748300150e-02
 1.8780268729e-02
 1.8812274560e-02
 1.8844319507e-02
 1.8876399845e-02
 1.8908515573e-02
 1.8940670416e-02
 1.8972862512e-02
 1.9005091861e-02
 1.9037356600e-02
 1.9069660455e-02
 1.9102001563e-02
 1.9134379923e-02
 1.9166795537e-02
 1.9199248403e-02
 1.9231738523e-02
 1.9264265895e-02
 1.9296830520e-02
 1.9329434261e-02
 1.9362075254e-02
 1.9394753501e-02
 1.9427469000e-02
 1.9460223615e-02
 1.9493015483e-02
 1.9525844604e-02
 1.9558712840e-02
 1.9591618329e-02
 1.9624561071e-02
 1.9657542929e-02
 1.9690563902e-02
 1.9723620266e-02
 1.9756717607e-02
 1.9789850339e-02
 1.9823024049e-02
 1.9856235012e-02
 1.9889483228e-02
 1.9922770560e-02
 1.9956097007e-02
 1.9989462569e-02
 2.0022865385e-02
 2.0056307316e-02
 2.0089786500e-02
 2.0123306662e-02
 2.0156864077e-02
 2.0190460607e-02
 2.0224096254e-02
 2.0257769153e-02
 2.0291483030e-02
 2.0325234160e-02
 2.0359026268e-02
 2.0392855629e-02
 2.0426724106e-02
 2.0460633561e-02
 2.0494580269e-02
 2.0528566092e-02
 2.0562592894e-02
 2.0596656948e-02
 2.0630761981e-02
 2.0664906129e-02
 2.0699089393e-02
 2.0733311772e-02
 2.0767575130e-02
 2.0801875740e-02
 2.0836217329e-02
 2.0870599896e-02
 2.0905019715e-02
 2.0939480513e-02
 2.0973980427e-02
 2.1008521318e-02
 2.1043101326e-02
 2.1077722311e-02
 2.1112382412e-02
 2.1147081628e-02
 2.1181821823e-02
 2.1216602996e-02
 2.1251423284e-02
 2.1286284551e-02
 2.1321184933e-02
 2.1356126294e-02
 2.1391108632e-02
 2.1426130086e-02
 2.1461192518e-02
 2.1496295929e-02
 2.1531440318e-02
 2.1566623822e-02
 2.1601848304e-02
 2.1637113765e-02
 2.1672420204e-02
 2.1707767621e-02
 2.1743156016e-02
 2.1778583527e-02
 2.1814053878e-02
 2.1849565208e-02
 2.1885115653e-02
 2.1920708939e-02
 2.1956343204e-02
 2.1992018446e-02
 2.2027734667e-02
 2.2063491866e-02
 2.2099290043e-02
 2.2135131061e-02
 2.2171013057e-02
 2.2206936032e-02
 2.2242899984e-02
 2.2278906778e-02
 2.2314952686e-02
 2.2351043299e-02
 2.2387173027e-02
 2.2423345596e-02
 2.2459561005e-02
 2.2495817393e-02
 2.2532114759e-02
 2.2568454966e-02
 2.2604838014e-02
 2.2641262040e-02
 2.2677727044e-02
 2.2714236751e-02
 2.2750787437e-02
 2.2787379101e-02
 2.2824013606e-02
 2.2860690951e-02
 2.2897411138e-02
 2.2934174165e-02
 2.2970978171e-02
 2.3007825017e-02
 2.3044714704e-02
 2.3081647232e-02
 2.3118620738e-02
 2.3155638948e-02
 2.3192699999e-02
 2.3229802027e-02
 2.3266948760e-02
 2.3304138333e-02
 2.3341368884e-02
 2.3378644139e-02
 2.3415962234e-02
 2.3453323171e-02
 2.3490726948e-02
 2.3528175429e-02
 2.3565664887e-02
 2.3603199050e-02
 2.3640776053e-02
 2.3678397760e-02
 2.3716062307e-02
 2.3753769696e-02
 2.3791519925e-02
 2.3829314858e-02
 2.3867154494e-02
 2.3905036971e-02
 2.3942962289e-02
 2.3980932310e-02
 2.4018945172e-02
 2.4057002738e-02
 2.4095105007e-02
 2.4133250117e-02
 2.4171439931e-02
 2.4209672585e-02
 2.4247951806e-02
 2.4286273867e-02
 2.4324638769e-02
 2.4363050237e-02
 2.4401504546e-02
 2.4440005422e-02
 2.4478549138e-02
 2.4517137557e-02
 2.4555770680e-02
 2.4594448507e-02
 2.4633169174e-02
 2.4671936408e-02
 2.4710748345e-02
 2.4749604985e-02
 2.4788506329e-02
 2.4827454239e-02
 2.4866444990e-02
 2.4905480444e-02
 2.4944562465e-02
 2.4983689189e-02
 2.5022860616e-02
 2.5062078610e-02
 2.5101341307e-02
 2.5140648708e-02
 2.5180002674e-02
 2.5219401345e-02
 2.5258844718e-02
 2.5298334658e-02
 2.5337869301e-02
 2.5377450511e-02
 2.5417078286e-02
 2.5456750765e-02
 2.5496467948e-02
 2.5536233559e-02
 2.5576043874e-02
 2.5615898892e-02
 2.5655802339e-02
 2.5695750490e-02
 2.5735743344e-02
 2.5775784627e-02
 2.5815872476e-02
 2.5856005028e-02
 2.5896184146e-02
 2.5936409831e-02
 2.5976682082e-02
 2.6017000899e-02
 2.6057366282e-02
 2.6097778231e-02
 2.6138238609e-02
 2.6178743690e-02
 2.6219295338e-02
 2.6259895414e-02
 2.6300540194e-02
 2.6341233402e-02
 2.6381973177e-02
 2.6422761381e-02
 2.6463596150e-02
 2.6504477486e-02
 2.6545405388e-02
 2.6586381719e-02
 2.6627404615e-02
 2.6668474078e-02
 2.6709591970e-02
 2.6750758290e-02
 2.6791971177e-02
 2.6833232492e-02
 2.6874540374e-02
 2.6915896684e-02
 2.6957299560e-02
 2.6998750865e-02
 2.7040250599e-02
 2.7081798762e-02
 2.7123393491e-02
 2.7165036649e-02
 2.7206728235e-02
 2.7248468250e-02
 2.7290256694e-02
 2.7332093567e-02
 2.7373977005e-02
 2.7415910736e-02
 2.7457891032e-02
 2.7499921620e-02
 2.7542000636e-02
 2.7584126219e-02
 2.7626302093e-02
 2.7668526396e-02
 2.7710800990e-02
 2.7753122151e-02
 2.7795493603e-02
 2.7837913483e-02
 2.7880381793e-02
 2.7922900394e-02
 2.7965467423e-02
 2.8008082882e-02
 2.8050748631e-02
 2.8093462810e-02
 2.8136227280e-02
 2.8179040179e-02
 2.8221903369e-02
 2.8264814988e-02
 2.8307776898e-02
 2.8350789100e-02
 2.8393849730e-02
 2.8436960652e-02
 2.8480121866e-02
 2.8523333371e-02
 2.8566593304e-02
 2.8609903529e-02
 2.8653264046e-02
 2.8696674854e-02
 2.8740135953e-02
 2.8783647344e-02
 2.8827207163e-02
 2.8870819137e-02
 2.8914481401e-02
 2.8958193958e-02
 2.9001956806e-02
 2.9045769945e-02
 2.9089633375e-02
 2.9133548960e-02
 2.9177512974e-02
 2.9221529141e-02
 2.9265597463e-02
 2.9309714213e-02
 2.9353883117e-02
 2.9398104176e-02
 2.9442375526e-02
 2.9486697167e-02
 2.9531070963e-02
 2.9575495049e-02
 2.9619971290e-02
 2.9664497823e-02
 2.9709076509e-02
 2.9753707349e-02
 2.9798388481e-02
 2.9843121767e-02
 2.9887907207e-02
 2.9932742938e-02
 2.9977632686e-02
 3.0022572726e-02
 3.0067564920e-02
 3.0112609267e-02
 3.0157705769e-02
 3.0202854425e-02
 3.0248055235e-02
 3.0293306336e-02
 3.0338611454e-02
 3.0383968726e-02
 3.0429380015e-02
 3.0474841595e-02
 3.0520355329e-02
 3.0565923080e-02
 3.0611542985e-02
 3.0657216907e-02
 3.0702941120e-02
 3.0748719350e-02
 3.0794551596e-02
 3.0840434134e-02
 3.0886372551e-02
 3.0932361260e-02
 3.0978405848e-02
 3.1024500728e-02
 3.1070651487e-02
 3.1116854399e-02
 3.1163109466e-02
 3.1209420413e-02
 3.1255781651e-02
 3.1302198768e-02
 3.1348671764e-02
 3.1395193189e-02
 3.1441770494e-02
 3.1488403678e-02
 3.1535089016e-02
 3.1581830233e-02
 3.1628623605e-02
 3.1675469130e-02
 3.1722370535e-02
 3.1769327819e-02
 3.1816337258e-02
 3.1863402575e-02
 3.1910520047e-02
 3.1957693398e-02
 3.2004918903e-02
 3.2052204013e-02
 3.2099537551e-02
 3.2146930695e-02
 3.2194375992e-02
 3.2241877168e-02
 3.2289434224e-02
 3.2337043434e-02
 3.2384708524e-02
 3.2432429492e-02
 3.2480206341e-02
