aces_1.1/luts/REDLog3G10_to_linear.spi1d
Version 1
From 0.000000 1.000000
Length 4096
Components 1
{
         -0.00999999977648
         -0.00998390652239
         -0.00996777229011
         -0.00995159801096
         -0.00993538275361
         -0.00991912651807
         -0.00990283023566
         -0.00988649204373
         -0.00987011380494
         -0.00985369365662
         -0.00983723253012
         -0.00982073042542
         -0.0098041864112
         -0.00978760141879
         -0.00977097451687
         -0.00975430570543
         -0.00973759591579
         -0.00972084328532
         -0.00970404874533
         -0.00968721229583
         -0.00967033300549
         -0.00965341180563
         -0.00963644869626
         -0.00961944181472
         -0.00960239302367
         -0.00958530139178
         -0.00956816691905
         -0.00955098867416
         -0.00953376851976
         -0.00951650366187
         -0.00949919689447
         -0.00948184542358
         -0.00946445111185
         -0.00944701302797
         -0.00942953117192
         -0.00941200554371
         -0.00939443614334
         -0.00937682203948
         -0.00935916416347
         -0.00934146158397
         -0.00932371523231
         -0.00930592417717
         -0.00928808748722
         -0.00927020702511
         -0.00925228185952
         -0.00923431105912
         -0.00921629555523
         -0.00919823441654
         -0.00918012764305
         -0.00916197616607
         -0.00914377905428
         -0.00912553537637
         -0.00910724699497
         -0.00908891204745
         -0.00907053146511
         -0.00905210431665
         -0.00903363153338
         -0.00901511218399
         -0.00899654626846
         -0.00897793378681
         -0.0089592738077
         -0.00894056819379
         -0.00892181508243
         -0.00890301447362
         -0.00888416729867
         -0.00886527262628
         -0.00884633045644
         -0.00882734078914
         -0.00880830362439
         -0.00878921803087
         -0.0087700849399
         -0.00875090435147
         -0.00873167533427
         -0.0087123978883
         -0.00869307201356
         -0.00867369771004
         -0.00865427404642
         -0.00863480288535
         -0.00861528143287
         -0.00859571248293
         -0.00857609324157
         -0.00855642557144
         -0.00853670760989
         -0.00851694121957
         -0.00849712453783
         -0.00847725849599
         -0.00845734216273
         -0.00843737646937
         -0.00841735955328
         -0.00839729327708
         -0.00837717670947
         -0.00835700891912
         -0.00833679083735
         -0.00831652246416
         -0.00829620286822
         -0.00827583204955
         -0.00825541093946
         -0.0082349376753
         -0.0082144131884
         -0.00819383747876
         -0.00817320961505
         -0.0081525305286
         -0.00813179928809
         -0.00811101589352
         -0.00809018034488
         -0.00806929264218
         -0.00804835278541
         -0.00802735984325
         -0.00800631381571
         -0.00798521563411
         -0.00796406436712
         -0.00794286001474
         -0.00792160257697
         -0.00790029205382
         -0.00787892751396
         -0.00785750895739
         -0.00783603731543
         -0.00781451165676
         -0.00779293198138
         -0.00777129782364
         -0.00774960964918
         -0.00772786699235
         -0.00770606985316
         -0.00768421776593
         -0.00766231119633
         -0.00764034921303
         -0.00761833228171
         -0.00759625993669
         -0.00757413217798
         -0.00755194900557
         -0.00752971041948
         -0.00750741548836
         -0.00748506514356
         -0.00746265845373
         -0.00744019541889
         -0.00741767603904
         -0.00739509984851
         -0.00737246731296
         -0.00734977796674
         -0.00732703180984
         -0.0073042283766
         -0.00728136766702
         -0.0072584496811
         -0.00723547395319
         -0.00721244048327
         -0.00718934973702
         -0.00716620031744
         -0.00714299315587
         -0.00711972778663
         -0.00709640420973
         -0.00707302195951
         -0.00704958057031
         -0.00702608097345
         -0.00700252177194
         -0.00697890389711
         -0.00695522641763
         -0.00693148979917
         -0.00690769357607
         -0.00688383728266
         -0.0068599213846
         -0.00683594541624
         -0.00681190937757
         -0.00678781280294
         -0.00676365569234
         -0.00673943804577
         -0.00671515986323
         -0.00669082021341
         -0.00666641956195
         -0.00664195790887
         -0.0066174347885
         -0.00659285020083
         -0.00656820368022
         -0.00654349569231
         -0.0065187253058
         -0.00649389298633
         -0.00646899780259
         -0.00644404068589
         -0.00641902070493
         -0.00639393785968
         -0.00636879215017
         -0.00634358357638
         -0.006318311207
         -0.00629297597334
         -0.00626757647842
         -0.00624211365357
         -0.00621658703312
         -0.00619099615142
         -0.00616534100845
         -0.00613962113857
         -0.00611383700743
         -0.00608798861504
         -0.0060620745644
         -0.00603609578684
         -0.0060100518167
         -0.00598394265398
         -0.00595776783302
         -0.00593152688816
         -0.00590522075072
         -0.00587884802371
         -0.00585240963846
         -0.00582590419799
         -0.00579933263361
         -0.00577269447967
         -0.00574598927051
         -0.00571921700612
         -0.0056923776865
         -0.005665470846
         -0.00563849648461
         -0.00561145460233
         -0.00558434473351
         -0.00555716641247
         -0.00552992057055
         -0.00550260581076
         -0.00547522259876
         -0.00544777093455
         -0.00542024988681
         -0.0053926599212
         -0.00536500103772
         -0.00533727230504
         -0.00530947418883
         -0.00528160622343
         -0.00525366840884
         -0.00522566027939
         -0.00519758183509
         -0.00516943307593
         -0.00514121353626
         -0.00511292321607
         -0.00508456211537
         -0.00505612930283
         -0.00502762570977
         -0.00499904993922
         -0.00497040292248
         -0.00494168372825
         -0.00491289235651
         -0.00488402927294
         -0.00485509308055
         -0.00482608471066
         -0.00479700323194
         -0.00476784911007
         -0.00473862141371
         -0.00470932060853
         -0.0046799457632
         -0.00465049780905
         -0.00462097581476
         -0.00459137931466
         -0.00456170877442
         -0.00453196372837
         -0.00450214417651
         -0.00447224965319
         -0.0044422801584
         -0.00441223522648
         -0.00438211485744
         -0.00435191905126
         -0.00432164734229
         -0.00429129973054
         -0.00426087621599
         -0.00423037586734
         -0.00419979915023
         -0.00416914559901
         -0.00413841521367
         -0.00410760752857
         -0.00407672300935
         -0.00404576025903
         -0.00401472020894
         -0.00398360192776
         -0.00395240588114
         -0.00392113160342
         -0.00388977839611
         -0.00385834672488
         -0.00382683612406
         -0.00379524636082
         -0.00376357743517
         -0.00373182888143
         -0.00370000069961
         -0.00366809265688
         -0.00363610452041
         -0.00360403605737
         -0.00357188703492
         -0.00353965722024
         -0.00350734661333
         -0.00347495498136
         -0.00344248209149
         -0.00340992747806
         -0.00337729137391
         -0.00334457308054
         -0.00331177283078
         -0.00327889015898
         -0.00324592506513
         -0.00321287708357
         -0.0031797462143
         -0.00314653222449
         -0.00311323464848
         -0.0030798537191
         -0.00304638897069
         -0.00301284017041
         -0.00297920708545
         -0.00294548971578
         -0.00291168759577
         -0.0028778007254
         -0.00284382863902
         -0.00280977133662
         -0.00277562858537
         -0.00274140015244
         -0.00270708580501
         -0.00267268531024
         -0.00263819843531
         -0.00260362494737
         -0.0025689646136
         -0.002534217434
         -0.00249938294291
         -0.00246446114033
         -0.0024294515606
         -0.00239435397089
         -0.00235916860402
         -0.0023238947615
         -0.00228853221051
         -0.00225308095105
         -0.00221754098311
         -0.00218191137537
         -0.0021461925935
         -0.00211038417183
         -0.00207448587753
         -0.00203849724494
         -0.00200241850689
         -0.00196624896489
         -0.00192998885177
         -0.00189363770187
         -0.00185719516594
         -0.00182066124398
         -0.00178403558675
         -0.00174731807783
         -0.00171050825156
         -0.00167360610794
         -0.00163661129773
         -0.0015995237045
         -0.00156234297901
         -0.00152506888844
         -0.00148770119995
         -0.00145023979712
         -0.0014126842143
         -0.00137503445148
         -0.00133729027584
         -0.00129945122171
         -0.00126151717268
         -0.00122348801233
         -0.001185363275
         -0.00114714296069
         -0.00110882660374
         -0.00107041408774
         -0.00103190517984
         -0.000993299530819
         -0.000954597082455
         -0.000915797427297
         -0.000876900332514
         -0.000837905623484
         -0.000798813067377
         -0.000759622373153
         -0.000720333249774
         -0.000680945580825
         -0.000641458958853
         -0.000601873267442
         -0.000562188215554
         -0.00052240351215
         -0.000482518953504
         -0.000442534248577
         -0.000402449222747
         -0.000362263526767
         -0.000321976986015
         -0.000281589309452
         -0.000241100264248
         -0.000200509573915
         -0.00015981697652
         -0.000119022246508
         -7.81251146691e-05
         -3.71253154299e-05
         3.97739859181e-06
         4.51832893305e-05
         8.64926187205e-05
         0.000127905645058
         0.000169422623003
         0.000211043821764
         0.000252769503277
         0.000294599914923
         0.00033653533319
         0.000378576020012
         0.000420722237322
         0.000462974247057
         0.00050533231115
         0.000547796720639
         0.000590367708355
         0.000633045565337
         0.000675830582622
         0.000718722993042
         0.000761723029427
         0.000804831041023
         0.000848047260661
         0.000891371921171
         0.000934805371799
         0.000978347845376
         0.00102199963294
         0.00106576096732
         0.00110963219777
         0.00115361355711
         0.00119770527817
         0.00124190771021
         0.00128622108605
         0.00133064563852
         0.00137518171687
         0.00141982967034
         0.00146458973177
         0.00150946201757
         0.0015544469934
         0.00159954489209
         0.00164475606289
         0.00169008062221
         0.00173551903572
         0.00178107153624
         0.0018267382402
         0.00187251972966
         0.00191841600463
         0.00196442753077
         0.00201055477373
         0.0020567975007
         0.00210315641016
         0.00214963173494
         0.00219622370787
         0.00224293256178
         0.00228975876234
         0.00233670254238
         0.00238376390189
         0.0024309437722
         0.00247824192047
         0.00252565857954
         0.0025731944479
         0.00262084975839
         0.00266862451099
         0.00271651917137
         0.0027645342052
         0.0028126698453
         0.00286092609167
         0.00290930364281
         0.00295780249871
         0.00300642312504
         0.00305516575463
         0.00310403085314
         0.00315301865339
         0.0032021291554
         0.00325136329047
         0.00330072082579
         0.00335020222701
         0.00339980772696
         0.00344953802414
         0.00349939311855
         0.003549373243
         0.00359947886318
         0.0036497102119
         0.00370006775483
         0.00375055149198
         0.00380116212182
         0.00385189987719
         0.0039027647581
         0.00395375769585
         0.00400487845764
         0.00405612727627
         0.00410750508308
         0.00415901187807
         0.00421064766124
         0.0042624133639
         0.00431430852041
         0.00436633452773
         0.00441849092022
         0.00447077816352
         0.00452319672331
         0.00457574659958
         0.00462842872366
         0.00468124309555
         0.0047341901809
         0.00478726951405
         0.00484048295766
         0.00489382911474
         0.00494730984792
         0.00500092469156
         0.00505467411131
         0.00510855810717
         0.00516257761046
         0.00521673262119
         0.00527102407068
         0.0053254510276
         0.0053800153546
         0.00543471612036
         0.0054895542562
         0.00554453022778
         0.0055996440351
         0.00565489660949
         0.00571028748527
         0.00576581712812
         0.00582148693502
         0.00587729597464
         0.00593324517831
         0.00598933454603
         0.00604556500912
         0.00610193656757
         0.00615844968706
         0.00621510483325
         0.00627190200612
         0.00632884167135
         0.00638592476025
         0.00644315034151
         0.00650052027777
         0.0065580336377
         0.0066156918183
         0.00667349435389
         0.00673144264147
         0.0067895357497
         0.00684777507558
         0.00690616015345
         0.00696469191462
         0.00702337082475
         0.00708219688386
         0.00714117102325
         0.00720029277727
         0.00725956307724
         0.00731898192316
         0.00737855024636
         0.00743826758116
         0.00749813532457
         0.00755815347657
         0.0076183215715
         0.00767864147201
         0.00773911224678
         0.00779973529279
         0.00786050967872
         0.00792143773288
         0.00798251852393
         0.00804375205189
         0.00810513924807
         0.0081666810438
         0.00822837743908
         0.00829022843391
         0.00835223402828
         0.00841439608485
         0.00847671367228
         0.00853918865323
         0.00860181916505
         0.00866460800171
         0.00872755423188
         0.00879065785557
         0.0088539198041
         0.00891734100878
         0.00898092146963
         0.00904466211796
         0.00910856202245
         0.00917262211442
         0.0092368433252
         0.00930122565478
         0.00936577003449
         0.00943047553301
         0.00949534401298
         0.00956037547439
         0.00962556991726
         0.0096909282729
         0.00975645054132
         0.00982213765383
         0.00988798961043
         0.00995400641114
         0.0100201889873
         0.0100865373388
         0.0101530533284
         0.0102197350934
         0.0102865844965
         0.010353602469
         0.0104207880795
         0.0104881422594
         0.01055566594
         0.0106233591214
         0.0106912218034
         0.0107592549175
         0.0108274593949
         0.0108958343044
         0.0109643815085
         0.011033100076
         0.0111019918695
         0.0111710559577
         0.0112402932718
         0.0113097047433
         0.0113792913035
         0.0114490510896
         0.0115189868957
         0.0115890977904
         0.0116593847051
         0.0117298485711
         0.0118004893884
         0.011871307157
         0.0119423018768
         0.012013476342
         0.0120848286897
         0.0121563598514
         0.0122280707583
         0.0122999623418
         0.0123720336705
         0.0124442856759
         0.0125167202204
         0.0125893354416
         0.012662133202
         0.0127351144329
         0.012808278203
         0.0128816254437
         0.0129551570863
         0.0130288731307
         0.0131027745083
         0.0131768612191
         0.0132511341944
         0.0133255934343
         0.0134002389386
         0.0134750725701
         0.0135500943288
         0.0136253032833
         0.0137007022277
         0.0137762892991
         0.0138520672917
         0.0139280343428
         0.0140041932464
         0.014080543071
         0.0141570838168
         0.0142338173464
         0.0143107427284
         0.0143878618255
         0.0144651746377
         0.014542681165
         0.0146203823388
         0.0146982790902
         0.0147763704881
         0.0148546583951
         0.0149331428111
         0.0150118246675
         0.0150907030329
         0.0151697797701
         0.0152490558103
         0.0153285302222
         0.0154082039371
         0.0154880778864
         0.01556815207
         0.0156484283507
         0.0157289039344
         0.0158095825464
         0.0158904641867
         0.0159715488553
         0.0160528365523
         0.0161343291402
         0.0162160266191
         0.0162979271263
         0.0163800343871
         0.0164623484015
         0.0165448691696
         0.0166275948286
         0.0167105309665
         0.016793673858
         0.0168770253658
         0.0169605854899
         0.0170443579555
         0.0171283371747
         0.017212530598
         0.0172969326377
         0.0173815488815
         0.0174663756043
         0.0175514165312
         0.0176366697997
         0.0177221372724
         0.0178078189492
         0.0178937166929
         0.0179798305035
         0.0180661603808
         0.0181527063251
         0.0182394683361
         0.0183264501393
         0.0184136498719
         0.0185010675341
         0.0185887049884
         0.0186765622348
         0.0187646411359
         0.0188529398292
         0.0189414620399
         0.0190302040428
         0.0191191695631
         0.0192083586007
         0.0192977730185
         0.0193874109536
         0.0194772724062
         0.0195673611015
         0.0196576751769
         0.0197482164949
         0.0198389850557
         0.0199299808592
         0.020021205768
         0.0201126579195
         0.0202043410391
         0.0202962551266
         0.0203883983195
         0.020480774343
         0.0205733813345
         0.0206662211567
         0.0207592938095
         0.020852599293
         0.0209461413324
         0.0210399162024
         0.0211339276284
         0.0212281737477
         0.0213226564229
         0.0214173775166
         0.0215123351663
         0.0216075330973
         0.0217029675841
         0.0217986423522
         0.0218945574015
         0.0219907145947
         0.0220871120691
         0.0221837516874
         0.0222806334496
         0.0223777592182
         0.0224751271307
         0.0225727409124
         0.0226705987006
         0.0227687042207
         0.0228670537472
         0.0229656510055
         0.0230644959956
         0.0231635887176
         0.023262931034
         0.0233625210822
         0.0234623625875
         0.0235624536872
         0.023662796244
         0.0237633921206
         0.0238642394543
         0.0239653401077
         0.0240666940808
         0.0241683013737
         0.0242701657116
         0.0243722852319
         0.0244746599346
         0.024577293545
         0.0246801842004
         0.0247833319008
         0.0248867403716
         0.02499040775
         0.0250943340361
         0.0251985229552
         0.0253029726446
         0.0254076849669
         0.0255126599222
         0.0256178975105
         0.0257233995944
         0.0258291680366
         0.0259352009743
         0.0260414984077
         0.026148064062
         0.0262548979372
         0.0263620000333
         0.0264693703502
         0.0265770107508
         0.0266849193722
         0.0267931018025
         0.0269015543163
         0.0270102787763
         0.0271192751825
         0.0272285472602
         0.0273380931467
         0.027447912842
         0.0275580100715
         0.0276683811098
         0.0277790315449
         0.0278899595141
         0.0280011650175
         0.0281126499176
         0.0282244142145
         0.0283364597708
         0.0284487865865
         0.0285613946617
         0.0286742877215
         0.0287874620408
         0.0289009194821
         0.0290146637708
         0.0291286930442
         0.0292430091649
         0.0293576102704
         0.0294725000858
         0.0295876786113
         0.0297031458467
         0.0298189036548
         0.0299349520355
         0.0300512909889
         0.0301679223776
         0.0302848462015
         0.0304020643234
         0.0305195748806
         0.030637383461
         0.0307554844767
         0.0308738835156
         0.0309925805777
         0.0311115738004
         0.031230866909
         0.0313504599035
         0.0314703509212
         0.0315905436873
         0.0317110419273
         0.0318318381906
         0.0319529399276
         0.0320743434131
         0.0321960523725
         0.0323180668056
         0.0324403904378
         0.0325630195439
         0.0326859541237
         0.0328091979027
         0.032932754606
         0.0330566167831
         0.0331807918847
         0.0333052799106
         0.0334300808609
         0.0335551910102
         0.0336806178093
         0.033806361258
         0.0339324176311
         0.0340587906539
         0.0341854840517
         0.0343124903738
         0.0344398207963
         0.0345674678683
         0.0346954353154
         0.0348237231374
         0.0349523350596
         0.0350812710822
         0.0352105274796
         0.0353401079774
         0.0354700163007
         0.0356002487242
         0.0357308089733
         0.0358616970479
         0.0359929166734
         0.0361244603992
         0.036256339401
         0.0363885462284
         0.0365210846066
         0.0366539545357
         0.0367871597409
         0.0369207002223
         0.0370545759797
         0.0371887870133
         0.0373233370483
         0.0374582223594
         0.037593446672
         0.0377290099859
         0.0378649123013
         0.0380011573434
         0.0381377451122
         0.0382746756077
         0.0384119488299
         0.0385495685041
         0.038687530905
         0.0388258434832
         0.0389644987881
         0.0391035042703
         0.0392428599298
         0.0393825620413
         0.0395226180553
         0.0396630242467
         0.0398037843406
         0.0399448946118
         0.0400863625109
         0.0402281843126
         0.0403703600168
         0.0405128933489
         0.0406557880342
         0.040799036622
         0.0409426502883
         0.0410866178572
         0.0412309505045
         0.0413756482303
         0.041520703584
         0.0416661277413
         0.0418119132519
         0.0419580675662
         0.0421045869589
         0.0422514751554
         0.0423987321556
         0.0425463579595
         0.0426943525672
         0.0428427234292
         0.0429914630949
         0.0431405752897
         0.0432900637388
         0.0434399284422
         0.0435901694
         0.0437407828867
         0.0438917800784
         0.0440431535244
         0.04419490695
         0.0443470440805
         0.0444995574653
         0.0446524582803
         0.0448057428002
         0.044959411025
         0.0451134629548
         0.04526790604
         0.04542273283
         0.0455779507756
         0.0457335561514
         0.0458895526826
         0.0460459440947
         0.0462027229369
         0.0463599003851
         0.0465174689889
         0.0466754324734
         0.046833794564
         0.0469925552607
         0.0471517108381
         0.0473112687469
         0.0474712252617
         0.0476315841079
         0.0477923490107
         0.0479535125196
         0.0481150820851
