aces_1.1/luts/S-Log3_to_linear.spi1d
Version 1
From 0 1
Length 4096
Components 1
{
 -1.4023696072e-02
 -1.3986818492e-02
 -1.3949940912e-02
 -1.3913063332e-02
 -1.3876186684e-02
 -1.3839309104e-02
 -1.3802431524e-02
 -1.3765553944e-02
 -1.3728676364e-02
 -1.3691798784e-02
 -1.3654921204e-02
 -1.3618044555e-02
 -1.3581166975e-02
 -1.3544289395e-02
 -1.3507411815e-02
 -1.3470534235e-02
 -1.3433656655e-02
 -1.3396780007e-02
 -1.3359902427e-02
 -1.3323024847e-02
 -1.3286147267e-02
 -1.3249269687e-02
 -1.3212392107e-02
 -1.3175515458e-02
 -1.3138637878e-02
 -1.3101760298e-02
 -1.3064882718e-02
 -1.3028005138e-02
 -1.2991127558e-02
 -1.2954250909e-02
 -1.2917373329e-02
 -1.2880495749e-02
 -1.2843618169e-02
 -1.2806740589e-02
 -1.2769863009e-02
 -1.2732986361e-02
 -1.2696108781e-02
 -1.2659231201e-02
 -1.2622353621e-02
 -1.2585476041e-02
 -1.2548598461e-02
 -1.2511721812e-02
 -1.2474844232e-02
 -1.2437966652e-02
 -1.2401089072e-02
 -1.2364211492e-02
 -1.2327333912e-02
 -1.2290457264e-02
 -1.2253579684e-02
 -1.2216702104e-02
 -1.2179824524e-02
 -1.2142946944e-02
 -1.2106069364e-02
 -1.2069192715e-02
 -1.2032315135e-02
 -1.1995437555e-02
 -1.1958559975e-02
 -1.1921682395e-02
 -1.1884804815e-02
 -1.1847928166e-02
 -1.1811050586e-02
 -1.1774173006e-02
 -1.1737295426e-02
 -1.1700417846e-02
 -1.1663540266e-02
 -1.1626663618e-02
 -1.1589786038e-02
 -1.1552908458e-02
 -1.1516030878e-02
 -1.1479153298e-02
 -1.1442275718e-02
 -1.1405399069e-02
 -1.1368521489e-02
 -1.1331643909e-02
 -1.1294766329e-02
 -1.1257888749e-02
 -1.1221011169e-02
 -1.1184134521e-02
 -1.1147256941e-02
 -1.1110379361e-02
 -1.1073501781e-02
 -1.1036624201e-02
 -1.0999746621e-02
 -1.0962869972e-02
 -1.0925992392e-02
 -1.0889114812e-02
 -1.0852237232e-02
 -1.0815359652e-02
 -1.0778482072e-02
 -1.0741604492e-02
 -1.0704727843e-02
 -1.0667850263e-02
 -1.0630972683e-02
 -1.0594095103e-02
 -1.0557217523e-02
 -1.0520339943e-02
 -1.0483463295e-02
 -1.0446585715e-02
 -1.0409708135e-02
 -1.0372830555e-02
 -1.0335952975e-02
 -1.0299075395e-02
 -1.0262198746e-02
 -1.0225321166e-02
 -1.0188443586e-02
 -1.0151566006e-02
 -1.0114688426e-02
 -1.0077810846e-02
 -1.0040934198e-02
 -1.0004056618e-02
 -9.9671790376e-03
 -9.9303014576e-03
 -9.8934238777e-03
 -9.8565462977e-03
 -9.8196696490e-03
 -9.7827920690e-03
 -9.7459144890e-03
 -9.7090369090e-03
 -9.6721593291e-03
 -9.6352817491e-03
 -9.5984051004e-03
 -9.5615275204e-03
 -9.5246499404e-03
 -9.4877723604e-03
 -9.4508947805e-03
 -9.4140172005e-03
 -9.3771405518e-03
 -9.3402629718e-03
 -9.3033853918e-03
 -9.2665078118e-03
 -9.2296302319e-03
 -9.1927526519e-03
 -9.1558760032e-03
 -9.1189984232e-03
 -9.0821208432e-03
 -9.0452432632e-03
 -9.0083656833e-03
 -8.9714881033e-03
 -8.9346114546e-03
 -8.8977338746e-03
 -8.8608562946e-03
 -8.8239787146e-03
 -8.7871011347e-03
 -8.7502235547e-03
 -8.7133469060e-03
 -8.6764693260e-03
 -8.6395917460e-03
 -8.6027141660e-03
 -8.5658365861e-03
 -8.5289590061e-03
 -8.4920823574e-03
 -8.4552047774e-03
 -8.4183271974e-03
 -8.3814496174e-03
 -8.3445720375e-03
 -8.3076944575e-03
 -8.2708178088e-03
 -8.2339402288e-03
 -8.1970626488e-03
 -8.1601850688e-03
 -8.1233074889e-03
 -8.0864299089e-03
 -8.0495532602e-03
 -8.0126756802e-03
 -7.9757981002e-03
 -7.9389205202e-03
 -7.9020429403e-03
 -7.8651653603e-03
 -7.8282877803e-03
 -7.7914106660e-03
 -7.7545335516e-03
 -7.7176559716e-03
 -7.6807783917e-03
 -7.6439012773e-03
 -7.6070236973e-03
 -7.5701461174e-03
 -7.5332690030e-03
 -7.4963914230e-03
 -7.4595138431e-03
 -7.4226367287e-03
 -7.3857591487e-03
 -7.3488815688e-03
 -7.3120044544e-03
 -7.2751268744e-03
 -7.2382492945e-03
 -7.2013721801e-03
 -7.1644946001e-03
 -7.1276170202e-03
 -7.0907399058e-03
 -7.0538623258e-03
 -7.0169847459e-03
 -6.9801076315e-03
 -6.9432300515e-03
 -6.9063524716e-03
 -6.8694753572e-03
 -6.8325977772e-03
 -6.7957201973e-03
 -6.7588430829e-03
 -6.7219655029e-03
 -6.6850879230e-03
 -6.6482108086e-03
 -6.6113332286e-03
 -6.5744556487e-03
 -6.5375785343e-03
 -6.5007009543e-03
 -6.4638233744e-03
 -6.4269457944e-03
 -6.3900686800e-03
 -6.3531911001e-03
 -6.3163135201e-03
 -6.2794364057e-03
 -6.2425588258e-03
 -6.2056812458e-03
 -6.1688041314e-03
 -6.1319265515e-03
 -6.0950489715e-03
 -6.0581718571e-03
 -6.0212942772e-03
 -5.9844166972e-03
 -5.9475395828e-03
 -5.9106620029e-03
 -5.8737844229e-03
 -5.8369073085e-03
 -5.8000297286e-03
 -5.7631521486e-03
 -5.7262750342e-03
 -5.6893974543e-03
 -5.6525198743e-03
 -5.6156427599e-03
 -5.5787651800e-03
 -5.5418876000e-03
 -5.5050104856e-03
 -5.4681329057e-03
 -5.4312553257e-03
 -5.3943782113e-03
 -5.3575006314e-03
 -5.3206230514e-03
 -5.2837459370e-03
 -5.2468683571e-03
 -5.2099907771e-03
 -5.1731136627e-03
 -5.1362360828e-03
 -5.0993585028e-03
 -5.0624813884e-03
 -5.0256038085e-03
 -4.9887262285e-03
 -4.9518491141e-03
 -4.9149715342e-03
 -4.8780939542e-03
 -4.8412168398e-03
 -4.8043392599e-03
 -4.7674616799e-03
 -4.7305845656e-03
 -4.6937069856e-03
 -4.6568294056e-03
 -4.6199522913e-03
 -4.5830747113e-03
 -4.5461971313e-03
 -4.5093200170e-03
 -4.4724424370e-03
 -4.4355648570e-03
 -4.3986877427e-03
 -4.3618101627e-03
 -4.3249325827e-03
 -4.2880554684e-03
 -4.2511778884e-03
 -4.2143003084e-03
 -4.1774231941e-03
 -4.1405456141e-03
 -4.1036680341e-03
 -4.0667909198e-03
 -4.0299133398e-03
 -3.9930357598e-03
 -3.9561586455e-03
 -3.9192810655e-03
 -3.8824034855e-03
 -3.8455261383e-03
 -3.8086487912e-03
 -3.7717712112e-03
 -3.7348938640e-03
 -3.6980165169e-03
 -3.6611389369e-03
 -3.6242615897e-03
 -3.5873842426e-03
 -3.5505066626e-03
 -3.5136293154e-03
 -3.4767519683e-03
 -3.4398743883e-03
 -3.4029970411e-03
 -3.3661196940e-03
 -3.3292421140e-03
 -3.2923647668e-03
 -3.2554874197e-03
 -3.2186098397e-03
 -3.1817324925e-03
 -3.1448551454e-03
 -3.1079775654e-03
 -3.0711002182e-03
 -3.0342228711e-03
 -2.9973452911e-03
 -2.9604679439e-03
 -2.9235905968e-03
 -2.8867130168e-03
 -2.8498356696e-03
 -2.8129580896e-03
 -2.7760807425e-03
 -2.7392033953e-03
 -2.7023258153e-03
 -2.6654484682e-03
 -2.6285711210e-03
 -2.5916935410e-03
 -2.5548161939e-03
 -2.5179388467e-03
 -2.4810612667e-03
 -2.4441839196e-03
 -2.4073065724e-03
 -2.3704289924e-03
 -2.3335516453e-03
 -2.2966742981e-03
 -2.2597967181e-03
 -2.2229193710e-03
 -2.1860420238e-03
 -2.1491644438e-03
 -2.1122870967e-03
 -2.0754097495e-03
 -2.0385321695e-03
 -2.0016548224e-03
 -1.9647774752e-03
 -1.9279000117e-03
 -1.8910225481e-03
 -1.8541450845e-03
 -1.8172677374e-03
 -1.7803902738e-03
 -1.7435128102e-03
 -1.7066353466e-03
 -1.6697579995e-03
 -1.6328805359e-03
 -1.5960030723e-03
 -1.5591257252e-03
 -1.5222482616e-03
 -1.4853707980e-03
 -1.4484934509e-03
 -1.4116159873e-03
 -1.3747385237e-03
 -1.3378611766e-03
 -1.3009837130e-03
 -1.2641062494e-03
 -1.2272289023e-03
 -1.1903514387e-03
 -1.1534739751e-03
 -1.1165966280e-03
 -1.0797191644e-03
 -1.0428417008e-03
 -1.0059642373e-03
 -9.6908689011e-04
 -9.3220942654e-04
 -8.9533202117e-04
 -8.5845455760e-04
 -8.2157715224e-04
 -7.8469974687e-04
 -7.4782228330e-04
 -7.1094487794e-04
 -6.7406747257e-04
 -6.3719000900e-04
 -6.0031260364e-04
 -5.6343519827e-04
 -5.2655773470e-04
 -4.8968032934e-04
 -4.5280289487e-04
 -4.1592546040e-04
 -3.7904802593e-04
 -3.4217062057e-04
 -3.0529318610e-04
 -2.6841575163e-04
 -2.3153833172e-04
 -1.9466089725e-04
 -1.5778347733e-04
 -1.2090605014e-04
 -8.4028622950e-05
 -4.7151195758e-05
 -1.0273769476e-05
 2.6603656806e-05
 6.3481085817e-05
 1.0035851301e-04
 1.3723594020e-04
 1.7411336012e-04
 2.1099079459e-04
 2.4786821450e-04
 2.8474564897e-04
 3.2162308344e-04
 3.5850048880e-04
 3.9537792327e-04
 4.3225535774e-04
 4.6913279220e-04
 5.0601019757e-04
 5.4288760293e-04
 5.7976506650e-04
 6.1664247187e-04
 6.5351993544e-04
 6.9039734080e-04
 7.2727474617e-04
 7.6415220974e-04
 8.0102961510e-04
 8.3790702047e-04
 8.7478448404e-04
 9.1166188940e-04
 9.4853935298e-04
 9.8541670013e-04
 1.0222941637e-03
 1.0591716273e-03
 1.0960490908e-03
 1.1329264380e-03
 1.1698039016e-03
 1.2066813651e-03
 1.2435587123e-03
 1.2804361759e-03
 1.3173136394e-03
 1.3541909866e-03
 1.3910684502e-03
 1.4279459137e-03
 1.4648232609e-03
 1.5017007245e-03
 1.5385781880e-03
 1.5754555352e-03
 1.6123329988e-03
 1.6492104623e-03
 1.6860878095e-03
 1.7229652731e-03
 1.7598427366e-03
 1.7967200838e-03
 1.8335975474e-03
 1.8704750109e-03
 1.9073524745e-03
 1.9442298217e-03
 1.9811072852e-03
 2.0179846324e-03
 2.0548622124e-03
 2.0917395595e-03
 2.1286169067e-03
 2.1654944867e-03
 2.2023718338e-03
 2.2392491810e-03
 2.2761267610e-03
 2.3130041081e-03
 2.3498814553e-03
 2.3867590353e-03
 2.4236363824e-03
 2.4605137296e-03
 2.4973913096e-03
 2.5342686567e-03
 2.5711460039e-03
 2.6080235839e-03
 2.6449009310e-03
 2.6817782782e-03
 2.7186558582e-03
 2.7555332053e-03
 2.7924105525e-03
 2.8292881325e-03
 2.8661654796e-03
 2.9030430596e-03
 2.9399204068e-03
 2.9767977539e-03
 3.0136753339e-03
 3.0505526811e-03
 3.0874300282e-03
 3.1243076082e-03
 3.1611849554e-03
 3.1980623025e-03
 3.2349398825e-03
 3.2718172297e-03
 3.3086945768e-03
 3.3455721568e-03
 3.3824495040e-03
 3.4193268511e-03
 3.4562044311e-03
 3.4930817783e-03
 3.5299591254e-03
 3.5668367054e-03
 3.6037140526e-03
 3.6405913997e-03
 3.6774689797e-03
 3.7143463269e-03
 3.7512236740e-03
 3.7881012540e-03
 3.8249786012e-03
 3.8618559483e-03
 3.8987335283e-03
 3.9356108755e-03
 3.9724884555e-03
 4.0093655698e-03
 4.0462431498e-03
 4.0831207298e-03
 4.1199978441e-03
 4.1568754241e-03
 4.1937530041e-03
 4.2306301184e-03
 4.2675076984e-03
 4.3043852784e-03
 4.3412623927e-03
 4.3781399727e-03
 4.4150175527e-03
 4.4518946670e-03
 4.4887722470e-03
 4.5256498270e-03
 4.5625269413e-03
 4.5994045213e-03
 4.6362821013e-03
 4.6731592156e-03
 4.7100367956e-03
 4.7469143756e-03
 4.7837914899e-03
 4.8206690699e-03
 4.8575466499e-03
 4.8944237642e-03
 4.9313013442e-03
 4.9681789242e-03
 5.0050560385e-03
 5.0419336185e-03
 5.0788111985e-03
 5.1156887785e-03
 5.1525658928e-03
 5.1894434728e-03
 5.2263210528e-03
 5.2631981671e-03
 5.3000757471e-03
 5.3369533271e-03
 5.3738304414e-03
 5.4107080214e-03
 5.4475856014e-03
 5.4844627157e-03
 5.5213402957e-03
 5.5582178757e-03
 5.5950949900e-03
 5.6319725700e-03
 5.6688501500e-03
 5.7057272643e-03
 5.7426048443e-03
 5.7794824243e-03
 5.8163595386e-03
 5.8532371186e-03
 5.8901146986e-03
 5.9269918129e-03
 5.9638693929e-03
 6.0007469729e-03
 6.0376240872e-03
 6.0745016672e-03
 6.1113792472e-03
 6.1482563615e-03
 6.1851339415e-03
 6.2220115215e-03
 6.2588886358e-03
 6.2957662158e-03
 6.3326437958e-03
 6.3695209101e-03
 6.4063984901e-03
 6.4432760701e-03
 6.4801531844e-03
 6.5170307644e-03
 6.5539083444e-03
 6.5907854587e-03
 6.6276630387e-03
 6.6645406187e-03
 6.7014177330e-03
 6.7382953130e-03
 6.7751728930e-03
 6.8120500073e-03
 6.8489275873e-03
 6.8858051673e-03
 6.9226822816e-03
 6.9595598616e-03
 6.9964374416e-03
 7.0333145559e-03
 7.0701921359e-03
 7.1070697159e-03
 7.1439468302e-03
 7.1808244102e-03
 7.2177019902e-03
 7.2545791045e-03
 7.2914566845e-03
 7.3283342645e-03
 7.3652113788e-03
 7.4020889588e-03
 7.4389665388e-03
 7.4758436531e-03
 7.5127212331e-03
 7.5495988131e-03
 7.5864759274e-03
 7.6233535074e-03
 7.6602310874e-03
 7.6971082017e-03
 7.7339857817e-03
 7.7708633617e-03
 7.8077404760e-03
 7.8446185216e-03
 7.8814951703e-03
 7.9183727503e-03
 7.9552503303e-03
 7.9921279103e-03
 8.0290054902e-03
 8.0658830702e-03
 8.1027597189e-03
 8.1396372989e-03
 8.1765148789e-03
 8.2133924589e-03
 8.2502700388e-03
 8.2871476188e-03
 8.3240242675e-03
 8.3609018475e-03
 8.3977794275e-03
 8.4346570075e-03
 8.4715345874e-03
 8.5084121674e-03
 8.5452888161e-03
 8.5821663961e-03
 8.6190439761e-03
 8.6559215561e-03
 8.6927991360e-03
 8.7296767160e-03
 8.7665533647e-03
 8.8034309447e-03
 8.8403085247e-03
 8.8771861047e-03
 8.9140636846e-03
 8.9509412646e-03
 8.9878179133e-03
 9.0246954933e-03
 9.0615730733e-03
 9.0984506533e-03
 9.1353282332e-03
 9.1722058132e-03
 9.2090824619e-03
 9.2459600419e-03
 9.2828376219e-03
 9.3197152019e-03
 9.3565927818e-03
 9.3934703618e-03
 9.4303479418e-03
 9.4672245905e-03
 9.5041021705e-03
 9.5409797505e-03
 9.5778573304e-03
 9.6147349104e-03
 9.6516124904e-03
 9.6884891391e-03
 9.7253667191e-03
 9.7622442991e-03
 9.7991218790e-03
 9.8359994590e-03
 9.8728770390e-03
 9.9097536877e-03
 9.9466312677e-03
 9.9835088477e-03
 1.0020386428e-02
 1.0057264008e-02
 1.0094141588e-02
 1.0131018236e-02
 1.0167895816e-02
 1.0204773396e-02
 1.0241650976e-02
 1.0278528556e-02
 1.0315406136e-02
 1.0352282785e-02
 1.0389160365e-02
 1.0426037945e-02
 1.0462915525e-02
 1.0499793105e-02
 1.0536670685e-02
 1.0573547333e-02
 1.0610424913e-02
 1.0647302493e-02
 1.0684180073e-02
 1.0721057653e-02
 1.0757935233e-02
 1.0794811882e-02
 1.0831689462e-02
 1.0868567042e-02
 1.0905444622e-02
 1.0942322202e-02
 1.0979199782e-02
 1.1016076431e-02
 1.1052954011e-02
 1.1089831591e-02
 1.1126709171e-02
 1.1163586751e-02
 1.1200464331e-02
 1.1237340979e-02
 1.1280721053e-02
 1.1327583343e-02
 1.1374549940e-02
 1.1421618983e-02
 1.1468792334e-02
 1.1516069993e-02
 1.1563451029e-02
 1.1610936373e-02
 1.1658526957e-02
 1.1706221849e-02
 1.1754021980e-02
 1.1801927350e-02
 1.1849937961e-02
 1.1898053810e-02
 1.1946276762e-02
 1.1994604953e-02
 1.2043040246e-02
 1.2091581710e-02
 1.2140230276e-02
 1.2188985944e-02
 1.2237849645e-02
 1.2286819518e-02
 1.2335898355e-02
 1.2385085225e-02
 1.2434380129e-02
 1.2483783066e-02
 1.2533295900e-02
 1.2582916766e-02
 1.2632647529e-02
 1.2682488188e-02
 1.2732437812e-02
 1.2782497332e-02
 1.2832667679e-02
 1.2882947922e-02
 1.2933338992e-02
 1.2983841822e-02
 1.3034455478e-02
 1.3085179962e-02
 1.3136017136e-02
 1.3186965138e-02
 1.3238025829e-02
 1.3289199211e-02
 1.3340485282e-02
 1.3391884044e-02
 1.3443396427e-02
 1.3495021500e-02
 1.3546760194e-02
 1.3598613441e-02
 1.3650581241e-02
 1.3702662662e-02
 1.3754859567e-02
 1.3807170093e-02
 1.3859597035e-02
 1.3912139460e-02
 1.3964796439e-02
 1.4017570764e-02
 1.4070460573e-02
 1.4123466797e-02
 1.4176589437e-02
 1.4229829423e-02
 1.4283186756e-02
 1.4336661436e-02
 1.4390254393e-02
 1.4443964697e-02
 1.4497794211e-02
 1.4551741071e-02
 1.4605807140e-02
 1.4659992419e-02
 1.4714296907e-02
 1.4768721536e-02
 1.4823265374e-02
 1.4877929352e-02
 1.4932714403e-02
 1.4987619594e-02
 1.5042644925e-02
 1.5097792260e-02
 1.5153060667e-02
 1.5208451077e-02
 1.5263963491e-02
 1.5319598839e-02
 1.5375355259e-02
 1.5431235544e-02
 1.5487238765e-02
 1.5543364920e-02
 1.5599614941e-02
 1.5655988827e-02
 1.5712486580e-02
 1.5769109130e-02
 1.5825854614e-02
 1.5882726759e-02
 1.5939725563e-02
 1.5996847302e-02
 1.6054095700e-02
 1.6111470759e-02
 1.6168970615e-02
 1.6226598993e-02
 1.6284354031e-02
 1.6342235729e-02
 1.6400244087e-02
 1.6458380967e-02
 1.6516646370e-02
 1.6575038433e-02
 1.6633560881e-02
 1.6692211851e-02
 1.6750991344e-02
 1.6809901223e-02
 1.6868939623e-02
 1.6928108409e-02
 1.6987407580e-02
 1.7046837136e-02
 1.7106398940e-02
 1.7166089267e-02
 1.7225913703e-02
 1.7285868526e-02
 1.7345955595e-02
 1.7406174913e-02
 1.7466526479e-02
 1.7527012154e-02
 1.7587630078e-02
 1.7648382112e-02
 1.7709266394e-02
 1.7770286649e-02
 1.7831441015e-02
 1.7892729491e-02
 1.7954152077e-02
 1.8015710637e-02
 1.8077405170e-02
 1.8139235675e-02
 1.8201202154e-02
 1.8263304606e-02
 1.8325544894e-02
 1.8387921154e-02
 1.8450435251e-02
 1.8513087183e-02
 1.8575876951e-02
 1.8638804555e-02
 1.8701869994e-02
 1.8765075132e-02
 1.8828419968e-02
 1.8891904503e-02
 1.8955528736e-02
 1.9019292668e-02
 1.9083196297e-02
 1.9147241488e-02
 1.9211428240e-02
 1.9275754690e-02
 1.9340224564e-02
 1.9404835999e-02
 1.9469588995e-02
 1.9534483552e-02
 1.9599523395e-02
 1.9664704800e-02
 1.9730031490e-02
 1.9795499742e-02
 1.9861113280e-02
 1.9926872104e-02
 1.9992774352e-02
 2.0058823749e-02
 2.0125016570e-02
 2.0191356540e-02
 2.0257841796e-02
 2.0324472338e-02
 2.0391251892e-02
 2.0458176732e-02
 2.0525250584e-02
 2.0592471585e-02
 2.0659839734e-02
 2.0727356896e-02
 2.0795023069e-02
 2.0862836391e-02
 2.0930800587e-02
 2.0998913795e-02
 2.1067177877e-02
 2.1135592833e-02
 2.1204156801e-02
 2.1272873506e-02
 2.1341739222e-02
 2.1410757676e-02
 2.1479928866e-02
 2.1549252793e-02
 2.1618727595e-02
 2.1688356996e-02
 2.1758139133e-02
 2.1828074008e-02
 2.1898163483e-02
 2.1968407556e-02
 2.2038806230e-02
 2.2109359503e-02
 2.2180069238e-02
 2.2250933573e-02
 2.2321954370e-02
 2.2393131629e-02
 2.2464465350e-02
 2.2535957396e-02
 2.2607605904e-02
 2.2679410875e-02
 2.2751376033e-02
 2.2823499516e-02
 2.2895781323e-02
 2.2968221456e-02
 2.3040821776e-02
 2.3113582283e-02
 2.3186502978e-02
 2.3259583861e-02
 2.3332826793e-02
 2.3406229913e-02
 2.3479793221e-02
 2.3553520441e-02
 2.3627409711e-02
 2.3701462895e-02
 2.3775678128e-02
 2.3850055411e-02
 2.3924598470e-02
 2.3999305442e-02
 2.4074176326e-02
 2.4149211124e-02
 2.4224413559e-02
 2.4299779907e-02
 2.4375312030e-02
 2.4451011792e-02
 2.4526877329e-02
 2.4602908641e-02
 2.4679109454e-02
 2.4755477905e-02
 2.4832013994e-02
 2.4908717722e-02
 2.4985592812e-02
 2.5062635541e-02
 2.5139847770e-02
 2.5217229500e-02
 2.5294782594e-02
 2.5372507051e-02
 2.5450402871e-02
 2.5528468192e-02
 2.5606706738e-02
 2.5685118511e-02
 2.5763701648e-02
 2.5842458010e-02
 2.5921387598e-02
 2.6000490412e-02
 2.6079768315e-02
 2.6159221306e-02
 2.6238849387e-02
 2.6318650693e-02
 2.6398630813e-02
 2.6478784159e-02
 2.6559116319e-02
 2.6639623567e-02
 2.6720309630e-02
 2.6801172644e-02
 2.6882212609e-02
 2.6963433251e-02
 2.7044830844e-02
 2.7126409113e-02
 2.7208166197e-02
 2.7290103957e-02
 2.7372220531e-02
 2.7454519644e-02
 2.7536999434e-02
 2.7619659901e-02
 2.7702504769e-02
 2.7785530314e-02
 2.7868738398e-02
 2.7952130884e-02
 2.8035705909e-02
 2.8119465336e-02
 2.8203411028e-02
 2.8287539259e-02
 2.8371853754e-02
 2.8456352651e-02
 2.8541039675e-02
 2.8625911102e-02
 2.8710970655e-02
 2.8796218336e-02
 2.8881652281e-02
 2.8967274353e-02
 2.9053086415e-02
 2.9139086604e-02
 2.9225274920e-02
 2.9311655089e-02
 2.9398223385e-02
 2.9484983534e-02
 2.9571935534e-02
 2.9659077525e-02
 2.9746413231e-02
 2.9833938926e-02
 2.9921660200e-02
 3.0009571463e-02
 3.0097678304e-02
 3.0185978860e-02
 3.0274473131e-02
 3.0363162979e-02
 3.0452048406e-02
 3.0541129410e-02
 3.0630405992e-02
 3.0719880015e-02
 3.0809549615e-02
 3.0899418518e-02
 3.0989484861e-02
 3.1079748645e-02
 3.1170211732e-02
 3.1260874122e-02
 3.1351737678e-02
 3.1442798674e-02
 3.1534060836e-02
 3.1625524163e-02
 3.1717188656e-02
 3.1809054315e-02
 3.1901124865e-02
 3.1993396580e-02
 3.2085873187e-02
 3.2178550959e-02
 3.2271433622e-02
 3.2364521176e-02
 3.2457813621e-02
 3.2551310956e-02
 3.2645013183e-02
 3.2738924026e-02
 3.2833039761e-02
 3.2927364111e-02
 3.3021897078e-02
 3.3116634935e-02
 3.3211585134e-02
 3.3306743950e-02
 3.3402111381e-02
 3.3497687429e-02
 3.3593475819e-02
 3.3689472824e-02
 3.3785682172e-02
 3.3882103860e-02
 3.3978737891e-02
 3.4075587988e-02
 3.4172646701e-02
 3.4269921482e-02
 3.4367408603e-02
 3.4465111792e-02
 3.4563031048e-02
 3.4661162645e-02
 3.4759514034e-02
 3.4858081490e-02
 3.4956865013e-02
 3.5055864602e-02
 3.5155083984e-02
 3.5254519433e-02
 3.5354178399e-02
 3.5454053432e-02
 3.5554148257e-02
 3.5654466599e-02
 3.5755001009e-02
 3.5855762661e-02
 3.5956740379e-02
 3.6057945341e-02
 3.6159370095e-02
 3.6261018366e-02
 3.6362890154e-02
 3.6464989185e-02
 3.6567311734e-02
 3.6669857800e-02
 3.6772631109e-02
 3.6875631660e-02
 3.6978859454e-02
 3.7082310766e-02
 3.7185993046e-02
 3.7289902568e-02
 3.7394043058e-02
 3.7498410791e-02
 3.7603005767e-02
 3.7707835436e-02
 3.7812896073e-02
 3.7918183953e-02
 3.8023706526e-02
 3.8129460067e-02
 3.8235448301e-02
 3.8341671228e-02
 3.8448125124e-02
 3.8554813713e-02
 3.8661736995e-02
 3.8768898696e-02
 3.8876291364e-02
 3.8983926177e-02
 3.9091795683e-02
 3.9199899882e-02
 3.9308246225e-02
 3.9416827261e-02
 3.9525650442e-02
 3.9634712040e-02
 3.9744015783e-02
 3.9853557944e-02
 3.9963342249e-02
 4.0073368698e-02
 4.0183637291e-02
 4.0294148028e-02
 4.0404900908e-02
 4.0515899658e-02
 4.0627144277e-02
 4.0738631040e-02
 4.0850363672e-02
 4.0962342173e-02
 4.1074570268e-02
 4.1187040508e-02
 4.1299764067e-02
 4.1412729770e-02
 4.1525948793e-02
 4.1639417410e-02
 4.1753131896e-02
 4.1867099702e-02
 4.1981317103e-02
 4.2095787823e-02
 4.2210511863e-02
 4.2325485498e-02
 4.2440712452e-02
 4.2556192726e-02
 4.2671930045e-02
 4.2787920684e-02
 4.2904164642e-02
 4.3020669371e-02
 4.3137427419e-02
 4.3254442513e-02
 4.3371714652e-02
 4.3489247561e-02
 4.3607037514e-02
 4.3725088239e-02
 4.3843396008e-02
 4.3961968273e-02
 4.4080797583e-02
 4.4199891388e-02
 4.4319245964e-02
 4.4438865036e-02
 4.4558748603e-02
 4.4678892940e-02
 4.4799301773e-02
 4.4919978827e-02
 4.5040920377e-02
 4.5162126422e-02
 4.5283600688e-02
 4.5405343175e-02
 4.5527353883e-02
 4.5649632812e-02
 4.5772179961e-02
 4.5894995332e-02
 4.6018086374e-02
 4.6141445637e-02
 4.6265076846e-02
 4.6388980001e-02
 4.6513155103e-02
 4.6637602150e-02
 4.6762328595e-02
 4.6887326986e-02
 4.7012597322e-02
 4.7138147056e-02
 4.7263972461e-02
 4.7390077263e-02
 4.7516457736e-02
 4.7643117607e-02
 4.7770053148e-02
 4.7897271812e-02
 4.8024769872e-02
 4.8152547330e-02
 4.8280607909e-02
 4.8408947885e-02
 4.8537570983e-02
 4.8666480929e-02
 4.8795670271e-02
 4.8925146461e-02
 4.9054909497e-02
 4.9184955657e-02
 4.9315288663e-02
 4.9445908517e-02
 4.9576815218e-02
 4.9708012491e-02
 4.9839496613e-02
 4.9971271306e-02
 5.0103336573e-02
 5.0235692412e-02
 5.0368338823e-02
 5.0501279533e-02
 5.0634510815e-02
 5.0768036395e-02
 5.0901852548e-02
 5.1035966724e-02
 5.1170378923e-02
 5.1305081695e-02
 5.1440086216e-02
 5.1575385034e-02
 5.1710981876e-02
 5.1846876740e-02
 5.1983073354e-02
 5.2119567990e-02
 5.2256360650e-02
 5.2393458784e-02
 5.2530858666e-02
 5.2668560296e-02
 5.2806563675e-02
 5.2944872528e-02
 5.3083483130e-02
 5.3222402930e-02
 5.3361628205e-02
 5.3501158953e-02
 5.3640995175e-02
 5.3781140596e-02
 5.3921595216e-02
 5.4062359035e-02
 5.4203435779e-02
 5.4344817996e-02
 5.4486513138e-02
 5.4628521204e-02
 5.4770842195e-02
 5.4913476110e-02
 5.5056422949e-02
 5.5199686438e-02
 5.5343266577e-02
 5.5487159640e-02
 5.5631373078e-02
 5.5775899440e-02
 5.5920749903e-02
 5.6065913290e-02
 5.6211400777e-02
 5.6357204914e-02
 5.6503333151e-02
 5.6649781764e-02
 5.6796554476e-02
 5.6943651289e-02
 5.7091068476e-02
 5.7238813490e-02
 5.7386878878e-02
 5.7535275817e-02
 5.7683996856e-02
 5.7833045721e-02
 5.7982422411e-02
 5.8132130653e-02
 5.8282166719e-02
 5.8432530612e-02
 5.8583229780e-02
 5.8734260499e-02
 5.8885622770e-02
 5.9037316591e-02
 5.9189345688e-02
 5.9341710061e-02
 5.9494409710e-02
 5.9647444636e-02
 5.9800818563e-02
 5.9954527766e-02
 6.0108579695e-02
 6.0262966901e-02
 6.0417693108e-02
 6.0572765768e-02
 6.0728173703e-02
 6.0883928090e-02
 6.1040021479e-02
 6.1196461320e-02
 6.1353247613e-02
 6.1510376632e-02
 6.1667852104e-02
 6.1825674027e-02
 6.1983842403e-02
 6.2142360955e-02
 6.2301229686e-02
 6.2460444868e-02
 6.2620013952e-02
 6.2779933214e-02
 6.2940202653e-02
 6.3100829720e-02
 6.3261806965e-02
 6.3423134387e-02
 6.3584826887e-02
 6.3746869564e-02
 6.3909269869e-02
 6.4072027802e-02
 6.4235143363e-02
 6.4398616552e-02
 6.4562454820e-02
 6.4726650715e-02
 6.4891211689e-02
 6.5056130290e-02
 6.5221413970e-02
 6.5387062728e-02
 6.5553069115e-02
 6.5719448030e-02
 6.5886192024e-02
 6.6053308547e-02
 6.6220782697e-02
 6.6388636827e-02
 6.6556848586e-02
 6.6725440323e-02
 6.6894397140e-02
 6.7063733935e-02
 6.7233435810e-02
 6.7403510213e-02
 6.7573964596e-02
 6.7744791508e-02
 6.7915998399e-02
 6.8087577820e-02
 6.8259537220e-02
 6.8431876600e-02
 6.8604595959e-02
 6.8777695298e-02
 6.8951174617e-02
 6.9125033915e-02
 6.9299273193e-02
 6.9473907351e-02
 6.9648914039e-02
 6.9824315608e-02
 7.0000097156e-02
 7.0176266134e-02
 7.0352829993e-02
 7.0529773831e-02
 7.0707112551e-02
 7.0884838700e-02
 7.1062959731e-02
 7.1241468191e-02
 7.1420371532e-02
 7.1599669755e-02
 7.1779362857e-02
 7.1959458292e-02
 7.2139941156e-02
 7.2320826352e-02
 7.2502106428e-02
 7.2683788836e-02
 7.2865866125e-02
 7.3048345745e-02
 7.3231227696e-02
 7.3414519429e-02
 7.3598206043e-02
