aces_1.1/luts/V3_LogC_200_to_linear.spi1d
Version 1
From 0.000000 1.000000
Length 65536
Components 1
{
         -0.016062669456
         -0.0160600282252
         -0.0160573851317
         -0.0160547439009
         -0.0160521026701
         -0.0160494614393
         -0.0160468183458
         -0.016044177115
         -0.0160415358841
         -0.0160388946533
         -0.0160362515599
         -0.016033610329
         -0.0160309690982
         -0.0160283278674
         -0.0160256866366
         -0.0160230435431
         -0.0160204023123
         -0.0160177610815
         -0.0160151198506
         -0.0160124767572
         -0.0160098355263
         -0.0160071942955
         -0.0160045530647
         -0.0160019099712
         -0.0159992687404
         -0.0159966275096
         -0.0159939862788
         -0.0159913431853
         -0.0159887019545
         -0.0159860607237
         -0.0159834194928
         -0.0159807763994
         -0.0159781351686
         -0.0159754939377
         -0.0159728527069
         -0.0159702114761
         -0.0159675683826
         -0.0159649271518
         -0.015962285921
         -0.0159596446902
         -0.0159570015967
         -0.0159543603659
         -0.015951719135
         -0.0159490779042
         -0.0159464348108
         -0.0159437935799
         -0.0159411523491
         -0.0159385111183
         -0.0159358680248
         -0.015933226794
         -0.0159305855632
         -0.0159279443324
         -0.0159253012389
         -0.0159226600081
         -0.0159200187773
         -0.0159173775464
         -0.015914734453
         -0.0159120932221
         -0.0159094519913
         -0.0159068107605
         -0.0159041695297
         -0.0159015264362
         -0.0158988852054
         -0.0158962439746
         -0.0158936027437
         -0.0158909596503
         -0.0158883184195
         -0.0158856771886
         -0.0158830359578
         -0.0158803928643
         -0.0158777516335
         -0.0158751104027
         -0.0158724691719
         -0.0158698260784
         -0.0158671848476
         -0.0158645436168
         -0.015861902386
         -0.0158592592925
         -0.0158566180617
         -0.0158539768308
         -0.0158513356
         -0.0158486943692
         -0.0158460512757
         -0.0158434100449
         -0.0158407688141
         -0.0158381275833
         -0.0158354844898
         -0.015832843259
         -0.0158302020282
         -0.0158275607973
         -0.0158249177039
         -0.015822276473
         -0.0158196352422
         -0.0158169940114
         -0.0158143509179
         -0.0158117096871
         -0.0158090684563
         -0.0158064272255
         -0.015803784132
         -0.0158011429012
         -0.0157985016704
         -0.0157958604395
         -0.0157932173461
         -0.0157905761153
         -0.0157879348844
         -0.0157852936536
         -0.0157826524228
         -0.0157800093293
         -0.0157773680985
         -0.0157747268677
         -0.0157720856369
         -0.0157694425434
         -0.0157668013126
         -0.0157641600817
         -0.0157615188509
         -0.0157588757575
         -0.0157562345266
         -0.0157535932958
         -0.015750952065
         -0.0157483089715
         -0.0157456677407
         -0.0157430265099
         -0.0157403852791
         -0.0157377421856
         -0.0157351009548
         -0.0157324597239
         -0.0157298184931
         -0.0157271772623
         -0.0157245341688
         -0.015721892938
         -0.0157192517072
         -0.0157166104764
         -0.0157139673829
         -0.0157113261521
         -0.0157086849213
         -0.0157060436904
         -0.015703400597
         -0.0157007593662
         -0.0156981181353
         -0.0156954769045
         -0.015692833811
         -0.0156901925802
         -0.0156875513494
         -0.0156849101186
         -0.0156822670251
         -0.0156796257943
         -0.0156769845635
         -0.0156743433326
         -0.0156717002392
         -0.0156690590084
         -0.0156664177775
         -0.0156637765467
         -0.0156611353159
         -0.0156584922224
         -0.0156558509916
         -0.0156532097608
         -0.01565056853
         -0.0156479254365
         -0.0156452842057
         -0.0156426429749
         -0.015640001744
         -0.0156373586506
         -0.0156347174197
         -0.0156320761889
         -0.0156294349581
         -0.0156267918646
         -0.0156241506338
         -0.015621509403
         -0.0156188672408
         -0.01561622601
         -0.0156135838479
         -0.0156109426171
         -0.0156083004549
         -0.0156056592241
         -0.0156030179933
         -0.0156003758311
         -0.0155977346003
         -0.0155950924382
         -0.0155924512073
         -0.0155898090452
         -0.0155871678144
         -0.0155845256522
         -0.0155818844214
         -0.0155792422593
         -0.0155766010284
         -0.0155739588663
         -0.0155713176355
         -0.0155686754733
         -0.0155660342425
         -0.0155633920804
         -0.0155607508495
         -0.0155581086874
         -0.0155554674566
         -0.0155528252944
         -0.0155501840636
         -0.0155475419015
         -0.0155449006706
         -0.0155422594398
         -0.0155396172777
         -0.0155369760469
         -0.0155343338847
         -0.0155316926539
         -0.0155290504918
         -0.0155264092609
         -0.0155237670988
         -0.015521125868
         -0.0155184837058
         -0.015515842475
         -0.0155132003129
         -0.015510559082
         -0.0155079169199
         -0.0155052756891
         -0.0155026335269
         -0.0154999922961
         -0.015497350134
         -0.0154947089031
         -0.015492066741
         -0.0154894255102
         -0.0154867842793
         -0.0154841421172
         -0.0154815008864
         -0.0154788587242
         -0.0154762174934
         -0.0154735753313
         -0.0154709341004
         -0.0154682919383
         -0.0154656507075
         -0.0154630085453
         -0.0154603673145
         -0.0154577251524
         -0.0154550839216
         -0.0154524417594
         -0.0154498005286
         -0.0154471583664
         -0.0154445171356
         -0.0154418749735
         -0.0154392337427
         -0.0154365915805
         -0.0154339503497
         -0.0154313081875
         -0.0154286669567
         -0.0154260257259
         -0.0154233835638
         -0.0154207423329
         -0.0154181001708
         -0.01541545894
         -0.0154128167778
         -0.015410175547
         -0.0154075333849
         -0.015404892154
         -0.0154022499919
         -0.0153996087611
         -0.0153969665989
         -0.0153943253681
         -0.015391683206
         -0.0153890419751
         -0.015386399813
         -0.0153837585822
         -0.01538111642
         -0.0153784751892
         -0.0153758330271
         -0.0153731917962
         -0.0153705496341
         -0.0153679084033
         -0.0153652671725
         -0.0153626250103
         -0.0153599837795
         -0.0153573416173
         -0.0153547003865
         -0.0153520582244
         -0.0153494169936
         -0.0153467748314
         -0.0153441336006
         -0.0153414914384
         -0.0153388502076
         -0.0153362080455
         -0.0153335668147
         -0.0153309246525
         -0.0153282834217
         -0.0153256412596
         -0.0153230000287
         -0.0153203578666
         -0.0153177166358
         -0.0153150744736
         -0.0153124332428
         -0.0153097910807
         -0.0153071498498
         -0.015304508619
         -0.0153018664569
         -0.015299225226
         -0.0152965830639
         -0.0152939418331
         -0.0152912996709
         -0.0152886584401
         -0.015286016278
         -0.0152833750471
         -0.015280732885
         -0.0152780916542
         -0.015275449492
         -0.0152728082612
         -0.0152701660991
         -0.0152675248682
         -0.0152648827061
         -0.0152622414753
         -0.0152595993131
         -0.0152569580823
         -0.0152543159202
         -0.0152516746894
         -0.0152490325272
         -0.0152463912964
         -0.0152437500656
         -0.0152411079034
         -0.0152384666726
         -0.0152358245105
         -0.0152331832796
         -0.0152305411175
         -0.0152278998867
         -0.0152252577245
         -0.0152226164937
         -0.0152199743316
         -0.0152173331007
         -0.0152146909386
         -0.0152120497078
         -0.0152094075456
         -0.0152067663148
         -0.0152041241527
         -0.0152014829218
         -0.0151988407597
         -0.0151961995289
         -0.0151935573667
         -0.0151909161359
         -0.0151882739738
         -0.0151856327429
         -0.0151829915121
         -0.01518034935
         -0.0151777081192
         -0.015175065957
         -0.0151724247262
         -0.015169782564
         -0.0151671413332
         -0.0151644991711
         -0.0151618579403
         -0.0151592157781
         -0.0151565745473
         -0.0151539323851
         -0.0151512911543
         -0.0151486489922
         -0.0151460077614
         -0.0151433655992
         -0.0151407243684
         -0.0151380822062
         -0.0151354409754
         -0.0151327988133
         -0.0151301575825
         -0.0151275154203
         -0.0151248741895
         -0.0151222329587
         -0.0151195907965
         -0.0151169495657
         -0.0151143074036
         -0.0151116661727
         -0.0151090240106
         -0.0151063827798
         -0.0151037406176
         -0.0151010993868
         -0.0150984572247
         -0.0150958159938
         -0.0150931738317
         -0.0150905326009
         -0.0150878904387
         -0.0150852492079
         -0.0150826070458
         -0.0150799658149
         -0.0150773236528
         -0.015074682422
         -0.0150720402598
         -0.015069399029
         -0.0150667568669
         -0.0150641156361
         -0.0150614744052
         -0.0150588322431
         -0.0150561910123
         -0.0150535488501
         -0.0150509076193
         -0.0150482654572
         -0.0150456242263
         -0.0150429820642
         -0.0150403408334
         -0.0150376986712
         -0.0150350574404
         -0.0150324152783
         -0.0150297740474
         -0.0150271318853
         -0.0150244906545
         -0.0150218484923
         -0.0150192072615
         -0.0150165650994
         -0.0150139238685
         -0.0150112817064
         -0.0150086404756
         -0.0150059983134
         -0.0150033570826
         -0.0150007158518
         -0.0149980736896
         -0.0149954324588
         -0.0149927902967
         -0.0149901490659
         -0.0149875069037
         -0.0149848656729
         -0.0149822235107
         -0.0149795822799
         -0.0149769401178
         -0.014974298887
         -0.0149716567248
         -0.014969015494
         -0.0149663733318
         -0.014963732101
         -0.0149610899389
         -0.0149584487081
         -0.0149558065459
         -0.0149531653151
         -0.0149505231529
         -0.0149478819221
         -0.01494523976
         -0.0149425985292
         -0.0149399572983
         -0.0149373151362
         -0.0149346739054
         -0.0149320317432
         -0.0149293905124
         -0.0149267483503
         -0.0149241071194
         -0.0149214649573
         -0.0149188237265
         -0.0149161815643
         -0.0149135403335
         -0.0149108981714
         -0.0149082569405
         -0.0149056147784
         -0.0149029735476
         -0.0149003313854
         -0.0148976901546
         -0.0148950479925
         -0.0148924067616
         -0.0148897645995
         -0.0148871233687
         -0.0148844812065
         -0.0148818399757
         -0.0148791987449
         -0.0148765565827
         -0.0148739153519
         -0.0148712731898
         -0.014868631959
         -0.0148659897968
         -0.014863348566
         -0.0148607064039
         -0.014858065173
         -0.0148554230109
         -0.0148527817801
         -0.0148501396179
         -0.0148474983871
         -0.014844856225
         -0.0148422149941
         -0.014839572832
         -0.0148369316012
         -0.014834289439
         -0.0148316482082
         -0.0148290060461
         -0.0148263648152
         -0.0148237226531
         -0.0148210814223
         -0.0148184401914
         -0.0148157980293
         -0.0148131567985
         -0.0148105146363
         -0.0148078734055
         -0.0148052312434
         -0.0148025900126
         -0.0147999478504
         -0.0147973066196
         -0.0147946644574
         -0.0147920232266
         -0.0147893810645
         -0.0147867398337
         -0.0147840976715
         -0.0147814564407
         -0.0147788142785
         -0.0147761730477
         -0.0147735308856
         -0.0147708896548
         -0.0147682474926
         -0.0147656062618
         -0.0147629640996
         -0.0147603228688
         -0.014757681638
         -0.0147550394759
         -0.014752398245
         -0.0147497560829
         -0.0147471148521
         -0.0147444726899
         -0.0147418314591
         -0.014739189297
         -0.0147365480661
         -0.014733905904
         -0.0147312646732
         -0.014728622511
         -0.0147259812802
         -0.0147233391181
         -0.0147206978872
         -0.0147180557251
         -0.0147154144943
         -0.0147127723321
         -0.0147101311013
         -0.0147074889392
         -0.0147048477083
         -0.0147022055462
         -0.0146995643154
         -0.0146969230846
         -0.0146942809224
         -0.0146916396916
         -0.0146889975294
         -0.0146863562986
         -0.0146837141365
         -0.0146810729057
         -0.0146784307435
         -0.0146757895127
         -0.0146731473505
         -0.0146705061197
         -0.0146678639576
         -0.0146652227268
         -0.0146625805646
         -0.0146599393338
         -0.0146572971717
         -0.0146546559408
         -0.0146520137787
         -0.0146493725479
         -0.0146467303857
         -0.0146440891549
         -0.0146414469928
         -0.0146388057619
         -0.0146361645311
         -0.014633522369
         -0.0146308811381
         -0.014628238976
         -0.0146255977452
         -0.014622955583
         -0.0146203143522
         -0.0146176721901
         -0.0146150309592
         -0.0146123887971
         -0.0146097475663
         -0.0146071054041
         -0.0146044641733
         -0.0146018220112
         -0.0145991807804
         -0.0145965386182
         -0.0145938973874
         -0.0145912552252
         -0.0145886139944
         -0.0145859718323
         -0.0145833306015
         -0.0145806884393
         -0.0145780472085
         -0.0145754059777
         -0.0145727638155
         -0.0145701225847
         -0.0145674804226
         -0.0145648391917
         -0.0145621970296
         -0.0145595557988
         -0.0145569136366
         -0.0145542724058
         -0.0145516302437
         -0.0145489890128
         -0.0145463468507
         -0.0145437056199
         -0.0145410634577
         -0.0145384222269
         -0.0145357800648
         -0.0145331388339
         -0.0145304966718
         -0.014527855441
         -0.0145252132788
         -0.014522572048
         -0.0145199298859
         -0.014517288655
         -0.0145146474242
         -0.0145120052621
         -0.0145093640313
         -0.0145067218691
         -0.0145040806383
         -0.0145014384761
         -0.0144987972453
         -0.0144961550832
         -0.0144935138524
         -0.0144908716902
         -0.0144882304594
         -0.0144855882972
         -0.0144829470664
         -0.0144803049043
         -0.0144776636735
         -0.0144750215113
         -0.0144723802805
         -0.0144697381184
         -0.0144670968875
         -0.0144644547254
         -0.0144618134946
         -0.0144591722637
         -0.0144565301016
         -0.0144538888708
         -0.0144512467086
         -0.0144486054778
         -0.0144459633157
         -0.0144433220848
         -0.0144406799227
         -0.0144380386919
         -0.0144353965297
         -0.0144327552989
         -0.0144301131368
         -0.0144274719059
         -0.0144248297438
         -0.014422188513
         -0.0144195463508
         -0.01441690512
         -0.0144142629579
         -0.014411621727
         -0.0144089795649
         -0.0144063383341
         -0.0144036961719
         -0.0144010549411
         -0.0143984137103
         -0.0143957715482
         -0.0143931303173
         -0.0143904881552
         -0.0143878469244
         -0.0143852047622
         -0.0143825635314
         -0.0143799213693
         -0.0143772801384
         -0.0143746379763
         -0.0143719967455
         -0.0143693545833
         -0.0143667133525
         -0.0143640711904
         -0.0143614299595
         -0.0143587877974
         -0.0143561465666
         -0.0143535044044
         -0.0143508631736
         -0.0143482210115
         -0.0143455797806
         -0.0143429376185
         -0.0143402963877
         -0.0143376551569
         -0.0143350129947
         -0.0143323717639
         -0.0143297296017
         -0.0143270883709
         -0.0143244462088
         -0.014321804978
         -0.0143191628158
         -0.014316521585
         -0.0143138794228
         -0.014311238192
         -0.0143085960299
         -0.0143059547991
         -0.0143033126369
         -0.0143006714061
         -0.0142980292439
         -0.0142953880131
         -0.014292745851
         -0.0142901046202
         -0.014287462458
         -0.0142848212272
         -0.014282179065
         -0.0142795378342
         -0.0142768966034
         -0.0142742544413
         -0.0142716132104
         -0.0142689710483
         -0.0142663298175
         -0.0142636876553
         -0.0142610464245
         -0.0142584042624
         -0.0142557630315
         -0.0142531208694
         -0.0142504796386
         -0.0142478374764
         -0.0142451962456
         -0.0142425540835
         -0.0142399128526
         -0.0142372706905
         -0.0142346294597
         -0.0142319872975
         -0.0142293460667
         -0.0142267039046
         -0.0142240626737
         -0.0142214205116
         -0.0142187792808
         -0.01421613805
         -0.0142134958878
         -0.014210854657
         -0.0142082124949
         -0.014205571264
         -0.0142029291019
         -0.0142002878711
         -0.0141976457089
         -0.0141950044781
         -0.014192362316
         -0.0141897210851
         -0.014187078923
         -0.0141844376922
         -0.01418179553
         -0.0141791542992
         -0.0141765121371
         -0.0141738709062
         -0.0141712287441
         -0.0141685875133
         -0.0141659453511
         -0.0141633041203
         -0.0141606619582
         -0.0141580207273
         -0.0141553794965
         -0.0141527373344
         -0.0141500961035
         -0.0141474539414
         -0.0141448127106
         -0.0141421705484
         -0.0141395293176
         -0.0141368871555
         -0.0141342459247
         -0.0141316037625
         -0.0141289625317
         -0.0141263203695
         -0.0141236791387
         -0.0141210369766
         -0.0141183957458
         -0.0141157535836
         -0.0141131123528
         -0.0141104701906
         -0.0141078289598
         -0.0141051867977
         -0.0141025455669
         -0.0140999034047
         -0.0140972621739
         -0.0140946209431
         -0.0140919787809
         -0.0140893375501
         -0.014086695388
         -0.0140840541571
         -0.014081411995
         -0.0140787707642
         -0.014076128602
         -0.0140734873712
         -0.0140708452091
         -0.0140682039782
         -0.0140655618161
         -0.0140629205853
         -0.0140602784231
         -0.0140576371923
         -0.0140549950302
         -0.0140523537993
         -0.0140497116372
         -0.0140470704064
         -0.0140444282442
         -0.0140417870134
         -0.0140391448513
         -0.0140365036204
         -0.0140338623896
         -0.0140312202275
         -0.0140285789967
         -0.0140259368345
         -0.0140232956037
         -0.0140206534415
         -0.0140180122107
         -0.0140153700486
         -0.0140127288178
         -0.0140100866556
         -0.0140074454248
         -0.0140048032627
         -0.0140021620318
         -0.0139995198697
         -0.0139968786389
         -0.0139942364767
         -0.0139915952459
         -0.0139889530838
         -0.0139863118529
         -0.0139836696908
         -0.01398102846
         -0.0139783862978
         -0.013975745067
         -0.0139731038362
         -0.013970461674
         -0.0139678204432
         -0.0139651782811
         -0.0139625370502
         -0.0139598948881
         -0.0139572536573
         -0.0139546114951
         -0.0139519702643
         -0.0139493281022
         -0.0139466868713
         -0.0139440447092
         -0.0139414034784
         -0.0139387613162
         -0.0139361200854
         -0.0139334779233
         -0.0139308366925
         -0.0139281945303
         -0.0139255532995
         -0.0139229111373
         -0.0139202699065
         -0.0139176277444
         -0.0139149865136
         -0.0139123452827
         -0.0139097031206
         -0.0139070618898
         -0.0139044197276
         -0.0139017784968
         -0.0138991363347
         -0.0138964951038
         -0.0138938529417
         -0.0138912117109
         -0.0138885695487
         -0.0138859283179
         -0.0138832861558
         -0.0138806449249
         -0.0138780027628
         -0.013875361532
         -0.0138727193698
         -0.013870078139
         -0.0138674359769
         -0.013864794746
         -0.0138621525839
         -0.0138595113531
         -0.0138568691909
         -0.0138542279601
         -0.0138515867293
         -0.0138489445671
         -0.0138463033363
         -0.0138436611742
         -0.0138410199434
         -0.0138383777812
         -0.0138357365504
         -0.0138330943882
         -0.0138304531574
         -0.0138278109953
         -0.0138251697645
         -0.0138225276023
         -0.0138198863715
         -0.0138172442093
         -0.0138146029785
         -0.0138119608164
         -0.0138093195856
         -0.0138066774234
         -0.0138040361926
         -0.0138013940305
         -0.0137987527996
         -0.0137961106375
         -0.0137934694067
         -0.0137908281758
         -0.0137881860137
         -0.0137855447829
         -0.0137829026207
         -0.0137802613899
         -0.0137776192278
         -0.0137749779969
         -0.0137723358348
         -0.013769694604
         -0.0137670524418
         -0.013764411211
         -0.0137617690489
         -0.013759127818
         -0.0137564856559
         -0.0137538444251
         -0.0137512022629
         -0.0137485610321
         -0.01374591887
         -0.0137432776392
         -0.013740635477
         -0.0137379942462
         -0.013735352084
         -0.0137327108532
         -0.0137300696224
         -0.0137274274603
         -0.0137247862294
         -0.0137221440673
         -0.0137195028365
         -0.0137168606743
         -0.0137142194435
         -0.0137115772814
         -0.0137089360505
         -0.0137062938884
         -0.0137036526576
         -0.0137010104954
         -0.0136983692646
         -0.0136957271025
         -0.0136930858716
         -0.0136904437095
         -0.0136878024787
         -0.0136851603165
         -0.0136825190857
         -0.0136798769236
         -0.0136772356927
         -0.0136745935306
         -0.0136719522998
         -0.013669311069
         -0.0136666689068
         -0.013664027676
         -0.0136613855138
         -0.013658744283
         -0.0136561021209
         -0.0136534608901
         -0.0136508187279
         -0.0136481774971
         -0.0136455353349
         -0.0136428941041
         -0.013640251942
         -0.0136376107112
         -0.013634968549
         -0.0136323273182
         -0.013629685156
         -0.0136270439252
         -0.0136244017631
         -0.0136217605323
