aces_1.1/luts/V3_LogC_250_to_linear.spi1d
Version 1
From 0.000000 1.000000
Length 65536
Components 1
{
         -0.016248408705
         -0.0162457376719
         -0.0162430647761
         -0.0162403937429
         -0.0162377208471
         -0.0162350479513
         -0.0162323769182
         -0.0162297040224
         -0.0162270329893
         -0.0162243600935
         -0.0162216890603
         -0.0162190161645
         -0.0162163432688
         -0.0162136722356
         -0.0162109993398
         -0.0162083283067
         -0.0162056554109
         -0.0162029843777
         -0.016200311482
         -0.0161976385862
         -0.016194967553
         -0.0161922946572
         -0.0161896236241
         -0.0161869507283
         -0.0161842778325
         -0.0161816067994
         -0.0161789339036
         -0.0161762628704
         -0.0161735899746
         -0.0161709189415
         -0.0161682460457
         -0.0161655731499
         -0.0161629021168
         -0.016160229221
         -0.0161575581878
         -0.0161548852921
         -0.0161522142589
         -0.0161495413631
         -0.0161468684673
         -0.0161441974342
         -0.0161415245384
         -0.0161388535053
         -0.0161361806095
         -0.0161335095763
         -0.0161308366805
         -0.0161281637847
         -0.0161254927516
         -0.0161228198558
         -0.0161201488227
         -0.0161174759269
         -0.0161148048937
         -0.0161121319979
         -0.0161094591022
         -0.016106788069
         -0.0161041151732
         -0.0161014441401
         -0.0160987712443
         -0.0160961002111
         -0.0160934273154
         -0.0160907544196
         -0.0160880833864
         -0.0160854104906
         -0.0160827394575
         -0.0160800665617
         -0.0160773955286
         -0.0160747226328
         -0.016072049737
         -0.0160693787038
         -0.016066705808
         -0.0160640347749
         -0.0160613618791
         -0.016058690846
         -0.0160560179502
         -0.0160533450544
         -0.0160506740212
         -0.0160480011255
         -0.0160453300923
         -0.0160426571965
         -0.0160399861634
         -0.0160373132676
         -0.0160346403718
         -0.0160319693387
         -0.0160292964429
         -0.0160266254097
         -0.0160239525139
         -0.0160212796181
         -0.016018608585
         -0.0160159356892
         -0.0160132646561
         -0.0160105917603
         -0.0160079207271
         -0.0160052478313
         -0.0160025749356
         -0.0159999039024
         -0.0159972310066
         -0.0159945599735
         -0.0159918870777
         -0.0159892160445
         -0.0159865431488
         -0.015983870253
         -0.0159811992198
         -0.015978526324
         -0.0159758552909
         -0.0159731823951
         -0.015970511362
         -0.0159678384662
         -0.0159651655704
         -0.0159624945372
         -0.0159598216414
         -0.0159571506083
         -0.0159544777125
         -0.0159518066794
         -0.0159491337836
         -0.0159464608878
         -0.0159437898546
         -0.0159411169589
         -0.0159384459257
         -0.0159357730299
         -0.0159331019968
         -0.015930429101
         -0.0159277562052
         -0.0159250851721
         -0.0159224122763
         -0.0159197412431
         -0.0159170683473
         -0.0159143973142
         -0.0159117244184
         -0.0159090515226
         -0.0159063804895
         -0.0159037075937
         -0.0159010365605
         -0.0158983636647
         -0.0158956926316
         -0.0158930197358
         -0.01589034684
         -0.0158876758069
         -0.0158850029111
         -0.0158823318779
         -0.0158796589822
         -0.015876987949
         -0.0158743150532
         -0.0158716421574
         -0.0158689711243
         -0.0158662982285
         -0.0158636271954
         -0.0158609542996
         -0.0158582814038
         -0.0158556103706
         -0.0158529374748
         -0.0158502664417
         -0.0158475935459
         -0.0158449225128
         -0.015842249617
         -0.0158395767212
         -0.015836905688
         -0.0158342327923
         -0.0158315617591
         -0.0158288888633
         -0.0158262178302
         -0.0158235449344
         -0.0158208720386
         -0.0158182010055
         -0.0158155281097
         -0.0158128570765
         -0.0158101841807
         -0.0158075131476
         -0.0158048402518
         -0.015802167356
         -0.0157994963229
         -0.0157968234271
         -0.0157941523939
         -0.0157914794981
         -0.015788808465
         -0.0157861355692
         -0.0157834626734
         -0.0157807916403
         -0.0157781187445
         -0.0157754477113
         -0.0157727748156
         -0.0157701037824
         -0.0157674308866
         -0.0157647579908
         -0.0157620869577
         -0.0157594140619
         -0.0157567430288
         -0.015754070133
         -0.0157513990998
         -0.015748726204
         -0.0157460533082
         -0.0157433822751
         -0.0157407093793
         -0.0157380383462
         -0.0157353654504
         -0.0157326944172
         -0.0157300215214
         -0.0157273486257
         -0.0157246775925
         -0.0157220046967
         -0.0157193336636
         -0.0157166607678
         -0.015713987872
         -0.0157113168389
         -0.0157086439431
         -0.0157059729099
         -0.0157033000141
         -0.015700628981
         -0.0156979560852
         -0.0156952831894
         -0.0156926121563
         -0.0156899392605
         -0.0156872682273
         -0.0156845953315
         -0.0156819242984
         -0.0156792514026
         -0.0156765785068
         -0.0156739074737
         -0.0156712345779
         -0.0156685635448
         -0.015665890649
         -0.0156632196158
         -0.01566054672
         -0.0156578738242
         -0.0156552027911
         -0.0156525298953
         -0.0156498588622
         -0.0156471859664
         -0.0156445149332
         -0.0156418420374
         -0.0156391691417
         -0.0156364981085
         -0.0156338252127
         -0.0156311541796
         -0.0156284812838
         -0.0156258102506
         -0.0156231373549
         -0.0156204653904
         -0.0156177934259
         -0.0156151214615
         -0.0156124485657
         -0.0156097766012
         -0.0156071046367
         -0.0156044326723
         -0.0156017607078
         -0.0155990887433
         -0.0155964158475
         -0.0155937438831
         -0.0155910719186
         -0.0155883999541
         -0.0155857279897
         -0.0155830560252
         -0.0155803840607
         -0.015577711165
         -0.0155750392005
         -0.015572367236
         -0.0155696952716
         -0.0155670233071
         -0.0155643513426
         -0.0155616793782
         -0.0155590064824
         -0.0155563345179
         -0.0155536625534
         -0.015550990589
         -0.0155483186245
         -0.01554564666
         -0.0155429746956
         -0.0155403017998
         -0.0155376298353
         -0.0155349578708
         -0.0155322859064
         -0.0155296139419
         -0.0155269419774
         -0.0155242690817
         -0.0155215971172
         -0.0155189251527
         -0.0155162531883
         -0.0155135812238
         -0.0155109092593
         -0.0155082372949
         -0.0155055643991
         -0.0155028924346
         -0.0155002204701
         -0.0154975485057
         -0.0154948765412
         -0.0154922045767
         -0.0154895326123
         -0.0154868597165
         -0.015484187752
         -0.0154815157875
         -0.0154788438231
         -0.0154761718586
         -0.0154734998941
         -0.0154708279297
         -0.0154681550339
         -0.0154654830694
         -0.015462811105
         -0.0154601391405
         -0.015457467176
         -0.0154547952116
         -0.0154521232471
         -0.0154494503513
         -0.0154467783868
         -0.0154441064224
         -0.0154414344579
         -0.0154387624934
         -0.015436090529
         -0.0154334176332
         -0.0154307456687
         -0.0154280737042
         -0.0154254017398
         -0.0154227297753
         -0.0154200578108
         -0.0154173858464
         -0.0154147129506
         -0.0154120409861
         -0.0154093690217
         -0.0154066970572
         -0.0154040250927
         -0.0154013531283
         -0.0153986811638
         -0.015396008268
         -0.0153933363035
         -0.0153906643391
         -0.0153879923746
         -0.0153853204101
         -0.0153826484457
         -0.0153799764812
         -0.0153773035854
         -0.0153746316209
         -0.0153719596565
         -0.015369287692
         -0.0153666157275
         -0.0153639437631
         -0.0153612708673
         -0.0153585989028
         -0.0153559269384
         -0.0153532549739
         -0.0153505830094
         -0.015347911045
         -0.0153452390805
         -0.0153425661847
         -0.0153398942202
         -0.0153372222558
         -0.0153345502913
         -0.0153318783268
         -0.0153292063624
         -0.0153265343979
         -0.0153238615021
         -0.0153211895376
         -0.0153185175732
         -0.0153158456087
         -0.0153131736442
         -0.0153105016798
         -0.0153078297153
         -0.0153051568195
         -0.0153024848551
         -0.0152998128906
         -0.0152971409261
         -0.0152944689617
         -0.0152917969972
         -0.0152891241014
         -0.0152864521369
         -0.0152837801725
         -0.015281108208
         -0.0152784362435
         -0.0152757642791
         -0.0152730923146
         -0.0152704194188
         -0.0152677474543
         -0.0152650754899
         -0.0152624035254
         -0.0152597315609
         -0.0152570595965
         -0.015254387632
         -0.0152517147362
         -0.0152490427718
         -0.0152463708073
         -0.0152436988428
         -0.0152410268784
         -0.0152383549139
         -0.0152356829494
         -0.0152330100536
         -0.0152303380892
         -0.0152276661247
         -0.0152249941602
         -0.0152223221958
         -0.0152196502313
         -0.0152169782668
         -0.015214305371
         -0.0152116334066
         -0.0152089614421
         -0.0152062894776
         -0.0152036175132
         -0.0152009455487
         -0.0151982726529
         -0.0151956006885
         -0.015192928724
         -0.0151902567595
         -0.0151875847951
         -0.0151849128306
         -0.0151822408661
         -0.0151795679703
         -0.0151768960059
         -0.0151742240414
         -0.0151715520769
         -0.0151688801125
         -0.015166208148
         -0.0151635361835
         -0.0151608632877
         -0.0151581913233
         -0.0151555193588
         -0.0151528473943
         -0.0151501754299
         -0.0151475034654
         -0.0151448315009
         -0.0151421586052
         -0.0151394866407
         -0.0151368146762
         -0.0151341427118
         -0.0151314707473
         -0.0151287987828
         -0.015126125887
         -0.0151234539226
         -0.0151207819581
         -0.0151181099936
         -0.0151154380292
         -0.0151127660647
         -0.0151100941002
         -0.0151074212044
         -0.01510474924
         -0.0151020772755
         -0.015099405311
         -0.0150967333466
         -0.0150940613821
         -0.0150913894176
         -0.0150887165219
         -0.0150860445574
         -0.0150833725929
         -0.0150807006285
         -0.015078028664
         -0.0150753566995
         -0.0150726847351
         -0.0150700118393
         -0.0150673398748
         -0.0150646679103
         -0.0150619959459
         -0.0150593239814
         -0.0150566520169
         -0.0150539791211
         -0.0150513071567
         -0.0150486351922
         -0.0150459632277
         -0.0150432912633
         -0.0150406192988
         -0.0150379473343
         -0.0150352744386
         -0.0150326024741
         -0.0150299305096
         -0.0150272585452
         -0.0150245865807
         -0.0150219146162
         -0.0150192426518
         -0.015016569756
         -0.0150138977915
         -0.015011225827
         -0.0150085538626
         -0.0150058818981
         -0.0150032099336
         -0.0150005379692
         -0.0149978650734
         -0.0149951931089
         -0.0149925211444
         -0.01498984918
         -0.0149871772155
         -0.014984505251
         -0.0149818332866
         -0.0149791603908
         -0.0149764884263
         -0.0149738164619
         -0.0149711444974
         -0.0149684725329
         -0.0149658005685
         -0.0149631276727
         -0.0149604557082
         -0.0149577837437
         -0.0149551117793
         -0.0149524398148
         -0.0149497678503
         -0.0149470958859
         -0.0149444229901
         -0.0149417510256
         -0.0149390790612
         -0.0149364070967
         -0.0149337351322
         -0.0149310631678
         -0.0149283912033
         -0.0149257183075
         -0.014923046343
         -0.0149203743786
         -0.0149177024141
         -0.0149150304496
         -0.0149123584852
         -0.0149096865207
         -0.0149070136249
         -0.0149043416604
         -0.014901669696
         -0.0148989977315
         -0.014896325767
         -0.0148936538026
         -0.0148909809068
         -0.0148883089423
         -0.0148856369779
         -0.0148829650134
         -0.0148802930489
         -0.0148776210845
         -0.01487494912
         -0.0148722762242
         -0.0148696042597
         -0.0148669322953
         -0.0148642603308
         -0.0148615883663
         -0.0148589164019
         -0.0148562444374
         -0.0148535715416
         -0.0148508995771
         -0.0148482276127
         -0.0148455556482
         -0.0148428836837
         -0.0148402117193
         -0.0148375397548
         -0.014834866859
         -0.0148321948946
         -0.0148295229301
         -0.0148268509656
         -0.0148241790012
         -0.0148215070367
         -0.0148188341409
         -0.0148161621764
         -0.014813490212
         -0.0148108182475
         -0.014808146283
         -0.0148054743186
         -0.0148028023541
         -0.0148001294583
         -0.0147974574938
         -0.0147947855294
         -0.0147921135649
         -0.0147894416004
         -0.014786769636
         -0.0147840976715
         -0.0147814247757
         -0.0147787528113
         -0.0147760808468
         -0.0147734088823
         -0.0147707369179
         -0.0147680649534
         -0.0147653929889
         -0.0147627200931
         -0.0147600481287
         -0.0147573761642
         -0.0147547041997
         -0.0147520322353
         -0.0147493602708
         -0.014746687375
         -0.0147440154105
         -0.0147413434461
         -0.0147386714816
         -0.0147359995171
         -0.0147333275527
         -0.0147306555882
         -0.0147279826924
         -0.014725310728
         -0.0147226387635
         -0.014719966799
         -0.0147172948346
         -0.0147146228701
         -0.0147119509056
         -0.0147092780098
         -0.0147066060454
         -0.0147039340809
         -0.0147012621164
         -0.014698590152
         -0.0146959181875
         -0.014693246223
         -0.0146905733272
         -0.0146879013628
         -0.0146852293983
         -0.0146825574338
         -0.0146798854694
         -0.0146772135049
         -0.0146745415404
         -0.0146718686447
         -0.0146691966802
         -0.0146665247157
         -0.0146638527513
         -0.0146611807868
         -0.0146585088223
         -0.0146558359265
         -0.0146531639621
         -0.0146504919976
         -0.0146478200331
         -0.0146451480687
         -0.0146424761042
         -0.0146398041397
         -0.0146371312439
         -0.0146344592795
         -0.014631787315
         -0.0146291153505
         -0.0146264433861
         -0.0146237714216
         -0.0146210994571
         -0.0146184265614
         -0.0146157545969
         -0.0146130826324
         -0.014610410668
         -0.0146077387035
         -0.014605066739
         -0.0146023947746
         -0.0145997218788
         -0.0145970499143
         -0.0145943779498
         -0.0145917059854
         -0.0145890340209
         -0.0145863620564
         -0.0145836891606
         -0.0145810171962
         -0.0145783452317
         -0.0145756732672
         -0.0145730013028
         -0.0145703293383
         -0.0145676573738
         -0.0145649844781
         -0.0145623125136
         -0.0145596405491
         -0.0145569685847
         -0.0145542966202
         -0.0145516246557
         -0.0145489526913
         -0.0145462797955
         -0.014543607831
         -0.0145409358665
         -0.0145382639021
         -0.0145355919376
         -0.0145329199731
         -0.0145302480087
         -0.0145275751129
         -0.0145249031484
         -0.0145222311839
         -0.0145195592195
         -0.014516887255
         -0.0145142152905
         -0.0145115423948
         -0.0145088704303
         -0.0145061984658
         -0.0145035265014
         -0.0145008545369
         -0.0144981825724
         -0.014495510608
         -0.0144928377122
         -0.0144901657477
         -0.0144874937832
         -0.0144848218188
         -0.0144821498543
         -0.0144794778898
         -0.0144768059254
         -0.0144741330296
         -0.0144714610651
         -0.0144687891006
         -0.0144661171362
         -0.0144634451717
         -0.0144607732072
         -0.0144581012428
         -0.014455428347
         -0.0144527563825
         -0.0144500844181
         -0.0144474124536
         -0.0144447404891
         -0.0144420685247
         -0.0144393965602
         -0.0144367236644
         -0.0144340516999
         -0.0144313797355
         -0.014428707771
         -0.0144260358065
         -0.0144233638421
         -0.0144206909463
         -0.0144180189818
         -0.0144153470173
         -0.0144126750529
         -0.0144100030884
         -0.0144073311239
         -0.0144046591595
         -0.0144019862637
         -0.0143993142992
         -0.0143966423348
         -0.0143939703703
         -0.0143912984058
         -0.0143886264414
         -0.0143859544769
         -0.0143832815811
         -0.0143806096166
         -0.0143779376522
         -0.0143752656877
         -0.0143725937232
         -0.0143699217588
         -0.0143672497943
         -0.0143645768985
         -0.014361904934
         -0.0143592329696
         -0.0143565610051
         -0.0143538890406
         -0.0143512170762
         -0.0143485441804
         -0.0143458722159
         -0.0143432002515
         -0.014340528287
         -0.0143378563225
         -0.0143351843581
         -0.0143325123936
         -0.0143298394978
         -0.0143271675333
         -0.0143244955689
         -0.0143218236044
         -0.0143191516399
         -0.0143164796755
         -0.014313807711
         -0.0143111348152
         -0.0143084628507
         -0.0143057908863
         -0.0143031189218
         -0.0143004469573
         -0.0142977749929
         -0.0142951030284
         -0.0142924301326
         -0.0142897581682
         -0.0142870862037
         -0.0142844142392
         -0.0142817422748
         -0.0142790703103
         -0.0142763974145
         -0.01427372545
         -0.0142710534856
         -0.0142683815211
         -0.0142657095566
         -0.0142630375922
         -0.0142603656277
         -0.0142576927319
         -0.0142550207675
         -0.014252348803
         -0.0142496768385
         -0.0142470048741
         -0.0142443329096
         -0.0142416609451
         -0.0142389880493
         -0.0142363160849
         -0.0142336441204
         -0.0142309721559
         -0.0142283001915
         -0.014225628227
         -0.0142229562625
         -0.0142202833667
         -0.0142176114023
         -0.0142149394378
         -0.0142122674733
         -0.0142095955089
         -0.0142069235444
         -0.0142042515799
         -0.0142015786842
         -0.0141989067197
         -0.0141962347552
         -0.0141935627908
         -0.0141908908263
         -0.0141882188618
         -0.014185545966
         -0.0141828740016
         -0.0141802020371
         -0.0141775300726
         -0.0141748581082
         -0.0141721861437
         -0.0141695141792
         -0.0141668412834
         -0.014164169319
         -0.0141614973545
         -0.01415882539
         -0.0141561534256
         -0.0141534814611
         -0.0141508094966
         -0.0141481366009
         -0.0141454646364
         -0.0141427926719
         -0.0141401207075
         -0.014137448743
         -0.0141347767785
         -0.0141321048141
         -0.0141294319183
         -0.0141267599538
         -0.0141240879893
         -0.0141214160249
         -0.0141187440604
         -0.0141160720959
         -0.0141133992001
         -0.0141107272357
         -0.0141080552712
         -0.0141053833067
         -0.0141027113423
         -0.0141000393778
         -0.0140973674133
         -0.0140946945176
         -0.0140920225531
         -0.0140893505886
         -0.0140866786242
         -0.0140840066597
         -0.0140813346952
         -0.0140786627308
         -0.014075989835
         -0.0140733178705
         -0.014070645906
         -0.0140679739416
         -0.0140653019771
         -0.0140626300126
         -0.0140599580482
         -0.0140572851524
         -0.0140546131879
         -0.0140519412234
         -0.014049269259
         -0.0140465972945
         -0.01404392533
         -0.0140412524343
         -0.0140385804698
         -0.0140359085053
         -0.0140332365409
         -0.0140305645764
         -0.0140278926119
         -0.0140252206475
         -0.0140225477517
         -0.0140198757872
         -0.0140172038227
         -0.0140145318583
         -0.0140118598938
         -0.0140091879293
         -0.0140065159649
         -0.0140038430691
         -0.0140011711046
         -0.0139984991401
         -0.0139958271757
         -0.0139931552112
         -0.0139904832467
         -0.0139878112823
         -0.0139851383865
         -0.013982466422
         -0.0139797944576
         -0.0139771224931
         -0.0139744505286
         -0.0139717785642
         -0.0139691056684
         -0.0139664337039
         -0.0139637617394
         -0.013961089775
         -0.0139584178105
         -0.013955745846
         -0.0139530738816
         -0.0139504009858
         -0.0139477290213
         -0.0139450570568
         -0.0139423850924
         -0.0139397131279
         -0.0139370411634
         -0.013934369199
         -0.0139316963032
         -0.0139290243387
         -0.0139263523743
         -0.0139236804098
         -0.0139210084453
         -0.0139183364809
         -0.0139156645164
         -0.0139129916206
         -0.0139103196561
         -0.0139076476917
         -0.0139049757272
         -0.0139023037627
         -0.0138996317983
         -0.0138969598338
         -0.013894286938
         -0.0138916149735
         -0.0138889430091
         -0.0138862710446
         -0.0138835990801
         -0.0138809271157
         -0.0138782542199
         -0.0138755822554
         -0.013872910291
         -0.0138702383265
         -0.013867566362
         -0.0138648943976
         -0.0138622224331
         -0.0138595495373
         -0.0138568775728
         -0.0138542056084
         -0.0138515336439
         -0.0138488616794
         -0.013846189715
         -0.0138435177505
         -0.0138408448547
         -0.0138381728902
         -0.0138355009258
         -0.0138328289613
         -0.0138301569968
         -0.0138274850324
         -0.0138248130679
         -0.0138221401721
         -0.0138194682077
         -0.0138167962432
         -0.0138141242787
         -0.0138114523143
         -0.0138087803498
         -0.013806107454
         -0.0138034354895
         -0.0138007635251
         -0.0137980915606
         -0.0137954195961
         -0.0137927476317
         -0.0137900756672
         -0.0137874027714
         -0.0137847308069
         -0.0137820588425
