aces_1.1/luts/V3_LogC_2000_to_linear.spi1d
Version 1
From 0 1
Length 65536
Components 1
{
 -1.8210390583e-02
 -1.8207397312e-02
 -1.8204404041e-02
 -1.8201410770e-02
 -1.8198417500e-02
 -1.8195424229e-02
 -1.8192430958e-02
 -1.8189437687e-02
 -1.8186444417e-02
 -1.8183451146e-02
 -1.8180456012e-02
 -1.8177462742e-02
 -1.8174469471e-02
 -1.8171476200e-02
 -1.8168482929e-02
 -1.8165489659e-02
 -1.8162496388e-02
 -1.8159503117e-02
 -1.8156509846e-02
 -1.8153516576e-02
 -1.8150523305e-02
 -1.8147530034e-02
 -1.8144536763e-02
 -1.8141543493e-02
 -1.8138550222e-02
 -1.8135556951e-02
 -1.8132563680e-02
 -1.8129568547e-02
 -1.8126575276e-02
 -1.8123582006e-02
 -1.8120588735e-02
 -1.8117595464e-02
 -1.8114602193e-02
 -1.8111608922e-02
 -1.8108615652e-02
 -1.8105622381e-02
 -1.8102629110e-02
 -1.8099635839e-02
 -1.8096642569e-02
 -1.8093649298e-02
 -1.8090656027e-02
 -1.8087662756e-02
 -1.8084669486e-02
 -1.8081674352e-02
 -1.8078681082e-02
 -1.8075687811e-02
 -1.8072694540e-02
 -1.8069701269e-02
 -1.8066707999e-02
 -1.8063714728e-02
 -1.8060721457e-02
 -1.8057728186e-02
 -1.8054734915e-02
 -1.8051741645e-02
 -1.8048748374e-02
 -1.8045755103e-02
 -1.8042761832e-02
 -1.8039768562e-02
 -1.8036775291e-02
 -1.8033780158e-02
 -1.8030786887e-02
 -1.8027793616e-02
 -1.8024800345e-02
 -1.8021807075e-02
 -1.8018813804e-02
 -1.8015820533e-02
 -1.8012827262e-02
 -1.8009833992e-02
 -1.8006840721e-02
 -1.8003847450e-02
 -1.8000854179e-02
 -1.7997860909e-02
 -1.7994867638e-02
 -1.7991874367e-02
 -1.7988881096e-02
 -1.7985885963e-02
 -1.7982892692e-02
 -1.7979899421e-02
 -1.7976906151e-02
 -1.7973912880e-02
 -1.7970919609e-02
 -1.7967926338e-02
 -1.7964933068e-02
 -1.7961939797e-02
 -1.7958946526e-02
 -1.7955953255e-02
 -1.7952959985e-02
 -1.7949966714e-02
 -1.7946973443e-02
 -1.7943980172e-02
 -1.7940986902e-02
 -1.7937991768e-02
 -1.7934998497e-02
 -1.7932005227e-02
 -1.7929011956e-02
 -1.7926018685e-02
 -1.7923025414e-02
 -1.7920032144e-02
 -1.7917038873e-02
 -1.7914045602e-02
 -1.7911052331e-02
 -1.7908059061e-02
 -1.7905065790e-02
 -1.7902072519e-02
 -1.7899079248e-02
 -1.7896085978e-02
 -1.7893092707e-02
 -1.7890097573e-02
 -1.7887104303e-02
 -1.7884111032e-02
 -1.7881117761e-02
 -1.7878124490e-02
 -1.7875131220e-02
 -1.7872137949e-02
 -1.7869144678e-02
 -1.7866151407e-02
 -1.7863158137e-02
 -1.7860164866e-02
 -1.7857171595e-02
 -1.7854178324e-02
 -1.7851185054e-02
 -1.7848191783e-02
 -1.7845198512e-02
 -1.7842203379e-02
 -1.7839210108e-02
 -1.7836216837e-02
 -1.7833223566e-02
 -1.7830230296e-02
 -1.7827237025e-02
 -1.7824243754e-02
 -1.7821250483e-02
 -1.7818257213e-02
 -1.7815263942e-02
 -1.7812270671e-02
 -1.7809277400e-02
 -1.7806284130e-02
 -1.7803290859e-02
 -1.7800297588e-02
 -1.7797304317e-02
 -1.7794309184e-02
 -1.7791315913e-02
 -1.7788322642e-02
 -1.7785329372e-02
 -1.7782336101e-02
 -1.7779342830e-02
 -1.7776349559e-02
 -1.7773356289e-02
 -1.7770363018e-02
 -1.7767369747e-02
 -1.7764376476e-02
 -1.7761383206e-02
 -1.7758389935e-02
 -1.7755396664e-02
 -1.7752403393e-02
 -1.7749410123e-02
 -1.7746414989e-02
 -1.7743421718e-02
 -1.7740428448e-02
 -1.7737435177e-02
 -1.7734441906e-02
 -1.7731448635e-02
 -1.7728455365e-02
 -1.7725462094e-02
 -1.7722468823e-02
 -1.7719475552e-02
 -1.7716482282e-02
 -1.7713489011e-02
 -1.7710495740e-02
 -1.7707502469e-02
 -1.7704509199e-02
 -1.7701515928e-02
 -1.7698520795e-02
 -1.7695527524e-02
 -1.7692534253e-02
 -1.7689540982e-02
 -1.7686547711e-02
 -1.7683554441e-02
 -1.7680561170e-02
 -1.7677567899e-02
 -1.7674574628e-02
 -1.7671581358e-02
 -1.7668588087e-02
 -1.7665594816e-02
 -1.7662601545e-02
 -1.7659608275e-02
 -1.7656615004e-02
 -1.7653621733e-02
 -1.7650626600e-02
 -1.7647633329e-02
 -1.7644640058e-02
 -1.7641646788e-02
 -1.7638653517e-02
 -1.7635660246e-02
 -1.7632666975e-02
 -1.7629673705e-02
 -1.7626680434e-02
 -1.7623687163e-02
 -1.7620693892e-02
 -1.7617700621e-02
 -1.7614707351e-02
 -1.7611714080e-02
 -1.7608720809e-02
 -1.7605727538e-02
 -1.7602732405e-02
 -1.7599739134e-02
 -1.7596745864e-02
 -1.7593752593e-02
 -1.7590759322e-02
 -1.7587766051e-02
 -1.7584772781e-02
 -1.7581779510e-02
 -1.7578786239e-02
 -1.7575792968e-02
 -1.7572799698e-02
 -1.7569806427e-02
 -1.7566813156e-02
 -1.7563819885e-02
 -1.7560826614e-02
 -1.7557833344e-02
 -1.7554838210e-02
 -1.7551844940e-02
 -1.7548851669e-02
 -1.7545858398e-02
 -1.7542865127e-02
 -1.7539871857e-02
 -1.7536878586e-02
 -1.7533885315e-02
 -1.7530892044e-02
 -1.7527898774e-02
 -1.7524905503e-02
 -1.7521912232e-02
 -1.7518918961e-02
 -1.7515925691e-02
 -1.7512932420e-02
 -1.7509939149e-02
 -1.7506944016e-02
 -1.7503950745e-02
 -1.7500957474e-02
 -1.7497964203e-02
 -1.7494970933e-02
 -1.7491977662e-02
 -1.7488984391e-02
 -1.7485991120e-02
 -1.7482997850e-02
 -1.7480004579e-02
 -1.7477011308e-02
 -1.7474018037e-02
 -1.7471024767e-02
 -1.7468031496e-02
 -1.7465038225e-02
 -1.7462044954e-02
 -1.7459051684e-02
 -1.7456056550e-02
 -1.7453063279e-02
 -1.7450070009e-02
 -1.7447076738e-02
 -1.7444083467e-02
 -1.7441090196e-02
 -1.7438096926e-02
 -1.7435103655e-02
 -1.7432110384e-02
 -1.7429117113e-02
 -1.7426123843e-02
 -1.7423130572e-02
 -1.7420137301e-02
 -1.7417144030e-02
 -1.7414150760e-02
 -1.7411157489e-02
 -1.7408162355e-02
 -1.7405169085e-02
 -1.7402175814e-02
 -1.7399182543e-02
 -1.7396189272e-02
 -1.7393196002e-02
 -1.7390202731e-02
 -1.7387209460e-02
 -1.7384216189e-02
 -1.7381222919e-02
 -1.7378229648e-02
 -1.7375236377e-02
 -1.7372243106e-02
 -1.7369249836e-02
 -1.7366256565e-02
 -1.7363263294e-02
 -1.7360268161e-02
 -1.7357274890e-02
 -1.7354281619e-02
 -1.7351288348e-02
 -1.7348295078e-02
 -1.7345301807e-02
 -1.7342308536e-02
 -1.7339315265e-02
 -1.7336321995e-02
 -1.7333328724e-02
 -1.7330335453e-02
 -1.7327342182e-02
 -1.7324348912e-02
 -1.7321355641e-02
 -1.7318362370e-02
 -1.7315369099e-02
 -1.7312373966e-02
 -1.7309380695e-02
 -1.7306387424e-02
 -1.7303394154e-02
 -1.7300400883e-02
 -1.7297407612e-02
 -1.7294414341e-02
 -1.7291421071e-02
 -1.7288427800e-02
 -1.7285434529e-02
 -1.7282441258e-02
 -1.7279447988e-02
 -1.7276454717e-02
 -1.7273461446e-02
 -1.7270468175e-02
 -1.7267474905e-02
 -1.7264479771e-02
 -1.7261486501e-02
 -1.7258493230e-02
 -1.7255499959e-02
 -1.7252506688e-02
 -1.7249513417e-02
 -1.7246520147e-02
 -1.7243526876e-02
 -1.7240533605e-02
 -1.7237540334e-02
 -1.7234547064e-02
 -1.7231553793e-02
 -1.7228560522e-02
 -1.7225567251e-02
 -1.7222573981e-02
 -1.7219580710e-02
 -1.7216585577e-02
 -1.7213592306e-02
 -1.7210599035e-02
 -1.7207605764e-02
 -1.7204612494e-02
 -1.7201619223e-02
 -1.7198625952e-02
 -1.7195632681e-02
 -1.7192639410e-02
 -1.7189646140e-02
 -1.7186652869e-02
 -1.7183659598e-02
 -1.7180666327e-02
 -1.7177673057e-02
 -1.7174679786e-02
 -1.7171686515e-02
 -1.7168691382e-02
 -1.7165698111e-02
 -1.7162704840e-02
 -1.7159711570e-02
 -1.7156718299e-02
 -1.7153725028e-02
 -1.7150731757e-02
 -1.7147738487e-02
 -1.7144745216e-02
 -1.7141751945e-02
 -1.7138758674e-02
 -1.7135765404e-02
 -1.7132772133e-02
 -1.7129778862e-02
 -1.7126785591e-02
 -1.7123792320e-02
 -1.7120797187e-02
 -1.7117803916e-02
 -1.7114810646e-02
 -1.7111817375e-02
 -1.7108824104e-02
 -1.7105830833e-02
 -1.7102837563e-02
 -1.7099844292e-02
 -1.7096851021e-02
 -1.7093857750e-02
 -1.7090864480e-02
 -1.7087871209e-02
 -1.7084877938e-02
 -1.7081884667e-02
 -1.7078891397e-02
 -1.7075898126e-02
 -1.7072902992e-02
 -1.7069909722e-02
 -1.7066916451e-02
 -1.7063923180e-02
 -1.7060929909e-02
 -1.7057936639e-02
 -1.7054943368e-02
 -1.7051950097e-02
 -1.7048956826e-02
 -1.7045963556e-02
 -1.7042970285e-02
 -1.7039977014e-02
 -1.7036983743e-02
 -1.7033990473e-02
 -1.7030997202e-02
 -1.7028003931e-02
 -1.7025008798e-02
 -1.7022015527e-02
 -1.7019022256e-02
 -1.7016028985e-02
 -1.7013035715e-02
 -1.7010042444e-02
 -1.7007049173e-02
 -1.7004055902e-02
 -1.7001062632e-02
 -1.6998069361e-02
 -1.6995076090e-02
 -1.6992082819e-02
 -1.6989089549e-02
 -1.6986096278e-02
 -1.6983103007e-02
 -1.6980109736e-02
 -1.6977114603e-02
 -1.6974121332e-02
 -1.6971128061e-02
 -1.6968134791e-02
 -1.6965141520e-02
 -1.6962148249e-02
 -1.6959154978e-02
 -1.6956161708e-02
 -1.6953168437e-02
 -1.6950175166e-02
 -1.6947181895e-02
 -1.6944188625e-02
 -1.6941195354e-02
 -1.6938202083e-02
 -1.6935208812e-02
 -1.6932215542e-02
 -1.6929220408e-02
 -1.6926227137e-02
 -1.6923233867e-02
 -1.6920240596e-02
 -1.6917247325e-02
 -1.6914254054e-02
 -1.6911260784e-02
 -1.6908267513e-02
 -1.6905274242e-02
 -1.6902280971e-02
 -1.6899287701e-02
 -1.6896294430e-02
 -1.6893301159e-02
 -1.6890307888e-02
 -1.6887314618e-02
 -1.6884321347e-02
 -1.6881326213e-02
 -1.6878332943e-02
 -1.6875339672e-02
 -1.6872346401e-02
 -1.6869353130e-02
 -1.6866359860e-02
 -1.6863366589e-02
 -1.6860373318e-02
 -1.6857380047e-02
 -1.6854386777e-02
 -1.6851393506e-02
 -1.6848400235e-02
 -1.6845406964e-02
 -1.6842413694e-02
 -1.6839420423e-02
 -1.6836427152e-02
 -1.6833432019e-02
 -1.6830438748e-02
 -1.6827445477e-02
 -1.6824452206e-02
 -1.6821458936e-02
 -1.6818465665e-02
 -1.6815472394e-02
 -1.6812479123e-02
 -1.6809485853e-02
 -1.6806492582e-02
 -1.6803499311e-02
 -1.6800506040e-02
 -1.6797512770e-02
 -1.6794519499e-02
 -1.6791526228e-02
 -1.6788532957e-02
 -1.6785539687e-02
 -1.6782544553e-02
 -1.6779551283e-02
 -1.6776558012e-02
 -1.6773564741e-02
 -1.6770571470e-02
 -1.6767578200e-02
 -1.6764584929e-02
 -1.6761591658e-02
 -1.6758598387e-02
 -1.6755605116e-02
 -1.6752611846e-02
 -1.6749618575e-02
 -1.6746625304e-02
 -1.6743632033e-02
 -1.6740638763e-02
 -1.6737645492e-02
 -1.6734650359e-02
 -1.6731657088e-02
 -1.6728663817e-02
 -1.6725670546e-02
 -1.6722677276e-02
 -1.6719684005e-02
 -1.6716690734e-02
 -1.6713697463e-02
 -1.6710704193e-02
 -1.6707710922e-02
 -1.6704717651e-02
 -1.6701724380e-02
 -1.6698731109e-02
 -1.6695737839e-02
 -1.6692744568e-02
 -1.6689751297e-02
 -1.6686756164e-02
 -1.6683762893e-02
 -1.6680769622e-02
 -1.6677776352e-02
 -1.6674783081e-02
 -1.6671789810e-02
 -1.6668796539e-02
 -1.6665803269e-02
 -1.6662809998e-02
 -1.6659816727e-02
 -1.6656823456e-02
 -1.6653830186e-02
 -1.6650836915e-02
 -1.6647843644e-02
 -1.6644850373e-02
 -1.6641857103e-02
 -1.6638861969e-02
 -1.6635868698e-02
 -1.6632875428e-02
 -1.6629882157e-02
 -1.6626888886e-02
 -1.6623895615e-02
 -1.6620902345e-02
 -1.6617909074e-02
 -1.6614915803e-02
 -1.6611922532e-02
 -1.6608929262e-02
 -1.6605935991e-02
 -1.6602942720e-02
 -1.6599949449e-02
 -1.6596956179e-02
 -1.6593962908e-02
 -1.6590967774e-02
 -1.6587974504e-02
 -1.6584981233e-02
 -1.6581987962e-02
 -1.6578994691e-02
 -1.6576001421e-02
 -1.6573008150e-02
 -1.6570014879e-02
 -1.6567021608e-02
 -1.6564028338e-02
 -1.6561035067e-02
 -1.6558041796e-02
 -1.6555048525e-02
 -1.6552055255e-02
 -1.6549061984e-02
 -1.6546068713e-02
 -1.6543073580e-02
 -1.6540080309e-02
 -1.6537087038e-02
 -1.6534093767e-02
 -1.6531100497e-02
 -1.6528107226e-02
 -1.6525113955e-02
 -1.6522120684e-02
 -1.6519127414e-02
 -1.6516134143e-02
 -1.6513140872e-02
 -1.6510147601e-02
 -1.6507154331e-02
 -1.6504161060e-02
 -1.6501167789e-02
 -1.6498174518e-02
 -1.6495179385e-02
 -1.6492186114e-02
 -1.6489192843e-02
 -1.6486199573e-02
 -1.6483206302e-02
 -1.6480213031e-02
 -1.6477219760e-02
 -1.6474226490e-02
 -1.6471233219e-02
 -1.6468239948e-02
 -1.6465246677e-02
 -1.6462253407e-02
 -1.6459260136e-02
 -1.6456266865e-02
 -1.6453273594e-02
 -1.6450280324e-02
 -1.6447285190e-02
 -1.6444291919e-02
 -1.6441298649e-02
 -1.6438305378e-02
 -1.6435312107e-02
 -1.6432318836e-02
 -1.6429325566e-02
 -1.6426332295e-02
 -1.6423339024e-02
 -1.6420345753e-02
 -1.6417352483e-02
 -1.6414359212e-02
 -1.6411365941e-02
 -1.6408372670e-02
 -1.6405379400e-02
 -1.6402386129e-02
 -1.6399390996e-02
 -1.6396397725e-02
 -1.6393404454e-02
 -1.6390411183e-02
 -1.6387417912e-02
 -1.6384424642e-02
 -1.6381431371e-02
 -1.6378438100e-02
 -1.6375444829e-02
 -1.6372451559e-02
 -1.6369458288e-02
 -1.6366465017e-02
 -1.6363471746e-02
 -1.6360478476e-02
 -1.6357485205e-02
 -1.6354491934e-02
 -1.6351496801e-02
 -1.6348503530e-02
 -1.6345510259e-02
 -1.6342516989e-02
 -1.6339523718e-02
 -1.6336530447e-02
 -1.6333537176e-02
 -1.6330543905e-02
 -1.6327550635e-02
 -1.6324557364e-02
 -1.6321564093e-02
 -1.6318570822e-02
 -1.6315577552e-02
 -1.6312584281e-02
 -1.6309591010e-02
 -1.6306597739e-02
 -1.6303602606e-02
 -1.6300609335e-02
 -1.6297616065e-02
 -1.6294622794e-02
 -1.6291629523e-02
 -1.6288636252e-02
 -1.6285642982e-02
 -1.6282649711e-02
 -1.6279656440e-02
 -1.6276663169e-02
 -1.6273669899e-02
 -1.6270676628e-02
 -1.6267683357e-02
 -1.6264690086e-02
 -1.6261696815e-02
 -1.6258703545e-02
 -1.6255708411e-02
 -1.6252715141e-02
 -1.6249721870e-02
 -1.6246728599e-02
 -1.6243735328e-02
 -1.6240742058e-02
 -1.6237748787e-02
 -1.6234755516e-02
 -1.6231762245e-02
 -1.6228768975e-02
 -1.6225775704e-02
 -1.6222782433e-02
 -1.6219789162e-02
 -1.6216795892e-02
 -1.6213802621e-02
 -1.6210809350e-02
 -1.6207814217e-02
 -1.6204820946e-02
 -1.6201827675e-02
 -1.6198834404e-02
 -1.6195841134e-02
 -1.6192847863e-02
 -1.6189854592e-02
 -1.6186861321e-02
 -1.6183868051e-02
 -1.6180874780e-02
 -1.6177881509e-02
 -1.6174888238e-02
 -1.6171894968e-02
 -1.6168901697e-02
 -1.6165908426e-02
 -1.6162915155e-02
 -1.6159921885e-02
 -1.6156926751e-02
 -1.6153933480e-02
 -1.6150940210e-02
 -1.6147946939e-02
 -1.6144953668e-02
 -1.6141960397e-02
 -1.6138967127e-02
 -1.6135973856e-02
 -1.6132980585e-02
 -1.6129987314e-02
 -1.6126994044e-02
 -1.6124000773e-02
 -1.6121007502e-02
 -1.6118014231e-02
 -1.6115020961e-02
 -1.6112027690e-02
 -1.6109032556e-02
 -1.6106039286e-02
 -1.6103046015e-02
 -1.6100052744e-02
 -1.6097059473e-02
 -1.6094066203e-02
 -1.6091072932e-02
 -1.6088079661e-02
 -1.6085086390e-02
 -1.6082093120e-02
 -1.6079099849e-02
 -1.6076106578e-02
 -1.6073113307e-02
 -1.6070120037e-02
 -1.6067126766e-02
 -1.6064133495e-02
 -1.6061138362e-02
 -1.6058145091e-02
 -1.6055151820e-02
 -1.6052158549e-02
 -1.6049165279e-02
 -1.6046172008e-02
 -1.6043178737e-02
 -1.6040185466e-02
 -1.6037192196e-02
 -1.6034198925e-02
 -1.6031205654e-02
 -1.6028212383e-02
 -1.6025219113e-02
 -1.6022225842e-02
 -1.6019232571e-02
 -1.6016239300e-02
 -1.6013244167e-02
 -1.6010250896e-02
 -1.6007257625e-02
 -1.6004264355e-02
 -1.6001271084e-02
 -1.5998277813e-02
 -1.5995284542e-02
 -1.5992291272e-02
 -1.5989298001e-02
 -1.5986304730e-02
 -1.5983311459e-02
 -1.5980318189e-02
 -1.5977324918e-02
 -1.5974331647e-02
 -1.5971338376e-02
 -1.5968345106e-02
 -1.5965349972e-02
 -1.5962356701e-02
 -1.5959363431e-02
 -1.5956370160e-02
 -1.5953376889e-02
 -1.5950383618e-02
 -1.5947390348e-02
 -1.5944397077e-02
 -1.5941403806e-02
 -1.5938410535e-02
 -1.5935417265e-02
 -1.5932423994e-02
 -1.5929430723e-02
 -1.5926437452e-02
 -1.5923444182e-02
 -1.5920450911e-02
 -1.5917455778e-02
 -1.5914462507e-02
 -1.5911469236e-02
 -1.5908475965e-02
 -1.5905482695e-02
 -1.5902489424e-02
 -1.5899496153e-02
 -1.5896502882e-02
 -1.5893509611e-02
 -1.5890516341e-02
 -1.5887523070e-02
 -1.5884529799e-02
 -1.5881536528e-02
 -1.5878543258e-02
 -1.5875549987e-02
 -1.5872556716e-02
 -1.5869561583e-02
 -1.5866568312e-02
 -1.5863575041e-02
 -1.5860581771e-02
 -1.5857588500e-02
 -1.5854595229e-02
 -1.5851601958e-02
 -1.5848608688e-02
 -1.5845615417e-02
 -1.5842622146e-02
 -1.5839628875e-02
 -1.5836635605e-02
 -1.5833642334e-02
 -1.5830649063e-02
 -1.5827655792e-02
 -1.5824662521e-02
 -1.5821667388e-02
 -1.5818674117e-02
 -1.5815680847e-02
 -1.5812687576e-02
 -1.5809694305e-02
 -1.5806701034e-02
 -1.5803707764e-02
 -1.5800714493e-02
 -1.5797721222e-02
 -1.5794727951e-02
 -1.5791734681e-02
 -1.5788741410e-02
 -1.5785748139e-02
 -1.5782754868e-02
 -1.5779761598e-02
 -1.5776768327e-02
 -1.5773773193e-02
 -1.5770779923e-02
 -1.5767786652e-02
 -1.5764793381e-02
 -1.5761800110e-02
 -1.5758806840e-02
 -1.5755813569e-02
 -1.5752820298e-02
 -1.5749827027e-02
 -1.5746833757e-02
 -1.5743840486e-02
 -1.5740847215e-02
 -1.5737853944e-02
 -1.5734860674e-02
 -1.5731867403e-02
 -1.5728874132e-02
 -1.5725878999e-02
 -1.5722885728e-02
 -1.5719892457e-02
 -1.5716899186e-02
 -1.5713905916e-02
 -1.5710912645e-02
 -1.5707919374e-02
 -1.5704926103e-02
 -1.5701932833e-02
 -1.5698939562e-02
 -1.5695946291e-02
 -1.5692953020e-02
 -1.5689959750e-02
 -1.5686966479e-02
 -1.5683973208e-02
 -1.5680979937e-02
 -1.5677984804e-02
 -1.5674991533e-02
 -1.5671998262e-02
 -1.5669004992e-02
 -1.5666011721e-02
 -1.5663018450e-02
 -1.5660025179e-02
 -1.5657031909e-02
 -1.5654038638e-02
 -1.5651045367e-02
 -1.5648052096e-02
 -1.5645058826e-02
 -1.5642065555e-02
 -1.5639072284e-02
 -1.5636079013e-02
 -1.5633085743e-02
 -1.5630090609e-02
 -1.5627097338e-02
 -1.5624104999e-02
 -1.5621111728e-02
 -1.5618117526e-02
 -1.5615124255e-02
 -1.5612130985e-02
 -1.5609137714e-02
 -1.5606144443e-02
 -1.5603151172e-02
 -1.5600157902e-02
 -1.5597164631e-02
 -1.5594170429e-02
 -1.5591177158e-02
 -1.5588183887e-02
 -1.5585190617e-02
 -1.5582197346e-02
 -1.5579204075e-02
 -1.5576210804e-02
 -1.5573217534e-02
 -1.5570223331e-02
 -1.5567230061e-02
 -1.5564236790e-02
 -1.5561243519e-02
 -1.5558250248e-02
 -1.5555256978e-02
 -1.5552263707e-02
 -1.5549270436e-02
 -1.5546276234e-02
 -1.5543282963e-02
 -1.5540289693e-02
 -1.5537296422e-02
 -1.5534303151e-02
 -1.5531309880e-02
 -1.5528316610e-02
 -1.5525323339e-02
 -1.5522330068e-02
 -1.5519335866e-02
 -1.5516342595e-02
 -1.5513349324e-02
 -1.5510356054e-02
 -1.5507362783e-02
 -1.5504369512e-02
 -1.5501376241e-02
 -1.5498382971e-02
 -1.5495388769e-02
 -1.5492395498e-02
 -1.5489402227e-02
 -1.5486408956e-02
 -1.5483415686e-02
 -1.5480422415e-02
 -1.5477429144e-02
 -1.5474435873e-02
 -1.5471441671e-02
 -1.5468448400e-02
 -1.5465455130e-02
 -1.5462461859e-02
 -1.5459468588e-02
 -1.5456475317e-02
 -1.5453482047e-02
 -1.5450488776e-02
 -1.5447494574e-02
 -1.5444501303e-02
 -1.5441508032e-02
 -1.5438514762e-02
 -1.5435521491e-02
 -1.5432528220e-02
 -1.5429534949e-02
 -1.5426541679e-02
 -1.5423547477e-02
 -1.5420554206e-02
 -1.5417560935e-02
 -1.5414567664e-02
 -1.5411574394e-02
 -1.5408581123e-02
 -1.5405587852e-02
 -1.5402594581e-02
 -1.5399600379e-02
 -1.5396607108e-02
 -1.5393613838e-02
 -1.5390620567e-02
 -1.5387627296e-02
 -1.5384634025e-02
 -1.5381640755e-02
 -1.5378647484e-02
 -1.5375653282e-02
 -1.5372660011e-02
 -1.5369666740e-02
 -1.5366673470e-02
 -1.5363680199e-02
 -1.5360686928e-02
 -1.5357693657e-02
 -1.5354700387e-02
 -1.5351706184e-02
 -1.5348712914e-02
 -1.5345719643e-02
 -1.5342726372e-02
 -1.5339733101e-02
 -1.5336739831e-02
 -1.5333746560e-02
 -1.5330753289e-02
 -1.5327759087e-02
 -1.5324765816e-02
 -1.5321772546e-02
 -1.5318779275e-02
 -1.5315786004e-02
 -1.5312792733e-02
 -1.5309799463e-02
 -1.5306806192e-02
 -1.5303811990e-02
 -1.5300818719e-02
 -1.5297825448e-02
 -1.5294832177e-02
 -1.5291838907e-02
 -1.5288845636e-02
 -1.5285852365e-02
 -1.5282859094e-02
 -1.5279864892e-02
 -1.5276871622e-02
 -1.5273878351e-02
 -1.5270885080e-02
 -1.5267891809e-02
 -1.5264898539e-02
 -1.5261905268e-02
 -1.5258911997e-02
 -1.5255917795e-02
 -1.5252924524e-02
 -1.5249931253e-02
 -1.5246937983e-02
 -1.5243944712e-02
 -1.5240951441e-02
 -1.5237958170e-02
 -1.5234964900e-02
 -1.5231970698e-02
 -1.5228977427e-02
 -1.5225984156e-02
 -1.5222990885e-02
 -1.5219997615e-02
 -1.5217004344e-02
 -1.5214011073e-02
 -1.5211017802e-02
 -1.5208023600e-02
 -1.5205030330e-02
 -1.5202037059e-02
 -1.5199043788e-02
 -1.5196050517e-02
 -1.5193057247e-02
 -1.5190063976e-02
 -1.5187070705e-02
 -1.5184076503e-02
 -1.5181083232e-02
 -1.5178089961e-02
 -1.5175096691e-02
 -1.5172103420e-02
 -1.5169110149e-02
 -1.5166116878e-02
 -1.5163123608e-02
 -1.5160129406e-02
 -1.5157136135e-02
 -1.5154142864e-02
 -1.5151149593e-02
 -1.5148156323e-02
 -1.5145163052e-02
 -1.5142169781e-02
 -1.5139176510e-02
 -1.5136182308e-02
 -1.5133189037e-02
 -1.5130195767e-02
 -1.5127202496e-02
 -1.5124209225e-02
 -1.5121215954e-02
 -1.5118222684e-02
 -1.5115229413e-02
 -1.5112235211e-02
 -1.5109241940e-02
 -1.5106248669e-02
 -1.5103255399e-02
 -1.5100262128e-02
 -1.5097268857e-02
 -1.5094275586e-02
 -1.5091282316e-02
 -1.5088288113e-02
 -1.5085294843e-02
 -1.5082301572e-02
 -1.5079308301e-02
 -1.5076315030e-02
 -1.5073321760e-02
 -1.5070328489e-02
 -1.5067335218e-02
 -1.5064341016e-02
 -1.5061347745e-02
 -1.5058354475e-02
 -1.5055361204e-02
 -1.5052367933e-02
 -1.5049374662e-02
 -1.5046381392e-02
 -1.5043388121e-02
 -1.5040393919e-02
 -1.5037400648e-02
 -1.5034407377e-02
 -1.5031414106e-02
 -1.5028420836e-02
 -1.5025427565e-02
 -1.5022434294e-02
 -1.5019441023e-02
 -1.5016446821e-02
 -1.5013453551e-02
 -1.5010460280e-02
 -1.5007467009e-02
 -1.5004473738e-02
 -1.5001480468e-02
 -1.4998487197e-02
 -1.4995493926e-02
 -1.4992499724e-02
 -1.4989506453e-02
 -1.4986513183e-02
 -1.4983519912e-02
 -1.4980526641e-02
 -1.4977533370e-02
 -1.4974540100e-02
 -1.4971546829e-02
 -1.4968552627e-02
 -1.4965559356e-02
 -1.4962566085e-02
 -1.4959572814e-02
 -1.4956579544e-02
 -1.4953586273e-02
 -1.4950593002e-02
 -1.4947599731e-02
 -1.4944605529e-02
 -1.4941612259e-02
 -1.4938618988e-02
 -1.4935625717e-02
 -1.4932632446e-02
 -1.4929639176e-02
 -1.4926645905e-02
 -1.4923652634e-02
 -1.4920658432e-02
 -1.4917665161e-02
 -1.4914671890e-02
 -1.4911678620e-02
 -1.4908685349e-02
 -1.4905692078e-02
 -1.4902698807e-02
 -1.4899705537e-02
 -1.4896711335e-02
 -1.4893718064e-02
 -1.4890724793e-02
 -1.4887731522e-02
 -1.4884738252e-02
 -1.4881744981e-02
 -1.4878751710e-02
 -1.4875758439e-02
 -1.4872764237e-02
 -1.4869770966e-02
 -1.4866777696e-02
 -1.4863784425e-02
 -1.4860791154e-02
 -1.4857797883e-02
 -1.4854804613e-02
 -1.4851811342e-02
 -1.4848818071e-02
 -1.4845823869e-02
 -1.4842830598e-02
 -1.4839837328e-02
 -1.4836844057e-02
 -1.4833850786e-02
 -1.4830857515e-02
 -1.4827864245e-02
 -1.4824870974e-02
 -1.4821876772e-02
 -1.4818883501e-02
 -1.4815890230e-02
 -1.4812896959e-02
 -1.4809903689e-02
 -1.4806910418e-02
 -1.4803917147e-02
 -1.4800923876e-02
 -1.4797929674e-02
 -1.4794936404e-02
 -1.4791943133e-02
 -1.4788949862e-02
 -1.4785956591e-02
 -1.4782963321e-02
 -1.4779970050e-02
 -1.4776976779e-02
 -1.4773982577e-02
 -1.4770989306e-02
 -1.4767996036e-02
 -1.4765002765e-02
 -1.4762009494e-02
 -1.4759016223e-02
 -1.4756022952e-02
 -1.4753029682e-02
 -1.4750035480e-02
 -1.4747042209e-02
 -1.4744048938e-02
 -1.4741055667e-02
 -1.4738062397e-02
 -1.4735069126e-02
 -1.4732075855e-02
 -1.4729082584e-02
 -1.4726088382e-02
 -1.4723095112e-02
 -1.4720101841e-02
 -1.4717108570e-02
 -1.4714115299e-02
 -1.4711122029e-02
 -1.4708128758e-02
 -1.4705135487e-02
 -1.4702141285e-02
 -1.4699148014e-02
 -1.4696154743e-02
 -1.4693161473e-02
 -1.4690168202e-02
 -1.4687174931e-02
 -1.4684181660e-02
 -1.4681188390e-02
 -1.4678194188e-02
 -1.4675200917e-02
 -1.4672207646e-02
 -1.4669214375e-02
 -1.4666221105e-02
 -1.4663227834e-02
 -1.4660234563e-02
 -1.4657241292e-02
 -1.4654247090e-02
 -1.4651253819e-02
 -1.4648260549e-02
 -1.4645267278e-02
 -1.4642274007e-02
 -1.4639280736e-02
 -1.4636287466e-02
 -1.4633294195e-02
 -1.4630299993e-02
 -1.4627306722e-02
 -1.4624313451e-02
 -1.4621320181e-02
 -1.4618326910e-02
 -1.4615333639e-02
 -1.4612340368e-02
 -1.4609347098e-02
 -1.4606352895e-02
 -1.4603359625e-02
 -1.4600366354e-02
 -1.4597373083e-02
 -1.4594379812e-02
 -1.4591386542e-02
 -1.4588393271e-02
 -1.4585400000e-02
 -1.4582405798e-02
 -1.4579412527e-02
 -1.4576419257e-02
 -1.4573425986e-02
 -1.4570432715e-02
 -1.4567439444e-02
 -1.4564446174e-02
 -1.4561452903e-02
 -1.4558458701e-02
 -1.4555465430e-02
 -1.4552472159e-02
 -1.4549478889e-02
 -1.4546485618e-02
 -1.4543492347e-02
 -1.4540499076e-02
 -1.4537505805e-02
 -1.4534511603e-02
 -1.4531518333e-02
 -1.4528525062e-02
 -1.4525531791e-02
 -1.4522538520e-02
 -1.4519545250e-02
 -1.4516551979e-02
 -1.4513558708e-02
 -1.4510564506e-02
 -1.4507571235e-02
 -1.4504577965e-02
 -1.4501584694e-02
 -1.4498591423e-02
 -1.4495598152e-02
 -1.4492604882e-02
 -1.4489611611e-02
 -1.4486617409e-02
 -1.4483624138e-02
 -1.4480630867e-02
 -1.4477637596e-02
 -1.4474644326e-02
 -1.4471651055e-02
 -1.4468657784e-02
 -1.4465664513e-02
 -1.4462670311e-02
 -1.4459677041e-02
 -1.4456683770e-02
 -1.4453690499e-02
 -1.4450697228e-02
 -1.4447703958e-02
 -1.4444710687e-02
 -1.4441717416e-02
