aces_1.1/luts/V3_LogC_1280_to_linear.spi1d
Version 1
From 0 1
Length 65536
Components 1
{
 -1.7750438303e-02
 -1.7747519538e-02
 -1.7744600773e-02
 -1.7741683871e-02
 -1.7738765106e-02
 -1.7735846341e-02
 -1.7732929438e-02
 -1.7730010673e-02
 -1.7727093771e-02
 -1.7724175006e-02
 -1.7721256241e-02
 -1.7718339339e-02
 -1.7715420574e-02
 -1.7712501809e-02
 -1.7709584907e-02
 -1.7706666142e-02
 -1.7703747377e-02
 -1.7700830474e-02
 -1.7697911710e-02
 -1.7694994807e-02
 -1.7692076042e-02
 -1.7689157277e-02
 -1.7686240375e-02
 -1.7683321610e-02
 -1.7680402845e-02
 -1.7677485943e-02
 -1.7674567178e-02
 -1.7671648413e-02
 -1.7668731511e-02
 -1.7665812746e-02
 -1.7662895843e-02
 -1.7659977078e-02
 -1.7657058313e-02
 -1.7654141411e-02
 -1.7651222646e-02
 -1.7648303881e-02
 -1.7645386979e-02
 -1.7642468214e-02
 -1.7639549449e-02
 -1.7636632547e-02
 -1.7633713782e-02
 -1.7630796880e-02
 -1.7627878115e-02
 -1.7624959350e-02
 -1.7622042447e-02
 -1.7619123682e-02
 -1.7616204917e-02
 -1.7613288015e-02
 -1.7610369250e-02
 -1.7607450485e-02
 -1.7604533583e-02
 -1.7601614818e-02
 -1.7598697916e-02
 -1.7595779151e-02
 -1.7592860386e-02
 -1.7589943483e-02
 -1.7587024719e-02
 -1.7584105954e-02
 -1.7581189051e-02
 -1.7578270286e-02
 -1.7575353384e-02
 -1.7572434619e-02
 -1.7569515854e-02
 -1.7566598952e-02
 -1.7563680187e-02
 -1.7560761422e-02
 -1.7557844520e-02
 -1.7554925755e-02
 -1.7552006990e-02
 -1.7549090087e-02
 -1.7546171322e-02
 -1.7543254420e-02
 -1.7540335655e-02
 -1.7537416890e-02
 -1.7534499988e-02
 -1.7531581223e-02
 -1.7528662458e-02
 -1.7525745556e-02
 -1.7522826791e-02
 -1.7519908026e-02
 -1.7516991124e-02
 -1.7514072359e-02
 -1.7511155456e-02
 -1.7508236691e-02
 -1.7505317926e-02
 -1.7502401024e-02
 -1.7499482259e-02
 -1.7496563494e-02
 -1.7493646592e-02
 -1.7490727827e-02
 -1.7487809062e-02
 -1.7484892160e-02
 -1.7481973395e-02
 -1.7479056492e-02
 -1.7476137727e-02
 -1.7473218963e-02
 -1.7470302060e-02
 -1.7467383295e-02
 -1.7464464530e-02
 -1.7461547628e-02
 -1.7458628863e-02
 -1.7455710098e-02
 -1.7452793196e-02
 -1.7449874431e-02
 -1.7446957529e-02
 -1.7444038764e-02
 -1.7441119999e-02
 -1.7438203096e-02
 -1.7435284331e-02
 -1.7432365566e-02
 -1.7429448664e-02
 -1.7426529899e-02
 -1.7423611134e-02
 -1.7420694232e-02
 -1.7417775467e-02
 -1.7414858565e-02
 -1.7411939800e-02
 -1.7409021035e-02
 -1.7406104133e-02
 -1.7403185368e-02
 -1.7400266603e-02
 -1.7397349700e-02
 -1.7394430935e-02
 -1.7391512170e-02
 -1.7388595268e-02
 -1.7385676503e-02
 -1.7382759601e-02
 -1.7379840836e-02
 -1.7376922071e-02
 -1.7374005169e-02
 -1.7371086404e-02
 -1.7368167639e-02
 -1.7365250736e-02
 -1.7362331972e-02
 -1.7359413207e-02
 -1.7356496304e-02
 -1.7353577539e-02
 -1.7350660637e-02
 -1.7347741872e-02
 -1.7344823107e-02
 -1.7341906205e-02
 -1.7338987440e-02
 -1.7336068675e-02
 -1.7333151773e-02
 -1.7330233008e-02
 -1.7327316105e-02
 -1.7324397340e-02
 -1.7321478575e-02
 -1.7318561673e-02
 -1.7315642908e-02
 -1.7312724143e-02
 -1.7309807241e-02
 -1.7306888476e-02
 -1.7303969711e-02
 -1.7301052809e-02
 -1.7298134044e-02
 -1.7295217142e-02
 -1.7292298377e-02
 -1.7289379612e-02
 -1.7286462709e-02
 -1.7283543944e-02
 -1.7280625179e-02
 -1.7277708277e-02
 -1.7274789512e-02
 -1.7271870747e-02
 -1.7268953845e-02
 -1.7266035080e-02
 -1.7263118178e-02
 -1.7260199413e-02
 -1.7257280648e-02
 -1.7254363745e-02
 -1.7251444981e-02
 -1.7248526216e-02
 -1.7245609313e-02
 -1.7242690548e-02
 -1.7239771783e-02
 -1.7236854881e-02
 -1.7233936116e-02
 -1.7231019214e-02
 -1.7228100449e-02
 -1.7225181684e-02
 -1.7222264782e-02
 -1.7219346017e-02
 -1.7216427252e-02
 -1.7213510349e-02
 -1.7210591584e-02
 -1.7207672819e-02
 -1.7204755917e-02
 -1.7201837152e-02
 -1.7198920250e-02
 -1.7196001485e-02
 -1.7193082720e-02
 -1.7190165818e-02
 -1.7187247053e-02
 -1.7184328288e-02
 -1.7181411386e-02
 -1.7178492621e-02
 -1.7175573856e-02
 -1.7172656953e-02
 -1.7169738188e-02
 -1.7166821286e-02
 -1.7163902521e-02
 -1.7160983756e-02
 -1.7158066854e-02
 -1.7155148089e-02
 -1.7152229324e-02
 -1.7149312422e-02
 -1.7146393657e-02
 -1.7143474892e-02
 -1.7140557989e-02
 -1.7137639225e-02
 -1.7134722322e-02
 -1.7131803557e-02
 -1.7128884792e-02
 -1.7125967890e-02
 -1.7123049125e-02
 -1.7120130360e-02
 -1.7117213458e-02
 -1.7114294693e-02
 -1.7111377791e-02
 -1.7108459026e-02
 -1.7105540261e-02
 -1.7102623358e-02
 -1.7099704593e-02
 -1.7096785828e-02
 -1.7093868926e-02
 -1.7090950161e-02
 -1.7088031396e-02
 -1.7085114494e-02
 -1.7082195729e-02
 -1.7079278827e-02
 -1.7076360062e-02
 -1.7073441297e-02
 -1.7070524395e-02
 -1.7067605630e-02
 -1.7064686865e-02
 -1.7061769962e-02
 -1.7058851197e-02
 -1.7055932432e-02
 -1.7053015530e-02
 -1.7050096765e-02
 -1.7047179863e-02
 -1.7044261098e-02
 -1.7041342333e-02
 -1.7038425431e-02
 -1.7035506666e-02
 -1.7032587901e-02
 -1.7029670998e-02
 -1.7026752234e-02
 -1.7023833469e-02
 -1.7020916566e-02
 -1.7017997801e-02
 -1.7015080899e-02
 -1.7012162134e-02
 -1.7009243369e-02
 -1.7006326467e-02
 -1.7003407702e-02
 -1.7000488937e-02
 -1.6997572035e-02
 -1.6994653270e-02
 -1.6991734505e-02
 -1.6988817602e-02
 -1.6985898837e-02
 -1.6982981935e-02
 -1.6980063170e-02
 -1.6977144405e-02
 -1.6974227503e-02
 -1.6971308738e-02
 -1.6968389973e-02
 -1.6965473071e-02
 -1.6962554306e-02
 -1.6959635541e-02
 -1.6956718639e-02
 -1.6953799874e-02
 -1.6950882971e-02
 -1.6947964206e-02
 -1.6945045441e-02
 -1.6942128539e-02
 -1.6939209774e-02
 -1.6936291009e-02
 -1.6933374107e-02
 -1.6930455342e-02
 -1.6927536577e-02
 -1.6924619675e-02
 -1.6921700910e-02
 -1.6918784007e-02
 -1.6915865242e-02
 -1.6912946478e-02
 -1.6910029575e-02
 -1.6907110810e-02
 -1.6904192045e-02
 -1.6901275143e-02
 -1.6898356378e-02
 -1.6895439476e-02
 -1.6892520711e-02
 -1.6889601946e-02
 -1.6886685044e-02
 -1.6883766279e-02
 -1.6880847514e-02
 -1.6877930611e-02
 -1.6875011846e-02
 -1.6872093081e-02
 -1.6869176179e-02
 -1.6866257414e-02
 -1.6863340512e-02
 -1.6860421747e-02
 -1.6857502982e-02
 -1.6854586080e-02
 -1.6851667315e-02
 -1.6848748550e-02
 -1.6845831648e-02
 -1.6842912883e-02
 -1.6839994118e-02
 -1.6837077215e-02
 -1.6834158450e-02
 -1.6831241548e-02
 -1.6828322783e-02
 -1.6825404018e-02
 -1.6822487116e-02
 -1.6819568351e-02
 -1.6816649586e-02
 -1.6813732684e-02
 -1.6810813919e-02
 -1.6807895154e-02
 -1.6804978251e-02
 -1.6802059487e-02
 -1.6799142584e-02
 -1.6796223819e-02
 -1.6793305054e-02
 -1.6790388152e-02
 -1.6787469387e-02
 -1.6784550622e-02
 -1.6781633720e-02
 -1.6778714955e-02
 -1.6775796190e-02
 -1.6772879288e-02
 -1.6769960523e-02
 -1.6767043620e-02
 -1.6764124855e-02
 -1.6761206090e-02
 -1.6758289188e-02
 -1.6755370423e-02
 -1.6752451658e-02
 -1.6749534756e-02
 -1.6746615991e-02
 -1.6743697226e-02
 -1.6740780324e-02
 -1.6737861559e-02
 -1.6734944656e-02
 -1.6732025892e-02
 -1.6729107127e-02
 -1.6726190224e-02
 -1.6723271459e-02
 -1.6720352694e-02
 -1.6717435792e-02
 -1.6714517027e-02
 -1.6711598262e-02
 -1.6708681360e-02
 -1.6705762595e-02
 -1.6702845693e-02
 -1.6699926928e-02
 -1.6697008163e-02
 -1.6694091260e-02
 -1.6691172495e-02
 -1.6688253731e-02
 -1.6685336828e-02
 -1.6682418063e-02
 -1.6679501161e-02
 -1.6676582396e-02
 -1.6673663631e-02
 -1.6670746729e-02
 -1.6667827964e-02
 -1.6664909199e-02
 -1.6661992297e-02
 -1.6659073532e-02
 -1.6656154767e-02
 -1.6653237864e-02
 -1.6650319099e-02
 -1.6647402197e-02
 -1.6644483432e-02
 -1.6641564667e-02
 -1.6638647765e-02
 -1.6635729000e-02
 -1.6632810235e-02
 -1.6629893333e-02
 -1.6626974568e-02
 -1.6624055803e-02
 -1.6621138901e-02
 -1.6618220136e-02
 -1.6615303233e-02
 -1.6612384468e-02
 -1.6609465703e-02
 -1.6606548801e-02
 -1.6603630036e-02
 -1.6600711271e-02
 -1.6597794369e-02
 -1.6594875604e-02
 -1.6591956839e-02
 -1.6589039937e-02
 -1.6586121172e-02
 -1.6583204269e-02
 -1.6580285504e-02
 -1.6577366740e-02
 -1.6574449837e-02
 -1.6571531072e-02
 -1.6568612307e-02
 -1.6565695405e-02
 -1.6562776640e-02
 -1.6559857875e-02
 -1.6556940973e-02
 -1.6554022208e-02
 -1.6551105306e-02
 -1.6548186541e-02
 -1.6545267776e-02
 -1.6542350873e-02
 -1.6539432108e-02
 -1.6536513343e-02
 -1.6533596441e-02
 -1.6530677676e-02
 -1.6527758911e-02
 -1.6524842009e-02
 -1.6521923244e-02
 -1.6519006342e-02
 -1.6516087577e-02
 -1.6513168812e-02
 -1.6510251909e-02
 -1.6507333145e-02
 -1.6504414380e-02
 -1.6501497477e-02
 -1.6498578712e-02
 -1.6495659947e-02
 -1.6492743045e-02
 -1.6489824280e-02
 -1.6486907378e-02
 -1.6483988613e-02
 -1.6481069848e-02
 -1.6478152946e-02
 -1.6475234181e-02
 -1.6472315416e-02
 -1.6469398513e-02
 -1.6466479748e-02
 -1.6463562846e-02
 -1.6460644081e-02
 -1.6457725316e-02
 -1.6454808414e-02
 -1.6451889649e-02
 -1.6448970884e-02
 -1.6446053982e-02
 -1.6443135217e-02
 -1.6440216452e-02
 -1.6437299550e-02
 -1.6434380785e-02
 -1.6431463882e-02
 -1.6428545117e-02
 -1.6425626352e-02
 -1.6422709450e-02
 -1.6419790685e-02
 -1.6416871920e-02
 -1.6413955018e-02
 -1.6411036253e-02
 -1.6408117488e-02
 -1.6405200586e-02
 -1.6402281821e-02
 -1.6399364918e-02
 -1.6396446154e-02
 -1.6393527389e-02
 -1.6390610486e-02
 -1.6387691721e-02
 -1.6384772956e-02
 -1.6381856054e-02
 -1.6378937289e-02
 -1.6376018524e-02
 -1.6373101622e-02
 -1.6370182857e-02
 -1.6367265955e-02
 -1.6364347190e-02
 -1.6361428425e-02
 -1.6358511522e-02
 -1.6355592757e-02
 -1.6352673993e-02
 -1.6349757090e-02
 -1.6346838325e-02
 -1.6343919560e-02
 -1.6341002658e-02
 -1.6338083893e-02
 -1.6335166991e-02
 -1.6332248226e-02
 -1.6329329461e-02
 -1.6326412559e-02
 -1.6323493794e-02
 -1.6320575029e-02
 -1.6317658126e-02
 -1.6314739361e-02
 -1.6311820596e-02
 -1.6308903694e-02
 -1.6305984929e-02
 -1.6303068027e-02
 -1.6300149262e-02
 -1.6297230497e-02
 -1.6294313595e-02
 -1.6291394830e-02
 -1.6288476065e-02
 -1.6285559162e-02
 -1.6282640398e-02
 -1.6279721633e-02
 -1.6276804730e-02
 -1.6273885965e-02
 -1.6270969063e-02
 -1.6268050298e-02
 -1.6265131533e-02
 -1.6262214631e-02
 -1.6259295866e-02
 -1.6256377101e-02
 -1.6253460199e-02
 -1.6250541434e-02
 -1.6247624531e-02
 -1.6244705766e-02
 -1.6241787001e-02
 -1.6238870099e-02
 -1.6235951334e-02
 -1.6233032569e-02
 -1.6230115667e-02
 -1.6227196902e-02
 -1.6224278137e-02
 -1.6221361235e-02
 -1.6218442470e-02
 -1.6215525568e-02
 -1.6212606803e-02
 -1.6209688038e-02
 -1.6206771135e-02
 -1.6203852370e-02
 -1.6200933605e-02
 -1.6198016703e-02
 -1.6195097938e-02
 -1.6192179173e-02
 -1.6189262271e-02
 -1.6186343506e-02
 -1.6183426604e-02
 -1.6180507839e-02
 -1.6177589074e-02
 -1.6174672171e-02
 -1.6171753407e-02
 -1.6168834642e-02
 -1.6165917739e-02
 -1.6162998974e-02
 -1.6160080209e-02
 -1.6157163307e-02
 -1.6154244542e-02
 -1.6151327640e-02
 -1.6148408875e-02
 -1.6145490110e-02
 -1.6142573208e-02
 -1.6139654443e-02
 -1.6136735678e-02
 -1.6133818775e-02
 -1.6130900010e-02
 -1.6127981246e-02
 -1.6125064343e-02
 -1.6122145578e-02
 -1.6119228676e-02
 -1.6116309911e-02
 -1.6113391146e-02
 -1.6110474244e-02
 -1.6107555479e-02
 -1.6104636714e-02
 -1.6101719812e-02
 -1.6098801047e-02
 -1.6095882282e-02
 -1.6092965379e-02
 -1.6090046614e-02
 -1.6087129712e-02
 -1.6084210947e-02
 -1.6081292182e-02
 -1.6078375280e-02
 -1.6075456515e-02
 -1.6072537750e-02
 -1.6069620848e-02
 -1.6066702083e-02
 -1.6063783318e-02
 -1.6060866416e-02
 -1.6057947651e-02
 -1.6055030748e-02
 -1.6052111983e-02
 -1.6049193218e-02
 -1.6046276316e-02
 -1.6043357551e-02
 -1.6040438786e-02
 -1.6037521884e-02
 -1.6034603119e-02
 -1.6031686217e-02
 -1.6028767452e-02
 -1.6025848687e-02
 -1.6022931784e-02
 -1.6020013019e-02
 -1.6017094254e-02
 -1.6014177352e-02
 -1.6011258587e-02
 -1.6008339822e-02
 -1.6005422920e-02
 -1.6002504155e-02
 -1.5999587253e-02
 -1.5996668488e-02
 -1.5993749723e-02
 -1.5990832821e-02
 -1.5987914056e-02
 -1.5984995291e-02
 -1.5982078388e-02
 -1.5979159623e-02
 -1.5976240858e-02
 -1.5973323956e-02
 -1.5970405191e-02
 -1.5967488289e-02
 -1.5964569524e-02
 -1.5961650759e-02
 -1.5958733857e-02
 -1.5955815092e-02
 -1.5952896327e-02
 -1.5949979424e-02
 -1.5947060660e-02
 -1.5944141895e-02
 -1.5941224992e-02
 -1.5938306227e-02
 -1.5935389325e-02
 -1.5932470560e-02
 -1.5929551795e-02
 -1.5926634893e-02
 -1.5923716128e-02
 -1.5920797363e-02
 -1.5917880461e-02
 -1.5914961696e-02
 -1.5912042931e-02
 -1.5909126028e-02
 -1.5906207263e-02
 -1.5903290361e-02
 -1.5900371596e-02
 -1.5897452831e-02
 -1.5894535929e-02
 -1.5891617164e-02
 -1.5888698399e-02
 -1.5885781497e-02
 -1.5882862732e-02
 -1.5879943967e-02
 -1.5877027065e-02
 -1.5874108300e-02
 -1.5871191397e-02
 -1.5868272632e-02
 -1.5865353867e-02
 -1.5862436965e-02
 -1.5859518200e-02
 -1.5856599435e-02
 -1.5853682533e-02
 -1.5850763768e-02
 -1.5847845003e-02
 -1.5844928101e-02
 -1.5842009336e-02
 -1.5839092433e-02
 -1.5836173669e-02
 -1.5833254904e-02
 -1.5830338001e-02
 -1.5827419236e-02
 -1.5824500471e-02
 -1.5821583569e-02
 -1.5818664804e-02
 -1.5815747902e-02
 -1.5812829137e-02
 -1.5809910372e-02
 -1.5806993470e-02
 -1.5804074705e-02
 -1.5801155940e-02
 -1.5798239037e-02
 -1.5795320272e-02
 -1.5792401507e-02
 -1.5789484605e-02
 -1.5786565840e-02
 -1.5783648938e-02
 -1.5780730173e-02
 -1.5777811408e-02
 -1.5774894506e-02
 -1.5771975741e-02
 -1.5769056976e-02
 -1.5766140074e-02
 -1.5763221309e-02
 -1.5760302544e-02
 -1.5757385641e-02
 -1.5754466876e-02
 -1.5751549974e-02
 -1.5748631209e-02
 -1.5745712444e-02
 -1.5742795542e-02
 -1.5739876777e-02
 -1.5736958012e-02
 -1.5734041110e-02
 -1.5731122345e-02
 -1.5728203580e-02
 -1.5725286677e-02
 -1.5722367913e-02
 -1.5719451010e-02
 -1.5716532245e-02
 -1.5713613480e-02
 -1.5710696578e-02
 -1.5707777813e-02
 -1.5704859048e-02
 -1.5701942146e-02
 -1.5699023381e-02
 -1.5696104616e-02
 -1.5693187714e-02
 -1.5690268949e-02
 -1.5687352046e-02
 -1.5684433281e-02
 -1.5681514516e-02
 -1.5678597614e-02
 -1.5675678849e-02
 -1.5672760084e-02
 -1.5669843182e-02
 -1.5666924417e-02
 -1.5664005652e-02
 -1.5661088750e-02
 -1.5658169985e-02
 -1.5655253083e-02
 -1.5652334318e-02
 -1.5649415553e-02
 -1.5646498650e-02
 -1.5643579885e-02
 -1.5640661120e-02
 -1.5637744218e-02
 -1.5634825453e-02
 -1.5631906688e-02
 -1.5628989786e-02
 -1.5626071021e-02
 -1.5623153187e-02
 -1.5620235354e-02
 -1.5617317520e-02
 -1.5614398755e-02
 -1.5611480922e-02
 -1.5608563088e-02
 -1.5605645254e-02
 -1.5602726489e-02
 -1.5599808656e-02
 -1.5596890822e-02
 -1.5593972057e-02
 -1.5591054223e-02
 -1.5588136390e-02
 -1.5585218556e-02
 -1.5582299791e-02
 -1.5579381958e-02
 -1.5576464124e-02
 -1.5573546290e-02
 -1.5570627525e-02
 -1.5567709692e-02
 -1.5564791858e-02
 -1.5561874025e-02
 -1.5558955260e-02
 -1.5556037426e-02
 -1.5553119592e-02
 -1.5550200827e-02
 -1.5547282994e-02
 -1.5544365160e-02
 -1.5541447327e-02
 -1.5538528562e-02
 -1.5535610728e-02
 -1.5532692894e-02
 -1.5529775061e-02
 -1.5526856296e-02
 -1.5523938462e-02
 -1.5521020629e-02
 -1.5518101864e-02
 -1.5515184030e-02
 -1.5512266196e-02
 -1.5509348363e-02
 -1.5506429598e-02
 -1.5503511764e-02
 -1.5500593930e-02
 -1.5497676097e-02
 -1.5494757332e-02
 -1.5491839498e-02
 -1.5488921665e-02
 -1.5486002900e-02
 -1.5483085066e-02
 -1.5480167232e-02
 -1.5477249399e-02
 -1.5474330634e-02
 -1.5471412800e-02
 -1.5468494967e-02
 -1.5465577133e-02
 -1.5462658368e-02
 -1.5459740534e-02
 -1.5456822701e-02
 -1.5453904867e-02
 -1.5450986102e-02
 -1.5448068269e-02
 -1.5445150435e-02
 -1.5442231670e-02
 -1.5439313836e-02
 -1.5436396003e-02
 -1.5433478169e-02
 -1.5430559404e-02
 -1.5427641571e-02
 -1.5424723737e-02
 -1.5421805903e-02
 -1.5418887138e-02
 -1.5415969305e-02
 -1.5413051471e-02
 -1.5410132706e-02
 -1.5407214873e-02
 -1.5404297039e-02
 -1.5401379205e-02
 -1.5398460440e-02
 -1.5395542607e-02
 -1.5392624773e-02
 -1.5389706939e-02
 -1.5386788175e-02
 -1.5383870341e-02
 -1.5380952507e-02
 -1.5378033742e-02
 -1.5375115909e-02
 -1.5372198075e-02
 -1.5369280241e-02
 -1.5366361476e-02
 -1.5363443643e-02
 -1.5360525809e-02
 -1.5357607976e-02
 -1.5354689211e-02
 -1.5351771377e-02
 -1.5348853543e-02
 -1.5345935710e-02
 -1.5343016945e-02
 -1.5340099111e-02
 -1.5337181278e-02
 -1.5334262513e-02
 -1.5331344679e-02
 -1.5328426845e-02
 -1.5325509012e-02
 -1.5322590247e-02
 -1.5319672413e-02
 -1.5316754580e-02
 -1.5313836746e-02
 -1.5310917981e-02
 -1.5308000147e-02
 -1.5305082314e-02
 -1.5302163549e-02
 -1.5299245715e-02
 -1.5296327882e-02
 -1.5293410048e-02
 -1.5290491283e-02
 -1.5287573449e-02
 -1.5284655616e-02
 -1.5281737782e-02
 -1.5278819017e-02
 -1.5275901183e-02
 -1.5272983350e-02
 -1.5270064585e-02
 -1.5267146751e-02
 -1.5264228918e-02
 -1.5261311084e-02
 -1.5258392319e-02
 -1.5255474485e-02
 -1.5252556652e-02
 -1.5249638818e-02
 -1.5246720053e-02
 -1.5243802220e-02
 -1.5240884386e-02
 -1.5237966552e-02
 -1.5235047787e-02
 -1.5232129954e-02
 -1.5229212120e-02
 -1.5226293355e-02
 -1.5223375522e-02
 -1.5220457688e-02
 -1.5217539854e-02
 -1.5214621089e-02
 -1.5211703256e-02
 -1.5208785422e-02
 -1.5205867589e-02
 -1.5202948824e-02
 -1.5200030990e-02
 -1.5197113156e-02
 -1.5194194391e-02
 -1.5191276558e-02
 -1.5188358724e-02
 -1.5185440890e-02
 -1.5182522126e-02
 -1.5179604292e-02
 -1.5176686458e-02
 -1.5173768625e-02
 -1.5170849860e-02
 -1.5167932026e-02
 -1.5165014192e-02
 -1.5162095428e-02
 -1.5159177594e-02
 -1.5156259760e-02
 -1.5153341927e-02
 -1.5150423162e-02
 -1.5147505328e-02
 -1.5144587494e-02
 -1.5141669661e-02
 -1.5138750896e-02
 -1.5135833062e-02
 -1.5132915229e-02
 -1.5129997395e-02
 -1.5127078630e-02
 -1.5124160796e-02
 -1.5121242963e-02
 -1.5118324198e-02
 -1.5115406364e-02
 -1.5112488531e-02
 -1.5109570697e-02
 -1.5106651932e-02
 -1.5103734098e-02
 -1.5100816265e-02
 -1.5097898431e-02
 -1.5094979666e-02
 -1.5092061833e-02
 -1.5089143999e-02
 -1.5086225234e-02
 -1.5083307400e-02
 -1.5080389567e-02
 -1.5077471733e-02
 -1.5074552968e-02
 -1.5071635135e-02
 -1.5068717301e-02
 -1.5065799467e-02
 -1.5062880702e-02
 -1.5059962869e-02
 -1.5057045035e-02
 -1.5054126270e-02
 -1.5051208436e-02
 -1.5048290603e-02
 -1.5045372769e-02
 -1.5042454004e-02
 -1.5039536171e-02
 -1.5036618337e-02
 -1.5033700503e-02
 -1.5030781738e-02
 -1.5027863905e-02
 -1.5024946071e-02
 -1.5022028238e-02
 -1.5019109473e-02
 -1.5016191639e-02
 -1.5013273805e-02
 -1.5010355040e-02
 -1.5007437207e-02
 -1.5004519373e-02
 -1.5001601540e-02
 -1.4998682775e-02
 -1.4995764941e-02
 -1.4992847107e-02
 -1.4989929274e-02
 -1.4987010509e-02
 -1.4984092675e-02
 -1.4981174842e-02
 -1.4978256077e-02
 -1.4975338243e-02
 -1.4972420409e-02
 -1.4969502576e-02
 -1.4966583811e-02
 -1.4963665977e-02
 -1.4960748143e-02
 -1.4957830310e-02
 -1.4954911545e-02
 -1.4951993711e-02
 -1.4949075878e-02
 -1.4946157113e-02
 -1.4943239279e-02
 -1.4940321445e-02
 -1.4937403612e-02
 -1.4934484847e-02
 -1.4931567013e-02
 -1.4928649180e-02
 -1.4925731346e-02
 -1.4922812581e-02
 -1.4919894747e-02
 -1.4916976914e-02
 -1.4914059080e-02
 -1.4911140315e-02
 -1.4908222482e-02
 -1.4905304648e-02
 -1.4902385883e-02
 -1.4899468049e-02
 -1.4896550216e-02
 -1.4893632382e-02
 -1.4890713617e-02
 -1.4887795784e-02
 -1.4884877950e-02
 -1.4881960116e-02
 -1.4879041351e-02
 -1.4876123518e-02
 -1.4873205684e-02
 -1.4870286919e-02
 -1.4867369086e-02
 -1.4864451252e-02
 -1.4861533418e-02
 -1.4858614653e-02
 -1.4855696820e-02
 -1.4852778986e-02
 -1.4849861152e-02
 -1.4846942388e-02
 -1.4844024554e-02
 -1.4841106720e-02
 -1.4838187955e-02
 -1.4835270122e-02
 -1.4832352288e-02
 -1.4829434454e-02
 -1.4826515689e-02
 -1.4823597856e-02
 -1.4820680022e-02
 -1.4817762189e-02
 -1.4814843424e-02
 -1.4811925590e-02
 -1.4809007756e-02
 -1.4806089923e-02
 -1.4803171158e-02
 -1.4800253324e-02
 -1.4797335491e-02
 -1.4794416726e-02
 -1.4791498892e-02
 -1.4788581058e-02
 -1.4785663225e-02
 -1.4782744460e-02
 -1.4779826626e-02
 -1.4776908793e-02
 -1.4773990959e-02
 -1.4771072194e-02
 -1.4768154360e-02
 -1.4765236527e-02
 -1.4762317762e-02
 -1.4759399928e-02
 -1.4756482095e-02
 -1.4753564261e-02
 -1.4750645496e-02
 -1.4747727662e-02
 -1.4744809829e-02
 -1.4741891995e-02
 -1.4738973230e-02
 -1.4736055396e-02
 -1.4733137563e-02
 -1.4730218798e-02
 -1.4727300964e-02
 -1.4724383131e-02
 -1.4721465297e-02
 -1.4718546532e-02
 -1.4715628698e-02
 -1.4712710865e-02
 -1.4709793031e-02
 -1.4706874266e-02
 -1.4703956433e-02
 -1.4701038599e-02
 -1.4698120765e-02
 -1.4695202000e-02
 -1.4692284167e-02
 -1.4689366333e-02
 -1.4686447568e-02
 -1.4683529735e-02
 -1.4680611901e-02
 -1.4677694067e-02
 -1.4674775302e-02
 -1.4671857469e-02
 -1.4668939635e-02
 -1.4666021802e-02
 -1.4663103037e-02
 -1.4660185203e-02
 -1.4657267369e-02
 -1.4654348604e-02
 -1.4651430771e-02
 -1.4648512937e-02
 -1.4645595104e-02
 -1.4642676339e-02
 -1.4639758505e-02
 -1.4636840671e-02
 -1.4633922838e-02
 -1.4631004073e-02
 -1.4628086239e-02
 -1.4625168405e-02
 -1.4622249641e-02
 -1.4619331807e-02
 -1.4616413973e-02
 -1.4613496140e-02
 -1.4610577375e-02
 -1.4607659541e-02
 -1.4604741707e-02
 -1.4601823874e-02
 -1.4598905109e-02
 -1.4595987275e-02
 -1.4593069442e-02
 -1.4590150677e-02
 -1.4587232843e-02
 -1.4584315009e-02
 -1.4581397176e-02
 -1.4578478411e-02
 -1.4575560577e-02
 -1.4572642744e-02
 -1.4569724910e-02
 -1.4566806145e-02
 -1.4563888311e-02
 -1.4560970478e-02
 -1.4558052644e-02
 -1.4555133879e-02
 -1.4552216046e-02
 -1.4549298212e-02
 -1.4546379447e-02
 -1.4543461613e-02
 -1.4540543780e-02
 -1.4537625946e-02
 -1.4534707181e-02
 -1.4531789348e-02
 -1.4528871514e-02
 -1.4525953680e-02
 -1.4523034915e-02
 -1.4520117082e-02
 -1.4517199248e-02
 -1.4514280483e-02
 -1.4511362650e-02
 -1.4508444816e-02
 -1.4505526982e-02
 -1.4502608217e-02
 -1.4499690384e-02
 -1.4496772550e-02
 -1.4493854716e-02
 -1.4490935951e-02
 -1.4488018118e-02
 -1.4485100284e-02
 -1.4482181519e-02
 -1.4479263686e-02
 -1.4476345852e-02
 -1.4473428018e-02
 -1.4470509253e-02
 -1.4467591420e-02
 -1.4464673586e-02
 -1.4461755753e-02
 -1.4458836988e-02
 -1.4455919154e-02
 -1.4453001320e-02
 -1.4450083487e-02
 -1.4447164722e-02
 -1.4444246888e-02
 -1.4441329055e-02
 -1.4438410290e-02
 -1.4435492456e-02
 -1.4432574622e-02
 -1.4429656789e-02
 -1.4426738024e-02
 -1.4423820190e-02
 -1.4420902357e-02
 -1.4417984523e-02
 -1.4415065758e-02
 -1.4412147924e-02
 -1.4409230091e-02
 -1.4406311326e-02
 -1.4403393492e-02
 -1.4400475658e-02
 -1.4397557825e-02
 -1.4394639060e-02
 -1.4391721226e-02
 -1.4388803393e-02
 -1.4385885559e-02
 -1.4382966794e-02
 -1.4380048960e-02
 -1.4377131127e-02
 -1.4374212362e-02
 -1.4371294528e-02
 -1.4368376695e-02
 -1.4365458861e-02
 -1.4362540096e-02
 -1.4359622262e-02
 -1.4356704429e-02
 -1.4353786595e-02
 -1.4350867830e-02
 -1.4347949997e-02
 -1.4345032163e-02
 -1.4342114329e-02
 -1.4339195564e-02
 -1.4336277731e-02
 -1.4333359897e-02
 -1.4330441132e-02
 -1.4327523299e-02
 -1.4324605465e-02
 -1.4321687631e-02
 -1.4318768866e-02
 -1.4315851033e-02
 -1.4312933199e-02
 -1.4310015365e-02
 -1.4307096601e-02
 -1.4304178767e-02
 -1.4301260933e-02
 -1.4298342168e-02
 -1.4295424335e-02
 -1.4292506501e-02
 -1.4289588667e-02
 -1.4286669903e-02
 -1.4283752069e-02
 -1.4280834235e-02
 -1.4277916402e-02
 -1.4274997637e-02
 -1.4272079803e-02
 -1.4269161969e-02
 -1.4266243204e-02
 -1.4263325371e-02
 -1.4260407537e-02
 -1.4257489704e-02
 -1.4254570939e-02
 -1.4251653105e-02
 -1.4248735271e-02
 -1.4245817438e-02
 -1.4242898673e-02
 -1.4239980839e-02
 -1.4237063006e-02
 -1.4234145172e-02
 -1.4231226407e-02
 -1.4228308573e-02
 -1.4225390740e-02
 -1.4222471975e-02
 -1.4219554141e-02
 -1.4216636308e-02
 -1.4213718474e-02
 -1.4210799709e-02
 -1.4207881875e-02
 -1.4204964042e-02
 -1.4202046208e-02
 -1.4199127443e-02
 -1.4196209610e-02
 -1.4193291776e-02
 -1.4190373011e-02
 -1.4187455177e-02
 -1.4184537344e-02
 -1.4181619510e-02
 -1.4178700745e-02
 -1.4175782911e-02
 -1.4172865078e-02
 -1.4169947244e-02
 -1.4167028479e-02
 -1.4164110646e-02
 -1.4161192812e-02
 -1.4158274047e-02
 -1.4155356213e-02
 -1.4152438380e-02
 -1.4149520546e-02
 -1.4146601781e-02
 -1.4143683948e-02
 -1.4140766114e-02
 -1.4137848280e-02
 -1.4134929515e-02
 -1.4132011682e-02
 -1.4129093848e-02
 -1.4126176015e-02
 -1.4123257250e-02
 -1.4120339416e-02
 -1.4117421582e-02
 -1.4114502817e-02
 -1.4111584984e-02
 -1.4108667150e-02
 -1.4105749317e-02
 -1.4102830552e-02
 -1.4099912718e-02
 -1.4096994884e-02
 -1.4094077051e-02
 -1.4091158286e-02
 -1.4088240452e-02
 -1.4085322618e-02
 -1.4082403854e-02
 -1.4079486020e-02
 -1.4076568186e-02
