aces_1.1/luts/V3_LogC_3200_to_linear.spi1d
Version 1
From 0.000000 1.000000
Length 65536
Components 1
{
         -0.0187212545425
         -0.0187181774527
         -0.0187151003629
         -0.0187120232731
         -0.0187089461833
         -0.0187058709562
         -0.0187027938664
         -0.0186997167766
         -0.0186966396868
         -0.018693562597
         -0.0186904855072
         -0.0186874084175
         -0.0186843313277
         -0.0186812542379
         -0.0186781771481
         -0.0186751000583
         -0.0186720229685
         -0.0186689458787
         -0.018665868789
         -0.0186627916992
         -0.0186597146094
         -0.0186566375196
         -0.0186535604298
         -0.01865048334
         -0.0186474062502
         -0.0186443291605
         -0.0186412520707
         -0.0186381749809
         -0.0186350997537
         -0.018632022664
         -0.0186289455742
         -0.0186258684844
         -0.0186227913946
         -0.0186197143048
         -0.018616637215
         -0.0186135601252
         -0.0186104830354
         -0.0186074059457
         -0.0186043288559
         -0.0186012517661
         -0.0185981746763
         -0.0185950975865
         -0.0185920204967
         -0.0185889434069
         -0.0185858663172
         -0.0185827892274
         -0.0185797121376
         -0.0185766350478
         -0.018573557958
         -0.0185704808682
         -0.0185674037784
         -0.0185643285513
         -0.0185612514615
         -0.0185581743717
         -0.0185550972819
         -0.0185520201921
         -0.0185489431024
         -0.0185458660126
         -0.0185427889228
         -0.018539711833
         -0.0185366347432
         -0.0185335576534
         -0.0185304805636
         -0.0185274034739
         -0.0185243263841
         -0.0185212492943
         -0.0185181722045
         -0.0185150951147
         -0.0185120180249
         -0.0185089409351
         -0.0185058638453
         -0.0185027867556
         -0.0184997096658
         -0.018496632576
         -0.0184935573488
         -0.0184904802591
         -0.0184874031693
         -0.0184843260795
         -0.0184812489897
         -0.0184781718999
         -0.0184750948101
         -0.0184720177203
         -0.0184689406306
         -0.0184658635408
         -0.018462786451
         -0.0184597093612
         -0.0184566322714
         -0.0184535551816
         -0.0184504780918
         -0.018447401002
         -0.0184443239123
         -0.0184412468225
         -0.0184381697327
         -0.0184350926429
         -0.0184320155531
         -0.0184289384633
         -0.0184258613735
         -0.0184227861464
         -0.0184197090566
         -0.0184166319668
         -0.018413554877
         -0.0184104777873
         -0.0184074006975
         -0.0184043236077
         -0.0184012465179
         -0.0183981694281
         -0.0183950923383
         -0.0183920152485
         -0.0183889381588
         -0.018385861069
         -0.0183827839792
         -0.0183797068894
         -0.0183766297996
         -0.0183735527098
         -0.01837047562
         -0.0183673985302
         -0.0183643214405
         -0.0183612443507
         -0.0183581672609
         -0.0183550901711
         -0.018352014944
         -0.0183489378542
         -0.0183458607644
         -0.0183427836746
         -0.0183397065848
         -0.018336629495
         -0.0183335524052
         -0.0183304753155
         -0.0183273982257
         -0.0183243211359
         -0.0183212440461
         -0.0183181669563
         -0.0183150898665
         -0.0183120127767
         -0.0183089356869
         -0.0183058585972
         -0.0183027815074
         -0.0182997044176
         -0.0182966273278
         -0.018293550238
         -0.0182904731482
         -0.0182873960584
         -0.0182843189687
         -0.0182812437415
         -0.0182781666517
         -0.0182750895619
         -0.0182720124722
         -0.0182689353824
         -0.0182658582926
         -0.0182627812028
         -0.018259704113
         -0.0182566270232
         -0.0182535499334
         -0.0182504728436
         -0.0182473957539
         -0.0182443186641
         -0.0182412415743
         -0.0182381644845
         -0.0182350873947
         -0.0182320103049
         -0.0182289332151
         -0.0182258561254
         -0.0182227790356
         -0.0182197019458
         -0.018216624856
         -0.0182135477662
         -0.0182104725391
         -0.0182073954493
         -0.0182043183595
         -0.0182012412697
         -0.0181981641799
         -0.0181950870901
         -0.0181920100003
         -0.0181889329106
         -0.0181858558208
         -0.018182778731
         -0.0181797016412
         -0.0181766245514
         -0.0181735474616
         -0.0181704703718
         -0.0181673932821
         -0.0181643161923
         -0.0181612391025
         -0.0181581620127
         -0.0181550849229
         -0.0181520078331
         -0.0181489307433
         -0.0181458536536
         -0.0181427765638
         -0.0181397013366
         -0.0181366242468
         -0.018133547157
         -0.0181304700673
         -0.0181273929775
         -0.0181243158877
         -0.0181212387979
         -0.0181181617081
         -0.0181150846183
         -0.0181120075285
         -0.0181089304388
         -0.018105853349
         -0.0181027762592
         -0.0180996991694
         -0.0180966220796
         -0.0180935449898
         -0.0180904679
         -0.0180873908103
         -0.0180843137205
         -0.0180812366307
         -0.0180781595409
         -0.0180750824511
         -0.0180720053613
         -0.0180689301342
         -0.0180658530444
         -0.0180627759546
         -0.0180596988648
         -0.018056621775
         -0.0180535446852
         -0.0180504675955
         -0.0180473905057
         -0.0180443134159
         -0.0180412363261
         -0.0180381592363
         -0.0180350821465
         -0.0180320050567
         -0.018028927967
         -0.0180258508772
         -0.0180227737874
         -0.0180196966976
         -0.0180166196078
         -0.018013542518
         -0.0180104654282
         -0.0180073883384
         -0.0180043112487
         -0.0180012341589
         -0.0179981589317
         -0.0179950818419
         -0.0179920047522
         -0.0179889276624
         -0.0179858505726
         -0.0179827734828
         -0.017979696393
         -0.0179766193032
         -0.0179735422134
         -0.0179704651237
         -0.0179673880339
         -0.0179643109441
         -0.0179612338543
         -0.0179581567645
         -0.0179550796747
         -0.0179520025849
         -0.0179489254951
         -0.0179458484054
         -0.0179427713156
         -0.0179396942258
         -0.017936617136
         -0.0179335400462
         -0.0179304648191
         -0.0179273877293
         -0.0179243106395
         -0.0179212335497
         -0.0179181564599
         -0.0179150793701
         -0.0179120022804
         -0.0179089251906
         -0.0179058481008
         -0.017902771011
         -0.0178996939212
         -0.0178966168314
         -0.0178935397416
         -0.0178904626518
         -0.0178873855621
         -0.0178843084723
         -0.0178812313825
         -0.0178781542927
         -0.0178750772029
         -0.0178720001131
         -0.0178689230233
         -0.0178658459336
         -0.0178627688438
         -0.0178596936166
         -0.0178566165268
         -0.0178535394371
         -0.0178504623473
         -0.0178473852575
         -0.0178443081677
         -0.0178412310779
         -0.0178381539881
         -0.0178350768983
         -0.0178319998085
         -0.0178289227188
         -0.017825845629
         -0.0178227685392
         -0.0178196914494
         -0.0178166143596
         -0.0178135372698
         -0.01781046018
         -0.0178073830903
         -0.0178043060005
         -0.0178012289107
         -0.0177981518209
         -0.0177950747311
         -0.0177919976413
         -0.0177889224142
         -0.0177858453244
         -0.0177827682346
         -0.0177796911448
         -0.017776614055
         -0.0177735369653
         -0.0177704598755
         -0.0177673827857
         -0.0177643056959
         -0.0177612286061
         -0.0177581515163
         -0.0177550744265
         -0.0177519973367
         -0.017748920247
         -0.0177458431572
         -0.0177427660674
         -0.0177396889776
         -0.0177366118878
         -0.017733534798
         -0.0177304577082
         -0.0177273806185
         -0.0177243035287
         -0.0177212264389
         -0.0177181512117
         -0.017715074122
         -0.0177119970322
         -0.0177089199424
         -0.0177058428526
         -0.0177027657628
         -0.017699688673
         -0.0176966115832
         -0.0176935344934
         -0.0176904574037
         -0.0176873803139
         -0.0176843032241
         -0.0176812261343
         -0.0176781490445
         -0.0176750719547
         -0.0176719948649
         -0.0176689177752
         -0.0176658406854
         -0.0176627635956
         -0.0176596865058
         -0.017656609416
         -0.0176535323262
         -0.0176504552364
         -0.0176473800093
         -0.0176443029195
         -0.0176412258297
         -0.0176381487399
         -0.0176350716501
         -0.0176319945604
         -0.0176289174706
         -0.0176258403808
         -0.017622763291
         -0.0176196862012
         -0.0176166091114
         -0.0176135320216
         -0.0176104549319
         -0.0176073778421
         -0.0176043007523
         -0.0176012236625
         -0.0175981465727
         -0.0175950694829
         -0.0175919923931
         -0.0175889153033
         -0.0175858382136
         -0.0175827611238
         -0.017579684034
         -0.0175766088068
         -0.0175735317171
         -0.0175704546273
         -0.0175673775375
         -0.0175643004477
         -0.0175612233579
         -0.0175581462681
         -0.0175550691783
         -0.0175519920886
         -0.0175489149988
         -0.017545837909
         -0.0175427608192
         -0.0175396837294
         -0.0175366066396
         -0.0175335295498
         -0.0175304524601
         -0.0175273753703
         -0.0175242982805
         -0.0175212211907
         -0.0175181441009
         -0.0175150670111
         -0.0175119899213
         -0.0175089128315
         -0.0175058376044
         -0.0175027605146
         -0.0174996834248
         -0.017496606335
         -0.0174935292453
         -0.0174904521555
         -0.0174873750657
         -0.0174842979759
         -0.0174812208861
         -0.0174781437963
         -0.0174750667065
         -0.0174719896168
         -0.017468912527
         -0.0174658354372
         -0.0174627583474
         -0.0174596812576
         -0.0174566041678
         -0.017453527078
         -0.0174504499882
         -0.0174473728985
         -0.0174442958087
         -0.0174412187189
         -0.0174381416291
         -0.017435066402
         -0.0174319893122
         -0.0174289122224
         -0.0174258351326
         -0.0174227580428
         -0.017419680953
         -0.0174166038632
         -0.0174135267735
         -0.0174104496837
         -0.0174073725939
         -0.0174042955041
         -0.0174012184143
         -0.0173981413245
         -0.0173950642347
         -0.0173919871449
         -0.0173889100552
         -0.0173858329654
         -0.0173827558756
         -0.0173796787858
         -0.017376601696
         -0.0173735246062
         -0.0173704475164
         -0.0173673704267
         -0.0173642951995
         -0.0173612181097
         -0.0173581410199
         -0.0173550639302
         -0.0173519868404
         -0.0173489097506
         -0.0173458326608
         -0.017342755571
         -0.0173396784812
         -0.0173366013914
         -0.0173335243016
         -0.0173304472119
         -0.0173273701221
         -0.0173242930323
         -0.0173212159425
         -0.0173181388527
         -0.0173150617629
         -0.0173119846731
         -0.0173089075834
         -0.0173058304936
         -0.0173027534038
         -0.017299676314
         -0.0172965992242
         -0.0172935239971
         -0.0172904469073
         -0.0172873698175
         -0.0172842927277
         -0.0172812156379
         -0.0172781385481
         -0.0172750614583
         -0.0172719843686
         -0.0172689072788
         -0.017265830189
         -0.0172627530992
         -0.0172596760094
         -0.0172565989196
         -0.0172535218298
         -0.0172504447401
         -0.0172473676503
         -0.0172442905605
         -0.0172412134707
         -0.0172381363809
         -0.0172350592911
         -0.0172319822013
         -0.0172289051116
         -0.0172258280218
         -0.0172227527946
         -0.0172196757048
         -0.0172165986151
         -0.0172135215253
         -0.0172104444355
         -0.0172073673457
         -0.0172042902559
         -0.0172012131661
         -0.0171981360763
         -0.0171950589865
         -0.0171919818968
         -0.017188904807
         -0.0171858277172
         -0.0171827506274
         -0.0171796735376
         -0.0171765964478
         -0.017173519358
         -0.0171704422683
         -0.0171673651785
         -0.0171642880887
         -0.0171612109989
         -0.0171581339091
         -0.0171550568193
         -0.0171519815922
         -0.0171489045024
         -0.0171458274126
         -0.0171427503228
         -0.017139673233
         -0.0171365961432
         -0.0171335190535
         -0.0171304419637
         -0.0171273648739
         -0.0171242877841
         -0.0171212106943
         -0.0171181336045
         -0.0171150565147
         -0.017111979425
         -0.0171089023352
         -0.0171058252454
         -0.0171027481556
         -0.0170996710658
         -0.017096593976
         -0.0170935168862
         -0.0170904397964
         -0.0170873627067
         -0.0170842856169
         -0.0170812103897
         -0.0170781332999
         -0.0170750562102
         -0.0170719791204
         -0.0170689020306
         -0.0170658249408
         -0.017062747851
         -0.0170596707612
         -0.0170565936714
         -0.0170535165817
         -0.0170504394919
         -0.0170473624021
         -0.0170442853123
         -0.0170412082225
         -0.0170381311327
         -0.0170350540429
         -0.0170319769531
         -0.0170288998634
         -0.0170258227736
         -0.0170227456838
         -0.017019668594
         -0.0170165915042
         -0.0170135162771
         -0.0170104391873
         -0.0170073620975
         -0.0170042850077
         -0.0170012079179
         -0.0169981308281
         -0.0169950537384
         -0.0169919766486
         -0.0169888995588
         -0.016985822469
         -0.0169827453792
         -0.0169796682894
         -0.0169765911996
         -0.0169735141098
         -0.0169704370201
         -0.0169673599303
         -0.0169642828405
         -0.0169612057507
         -0.0169581286609
         -0.0169550515711
         -0.0169519744813
         -0.0169488973916
         -0.0169458203018
         -0.0169427450746
         -0.0169396679848
         -0.0169365908951
         -0.0169335138053
         -0.0169304367155
         -0.0169273596257
         -0.0169242825359
         -0.0169212054461
         -0.0169181283563
         -0.0169150512666
         -0.0169119741768
         -0.016908897087
         -0.0169058199972
         -0.0169027429074
         -0.0168996658176
         -0.0168965887278
         -0.016893511638
         -0.0168904345483
         -0.0168873574585
         -0.0168842803687
         -0.0168812032789
         -0.0168781261891
         -0.0168750490993
         -0.0168719738722
         -0.0168688967824
         -0.0168658196926
         -0.0168627426028
         -0.016859665513
         -0.0168565884233
         -0.0168535113335
         -0.0168504342437
         -0.0168473571539
         -0.0168442800641
         -0.0168412029743
         -0.0168381258845
         -0.0168350487947
         -0.016831971705
         -0.0168288946152
         -0.0168258175254
         -0.0168227404356
         -0.0168196633458
         -0.016816586256
         -0.0168135091662
         -0.0168104320765
         -0.0168073549867
         -0.0168042778969
         -0.0168012026697
         -0.01679812558
         -0.0167950484902
         -0.0167919714004
         -0.0167888943106
         -0.0167858172208
         -0.016782740131
         -0.0167796630412
         -0.0167765859514
         -0.0167735088617
         -0.0167704317719
         -0.0167673546821
         -0.0167642775923
         -0.0167612005025
         -0.0167581234127
         -0.0167550463229
         -0.0167519692332
         -0.0167488921434
         -0.0167458150536
         -0.0167427379638
         -0.016739660874
         -0.0167365837842
         -0.0167335066944
         -0.0167304314673
         -0.0167273543775
         -0.0167242772877
         -0.0167212001979
         -0.0167181231081
         -0.0167150460184
         -0.0167119689286
         -0.0167088918388
         -0.016705814749
         -0.0167027376592
         -0.0166996605694
         -0.0166965834796
         -0.0166935063899
         -0.0166904293001
         -0.0166873522103
         -0.0166842751205
         -0.0166811980307
         -0.0166781209409
         -0.0166750438511
         -0.0166719667614
         -0.0166688896716
         -0.0166658125818
         -0.016662735492
         -0.0166596602648
         -0.0166565831751
         -0.0166535060853
         -0.0166504289955
         -0.0166473519057
         -0.0166442748159
         -0.0166411977261
         -0.0166381206363
         -0.0166350435466
         -0.0166319664568
         -0.016628889367
         -0.0166258122772
         -0.0166227351874
         -0.0166196580976
         -0.0166165810078
         -0.0166135039181
         -0.0166104268283
         -0.0166073497385
         -0.0166042726487
         -0.0166011955589
         -0.0165981184691
         -0.0165950413793
         -0.0165919642895
         -0.0165888890624
         -0.0165858119726
         -0.0165827348828
         -0.016579657793
         -0.0165765807033
         -0.0165735036135
         -0.0165704265237
         -0.0165673494339
         -0.0165642723441
         -0.0165611952543
         -0.0165581181645
         -0.0165550410748
         -0.016551963985
         -0.0165488868952
         -0.0165458098054
         -0.0165427327156
         -0.0165396556258
         -0.016536578536
         -0.0165335014462
         -0.0165304243565
         -0.0165273472667
         -0.0165242701769
         -0.0165211930871
         -0.01651811786
         -0.0165150407702
         -0.0165119636804
         -0.0165088865906
         -0.0165058095008
         -0.016502732411
         -0.0164996553212
         -0.0164965782315
         -0.0164935011417
         -0.0164904240519
         -0.0164873469621
         -0.0164842698723
         -0.0164811927825
         -0.0164781156927
         -0.0164750386029
         -0.0164719615132
         -0.0164688844234
         -0.0164658073336
         -0.0164627302438
         -0.016459653154
         -0.0164565760642
         -0.0164534989744
         -0.0164504218847
         -0.0164473466575
         -0.0164442695677
         -0.0164411924779
         -0.0164381153882
         -0.0164350382984
         -0.0164319612086
         -0.0164288841188
         -0.016425807029
         -0.0164227299392
         -0.0164196528494
         -0.0164165757596
         -0.0164134986699
         -0.0164104215801
         -0.0164073444903
         -0.0164042674005
         -0.0164011903107
         -0.0163981132209
         -0.0163950361311
         -0.0163919590414
         -0.0163888819516
         -0.0163858048618
         -0.016382727772
         -0.0163796506822
         -0.0163765754551
         -0.0163734983653
         -0.0163704212755
         -0.0163673441857
         -0.0163642670959
         -0.0163611900061
         -0.0163581129164
         -0.0163550358266
         -0.0163519587368
         -0.016348881647
         -0.0163458045572
         -0.0163427274674
         -0.0163396503776
         -0.0163365732878
         -0.0163334961981
         -0.0163304191083
         -0.0163273420185
         -0.0163242649287
         -0.0163211878389
         -0.0163181107491
         -0.0163150336593
         -0.0163119565696
         -0.0163088794798
         -0.0163058042526
         -0.0163027271628
         -0.0162996500731
         -0.0162965729833
         -0.0162934958935
         -0.0162904188037
         -0.0162873417139
         -0.0162842646241
         -0.0162811875343
         -0.0162781104445
         -0.0162750333548
         -0.016271956265
         -0.0162688791752
         -0.0162658020854
         -0.0162627249956
         -0.0162596479058
         -0.016256570816
         -0.0162534937263
         -0.0162504166365
         -0.0162473395467
         -0.0162442624569
         -0.0162411853671
         -0.0162381082773
         -0.0162350330502
         -0.0162319559604
         -0.0162288788706
         -0.0162258017808
         -0.016222724691
         -0.0162196476012
         -0.0162165705115
         -0.0162134934217
         -0.0162104163319
         -0.0162073392421
         -0.0162042621523
         -0.0162011850625
         -0.0161981079727
         -0.016195030883
         -0.0161919537932
         -0.0161888767034
         -0.0161857996136
         -0.0161827225238
         -0.016179645434
         -0.0161765683442
         -0.0161734912544
         -0.0161704141647
         -0.0161673370749
         -0.0161642618477
         -0.0161611847579
         -0.0161581076682
         -0.0161550305784
         -0.0161519534886
         -0.0161488763988
         -0.016145799309
         -0.0161427222192
         -0.0161396451294
         -0.0161365680397
         -0.0161334909499
         -0.0161304138601
         -0.0161273367703
         -0.0161242596805
         -0.0161211825907
         -0.0161181055009
         -0.0161150284111
         -0.0161119513214
         -0.0161088742316
         -0.0161057971418
         -0.016102720052
         -0.0160996429622
         -0.0160965677351
         -0.0160934906453
         -0.0160904135555
         -0.0160873364657
         -0.0160842593759
         -0.0160811822861
         -0.0160781051964
         -0.0160750281066
         -0.0160719510168
         -0.016068873927
         -0.0160657968372
         -0.0160627197474
         -0.0160596426576
         -0.0160565655679
         -0.0160534884781
         -0.0160504113883
         -0.0160473342985
         -0.0160442572087
         -0.0160411801189
         -0.0160381030291
         -0.0160350259393
         -0.0160319488496
         -0.0160288717598
         -0.0160257965326
         -0.0160227194428
         -0.0160196423531
         -0.0160165652633
         -0.0160134881735
         -0.0160104110837
         -0.0160073339939
         -0.0160042569041
         -0.0160011798143
         -0.0159981027246
         -0.0159950256348
         -0.015991948545
         -0.0159888714552
         -0.0159857943654
         -0.0159827172756
         -0.0159796401858
         -0.015976563096
         -0.0159734860063
         -0.0159704089165
         -0.0159673318267
         -0.0159642547369
         -0.0159611776471
         -0.0159581005573
         -0.0159550253302
         -0.0159519482404
         -0.0159488711506
         -0.0159457940608
         -0.015942716971
         -0.0159396398813
         -0.0159365627915
         -0.0159334857017
         -0.0159304086119
         -0.0159273315221
         -0.0159242544323
         -0.0159211773425
         -0.0159181002527
         -0.015915023163
         -0.0159119460732
         -0.0159088689834
         -0.0159057918936
         -0.0159027148038
         -0.015899637714
         -0.0158965606242
         -0.0158934835345
         -0.0158904064447
         -0.0158873293549
         -0.0158842541277
         -0.015881177038
