aces_1.1/luts/V3_LogC_400_to_linear.spi1d
Version 1
From 0 1
Length 65536
Components 1
{
 -1.6654010862e-02
 -1.6651270911e-02
 -1.6648532823e-02
 -1.6645794734e-02
 -1.6643056646e-02
 -1.6640316695e-02
 -1.6637578607e-02
 -1.6634840518e-02
 -1.6632102430e-02
 -1.6629364341e-02
 -1.6626624390e-02
 -1.6623886302e-02
 -1.6621148214e-02
 -1.6618410125e-02
 -1.6615670174e-02
 -1.6612932086e-02
 -1.6610193998e-02
 -1.6607455909e-02
 -1.6604715958e-02
 -1.6601977870e-02
 -1.6599239781e-02
 -1.6596501693e-02
 -1.6593761742e-02
 -1.6591023654e-02
 -1.6588285565e-02
 -1.6585547477e-02
 -1.6582807526e-02
 -1.6580069438e-02
 -1.6577331349e-02
 -1.6574593261e-02
 -1.6571853310e-02
 -1.6569115222e-02
 -1.6566377133e-02
 -1.6563639045e-02
 -1.6560899094e-02
 -1.6558161005e-02
 -1.6555422917e-02
 -1.6552684829e-02
 -1.6549946740e-02
 -1.6547206789e-02
 -1.6544468701e-02
 -1.6541730613e-02
 -1.6538992524e-02
 -1.6536252573e-02
 -1.6533514485e-02
 -1.6530776396e-02
 -1.6528038308e-02
 -1.6525298357e-02
 -1.6522560269e-02
 -1.6519822180e-02
 -1.6517084092e-02
 -1.6514344141e-02
 -1.6511606053e-02
 -1.6508867964e-02
 -1.6506129876e-02
 -1.6503389925e-02
 -1.6500651836e-02
 -1.6497913748e-02
 -1.6495175660e-02
 -1.6492435709e-02
 -1.6489697620e-02
 -1.6486959532e-02
 -1.6484221444e-02
 -1.6481483355e-02
 -1.6478743404e-02
 -1.6476005316e-02
 -1.6473267227e-02
 -1.6470529139e-02
 -1.6467789188e-02
 -1.6465051100e-02
 -1.6462313011e-02
 -1.6459574923e-02
 -1.6456834972e-02
 -1.6454096884e-02
 -1.6451358795e-02
 -1.6448620707e-02
 -1.6445880756e-02
 -1.6443142667e-02
 -1.6440404579e-02
 -1.6437666491e-02
 -1.6434926540e-02
 -1.6432188451e-02
 -1.6429450363e-02
 -1.6426712275e-02
 -1.6423972324e-02
 -1.6421234235e-02
 -1.6418496147e-02
 -1.6415758058e-02
 -1.6413018107e-02
 -1.6410280019e-02
 -1.6407541931e-02
 -1.6404803842e-02
 -1.6402065754e-02
 -1.6399325803e-02
 -1.6396587715e-02
 -1.6393849626e-02
 -1.6391111538e-02
 -1.6388371587e-02
 -1.6385633498e-02
 -1.6382895410e-02
 -1.6380157322e-02
 -1.6377417371e-02
 -1.6374679282e-02
 -1.6371941194e-02
 -1.6369203106e-02
 -1.6366463155e-02
 -1.6363725066e-02
 -1.6360986978e-02
 -1.6358248889e-02
 -1.6355508938e-02
 -1.6352770850e-02
 -1.6350032762e-02
 -1.6347294673e-02
 -1.6344554722e-02
 -1.6341816634e-02
 -1.6339078546e-02
 -1.6336340457e-02
 -1.6333600506e-02
 -1.6330862418e-02
 -1.6328124329e-02
 -1.6325386241e-02
 -1.6322648153e-02
 -1.6319908202e-02
 -1.6317170113e-02
 -1.6314432025e-02
 -1.6311693937e-02
 -1.6308953986e-02
 -1.6306215897e-02
 -1.6303477809e-02
 -1.6300739720e-02
 -1.6297999769e-02
 -1.6295261681e-02
 -1.6292523593e-02
 -1.6289785504e-02
 -1.6287045553e-02
 -1.6284307465e-02
 -1.6281569377e-02
 -1.6278831288e-02
 -1.6276091337e-02
 -1.6273353249e-02
 -1.6270615160e-02
 -1.6267877072e-02
 -1.6265137121e-02
 -1.6262399033e-02
 -1.6259660944e-02
 -1.6256922856e-02
 -1.6254182905e-02
 -1.6251444817e-02
 -1.6248706728e-02
 -1.6245968640e-02
 -1.6243230551e-02
 -1.6240490600e-02
 -1.6237752512e-02
 -1.6235014424e-02
 -1.6232276335e-02
 -1.6229536384e-02
 -1.6226798296e-02
 -1.6224060208e-02
 -1.6221322119e-02
 -1.6218582168e-02
 -1.6215844080e-02
 -1.6213105991e-02
 -1.6210367903e-02
 -1.6207627952e-02
 -1.6204889864e-02
 -1.6202151775e-02
 -1.6199413687e-02
 -1.6196673736e-02
 -1.6193935648e-02
 -1.6191197559e-02
 -1.6188459471e-02
 -1.6185719520e-02
 -1.6182981431e-02
 -1.6180243343e-02
 -1.6177505255e-02
 -1.6174765304e-02
 -1.6172027215e-02
 -1.6169289127e-02
 -1.6166551039e-02
 -1.6163812950e-02
 -1.6161072999e-02
 -1.6158334911e-02
 -1.6155596823e-02
 -1.6152858734e-02
 -1.6150118783e-02
 -1.6147380695e-02
 -1.6144642606e-02
 -1.6141904518e-02
 -1.6139164567e-02
 -1.6136426479e-02
 -1.6133688390e-02
 -1.6130950302e-02
 -1.6128210351e-02
 -1.6125472263e-02
 -1.6122734174e-02
 -1.6119996086e-02
 -1.6117256135e-02
 -1.6114518046e-02
 -1.6111779958e-02
 -1.6109041870e-02
 -1.6106301919e-02
 -1.6103563830e-02
 -1.6100825742e-02
 -1.6098087654e-02
 -1.6095347703e-02
 -1.6092609614e-02
 -1.6089871526e-02
 -1.6087133437e-02
 -1.6084395349e-02
 -1.6081655398e-02
 -1.6078917310e-02
 -1.6076179221e-02
 -1.6073441133e-02
 -1.6070701182e-02
 -1.6067963094e-02
 -1.6065225005e-02
 -1.6062486917e-02
 -1.6059746966e-02
 -1.6057008877e-02
 -1.6054270789e-02
 -1.6051532701e-02
 -1.6048792750e-02
 -1.6046054661e-02
 -1.6043316573e-02
 -1.6040578485e-02
 -1.6037838534e-02
 -1.6035100445e-02
 -1.6032362357e-02
 -1.6029624268e-02
 -1.6026884317e-02
 -1.6024146229e-02
 -1.6021408141e-02
 -1.6018670052e-02
 -1.6015931964e-02
 -1.6013192013e-02
 -1.6010453925e-02
 -1.6007715836e-02
 -1.6004977748e-02
 -1.6002237797e-02
 -1.5999499708e-02
 -1.5996761620e-02
 -1.5994023532e-02
 -1.5991283581e-02
 -1.5988545492e-02
 -1.5985807404e-02
 -1.5983069316e-02
 -1.5980329365e-02
 -1.5977591276e-02
 -1.5974853188e-02
 -1.5972115099e-02
 -1.5969375148e-02
 -1.5966637060e-02
 -1.5963898972e-02
 -1.5961160883e-02
 -1.5958420932e-02
 -1.5955682844e-02
 -1.5952944756e-02
 -1.5950206667e-02
 -1.5947466716e-02
 -1.5944728628e-02
 -1.5941990539e-02
 -1.5939252451e-02
 -1.5936514363e-02
 -1.5933774412e-02
 -1.5931036323e-02
 -1.5928298235e-02
 -1.5925560147e-02
 -1.5922820196e-02
 -1.5920082107e-02
 -1.5917344019e-02
 -1.5914605930e-02
 -1.5911865979e-02
 -1.5909127891e-02
 -1.5906389803e-02
 -1.5903651714e-02
 -1.5900911763e-02
 -1.5898173675e-02
 -1.5895435587e-02
 -1.5892697498e-02
 -1.5889957547e-02
 -1.5887219459e-02
 -1.5884481370e-02
 -1.5881743282e-02
 -1.5879003331e-02
 -1.5876265243e-02
 -1.5873527154e-02
 -1.5870789066e-02
 -1.5868049115e-02
 -1.5865311027e-02
 -1.5862572938e-02
 -1.5859834850e-02
 -1.5857096761e-02
 -1.5854356810e-02
 -1.5851618722e-02
 -1.5848880634e-02
 -1.5846142545e-02
 -1.5843402594e-02
 -1.5840664506e-02
 -1.5837926418e-02
 -1.5835188329e-02
 -1.5832448378e-02
 -1.5829710290e-02
 -1.5826972201e-02
 -1.5824234113e-02
 -1.5821494162e-02
 -1.5818756074e-02
 -1.5816017985e-02
 -1.5813279897e-02
 -1.5810539946e-02
 -1.5807801858e-02
 -1.5805063769e-02
 -1.5802325681e-02
 -1.5799585730e-02
 -1.5796847641e-02
 -1.5794109553e-02
 -1.5791371465e-02
 -1.5788631514e-02
 -1.5785893425e-02
 -1.5783155337e-02
 -1.5780417249e-02
 -1.5777679160e-02
 -1.5774939209e-02
 -1.5772201121e-02
 -1.5769463032e-02
 -1.5766724944e-02
 -1.5763984993e-02
 -1.5761246905e-02
 -1.5758508816e-02
 -1.5755770728e-02
 -1.5753030777e-02
 -1.5750292689e-02
 -1.5747554600e-02
 -1.5744816512e-02
 -1.5742076561e-02
 -1.5739338472e-02
 -1.5736600384e-02
 -1.5733862296e-02
 -1.5731122345e-02
 -1.5728384256e-02
 -1.5725646168e-02
 -1.5722908080e-02
 -1.5720168129e-02
 -1.5717430040e-02
 -1.5714691952e-02
 -1.5711953864e-02
 -1.5709213912e-02
 -1.5706475824e-02
 -1.5703737736e-02
 -1.5700999647e-02
 -1.5698261559e-02
 -1.5695521608e-02
 -1.5692783520e-02
 -1.5690045431e-02
 -1.5687307343e-02
 -1.5684567392e-02
 -1.5681829304e-02
 -1.5679091215e-02
 -1.5676353127e-02
 -1.5673613176e-02
 -1.5670875087e-02
 -1.5668136999e-02
 -1.5665398911e-02
 -1.5662658960e-02
 -1.5659920871e-02
 -1.5657182783e-02
 -1.5654444695e-02
 -1.5651704744e-02
 -1.5648966655e-02
 -1.5646228567e-02
 -1.5643490478e-02
 -1.5640750527e-02
 -1.5638012439e-02
 -1.5635274351e-02
 -1.5632536262e-02
 -1.5629796311e-02
 -1.5627058223e-02
 -1.5624320135e-02
 -1.5621582046e-02
 -1.5618843026e-02
 -1.5616104938e-02
 -1.5613365918e-02
 -1.5610627830e-02
 -1.5607888810e-02
 -1.5605150722e-02
 -1.5602411702e-02
 -1.5599673614e-02
 -1.5596934594e-02
 -1.5594196506e-02
 -1.5591457486e-02
 -1.5588719398e-02
 -1.5585980378e-02
 -1.5583242290e-02
 -1.5580503270e-02
 -1.5577765182e-02
 -1.5575026162e-02
 -1.5572288074e-02
 -1.5569549054e-02
 -1.5566810966e-02
 -1.5564071946e-02
 -1.5561333857e-02
 -1.5558594838e-02
 -1.5555856749e-02
 -1.5553117730e-02
 -1.5550379641e-02
 -1.5547641553e-02
 -1.5544902533e-02
 -1.5542164445e-02
 -1.5539425425e-02
 -1.5536687337e-02
 -1.5533948317e-02
 -1.5531210229e-02
 -1.5528471209e-02
 -1.5525733121e-02
 -1.5522994101e-02
 -1.5520256013e-02
 -1.5517516993e-02
 -1.5514778905e-02
 -1.5512039885e-02
 -1.5509301797e-02
 -1.5506562777e-02
 -1.5503824688e-02
 -1.5501085669e-02
 -1.5498347580e-02
 -1.5495608561e-02
 -1.5492870472e-02
 -1.5490131453e-02
 -1.5487393364e-02
 -1.5484654345e-02
 -1.5481916256e-02
 -1.5479177237e-02
 -1.5476439148e-02
 -1.5473700128e-02
 -1.5470962040e-02
 -1.5468223952e-02
 -1.5465484932e-02
 -1.5462746844e-02
 -1.5460007824e-02
 -1.5457269736e-02
 -1.5454530716e-02
 -1.5451792628e-02
 -1.5449053608e-02
 -1.5446315520e-02
 -1.5443576500e-02
 -1.5440838411e-02
 -1.5438099392e-02
 -1.5435361303e-02
 -1.5432622284e-02
 -1.5429884195e-02
 -1.5427145176e-02
 -1.5424407087e-02
 -1.5421668068e-02
 -1.5418929979e-02
 -1.5416190960e-02
 -1.5413452871e-02
 -1.5410713851e-02
 -1.5407975763e-02
 -1.5405236743e-02
 -1.5402498655e-02
 -1.5399759635e-02
 -1.5397021547e-02
 -1.5394283459e-02
 -1.5391544439e-02
 -1.5388806351e-02
 -1.5386067331e-02
 -1.5383329242e-02
 -1.5380590223e-02
 -1.5377852134e-02
 -1.5375113115e-02
 -1.5372375026e-02
 -1.5369636007e-02
 -1.5366897918e-02
 -1.5364158899e-02
 -1.5361420810e-02
 -1.5358681791e-02
 -1.5355943702e-02
 -1.5353204682e-02
 -1.5350466594e-02
 -1.5347727574e-02
 -1.5344989486e-02
 -1.5342250466e-02
 -1.5339512378e-02
 -1.5336773358e-02
 -1.5334035270e-02
 -1.5331296250e-02
 -1.5328558162e-02
 -1.5325819142e-02
 -1.5323081054e-02
 -1.5320342034e-02
 -1.5317603946e-02
 -1.5314865857e-02
 -1.5312126838e-02
 -1.5309388749e-02
 -1.5306649730e-02
 -1.5303911641e-02
 -1.5301172622e-02
 -1.5298434533e-02
 -1.5295695513e-02
 -1.5292957425e-02
 -1.5290218405e-02
 -1.5287480317e-02
 -1.5284741297e-02
 -1.5282003209e-02
 -1.5279264189e-02
 -1.5276526101e-02
 -1.5273787081e-02
 -1.5271048993e-02
 -1.5268309973e-02
 -1.5265571885e-02
 -1.5262832865e-02
 -1.5260094777e-02
 -1.5257355757e-02
 -1.5254617669e-02
 -1.5251878649e-02
 -1.5249140561e-02
 -1.5246401541e-02
 -1.5243663453e-02
 -1.5240925364e-02
 -1.5238186345e-02
 -1.5235448256e-02
 -1.5232709236e-02
 -1.5229971148e-02
 -1.5227232128e-02
 -1.5224494040e-02
 -1.5221755020e-02
 -1.5219016932e-02
 -1.5216277912e-02
 -1.5213539824e-02
 -1.5210800804e-02
 -1.5208062716e-02
 -1.5205323696e-02
 -1.5202585608e-02
 -1.5199846588e-02
 -1.5197108500e-02
 -1.5194369480e-02
 -1.5191631392e-02
 -1.5188892372e-02
 -1.5186154284e-02
 -1.5183415264e-02
 -1.5180677176e-02
 -1.5177938156e-02
 -1.5175200067e-02
 -1.5172461048e-02
 -1.5169722959e-02
 -1.5166983940e-02
 -1.5164245851e-02
 -1.5161507763e-02
 -1.5158768743e-02
 -1.5156030655e-02
 -1.5153291635e-02
 -1.5150553547e-02
 -1.5147814527e-02
 -1.5145076439e-02
 -1.5142337419e-02
 -1.5139599331e-02
 -1.5136860311e-02
 -1.5134122223e-02
 -1.5131383203e-02
 -1.5128645115e-02
 -1.5125906095e-02
 -1.5123168007e-02
 -1.5120428987e-02
 -1.5117690898e-02
 -1.5114951879e-02
 -1.5112213790e-02
 -1.5109474771e-02
 -1.5106736682e-02
 -1.5103997663e-02
 -1.5101259574e-02
 -1.5098520555e-02
 -1.5095782466e-02
 -1.5093043447e-02
 -1.5090305358e-02
 -1.5087566338e-02
 -1.5084828250e-02
 -1.5082090162e-02
 -1.5079351142e-02
 -1.5076613054e-02
 -1.5073874034e-02
 -1.5071135946e-02
 -1.5068396926e-02
 -1.5065658838e-02
 -1.5062919818e-02
 -1.5060181729e-02
 -1.5057442710e-02
 -1.5054704621e-02
 -1.5051965602e-02
 -1.5049227513e-02
 -1.5046488494e-02
 -1.5043750405e-02
 -1.5041011386e-02
 -1.5038273297e-02
 -1.5035534278e-02
 -1.5032796189e-02
 -1.5030057169e-02
 -1.5027319081e-02
 -1.5024580061e-02
 -1.5021841973e-02
 -1.5019102953e-02
 -1.5016364865e-02
 -1.5013625845e-02
 -1.5010887757e-02
 -1.5008149669e-02
 -1.5005410649e-02
 -1.5002672561e-02
 -1.4999933541e-02
 -1.4997195452e-02
 -1.4994456433e-02
 -1.4991718344e-02
 -1.4988979325e-02
 -1.4986241236e-02
 -1.4983502217e-02
 -1.4980764128e-02
 -1.4978025109e-02
 -1.4975287020e-02
 -1.4972548001e-02
 -1.4969809912e-02
 -1.4967070892e-02
 -1.4964332804e-02
 -1.4961593784e-02
 -1.4958855696e-02
 -1.4956116676e-02
 -1.4953378588e-02
 -1.4950639568e-02
 -1.4947901480e-02
 -1.4945162460e-02
 -1.4942424372e-02
 -1.4939685352e-02
 -1.4936947264e-02
 -1.4934208244e-02
 -1.4931470156e-02
 -1.4928732067e-02
 -1.4925993048e-02
 -1.4923254959e-02
 -1.4920515940e-02
 -1.4917777851e-02
 -1.4915038832e-02
 -1.4912300743e-02
 -1.4909561723e-02
 -1.4906823635e-02
 -1.4904084615e-02
 -1.4901346527e-02
 -1.4898607507e-02
 -1.4895869419e-02
 -1.4893130399e-02
 -1.4890392311e-02
 -1.4887653291e-02
 -1.4884915203e-02
 -1.4882176183e-02
 -1.4879438095e-02
 -1.4876699075e-02
 -1.4873960987e-02
 -1.4871221967e-02
 -1.4868483879e-02
 -1.4865744859e-02
 -1.4863006771e-02
 -1.4860267751e-02
 -1.4857529663e-02
 -1.4854790643e-02
 -1.4852052554e-02
 -1.4849314466e-02
 -1.4846575446e-02
 -1.4843837358e-02
 -1.4841098338e-02
 -1.4838360250e-02
 -1.4835621230e-02
 -1.4832883142e-02
 -1.4830144122e-02
 -1.4827406034e-02
 -1.4824667014e-02
 -1.4821928926e-02
 -1.4819189906e-02
 -1.4816451818e-02
 -1.4813712798e-02
 -1.4810974710e-02
 -1.4808235690e-02
 -1.4805497602e-02
 -1.4802758582e-02
 -1.4800020494e-02
 -1.4797281474e-02
 -1.4794543386e-02
 -1.4791804366e-02
 -1.4789066277e-02
 -1.4786327258e-02
 -1.4783589169e-02
 -1.4780850150e-02
 -1.4778112061e-02
 -1.4775373973e-02
 -1.4772634953e-02
 -1.4769896865e-02
 -1.4767157845e-02
 -1.4764419757e-02
 -1.4761680737e-02
 -1.4758942649e-02
 -1.4756203629e-02
 -1.4753465541e-02
 -1.4750726521e-02
 -1.4747988433e-02
 -1.4745249413e-02
 -1.4742511325e-02
 -1.4739772305e-02
 -1.4737034217e-02
 -1.4734295197e-02
 -1.4731557108e-02
 -1.4728818089e-02
 -1.4726080000e-02
 -1.4723340981e-02
 -1.4720602892e-02
 -1.4717863873e-02
 -1.4715125784e-02
 -1.4712386765e-02
 -1.4709648676e-02
 -1.4706909657e-02
 -1.4704171568e-02
 -1.4701432548e-02
 -1.4698694460e-02
 -1.4695956372e-02
 -1.4693217352e-02
 -1.4690479264e-02
 -1.4687740244e-02
 -1.4685002156e-02
 -1.4682263136e-02
 -1.4679525048e-02
 -1.4676786028e-02
 -1.4674047939e-02
 -1.4671308920e-02
 -1.4668570831e-02
 -1.4665831812e-02
 -1.4663093723e-02
 -1.4660354704e-02
 -1.4657616615e-02
 -1.4654877596e-02
 -1.4652139507e-02
 -1.4649400488e-02
 -1.4646662399e-02
 -1.4643923379e-02
 -1.4641185291e-02
 -1.4638446271e-02
 -1.4635708183e-02
 -1.4632969163e-02
 -1.4630231075e-02
 -1.4627492055e-02
 -1.4624753967e-02
 -1.4622014947e-02
 -1.4619276859e-02
 -1.4616538770e-02
 -1.4613799751e-02
 -1.4611061662e-02
 -1.4608322643e-02
 -1.4605584554e-02
 -1.4602845535e-02
 -1.4600107446e-02
 -1.4597368427e-02
 -1.4594630338e-02
 -1.4591891319e-02
 -1.4589153230e-02
 -1.4586414210e-02
 -1.4583676122e-02
 -1.4580937102e-02
 -1.4578199014e-02
 -1.4575459994e-02
 -1.4572721906e-02
 -1.4569982886e-02
 -1.4567244798e-02
 -1.4564505778e-02
 -1.4561767690e-02
 -1.4559028670e-02
 -1.4556290582e-02
 -1.4553551562e-02
 -1.4550813474e-02
 -1.4548074454e-02
 -1.4545336366e-02
 -1.4542598277e-02
 -1.4539859258e-02
 -1.4537121169e-02
 -1.4534382150e-02
 -1.4531644061e-02
 -1.4528905042e-02
 -1.4526166953e-02
 -1.4523427933e-02
 -1.4520689845e-02
 -1.4517950825e-02
 -1.4515212737e-02
 -1.4512473717e-02
 -1.4509735629e-02
 -1.4506996609e-02
 -1.4504258521e-02
 -1.4501519501e-02
 -1.4498781413e-02
 -1.4496042393e-02
 -1.4493304305e-02
 -1.4490565285e-02
 -1.4487827197e-02
 -1.4485088177e-02
 -1.4482350089e-02
 -1.4479611069e-02
 -1.4476872981e-02
 -1.4474133961e-02
 -1.4471395873e-02
 -1.4468656853e-02
 -1.4465918764e-02
 -1.4463180676e-02
 -1.4460441656e-02
 -1.4457703568e-02
 -1.4454964548e-02
 -1.4452226460e-02
 -1.4449487440e-02
 -1.4446749352e-02
 -1.4444010332e-02
 -1.4441272244e-02
 -1.4438533224e-02
 -1.4435795136e-02
 -1.4433056116e-02
 -1.4430318028e-02
 -1.4427579008e-02
 -1.4424840920e-02
 -1.4422101900e-02
 -1.4419363812e-02
 -1.4416624792e-02
 -1.4413886704e-02
 -1.4411147684e-02
 -1.4408409595e-02
 -1.4405670576e-02
 -1.4402932487e-02
 -1.4400193468e-02
 -1.4397455379e-02
 -1.4394716360e-02
 -1.4391978271e-02
 -1.4389239252e-02
 -1.4386501163e-02
 -1.4383763075e-02
 -1.4381024055e-02
 -1.4378285967e-02
 -1.4375546947e-02
 -1.4372808859e-02
 -1.4370069839e-02
 -1.4367331751e-02
 -1.4364592731e-02
 -1.4361854643e-02
 -1.4359115623e-02
 -1.4356377535e-02
 -1.4353638515e-02
 -1.4350900427e-02
 -1.4348161407e-02
 -1.4345423318e-02
 -1.4342684299e-02
 -1.4339946210e-02
 -1.4337207191e-02
 -1.4334469102e-02
 -1.4331730083e-02
 -1.4328991994e-02
 -1.4326252975e-02
 -1.4323514886e-02
 -1.4320775867e-02
 -1.4318037778e-02
 -1.4315298758e-02
 -1.4312560670e-02
 -1.4309822582e-02
 -1.4307083562e-02
 -1.4304345474e-02
 -1.4301606454e-02
 -1.4298868366e-02
 -1.4296129346e-02
 -1.4293391258e-02
 -1.4290652238e-02
 -1.4287914149e-02
 -1.4285175130e-02
 -1.4282437041e-02
 -1.4279698022e-02
 -1.4276959933e-02
 -1.4274220914e-02
 -1.4271482825e-02
 -1.4268743806e-02
 -1.4266005717e-02
 -1.4263266698e-02
 -1.4260528609e-02
 -1.4257789589e-02
 -1.4255051501e-02
 -1.4252312481e-02
 -1.4249574393e-02
 -1.4246835373e-02
 -1.4244097285e-02
 -1.4241358265e-02
 -1.4238620177e-02
 -1.4235881157e-02
 -1.4233143069e-02
 -1.4230404980e-02
 -1.4227665961e-02
 -1.4224927872e-02
 -1.4222188853e-02
 -1.4219450764e-02
 -1.4216711745e-02
 -1.4213973656e-02
 -1.4211234637e-02
 -1.4208496548e-02
 -1.4205757529e-02
 -1.4203019440e-02
 -1.4200280420e-02
 -1.4197542332e-02
 -1.4194803312e-02
 -1.4192065224e-02
 -1.4189326204e-02
 -1.4186588116e-02
 -1.4183849096e-02
 -1.4181111008e-02
 -1.4178371988e-02
 -1.4175633900e-02
 -1.4172894880e-02
 -1.4170156792e-02
 -1.4167417772e-02
 -1.4164679684e-02
 -1.4161940664e-02
 -1.4159202576e-02
 -1.4156463556e-02
 -1.4153725468e-02
 -1.4150987379e-02
 -1.4148248360e-02
 -1.4145510271e-02
 -1.4142771251e-02
 -1.4140033163e-02
 -1.4137294143e-02
 -1.4134556055e-02
 -1.4131817035e-02
 -1.4129078947e-02
 -1.4126339927e-02
 -1.4123601839e-02
 -1.4120862819e-02
 -1.4118124731e-02
 -1.4115385711e-02
 -1.4112647623e-02
 -1.4109908603e-02
 -1.4107170515e-02
 -1.4104431495e-02
 -1.4101693407e-02
 -1.4098954387e-02
 -1.4096216299e-02
 -1.4093477279e-02
 -1.4090739191e-02
 -1.4088000171e-02
 -1.4085262083e-02
 -1.4082523063e-02
 -1.4079784974e-02
 -1.4077046886e-02
 -1.4074307866e-02
 -1.4071569778e-02
 -1.4068830758e-02
 -1.4066092670e-02
 -1.4063353650e-02
 -1.4060615562e-02
 -1.4057876542e-02
 -1.4055138454e-02
 -1.4052399434e-02
 -1.4049661346e-02
 -1.4046922326e-02
 -1.4044184238e-02
 -1.4041445218e-02
 -1.4038707130e-02
 -1.4035968110e-02
 -1.4033230022e-02
 -1.4030491002e-02
 -1.4027752914e-02
 -1.4025013894e-02
 -1.4022275805e-02
 -1.4019536786e-02
 -1.4016798697e-02
 -1.4014059678e-02
 -1.4011321589e-02
 -1.4008582570e-02
 -1.4005844481e-02
 -1.4003105462e-02
 -1.4000367373e-02
 -1.3997629285e-02
 -1.3994890265e-02
 -1.3992152177e-02
 -1.3989413157e-02
 -1.3986675069e-02
 -1.3983936049e-02
 -1.3981197961e-02
 -1.3978458941e-02
 -1.3975720853e-02
 -1.3972981833e-02
 -1.3970243745e-02
 -1.3967504725e-02
 -1.3964766636e-02
 -1.3962027617e-02
 -1.3959289528e-02
 -1.3956550509e-02
 -1.3953812420e-02
 -1.3951073401e-02
 -1.3948335312e-02
 -1.3945596293e-02
 -1.3942858204e-02
 -1.3940119185e-02
 -1.3937381096e-02
 -1.3934642076e-02
 -1.3931903988e-02
 -1.3929164968e-02
 -1.3926426880e-02
 -1.3923687860e-02
 -1.3920949772e-02
 -1.3918211684e-02
 -1.3915472664e-02
 -1.3912734576e-02
 -1.3909995556e-02
 -1.3907257468e-02
 -1.3904518448e-02
 -1.3901780359e-02
 -1.3899041340e-02
 -1.3896303251e-02
 -1.3893564232e-02
 -1.3890826143e-02
 -1.3888087124e-02
 -1.3885349035e-02
 -1.3882610016e-02
 -1.3879871927e-02
 -1.3877132908e-02
 -1.3874394819e-02
 -1.3871655799e-02
 -1.3868917711e-02
 -1.3866178691e-02
 -1.3863440603e-02
 -1.3860701583e-02
 -1.3857963495e-02
 -1.3855224475e-02
 -1.3852486387e-02
 -1.3849747367e-02
 -1.3847009279e-02
 -1.3844271190e-02
 -1.3841532171e-02
 -1.3838794082e-02
 -1.3836055063e-02
 -1.3833316974e-02
 -1.3830577955e-02
 -1.3827839866e-02
 -1.3825100847e-02
 -1.3822362758e-02
 -1.3819623739e-02
 -1.3816885650e-02
 -1.3814146630e-02
 -1.3811408542e-02
 -1.3808669522e-02
 -1.3805931434e-02
 -1.3803192414e-02
 -1.3800454326e-02
 -1.3797715306e-02
 -1.3794977218e-02
 -1.3792238198e-02
 -1.3789500110e-02
 -1.3786761090e-02
 -1.3784023002e-02
 -1.3781283982e-02
 -1.3778545894e-02
 -1.3775806874e-02
 -1.3773068786e-02
 -1.3770329766e-02
 -1.3767591678e-02
 -1.3764853589e-02
 -1.3762114570e-02
 -1.3759376481e-02
 -1.3756637461e-02
 -1.3753899373e-02
 -1.3751160353e-02
 -1.3748422265e-02
 -1.3745683245e-02
 -1.3742945157e-02
 -1.3740206137e-02
 -1.3737468049e-02
 -1.3734729029e-02
 -1.3731990941e-02
 -1.3729251921e-02
 -1.3726513833e-02
 -1.3723774813e-02
 -1.3721036725e-02
 -1.3718297705e-02
 -1.3715559617e-02
 -1.3712820597e-02
 -1.3710082509e-02
 -1.3707343489e-02
 -1.3704605401e-02
 -1.3701866381e-02
 -1.3699128293e-02
 -1.3696389273e-02
 -1.3693651184e-02
 -1.3690912165e-02
 -1.3688174076e-02
 -1.3685435988e-02
 -1.3682696968e-02
 -1.3679958880e-02
 -1.3677219860e-02
 -1.3674481772e-02
 -1.3671742752e-02
 -1.3669004664e-02
 -1.3666265644e-02
 -1.3663527556e-02
 -1.3660788536e-02
 -1.3658050448e-02
 -1.3655311428e-02
 -1.3652573340e-02
 -1.3649834320e-02
 -1.3647096232e-02
 -1.3644357212e-02
 -1.3641619124e-02
 -1.3638880104e-02
 -1.3636142015e-02
 -1.3633402996e-02
 -1.3630664907e-02
 -1.3627925888e-02
 -1.3625187799e-02
 -1.3622448780e-02
 -1.3619710691e-02
 -1.3616971672e-02
 -1.3614233583e-02
 -1.3611495495e-02
 -1.3608756475e-02
 -1.3606018387e-02
 -1.3603279367e-02
 -1.3600541279e-02
 -1.3597802259e-02
 -1.3595064171e-02
 -1.3592325151e-02
 -1.3589587063e-02
 -1.3586848043e-02
 -1.3584109955e-02
 -1.3581370935e-02
 -1.3578632846e-02
 -1.3575893827e-02
 -1.3573155738e-02
 -1.3570416719e-02
 -1.3567678630e-02
 -1.3564939611e-02
 -1.3562201522e-02
 -1.3559462503e-02
 -1.3556724414e-02
 -1.3553985395e-02
 -1.3551247306e-02
 -1.3548508286e-02
 -1.3545770198e-02
 -1.3543031178e-02
 -1.3540293090e-02
 -1.3537554070e-02
 -1.3534815982e-02
 -1.3532077894e-02
 -1.3529338874e-02
 -1.3526600786e-02
 -1.3523861766e-02
 -1.3521123677e-02
 -1.3518384658e-02
 -1.3515646569e-02
 -1.3512907550e-02
 -1.3510169461e-02
 -1.3507430442e-02
 -1.3504692353e-02
 -1.3501953334e-02
 -1.3499215245e-02
 -1.3496476226e-02
 -1.3493738137e-02
 -1.3490999117e-02
 -1.3488261029e-02
 -1.3485522009e-02
 -1.3482783921e-02
 -1.3480044901e-02
 -1.3477306813e-02
 -1.3474567793e-02
 -1.3471829705e-02
 -1.3469090685e-02
 -1.3466352597e-02
 -1.3463613577e-02
 -1.3460875489e-02
 -1.3458136469e-02
 -1.3455398381e-02
 -1.3452660292e-02
 -1.3449921273e-02
 -1.3447183184e-02
 -1.3444444165e-02
 -1.3441706076e-02
 -1.3438967057e-02
 -1.3436228968e-02
 -1.3433489949e-02
 -1.3430751860e-02
 -1.3428012840e-02
 -1.3425274752e-02
 -1.3422535732e-02
 -1.3419797644e-02
 -1.3417058624e-02
 -1.3414320536e-02
 -1.3411581516e-02
 -1.3408843428e-02
 -1.3406104408e-02
 -1.3403366320e-02
 -1.3400627300e-02
 -1.3397889212e-02
 -1.3395150192e-02
 -1.3392412104e-02
 -1.3389673084e-02
 -1.3386934996e-02
 -1.3384195976e-02
 -1.3381457888e-02
 -1.3378719799e-02
 -1.3375980780e-02
 -1.3373242691e-02
 -1.3370503671e-02
 -1.3367765583e-02
 -1.3365026563e-02
 -1.3362288475e-02
 -1.3359549455e-02
 -1.3356811367e-02
 -1.3354072347e-02
 -1.3351334259e-02
 -1.3348595239e-02
 -1.3345857151e-02
 -1.3343118131e-02
 -1.3340380043e-02
 -1.3337641023e-02
 -1.3334902935e-02
 -1.3332163915e-02
 -1.3329425827e-02
 -1.3326686807e-02
 -1.3323948719e-02
 -1.3321209699e-02
 -1.3318471611e-02
 -1.3315732591e-02
 -1.3312994502e-02
 -1.3310255483e-02
 -1.3307517394e-02
 -1.3304778375e-02
 -1.3302040286e-02
 -1.3299302198e-02
 -1.3296563178e-02
 -1.3293825090e-02
 -1.3291086070e-02
 -1.3288347982e-02
 -1.3285608962e-02
 -1.3282870874e-02
 -1.3280131854e-02
 -1.3277393766e-02
 -1.3274654746e-02
 -1.3271916658e-02
 -1.3269177638e-02
 -1.3266439550e-02
 -1.3263700530e-02
 -1.3260962442e-02
 -1.3258223422e-02
 -1.3255485334e-02
 -1.3252746314e-02
 -1.3250008225e-02
 -1.3247269206e-02
 -1.3244531117e-02
 -1.3241792098e-02
 -1.3239054009e-02
 -1.3236314990e-02
 -1.3233576901e-02
 -1.3230837882e-02
 -1.3228099793e-02
 -1.3225360774e-02
 -1.3222622685e-02
 -1.3219884597e-02
 -1.3217145577e-02
 -1.3214407489e-02
 -1.3211668469e-02
 -1.3208930381e-02
 -1.3206191361e-02
