aces_1.1/luts/V3_LogC_2560_to_linear.spi1d
Version 1
From 0.000000 1.000000
Length 65536
Components 1
{
         -0.0184751879424
         -0.0184721518308
         -0.0184691138566
         -0.018466077745
         -0.0184630416334
         -0.0184600036591
         -0.0184569675475
         -0.0184539314359
         -0.0184508934617
         -0.0184478573501
         -0.0184448212385
         -0.0184417832643
         -0.0184387471527
         -0.0184357110411
         -0.0184326730669
         -0.0184296369553
         -0.0184266008437
         -0.0184235628694
         -0.0184205267578
         -0.0184174906462
         -0.018414452672
         -0.0184114165604
         -0.0184083804488
         -0.0184053424746
         -0.018402306363
         -0.0183992702514
         -0.0183962322772
         -0.0183931961656
         -0.018390160054
         -0.0183871220797
         -0.0183840859681
         -0.0183810498565
         -0.0183780118823
         -0.0183749757707
         -0.0183719396591
         -0.0183689016849
         -0.0183658655733
         -0.0183628294617
         -0.0183597914875
         -0.0183567553759
         -0.0183537192643
         -0.01835068129
         -0.0183476451784
         -0.0183446090668
         -0.0183415710926
         -0.018338534981
         -0.0183354988694
         -0.0183324608952
         -0.0183294247836
         -0.018326388672
         -0.0183233506978
         -0.0183203145862
         -0.0183172784746
         -0.0183142405003
         -0.0183112043887
         -0.0183081682771
         -0.0183051303029
         -0.0183020941913
         -0.0182990580797
         -0.0182960201055
         -0.0182929839939
         -0.0182899478823
         -0.0182869099081
         -0.0182838737965
         -0.0182808376849
         -0.0182777997106
         -0.018274763599
         -0.0182717274874
         -0.0182686895132
         -0.0182656534016
         -0.01826261729
         -0.0182595793158
         -0.0182565432042
         -0.0182535070926
         -0.0182504691184
         -0.0182474330068
         -0.0182443968952
         -0.0182413589209
         -0.0182383228093
         -0.0182352866977
         -0.0182322487235
         -0.0182292126119
         -0.0182261765003
         -0.0182231385261
         -0.0182201024145
         -0.0182170663029
         -0.0182140283287
         -0.0182109922171
         -0.0182079561055
         -0.0182049181312
         -0.0182018820196
         -0.018198845908
         -0.0181958079338
         -0.0181927718222
         -0.0181897357106
         -0.0181866977364
         -0.0181836616248
         -0.0181806255132
         -0.018177587539
         -0.0181745514274
         -0.0181715153158
         -0.0181684773415
         -0.0181654412299
         -0.0181624051183
         -0.0181593671441
         -0.0181563310325
         -0.0181532949209
         -0.0181502569467
         -0.0181472208351
         -0.0181441847235
         -0.0181411467493
         -0.0181381106377
         -0.0181350745261
         -0.0181320365518
         -0.0181290004402
         -0.0181259643286
         -0.0181229263544
         -0.0181198902428
         -0.0181168541312
         -0.018113816157
         -0.0181107800454
         -0.0181077439338
         -0.0181047059596
         -0.018101669848
         -0.0180986337364
         -0.0180955957621
         -0.0180925596505
         -0.0180895235389
         -0.0180864855647
         -0.0180834494531
         -0.0180804133415
         -0.0180773753673
         -0.0180743392557
         -0.0180713031441
         -0.0180682651699
         -0.0180652290583
         -0.0180621929467
         -0.0180591549724
         -0.0180561188608
         -0.0180530827492
         -0.018050044775
         -0.0180470086634
         -0.0180439725518
         -0.0180409345776
         -0.018037898466
         -0.0180348623544
         -0.0180318243802
         -0.0180287882686
         -0.018025752157
         -0.0180227141827
         -0.0180196780711
         -0.0180166419595
         -0.0180136039853
         -0.0180105678737
         -0.0180075317621
         -0.0180044937879
         -0.0180014576763
         -0.0179984215647
         -0.0179953835905
         -0.0179923474789
         -0.0179893113673
         -0.017986273393
         -0.0179832372814
         -0.0179802011698
         -0.0179771631956
         -0.017974127084
         -0.0179710909724
         -0.0179680529982
         -0.0179650168866
         -0.017961980775
         -0.0179589428008
         -0.0179559066892
         -0.0179528705776
         -0.0179498326033
         -0.0179467964917
         -0.0179437603801
         -0.0179407224059
         -0.0179376862943
         -0.0179346501827
         -0.0179316122085
         -0.0179285760969
         -0.0179255399853
         -0.0179225020111
         -0.0179194658995
         -0.0179164297879
         -0.0179133918136
         -0.017910355702
         -0.0179073195904
         -0.0179042816162
         -0.0179012455046
         -0.017898209393
         -0.0178951714188
         -0.0178921353072
         -0.0178890991956
         -0.0178860612214
         -0.0178830251098
         -0.0178799889982
         -0.0178769510239
         -0.0178739149123
         -0.0178708788007
         -0.0178678408265
         -0.0178648047149
         -0.0178617686033
         -0.0178587306291
         -0.0178556945175
         -0.0178526584059
         -0.0178496204317
         -0.0178465843201
         -0.0178435482085
         -0.0178405102342
         -0.0178374741226
         -0.0178344380111
         -0.0178314000368
         -0.0178283639252
         -0.0178253278136
         -0.0178222898394
         -0.0178192537278
         -0.0178162176162
         -0.017813179642
         -0.0178101435304
         -0.0178071074188
         -0.0178040694445
         -0.0178010333329
         -0.0177979972214
         -0.0177949592471
         -0.0177919231355
         -0.0177888870239
         -0.0177858490497
         -0.0177828129381
         -0.0177797768265
         -0.0177767388523
         -0.0177737027407
         -0.0177706666291
         -0.0177676286548
         -0.0177645925432
         -0.0177615564317
         -0.0177585184574
         -0.0177554823458
         -0.0177524462342
         -0.01774940826
         -0.0177463721484
         -0.0177433360368
         -0.0177402980626
         -0.017737261951
         -0.0177342258394
         -0.0177311878651
         -0.0177281517535
         -0.017725115642
         -0.0177220776677
         -0.0177190415561
         -0.0177160054445
         -0.0177129674703
         -0.0177099313587
         -0.0177068952471
         -0.0177038572729
         -0.0177008211613
         -0.0176977850497
         -0.0176947470754
         -0.0176917109638
         -0.0176886748523
         -0.017685636878
         -0.0176826007664
         -0.0176795646548
         -0.0176765266806
         -0.017673490569
         -0.0176704544574
         -0.0176674164832
         -0.0176643803716
         -0.01766134426
         -0.0176583062857
         -0.0176552701741
         -0.0176522340626
         -0.0176491960883
         -0.0176461599767
         -0.0176431238651
         -0.0176400858909
         -0.0176370497793
         -0.0176340136677
         -0.0176309756935
         -0.0176279395819
         -0.0176249034703
         -0.017621865496
         -0.0176188293844
         -0.0176157932729
         -0.0176127552986
         -0.017609719187
         -0.0176066830754
         -0.0176036451012
         -0.0176006089896
         -0.017597572878
         -0.0175945349038
         -0.0175914987922
         -0.0175884626806
         -0.0175854247063
         -0.0175823885947
         -0.0175793524832
         -0.0175763145089
         -0.0175732783973
         -0.0175702422857
         -0.0175672043115
         -0.0175641681999
         -0.0175611320883
         -0.0175580941141
         -0.0175550580025
         -0.0175520218909
         -0.0175489839166
         -0.017545947805
         -0.0175429116935
         -0.0175398737192
         -0.0175368376076
         -0.017533801496
         -0.0175307635218
         -0.0175277274102
         -0.0175246912986
         -0.0175216533244
         -0.0175186172128
         -0.0175155811012
         -0.0175125431269
         -0.0175095070153
         -0.0175064709038
         -0.0175034329295
         -0.0175003968179
         -0.0174973607063
         -0.0174943227321
         -0.0174912866205
         -0.0174882505089
         -0.0174852125347
         -0.0174821764231
         -0.0174791403115
         -0.0174761023372
         -0.0174730662256
         -0.0174700301141
         -0.0174669921398
         -0.0174639560282
         -0.0174609199166
         -0.0174578819424
         -0.0174548458308
         -0.0174518097192
         -0.017448771745
         -0.0174457356334
         -0.0174426995218
         -0.0174396615475
         -0.0174366254359
         -0.0174335893244
         -0.0174305513501
         -0.0174275152385
         -0.0174244791269
         -0.0174214411527
         -0.0174184050411
         -0.0174153689295
         -0.0174123309553
         -0.0174092948437
         -0.0174062587321
         -0.0174032207578
         -0.0174001846462
         -0.0173971485347
         -0.0173941105604
         -0.0173910744488
         -0.0173880383372
         -0.017385000363
         -0.0173819642514
         -0.0173789281398
         -0.0173758901656
         -0.017372854054
         -0.0173698179424
         -0.0173667799681
         -0.0173637438565
         -0.017360707745
         -0.0173576697707
         -0.0173546336591
         -0.0173515975475
         -0.0173485595733
         -0.0173455234617
         -0.0173424873501
         -0.0173394493759
         -0.0173364132643
         -0.0173333771527
         -0.0173303391784
         -0.0173273030668
         -0.0173242669553
         -0.017321228981
         -0.0173181928694
         -0.0173151567578
         -0.0173121187836
         -0.017309082672
         -0.0173060465604
         -0.0173030085862
         -0.0172999724746
         -0.017296936363
         -0.0172938983887
         -0.0172908622772
         -0.0172878261656
         -0.0172847881913
         -0.0172817520797
         -0.0172787159681
         -0.0172756779939
         -0.0172726418823
         -0.0172696057707
         -0.0172665677965
         -0.0172635316849
         -0.0172604955733
         -0.017257457599
         -0.0172544214875
         -0.0172513853759
         -0.0172483474016
         -0.01724531129
         -0.0172422751784
         -0.0172392372042
         -0.0172362010926
         -0.017233164981
         -0.0172301270068
         -0.0172270908952
         -0.0172240547836
         -0.0172210168093
         -0.0172179806978
         -0.0172149445862
         -0.0172119066119
         -0.0172088705003
         -0.0172058343887
         -0.0172027964145
         -0.0171997603029
         -0.0171967241913
         -0.0171936862171
         -0.0171906501055
         -0.0171876139939
         -0.0171845760196
         -0.0171815399081
         -0.0171785037965
         -0.0171754658222
         -0.0171724297106
         -0.017169393599
         -0.0171663556248
         -0.0171633195132
         -0.0171602834016
         -0.0171572454274
         -0.0171542093158
         -0.0171511732042
         -0.0171481352299
         -0.0171450991184
         -0.0171420630068
         -0.0171390250325
         -0.0171359889209
         -0.0171329528093
         -0.0171299148351
         -0.0171268787235
         -0.0171238426119
         -0.0171208046377
         -0.0171177685261
         -0.0171147324145
         -0.0171116944402
         -0.0171086583287
         -0.0171056222171
         -0.0171025842428
         -0.0170995481312
         -0.0170965120196
         -0.0170934740454
         -0.0170904379338
         -0.0170874018222
         -0.017084363848
         -0.0170813277364
         -0.0170782916248
         -0.0170752536505
         -0.017072217539
         -0.0170691814274
         -0.0170661434531
         -0.0170631073415
         -0.0170600712299
         -0.0170570332557
         -0.0170539971441
         -0.0170509610325
         -0.0170479230583
         -0.0170448869467
         -0.0170418508351
         -0.0170388128608
         -0.0170357767493
         -0.0170327406377
         -0.0170297026634
         -0.0170266665518
         -0.0170236304402
         -0.017020592466
         -0.0170175563544
         -0.0170145202428
         -0.0170114822686
         -0.017008446157
         -0.0170054100454
         -0.0170023720711
         -0.0169993359596
         -0.016996299848
         -0.0169932618737
         -0.0169902257621
         -0.0169871896505
         -0.0169841516763
         -0.0169811155647
         -0.0169780794531
         -0.0169750414789
         -0.0169720053673
         -0.0169689692557
         -0.0169659312814
         -0.0169628951699
         -0.0169598590583
         -0.016956821084
         -0.0169537849724
         -0.0169507488608
         -0.0169477108866
         -0.016944674775
         -0.0169416386634
         -0.0169386006892
         -0.0169355645776
         -0.016932528466
         -0.0169294904917
         -0.0169264543802
         -0.0169234182686
         -0.0169203802943
         -0.0169173441827
         -0.0169143080711
         -0.0169112700969
         -0.0169082339853
         -0.0169051978737
         -0.0169021598995
         -0.0168991237879
         -0.0168960876763
         -0.016893049702
         -0.0168900135905
         -0.0168869774789
         -0.0168839395046
         -0.016880903393
         -0.0168778672814
         -0.0168748293072
         -0.0168717931956
         -0.016868757084
         -0.0168657191098
         -0.0168626829982
         -0.0168596468866
         -0.0168566089123
         -0.0168535728008
         -0.0168505366892
         -0.0168474987149
         -0.0168444626033
         -0.0168414264917
         -0.0168383885175
         -0.0168353524059
         -0.0168323162943
         -0.0168292783201
         -0.0168262422085
         -0.0168232060969
         -0.0168201681226
         -0.0168171320111
         -0.0168140958995
         -0.0168110579252
         -0.0168080218136
         -0.016804985702
         -0.0168019477278
         -0.0167989116162
         -0.0167958755046
         -0.0167928375304
         -0.0167898014188
         -0.0167867653072
         -0.0167837273329
         -0.0167806912214
         -0.0167776551098
         -0.0167746171355
         -0.0167715810239
         -0.0167685449123
         -0.0167655069381
         -0.0167624708265
         -0.0167594347149
         -0.0167563967407
         -0.0167533606291
         -0.0167503245175
         -0.0167472865433
         -0.0167442504317
         -0.0167412143201
         -0.0167381763458
         -0.0167351402342
         -0.0167321041226
         -0.0167290661484
         -0.0167260300368
         -0.0167229939252
         -0.016719955951
         -0.0167169198394
         -0.0167138837278
         -0.0167108457536
         -0.016707809642
         -0.0167047735304
         -0.0167017355561
         -0.0166986994445
         -0.0166956633329
         -0.0166926253587
         -0.0166895892471
         -0.0166865531355
         -0.0166835151613
         -0.0166804790497
         -0.0166774429381
         -0.0166744049639
         -0.0166713688523
         -0.0166683327407
         -0.0166652947664
         -0.0166622586548
         -0.0166592225432
         -0.016656184569
         -0.0166531484574
         -0.0166501123458
         -0.0166470743716
         -0.01664403826
         -0.0166410021484
         -0.0166379641742
         -0.0166349280626
         -0.016631891951
         -0.0166288539767
         -0.0166258178651
         -0.0166227817535
         -0.0166197437793
         -0.0166167076677
         -0.0166136715561
         -0.0166106335819
         -0.0166075974703
         -0.0166045613587
         -0.0166015233845
         -0.0165984872729
         -0.0165954511613
         -0.016592413187
         -0.0165893770754
         -0.0165863409638
         -0.0165833029896
         -0.016580266878
         -0.0165772307664
         -0.0165741927922
         -0.0165711566806
         -0.016568120569
         -0.0165650825948
         -0.0165620464832
         -0.0165590103716
         -0.0165559723973
         -0.0165529362857
         -0.0165499001741
         -0.0165468621999
         -0.0165438260883
         -0.0165407899767
         -0.0165377520025
         -0.0165347158909
         -0.0165316797793
         -0.0165286418051
         -0.0165256056935
         -0.0165225695819
         -0.0165195316076
         -0.016516495496
         -0.0165134593844
         -0.0165104214102
         -0.0165073852986
         -0.016504349187
         -0.0165013112128
         -0.0164982751012
         -0.0164952389896
         -0.0164922010154
         -0.0164891649038
         -0.0164861287922
         -0.0164830908179
         -0.0164800547063
         -0.0164770185947
         -0.0164739806205
         -0.0164709445089
         -0.0164679083973
         -0.0164648704231
         -0.0164618343115
         -0.0164587981999
         -0.0164557602257
         -0.0164527241141
         -0.0164496880025
         -0.0164466500282
         -0.0164436139166
         -0.016440577805
         -0.0164375398308
         -0.0164345037192
         -0.0164314676076
         -0.0164284296334
         -0.0164253935218
         -0.0164223574102
         -0.016419319436
         -0.0164162833244
         -0.0164132472128
         -0.0164102092385
         -0.0164071731269
         -0.0164041370153
         -0.0164010990411
         -0.0163980629295
         -0.0163950268179
         -0.0163919888437
         -0.0163889527321
         -0.0163859166205
         -0.0163828786463
         -0.0163798425347
         -0.0163768064231
         -0.0163737684488
         -0.0163707323372
         -0.0163676962256
         -0.0163646582514
         -0.0163616221398
         -0.0163585860282
         -0.016355548054
         -0.0163525119424
         -0.0163494758308
         -0.0163464378566
         -0.016343401745
         -0.0163403656334
         -0.0163373276591
         -0.0163342915475
         -0.0163312554359
         -0.0163282174617
         -0.0163251813501
         -0.0163221452385
         -0.0163191072643
         -0.0163160711527
         -0.0163130350411
         -0.0163099970669
         -0.0163069609553
         -0.0163039248437
         -0.0163008868694
         -0.0162978507578
         -0.0162948146462
         -0.016291776672
         -0.0162887405604
         -0.0162857044488
         -0.0162826664746
         -0.016279630363
         -0.0162765942514
         -0.0162735562772
         -0.0162705201656
         -0.016267484054
         -0.0162644460797
         -0.0162614099681
         -0.0162583738565
         -0.0162553358823
         -0.0162522997707
         -0.0162492636591
         -0.0162462256849
         -0.0162431895733
         -0.0162401534617
         -0.0162371154875
         -0.0162340793759
         -0.0162310432643
         -0.01622800529
         -0.0162249691784
         -0.0162219330668
         -0.0162188950926
         -0.016215858981
         -0.0162128228694
         -0.0162097848952
         -0.0162067487836
         -0.016203712672
         -0.0162006746978
         -0.0161976385862
         -0.0161946024746
         -0.0161915645003
         -0.0161885283887
         -0.0161854922771
         -0.0161824543029
         -0.0161794181913
         -0.0161763820797
         -0.0161733441055
         -0.0161703079939
         -0.0161672718823
         -0.0161642339081
         -0.0161611977965
         -0.0161581616849
         -0.0161551237106
         -0.016152087599
         -0.0161490514874
         -0.0161460135132
         -0.0161429774016
         -0.01613994129
         -0.0161369033158
         -0.0161338672042
         -0.0161308310926
         -0.0161277931184
         -0.0161247570068
         -0.0161217208952
         -0.0161186829209
         -0.0161156468093
         -0.0161126106977
         -0.0161095727235
         -0.0161065366119
         -0.0161035005003
         -0.0161004625261
         -0.0160974264145
         -0.0160943903029
         -0.0160913523287
         -0.0160883162171
         -0.0160852801055
         -0.0160822421312
         -0.0160792060196
         -0.016076169908
         -0.0160731319338
         -0.0160700958222
         -0.0160670597106
         -0.0160640217364
         -0.0160609856248
         -0.0160579495132
         -0.016054911539
         -0.0160518754274
         -0.0160488393158
         -0.0160458013415
         -0.0160427652299
         -0.0160397291183
         -0.0160366911441
         -0.0160336550325
         -0.0160306189209
         -0.0160275809467
         -0.0160245448351
         -0.0160215087235
         -0.0160184707493
         -0.0160154346377
         -0.0160123985261
         -0.0160093605518
         -0.0160063244402
         -0.0160032883286
         -0.0160002503544
         -0.0159972142428
         -0.0159941781312
         -0.015991140157
         -0.0159881040454
         -0.0159850679338
         -0.0159820299596
         -0.015978993848
         -0.0159759577364
         -0.0159729197621
         -0.0159698836505
         -0.0159668475389
         -0.0159638095647
         -0.0159607734531
         -0.0159577373415
         -0.0159546993673
         -0.0159516632557
         -0.0159486271441
         -0.0159455891699
         -0.0159425530583
         -0.0159395169467
         -0.0159364789724
         -0.0159334428608
         -0.0159304067492
         -0.015927368775
         -0.0159243326634
         -0.0159212965518
         -0.0159182585776
         -0.015915222466
         -0.0159121863544
         -0.0159091483802
         -0.0159061122686
         -0.015903076157
         -0.0159000381827
         -0.0158970020711
         -0.0158939659595
         -0.0158909279853
         -0.0158878918737
         -0.0158848557621
         -0.0158818177879
         -0.0158787816763
         -0.0158757455647
         -0.0158727075905
         -0.0158696714789
         -0.0158666353673
         -0.015863597393
         -0.0158605612814
         -0.0158575251698
         -0.0158544871956
         -0.015851451084
         -0.0158484149724
         -0.0158453769982
         -0.0158423408866
         -0.015839304775
         -0.0158362668008
         -0.0158332306892
         -0.0158301945776
         -0.0158271566033
         -0.0158241204917
         -0.0158210843801
         -0.0158180464059
         -0.0158150102943
         -0.0158119741827
         -0.0158089362085
         -0.0158059000969
         -0.0158028639853
         -0.0157998260111
         -0.0157967898995
         -0.0157937537879
         -0.0157907158136
         -0.015787679702
         -0.0157846435905
         -0.0157816056162
         -0.0157785695046
         -0.015775533393
         -0.0157724954188
         -0.0157694593072
         -0.0157664231956
         -0.0157633852214
         -0.0157603491098
         -0.0157573129982
         -0.0157542750239
         -0.0157512389123
         -0.0157482028008
         -0.0157451648265
         -0.0157421287149
         -0.0157390926033
         -0.0157360546291
         -0.0157330185175
         -0.0157299824059
         -0.0157269444317
         -0.0157239083201
         -0.0157208722085
         -0.0157178342342
         -0.0157147981226
         -0.0157117620111
         -0.0157087240368
         -0.0157056879252
         -0.0157026518136
         -0.0156996138394
         -0.0156965777278
         -0.0156935416162
         -0.015690503642
         -0.0156874675304
         -0.0156844314188
         -0.0156813934445
         -0.0156783573329
         -0.0156753212214
         -0.0156722832471
