aces_1.1/luts/V3_LogC_1600_to_linear.spi1d
Version 1
From 0 1
Length 65536
Components 1
{
 -1.7977476120e-02
 -1.7974520102e-02
 -1.7971565947e-02
 -1.7968609929e-02
 -1.7965653911e-02
 -1.7962699756e-02
 -1.7959743738e-02
 -1.7956789583e-02
 -1.7953833565e-02
 -1.7950877547e-02
 -1.7947923392e-02
 -1.7944967374e-02
 -1.7942013219e-02
 -1.7939057201e-02
 -1.7936101183e-02
 -1.7933147028e-02
 -1.7930191010e-02
 -1.7927236855e-02
 -1.7924280837e-02
 -1.7921324819e-02
 -1.7918370664e-02
 -1.7915414646e-02
 -1.7912460491e-02
 -1.7909504473e-02
 -1.7906550318e-02
 -1.7903594300e-02
 -1.7900638282e-02
 -1.7897684127e-02
 -1.7894728109e-02
 -1.7891773954e-02
 -1.7888817936e-02
 -1.7885861918e-02
 -1.7882907763e-02
 -1.7879951745e-02
 -1.7876997590e-02
 -1.7874041572e-02
 -1.7871085554e-02
 -1.7868131399e-02
 -1.7865175381e-02
 -1.7862221226e-02
 -1.7859265208e-02
 -1.7856309190e-02
 -1.7853355035e-02
 -1.7850399017e-02
 -1.7847444862e-02
 -1.7844488844e-02
 -1.7841534689e-02
 -1.7838578671e-02
 -1.7835622653e-02
 -1.7832668498e-02
 -1.7829712480e-02
 -1.7826758325e-02
 -1.7823802307e-02
 -1.7820846289e-02
 -1.7817892134e-02
 -1.7814936116e-02
 -1.7811981961e-02
 -1.7809025943e-02
 -1.7806069925e-02
 -1.7803115770e-02
 -1.7800159752e-02
 -1.7797205597e-02
 -1.7794249579e-02
 -1.7791293561e-02
 -1.7788339406e-02
 -1.7785383388e-02
 -1.7782429233e-02
 -1.7779473215e-02
 -1.7776519060e-02
 -1.7773563042e-02
 -1.7770607024e-02
 -1.7767652869e-02
 -1.7764696851e-02
 -1.7761742696e-02
 -1.7758786678e-02
 -1.7755830660e-02
 -1.7752876505e-02
 -1.7749920487e-02
 -1.7746966332e-02
 -1.7744010314e-02
 -1.7741054296e-02
 -1.7738100141e-02
 -1.7735144123e-02
 -1.7732189968e-02
 -1.7729233950e-02
 -1.7726277933e-02
 -1.7723323777e-02
 -1.7720367759e-02
 -1.7717413604e-02
 -1.7714457586e-02
 -1.7711503431e-02
 -1.7708547413e-02
 -1.7705591395e-02
 -1.7702637240e-02
 -1.7699681222e-02
 -1.7696727067e-02
 -1.7693771049e-02
 -1.7690815032e-02
 -1.7687860876e-02
 -1.7684904858e-02
 -1.7681950703e-02
 -1.7678994685e-02
 -1.7676038668e-02
 -1.7673084512e-02
 -1.7670128495e-02
 -1.7667174339e-02
 -1.7664218321e-02
 -1.7661262304e-02
 -1.7658308148e-02
 -1.7655352131e-02
 -1.7652397975e-02
 -1.7649441957e-02
 -1.7646487802e-02
 -1.7643531784e-02
 -1.7640575767e-02
 -1.7637621611e-02
 -1.7634665594e-02
 -1.7631711438e-02
 -1.7628755420e-02
 -1.7625799403e-02
 -1.7622845247e-02
 -1.7619889230e-02
 -1.7616935074e-02
 -1.7613979056e-02
 -1.7611023039e-02
 -1.7608068883e-02
 -1.7605112866e-02
 -1.7602158710e-02
 -1.7599202693e-02
 -1.7596246675e-02
 -1.7593292519e-02
 -1.7590336502e-02
 -1.7587382346e-02
 -1.7584426329e-02
 -1.7581472173e-02
 -1.7578516155e-02
 -1.7575560138e-02
 -1.7572605982e-02
 -1.7569649965e-02
 -1.7566695809e-02
 -1.7563739792e-02
 -1.7560783774e-02
 -1.7557829618e-02
 -1.7554873601e-02
 -1.7551919445e-02
 -1.7548963428e-02
 -1.7546007410e-02
 -1.7543053254e-02
 -1.7540097237e-02
 -1.7537143081e-02
 -1.7534187064e-02
 -1.7531231046e-02
 -1.7528276891e-02
 -1.7525320873e-02
 -1.7522366717e-02
 -1.7519410700e-02
 -1.7516456544e-02
 -1.7513500527e-02
 -1.7510544509e-02
 -1.7507590353e-02
 -1.7504634336e-02
 -1.7501680180e-02
 -1.7498724163e-02
 -1.7495768145e-02
 -1.7492813990e-02
 -1.7489857972e-02
 -1.7486903816e-02
 -1.7483947799e-02
 -1.7480991781e-02
 -1.7478037626e-02
 -1.7475081608e-02
 -1.7472127452e-02
 -1.7469171435e-02
 -1.7466215417e-02
 -1.7463261262e-02
 -1.7460305244e-02
 -1.7457351089e-02
 -1.7454395071e-02
 -1.7451439053e-02
 -1.7448484898e-02
 -1.7445528880e-02
 -1.7442574725e-02
 -1.7439618707e-02
 -1.7436664551e-02
 -1.7433708534e-02
 -1.7430752516e-02
 -1.7427798361e-02
 -1.7424842343e-02
 -1.7421888188e-02
 -1.7418932170e-02
 -1.7415976152e-02
 -1.7413021997e-02
 -1.7410065979e-02
 -1.7407111824e-02
 -1.7404155806e-02
 -1.7401199788e-02
 -1.7398245633e-02
 -1.7395289615e-02
 -1.7392335460e-02
 -1.7389379442e-02
 -1.7386423424e-02
 -1.7383469269e-02
 -1.7380513251e-02
 -1.7377559096e-02
 -1.7374603078e-02
 -1.7371648923e-02
 -1.7368692905e-02
 -1.7365736887e-02
 -1.7362782732e-02
 -1.7359826714e-02
 -1.7356872559e-02
 -1.7353916541e-02
 -1.7350960523e-02
 -1.7348006368e-02
 -1.7345050350e-02
 -1.7342096195e-02
 -1.7339140177e-02
 -1.7336184159e-02
 -1.7333230004e-02
 -1.7330273986e-02
 -1.7327319831e-02
 -1.7324363813e-02
 -1.7321407795e-02
 -1.7318453640e-02
 -1.7315497622e-02
 -1.7312543467e-02
 -1.7309587449e-02
 -1.7306633294e-02
 -1.7303677276e-02
 -1.7300721258e-02
 -1.7297767103e-02
 -1.7294811085e-02
 -1.7291856930e-02
 -1.7288900912e-02
 -1.7285944894e-02
 -1.7282990739e-02
 -1.7280034721e-02
 -1.7277080566e-02
 -1.7274124548e-02
 -1.7271168530e-02
 -1.7268214375e-02
 -1.7265258357e-02
 -1.7262304202e-02
 -1.7259348184e-02
 -1.7256392166e-02
 -1.7253438011e-02
 -1.7250481993e-02
 -1.7247527838e-02
 -1.7244571820e-02
 -1.7241617665e-02
 -1.7238661647e-02
 -1.7235705629e-02
 -1.7232751474e-02
 -1.7229795456e-02
 -1.7226841301e-02
 -1.7223885283e-02
 -1.7220929265e-02
 -1.7217975110e-02
 -1.7215019092e-02
 -1.7212064937e-02
 -1.7209108919e-02
 -1.7206152901e-02
 -1.7203198746e-02
 -1.7200242728e-02
 -1.7197288573e-02
 -1.7194332555e-02
 -1.7191376537e-02
 -1.7188422382e-02
 -1.7185466364e-02
 -1.7182512209e-02
 -1.7179556191e-02
 -1.7176602036e-02
 -1.7173646018e-02
 -1.7170690000e-02
 -1.7167735845e-02
 -1.7164779827e-02
 -1.7161825672e-02
 -1.7158869654e-02
 -1.7155913636e-02
 -1.7152959481e-02
 -1.7150003463e-02
 -1.7147049308e-02
 -1.7144093290e-02
 -1.7141137272e-02
 -1.7138183117e-02
 -1.7135227099e-02
 -1.7132272944e-02
 -1.7129316926e-02
 -1.7126360908e-02
 -1.7123406753e-02
 -1.7120450735e-02
 -1.7117496580e-02
 -1.7114540562e-02
 -1.7111586407e-02
 -1.7108630389e-02
 -1.7105674371e-02
 -1.7102720216e-02
 -1.7099764198e-02
 -1.7096810043e-02
 -1.7093854025e-02
 -1.7090898007e-02
 -1.7087943852e-02
 -1.7084987834e-02
 -1.7082033679e-02
 -1.7079077661e-02
 -1.7076121643e-02
 -1.7073167488e-02
 -1.7070211470e-02
 -1.7067257315e-02
 -1.7064301297e-02
 -1.7061345279e-02
 -1.7058391124e-02
 -1.7055435106e-02
 -1.7052480951e-02
 -1.7049524933e-02
 -1.7046570778e-02
 -1.7043614760e-02
 -1.7040658742e-02
 -1.7037704587e-02
 -1.7034748569e-02
 -1.7031794414e-02
 -1.7028838396e-02
 -1.7025882378e-02
 -1.7022928223e-02
 -1.7019972205e-02
 -1.7017018050e-02
 -1.7014062032e-02
 -1.7011106014e-02
 -1.7008151859e-02
 -1.7005195841e-02
 -1.7002241686e-02
 -1.6999285668e-02
 -1.6996329650e-02
 -1.6993375495e-02
 -1.6990419477e-02
 -1.6987465322e-02
 -1.6984509304e-02
 -1.6981553286e-02
 -1.6978599131e-02
 -1.6975643113e-02
 -1.6972688958e-02
 -1.6969732940e-02
 -1.6966778785e-02
 -1.6963822767e-02
 -1.6960866749e-02
 -1.6957912594e-02
 -1.6954956576e-02
 -1.6952002421e-02
 -1.6949046403e-02
 -1.6946090385e-02
 -1.6943136230e-02
 -1.6940180212e-02
 -1.6937226057e-02
 -1.6934270039e-02
 -1.6931314021e-02
 -1.6928359866e-02
 -1.6925403848e-02
 -1.6922449693e-02
 -1.6919493675e-02
 -1.6916537657e-02
 -1.6913583502e-02
 -1.6910627484e-02
 -1.6907673329e-02
 -1.6904717311e-02
 -1.6901763156e-02
 -1.6898807138e-02
 -1.6895851120e-02
 -1.6892896965e-02
 -1.6889940947e-02
 -1.6886986792e-02
 -1.6884030774e-02
 -1.6881074756e-02
 -1.6878120601e-02
 -1.6875164583e-02
 -1.6872210428e-02
 -1.6869254410e-02
 -1.6866298392e-02
 -1.6863344237e-02
 -1.6860388219e-02
 -1.6857434064e-02
 -1.6854478046e-02
 -1.6851522028e-02
 -1.6848567873e-02
 -1.6845611855e-02
 -1.6842657700e-02
 -1.6839701682e-02
 -1.6836747527e-02
 -1.6833791509e-02
 -1.6830835491e-02
 -1.6827881336e-02
 -1.6824925318e-02
 -1.6821971163e-02
 -1.6819015145e-02
 -1.6816059127e-02
 -1.6813104972e-02
 -1.6810148954e-02
 -1.6807194799e-02
 -1.6804238781e-02
 -1.6801282763e-02
 -1.6798328608e-02
 -1.6795372590e-02
 -1.6792418435e-02
 -1.6789462417e-02
 -1.6786506400e-02
 -1.6783552244e-02
 -1.6780596226e-02
 -1.6777642071e-02
 -1.6774686053e-02
 -1.6771731898e-02
 -1.6768775880e-02
 -1.6765819862e-02
 -1.6762865707e-02
 -1.6759909689e-02
 -1.6756955534e-02
 -1.6753999516e-02
 -1.6751043499e-02
 -1.6748089343e-02
 -1.6745133325e-02
 -1.6742179170e-02
 -1.6739223152e-02
 -1.6736267135e-02
 -1.6733312979e-02
 -1.6730356961e-02
 -1.6727402806e-02
 -1.6724446788e-02
 -1.6721490771e-02
 -1.6718536615e-02
 -1.6715580598e-02
 -1.6712626442e-02
 -1.6709670424e-02
 -1.6706716269e-02
 -1.6703760251e-02
 -1.6700804234e-02
 -1.6697850078e-02
 -1.6694894060e-02
 -1.6691939905e-02
 -1.6688983887e-02
 -1.6686027870e-02
 -1.6683073714e-02
 -1.6680117697e-02
 -1.6677163541e-02
 -1.6674207523e-02
 -1.6671251506e-02
 -1.6668297350e-02
 -1.6665341333e-02
 -1.6662387177e-02
 -1.6659431159e-02
 -1.6656475142e-02
 -1.6653520986e-02
 -1.6650564969e-02
 -1.6647610813e-02
 -1.6644654796e-02
 -1.6641700640e-02
 -1.6638744622e-02
 -1.6635788605e-02
 -1.6632834449e-02
 -1.6629878432e-02
 -1.6626924276e-02
 -1.6623968259e-02
 -1.6621012241e-02
 -1.6618058085e-02
 -1.6615102068e-02
 -1.6612147912e-02
 -1.6609191895e-02
 -1.6606235877e-02
 -1.6603281721e-02
 -1.6600325704e-02
 -1.6597371548e-02
 -1.6594415531e-02
 -1.6591459513e-02
 -1.6588505358e-02
 -1.6585549340e-02
 -1.6582595184e-02
 -1.6579639167e-02
 -1.6576685011e-02
 -1.6573728994e-02
 -1.6570772976e-02
 -1.6567818820e-02
 -1.6564862803e-02
 -1.6561908647e-02
 -1.6558952630e-02
 -1.6555996612e-02
 -1.6553042457e-02
 -1.6550086439e-02
 -1.6547132283e-02
 -1.6544176266e-02
 -1.6541220248e-02
 -1.6538266093e-02
 -1.6535310075e-02
 -1.6532355919e-02
 -1.6529399902e-02
 -1.6526443884e-02
 -1.6523489729e-02
 -1.6520533711e-02
 -1.6517579556e-02
 -1.6514623538e-02
 -1.6511667520e-02
 -1.6508713365e-02
 -1.6505757347e-02
 -1.6502803192e-02
 -1.6499847174e-02
 -1.6496893018e-02
 -1.6493937001e-02
 -1.6490980983e-02
 -1.6488026828e-02
 -1.6485070810e-02
 -1.6482116655e-02
 -1.6479160637e-02
 -1.6476204619e-02
 -1.6473250464e-02
 -1.6470294446e-02
 -1.6467340291e-02
 -1.6464384273e-02
 -1.6461428255e-02
 -1.6458474100e-02
 -1.6455518082e-02
 -1.6452563927e-02
 -1.6449607909e-02
 -1.6446651891e-02
 -1.6443697736e-02
 -1.6440741718e-02
 -1.6437787563e-02
 -1.6434831545e-02
 -1.6431877390e-02
 -1.6428921372e-02
 -1.6425965354e-02
 -1.6423011199e-02
 -1.6420055181e-02
 -1.6417101026e-02
 -1.6414145008e-02
 -1.6411188990e-02
 -1.6408234835e-02
 -1.6405278817e-02
 -1.6402324662e-02
 -1.6399368644e-02
 -1.6396412626e-02
 -1.6393458471e-02
 -1.6390502453e-02
 -1.6387548298e-02
 -1.6384592280e-02
 -1.6381636262e-02
 -1.6378682107e-02
 -1.6375726089e-02
 -1.6372771934e-02
 -1.6369815916e-02
 -1.6366861761e-02
 -1.6363905743e-02
 -1.6360949725e-02
 -1.6357995570e-02
 -1.6355039552e-02
 -1.6352085397e-02
 -1.6349129379e-02
 -1.6346173361e-02
 -1.6343219206e-02
 -1.6340263188e-02
 -1.6337309033e-02
 -1.6334353015e-02
 -1.6331396997e-02
 -1.6328442842e-02
 -1.6325486824e-02
 -1.6322532669e-02
 -1.6319576651e-02
 -1.6316620633e-02
 -1.6313666478e-02
 -1.6310710460e-02
 -1.6307756305e-02
 -1.6304800287e-02
 -1.6301846132e-02
 -1.6298890114e-02
 -1.6295934096e-02
 -1.6292979941e-02
 -1.6290023923e-02
 -1.6287069768e-02
 -1.6284113750e-02
 -1.6281157732e-02
 -1.6278203577e-02
 -1.6275247559e-02
 -1.6272293404e-02
 -1.6269337386e-02
 -1.6266381368e-02
 -1.6263427213e-02
 -1.6260471195e-02
 -1.6257517040e-02
 -1.6254561022e-02
 -1.6251605004e-02
 -1.6248650849e-02
 -1.6245694831e-02
 -1.6242740676e-02
 -1.6239784658e-02
 -1.6236830503e-02
 -1.6233874485e-02
 -1.6230918467e-02
 -1.6227964312e-02
 -1.6225008294e-02
 -1.6222054139e-02
 -1.6219098121e-02
 -1.6216142103e-02
 -1.6213187948e-02
 -1.6210231930e-02
 -1.6207277775e-02
 -1.6204321757e-02
 -1.6201365739e-02
 -1.6198411584e-02
 -1.6195455566e-02
 -1.6192501411e-02
 -1.6189545393e-02
 -1.6186589375e-02
 -1.6183635220e-02
 -1.6180679202e-02
 -1.6177725047e-02
 -1.6174769029e-02
 -1.6171814874e-02
 -1.6168858856e-02
 -1.6165902838e-02
 -1.6162948683e-02
 -1.6159992665e-02
 -1.6157038510e-02
 -1.6154082492e-02
 -1.6151126474e-02
 -1.6148172319e-02
 -1.6145216301e-02
 -1.6142262146e-02
 -1.6139306128e-02
 -1.6136350110e-02
 -1.6133395955e-02
 -1.6130439937e-02
 -1.6127485782e-02
 -1.6124529764e-02
 -1.6121573746e-02
 -1.6118619591e-02
 -1.6115663573e-02
 -1.6112709418e-02
 -1.6109753400e-02
 -1.6106799245e-02
 -1.6103843227e-02
 -1.6100887209e-02
 -1.6097933054e-02
 -1.6094977036e-02
 -1.6092022881e-02
 -1.6089066863e-02
 -1.6086110845e-02
 -1.6083156690e-02
 -1.6080200672e-02
 -1.6077246517e-02
 -1.6074290499e-02
 -1.6071334481e-02
 -1.6068380326e-02
 -1.6065424308e-02
 -1.6062470153e-02
 -1.6059514135e-02
 -1.6056558117e-02
 -1.6053603962e-02
 -1.6050647944e-02
 -1.6047693789e-02
 -1.6044737771e-02
 -1.6041781753e-02
 -1.6038827598e-02
 -1.6035871580e-02
 -1.6032917425e-02
 -1.6029961407e-02
 -1.6027007252e-02
 -1.6024051234e-02
 -1.6021095216e-02
 -1.6018141061e-02
 -1.6015185043e-02
 -1.6012230888e-02
 -1.6009274870e-02
 -1.6006318852e-02
 -1.6003364697e-02
 -1.6000408679e-02
 -1.5997454524e-02
 -1.5994498506e-02
 -1.5991542488e-02
 -1.5988588333e-02
 -1.5985632315e-02
 -1.5982678160e-02
 -1.5979722142e-02
 -1.5976766124e-02
 -1.5973811969e-02
 -1.5970855951e-02
 -1.5967901796e-02
 -1.5964945778e-02
 -1.5961991623e-02
 -1.5959035605e-02
 -1.5956079587e-02
 -1.5953125432e-02
 -1.5950169414e-02
 -1.5947215259e-02
 -1.5944259241e-02
 -1.5941303223e-02
 -1.5938349068e-02
 -1.5935393050e-02
 -1.5932438895e-02
 -1.5929482877e-02
 -1.5926526859e-02
 -1.5923572704e-02
 -1.5920616686e-02
 -1.5917662531e-02
 -1.5914706513e-02
 -1.5911750495e-02
 -1.5908796340e-02
 -1.5905840322e-02
 -1.5902886167e-02
 -1.5899930149e-02
 -1.5896975994e-02
 -1.5894019976e-02
 -1.5891063958e-02
 -1.5888109803e-02
 -1.5885153785e-02
 -1.5882199630e-02
 -1.5879243612e-02
 -1.5876287594e-02
 -1.5873333439e-02
 -1.5870377421e-02
 -1.5867423266e-02
 -1.5864467248e-02
 -1.5861511230e-02
 -1.5858557075e-02
 -1.5855601057e-02
 -1.5852646902e-02
 -1.5849690884e-02
 -1.5846734866e-02
 -1.5843780711e-02
 -1.5840824693e-02
 -1.5837870538e-02
 -1.5834914520e-02
 -1.5831960365e-02
 -1.5829004347e-02
 -1.5826048329e-02
 -1.5823094174e-02
 -1.5820138156e-02
 -1.5817184001e-02
 -1.5814227983e-02
 -1.5811271966e-02
 -1.5808317810e-02
 -1.5805361792e-02
 -1.5802407637e-02
 -1.5799451619e-02
 -1.5796495602e-02
 -1.5793541446e-02
 -1.5790585428e-02
 -1.5787631273e-02
 -1.5784675255e-02
 -1.5781719238e-02
 -1.5778765082e-02
 -1.5775809065e-02
 -1.5772854909e-02
 -1.5769898891e-02
 -1.5766944736e-02
 -1.5763988718e-02
 -1.5761032701e-02
 -1.5758078545e-02
 -1.5755122527e-02
 -1.5752168372e-02
 -1.5749212354e-02
 -1.5746256337e-02
 -1.5743302181e-02
 -1.5740346164e-02
 -1.5737392008e-02
 -1.5734435990e-02
 -1.5731479973e-02
 -1.5728525817e-02
 -1.5725569800e-02
 -1.5722615644e-02
 -1.5719659626e-02
 -1.5716703609e-02
 -1.5713749453e-02
 -1.5710793436e-02
 -1.5707839280e-02
 -1.5704883263e-02
 -1.5701929107e-02
 -1.5698973089e-02
 -1.5696017072e-02
 -1.5693062916e-02
 -1.5690106899e-02
 -1.5687152743e-02
 -1.5684196725e-02
 -1.5681240708e-02
 -1.5678286552e-02
 -1.5675330535e-02
 -1.5672376379e-02
 -1.5669420362e-02
 -1.5666464344e-02
 -1.5663510188e-02
 -1.5660554171e-02
 -1.5657600015e-02
 -1.5654643998e-02
 -1.5651687980e-02
 -1.5648733824e-02
 -1.5645777807e-02
 -1.5642823651e-02
 -1.5639867634e-02
 -1.5636913478e-02
 -1.5633957461e-02
 -1.5631001443e-02
 -1.5628047287e-02
 -1.5625091270e-02
 -1.5622136183e-02
 -1.5619181097e-02
 -1.5616226010e-02
 -1.5613270923e-02
 -1.5610314906e-02
 -1.5607359819e-02
 -1.5604404733e-02
 -1.5601449646e-02
 -1.5598494560e-02
 -1.5595538542e-02
 -1.5592583455e-02
 -1.5589628369e-02
 -1.5586673282e-02
 -1.5583718196e-02
 -1.5580763109e-02
 -1.5577807091e-02
 -1.5574852005e-02
 -1.5571896918e-02
 -1.5568941832e-02
 -1.5565986745e-02
 -1.5563030727e-02
 -1.5560075641e-02
 -1.5557120554e-02
 -1.5554165468e-02
 -1.5551210381e-02
 -1.5548255295e-02
 -1.5545299277e-02
 -1.5542344190e-02
 -1.5539389104e-02
 -1.5536434017e-02
 -1.5533478931e-02
 -1.5530522913e-02
 -1.5527567826e-02
 -1.5524612740e-02
 -1.5521657653e-02
 -1.5518702567e-02
 -1.5515747480e-02
 -1.5512791462e-02
 -1.5509836376e-02
 -1.5506881289e-02
 -1.5503926203e-02
 -1.5500971116e-02
 -1.5498015098e-02
 -1.5495060012e-02
 -1.5492104925e-02
 -1.5489149839e-02
 -1.5486194752e-02
 -1.5483239666e-02
 -1.5480283648e-02
 -1.5477328561e-02
 -1.5474373475e-02
 -1.5471418388e-02
 -1.5468463302e-02
 -1.5465507284e-02
 -1.5462552197e-02
 -1.5459597111e-02
 -1.5456642024e-02
 -1.5453686938e-02
 -1.5450731851e-02
 -1.5447775833e-02
 -1.5444820747e-02
 -1.5441865660e-02
 -1.5438910574e-02
 -1.5435955487e-02
 -1.5432999469e-02
 -1.5430044383e-02
 -1.5427089296e-02
 -1.5424134210e-02
 -1.5421179123e-02
 -1.5418224037e-02
 -1.5415268019e-02
 -1.5412312932e-02
 -1.5409357846e-02
 -1.5406402759e-02
 -1.5403447673e-02
 -1.5400491655e-02
 -1.5397536568e-02
 -1.5394581482e-02
 -1.5391626395e-02
 -1.5388671309e-02
 -1.5385716222e-02
 -1.5382760204e-02
 -1.5379805118e-02
 -1.5376850031e-02
 -1.5373894945e-02
 -1.5370939858e-02
 -1.5367983840e-02
 -1.5365028754e-02
 -1.5362073667e-02
 -1.5359118581e-02
 -1.5356163494e-02
 -1.5353207476e-02
 -1.5350252390e-02
 -1.5347297303e-02
 -1.5344342217e-02
 -1.5341387130e-02
 -1.5338432044e-02
 -1.5335476026e-02
 -1.5332520939e-02
 -1.5329565853e-02
 -1.5326610766e-02
 -1.5323655680e-02
 -1.5320699662e-02
 -1.5317744575e-02
 -1.5314789489e-02
 -1.5311834402e-02
 -1.5308879316e-02
 -1.5305924229e-02
 -1.5302968211e-02
 -1.5300013125e-02
 -1.5297058038e-02
 -1.5294102952e-02
 -1.5291147865e-02
 -1.5288191848e-02
 -1.5285236761e-02
 -1.5282281674e-02
 -1.5279326588e-02
 -1.5276371501e-02
 -1.5273416415e-02
 -1.5270460397e-02
 -1.5267505310e-02
 -1.5264550224e-02
 -1.5261595137e-02
 -1.5258640051e-02
 -1.5255684033e-02
 -1.5252728947e-02
 -1.5249773860e-02
 -1.5246818773e-02
 -1.5243863687e-02
 -1.5240908600e-02
 -1.5237952583e-02
 -1.5234997496e-02
 -1.5232042409e-02
 -1.5229087323e-02
 -1.5226132236e-02
 -1.5223176219e-02
 -1.5220221132e-02
 -1.5217266046e-02
 -1.5214310959e-02
 -1.5211355872e-02
 -1.5208400786e-02
 -1.5205444768e-02
 -1.5202489682e-02
 -1.5199534595e-02
 -1.5196579508e-02
 -1.5193624422e-02
 -1.5190668404e-02
 -1.5187713318e-02
 -1.5184758231e-02
 -1.5181803145e-02
 -1.5178848058e-02
 -1.5175892971e-02
 -1.5172936954e-02
 -1.5169981867e-02
 -1.5167026781e-02
 -1.5164071694e-02
 -1.5161116607e-02
 -1.5158160590e-02
 -1.5155205503e-02
 -1.5152250417e-02
 -1.5149295330e-02
 -1.5146340244e-02
 -1.5143385157e-02
 -1.5140429139e-02
 -1.5137474053e-02
 -1.5134518966e-02
 -1.5131563880e-02
 -1.5128608793e-02
 -1.5125652775e-02
 -1.5122697689e-02
 -1.5119742602e-02
 -1.5116787516e-02
 -1.5113832429e-02
 -1.5110877343e-02
 -1.5107921325e-02
 -1.5104966238e-02
 -1.5102011152e-02
 -1.5099056065e-02
 -1.5096100979e-02
 -1.5093144961e-02
 -1.5090189874e-02
 -1.5087234788e-02
 -1.5084279701e-02
 -1.5081324615e-02
 -1.5078369528e-02
 -1.5075413510e-02
 -1.5072458424e-02
 -1.5069503337e-02
 -1.5066548251e-02
 -1.5063593164e-02
 -1.5060637146e-02
 -1.5057682060e-02
 -1.5054726973e-02
 -1.5051771887e-02
 -1.5048816800e-02
 -1.5045861714e-02
 -1.5042905696e-02
 -1.5039950609e-02
 -1.5036995523e-02
 -1.5034040436e-02
 -1.5031085350e-02
 -1.5028129332e-02
 -1.5025174245e-02
 -1.5022219159e-02
 -1.5019264072e-02
 -1.5016308986e-02
 -1.5013353899e-02
 -1.5010397881e-02
 -1.5007442795e-02
 -1.5004487708e-02
 -1.5001532622e-02
 -1.4998577535e-02
 -1.4995621517e-02
 -1.4992666431e-02
 -1.4989711344e-02
 -1.4986756258e-02
 -1.4983801171e-02
 -1.4980846085e-02
 -1.4977890067e-02
 -1.4974934980e-02
 -1.4971979894e-02
 -1.4969024807e-02
 -1.4966069721e-02
 -1.4963113703e-02
 -1.4960158616e-02
 -1.4957203530e-02
 -1.4954248443e-02
 -1.4951293357e-02
 -1.4948338270e-02
 -1.4945382252e-02
 -1.4942427166e-02
 -1.4939472079e-02
 -1.4936516993e-02
 -1.4933561906e-02
 -1.4930605888e-02
 -1.4927650802e-02
 -1.4924695715e-02
 -1.4921740629e-02
 -1.4918785542e-02
 -1.4915830456e-02
 -1.4912874438e-02
 -1.4909919351e-02
 -1.4906964265e-02
 -1.4904009178e-02
 -1.4901054092e-02
 -1.4898098074e-02
 -1.4895142987e-02
 -1.4892187901e-02
 -1.4889232814e-02
 -1.4886277728e-02
 -1.4883321710e-02
 -1.4880366623e-02
 -1.4877411537e-02
 -1.4874456450e-02
 -1.4871501364e-02
 -1.4868546277e-02
 -1.4865590259e-02
 -1.4862635173e-02
 -1.4859680086e-02
 -1.4856725000e-02
 -1.4853769913e-02
 -1.4850813895e-02
 -1.4847858809e-02
 -1.4844903722e-02
 -1.4841948636e-02
 -1.4838993549e-02
 -1.4836038463e-02
 -1.4833082445e-02
 -1.4830127358e-02
 -1.4827172272e-02
 -1.4824217185e-02
 -1.4821262099e-02
 -1.4818306081e-02
 -1.4815350994e-02
 -1.4812395908e-02
 -1.4809440821e-02
 -1.4806485735e-02
 -1.4803530648e-02
 -1.4800574630e-02
 -1.4797619544e-02
 -1.4794664457e-02
 -1.4791709371e-02
 -1.4788754284e-02
 -1.4785798267e-02
 -1.4782843180e-02
 -1.4779888093e-02
 -1.4776933007e-02
 -1.4773977920e-02
 -1.4771022834e-02
 -1.4768066816e-02
 -1.4765111730e-02
 -1.4762156643e-02
 -1.4759201556e-02
 -1.4756246470e-02
 -1.4753290452e-02
 -1.4750335366e-02
 -1.4747380279e-02
 -1.4744425192e-02
 -1.4741470106e-02
 -1.4738515019e-02
 -1.4735559002e-02
 -1.4732603915e-02
 -1.4729648829e-02
 -1.4726693742e-02
 -1.4723738655e-02
 -1.4720782638e-02
 -1.4717827551e-02
 -1.4714872465e-02
 -1.4711917378e-02
 -1.4708962291e-02
 -1.4706007205e-02
 -1.4703051187e-02
 -1.4700096101e-02
 -1.4697141014e-02
 -1.4694185928e-02
 -1.4691230841e-02
 -1.4688274823e-02
 -1.4685319737e-02
 -1.4682364650e-02
 -1.4679409564e-02
 -1.4676454477e-02
 -1.4673499390e-02
 -1.4670543373e-02
 -1.4667588286e-02
 -1.4664633200e-02
 -1.4661678113e-02
 -1.4658723027e-02
 -1.4655767009e-02
 -1.4652811922e-02
 -1.4649856836e-02
 -1.4646901749e-02
 -1.4643946663e-02
 -1.4640991576e-02
 -1.4638035558e-02
 -1.4635080472e-02
 -1.4632125385e-02
 -1.4629170299e-02
 -1.4626215212e-02
 -1.4623259194e-02
 -1.4620304108e-02
 -1.4617349021e-02
 -1.4614393935e-02
 -1.4611438848e-02
 -1.4608483762e-02
 -1.4605527744e-02
 -1.4602572657e-02
 -1.4599617571e-02
 -1.4596662484e-02
 -1.4593707398e-02
 -1.4590751380e-02
 -1.4587796293e-02
 -1.4584841207e-02
 -1.4581886120e-02
 -1.4578931034e-02
 -1.4575975947e-02
 -1.4573019929e-02
 -1.4570064843e-02
 -1.4567109756e-02
 -1.4564154670e-02
 -1.4561199583e-02
 -1.4558243565e-02
 -1.4555288479e-02
 -1.4552333392e-02
 -1.4549378306e-02
 -1.4546423219e-02
 -1.4543468133e-02
 -1.4540512115e-02
 -1.4537557028e-02
 -1.4534601942e-02
 -1.4531646855e-02
 -1.4528691769e-02
 -1.4525735751e-02
 -1.4522780664e-02
 -1.4519825578e-02
 -1.4516870491e-02
 -1.4513915405e-02
 -1.4510960318e-02
 -1.4508004300e-02
 -1.4505049214e-02
 -1.4502094127e-02
 -1.4499139041e-02
 -1.4496183954e-02
 -1.4493227936e-02
 -1.4490272850e-02
 -1.4487317763e-02
 -1.4484362677e-02
 -1.4481407590e-02
 -1.4478452504e-02
 -1.4475496486e-02
 -1.4472541399e-02
 -1.4469586313e-02
 -1.4466631226e-02
 -1.4463676140e-02
 -1.4460720122e-02
 -1.4457765035e-02
 -1.4454809949e-02
 -1.4451854862e-02
 -1.4448899776e-02
 -1.4445944689e-02
 -1.4442988671e-02
 -1.4440033585e-02
 -1.4437078498e-02
 -1.4434123412e-02
 -1.4431168325e-02
 -1.4428212307e-02
 -1.4425257221e-02
 -1.4422302134e-02
 -1.4419347048e-02
 -1.4416391961e-02
 -1.4413435943e-02
 -1.4410480857e-02
 -1.4407525770e-02
 -1.4404570684e-02
 -1.4401615597e-02
 -1.4398660511e-02
 -1.4395704493e-02
 -1.4392749406e-02
 -1.4389794320e-02
 -1.4386839233e-02
 -1.4383884147e-02
 -1.4380928129e-02
 -1.4377973042e-02
 -1.4375017956e-02
 -1.4372062869e-02
 -1.4369107783e-02
 -1.4366152696e-02
 -1.4363196678e-02
 -1.4360241592e-02
 -1.4357286505e-02
 -1.4354331419e-02
 -1.4351376332e-02
 -1.4348420314e-02
 -1.4345465228e-02
 -1.4342510141e-02
 -1.4339555055e-02
 -1.4336599968e-02
 -1.4333644882e-02
 -1.4330688864e-02
 -1.4327733777e-02
 -1.4324778691e-02
 -1.4321823604e-02
 -1.4318868518e-02
 -1.4315912500e-02
 -1.4312957413e-02
 -1.4310002327e-02
 -1.4307047240e-02
 -1.4304092154e-02
 -1.4301137067e-02
 -1.4298181050e-02
 -1.4295225963e-02
 -1.4292270876e-02
 -1.4289315790e-02
 -1.4286360703e-02
 -1.4283404686e-02
 -1.4280449599e-02
 -1.4277494512e-02
 -1.4274539426e-02
 -1.4271584339e-02
 -1.4268629253e-02
 -1.4265673235e-02
 -1.4262718149e-02
 -1.4259763062e-02
 -1.4256807975e-02
