aces_0.7.1/luts/aceslog.spi1d
Version 1
From 0.0 1.0
Length 4096
Components 1
{
        -2.38803042397e-09
        -2.38803042397e-09
        -2.38803042397e-09
        -2.38803042397e-09
        -2.38803042397e-09
        -2.38803042397e-09
        -2.38803042397e-09
        -2.38803042397e-09
        -2.38803042397e-09
        -2.38803042397e-09
        -2.38803042397e-09
        -2.38803042397e-09
        -2.38803042397e-09
        -2.38803042397e-09
        -2.38803042397e-09
        -2.38803042397e-09
        -2.38803042397e-09
        -2.38803042397e-09
        -2.38803042397e-09
        -2.38803042397e-09
        -2.38803042397e-09
        -2.38803042397e-09
        -2.38803042397e-09
        -2.38803042397e-09
        -2.38803042397e-09
        -2.38803042397e-09
        -2.38803042397e-09
        -2.38803042397e-09
        -2.38803042397e-09
        -2.38803042397e-09
        -2.38803042397e-09
        -2.38803042397e-09
        -2.38803042397e-09
        -2.38803042397e-09
        -2.38803042397e-09
        -2.38803042397e-09
        -2.38803042397e-09
        -2.38803042397e-09
        -2.38803042397e-09
        -2.38803042397e-09
        -2.38803042397e-09
        -2.38803042397e-09
        -2.38803042397e-09
        -2.38803042397e-09
        -2.38803042397e-09
        -2.38803042397e-09
        -2.38803042397e-09
        -2.38803042397e-09
        -2.38803042397e-09
        -2.38803042397e-09
        -2.38803042397e-09
        -2.38803042397e-09
        -2.38803042397e-09
        -2.38803042397e-09
        -2.38803042397e-09
        -2.38803042397e-09
        -2.38803042397e-09
        -2.38803042397e-09
        -2.38803042397e-09
        -2.38803042397e-09
        -2.38803042397e-09
        -2.38803042397e-09
        -2.38803042397e-09
        -2.38803042397e-09
        -2.38803042397e-09
        -2.38803042397e-09
        -2.38803042397e-09
        -2.38803042397e-09
        -2.38803042397e-09
        -2.38803042397e-09
        -2.38803042397e-09
        -2.38803042397e-09
        -2.38803042397e-09
        -2.38803042397e-09
        -2.38803042397e-09
        -2.38803042397e-09
        -2.38803042397e-09
        -2.38803042397e-09
        -2.38803042397e-09
        -2.38803042397e-09
        -2.38803042397e-09
        -2.38803042397e-09
        -2.38803042397e-09
        -2.38803042397e-09
        -2.38803042397e-09
        -2.38803042397e-09
        -2.38803042397e-09
        -2.38803042397e-09
        -2.38803042397e-09
        -2.38803042397e-09
        -2.38803042397e-09
        -2.38803042397e-09
        -2.38803042397e-09
        -2.38803042397e-09
        -2.38803042397e-09
        -2.38803042397e-09
        -2.38803042397e-09
        -2.38803042397e-09
        -2.38803042397e-09
        -2.38803042397e-09
        -2.38803042397e-09
        -2.38803042397e-09
        -2.38803042397e-09
        -2.38803042397e-09
        -2.38803042397e-09
        -2.38803042397e-09
        -2.38803042397e-09
        -2.38803042397e-09
        -2.38803042397e-09
        -2.38803042397e-09
        -2.38803042397e-09
        -2.38803042397e-09
        -2.38803042397e-09
        -2.38803042397e-09
        -2.38803042397e-09
        -2.38803042397e-09
        -2.38803042397e-09
        -2.38803042397e-09
        -2.38803042397e-09
        -2.38803042397e-09
        -2.38803042397e-09
        -2.38803042397e-09
        -2.38803042397e-09
        -2.38803042397e-09
        -2.38803042397e-09
        -2.38803042397e-09
        -2.38803042397e-09
        -2.38803042397e-09
        3.05224529818e-05
        3.06882249121e-05
        3.0854897174e-05
        3.10224746575e-05
        3.1190962279e-05
        3.13603649815e-05
        3.1530687735e-05
        3.17019355364e-05
        3.18741134098e-05
        3.20472264066e-05
        3.22212796055e-05
        3.23962781129e-05
        3.25722270629e-05
        3.27491316176e-05
        3.29269969669e-05
        3.31058283291e-05
        3.32856309507e-05
        3.34664101067e-05
        3.3648171101e-05
        3.38309192659e-05
        3.4014659963e-05
        3.41993985828e-05
        3.43851405453e-05
        3.45718912996e-05
        3.47596563248e-05
        3.49484411294e-05
        3.51382512521e-05
        3.53290922614e-05
        3.55209697563e-05
        3.57138893662e-05
        3.59078567507e-05
        3.61028776007e-05
        3.62989576376e-05
        3.6496102614e-05
        3.66943183137e-05
        3.68936105521e-05
        3.70939851759e-05
        3.72954480638e-05
        3.74980051262e-05
        3.77016623058e-05
        3.79064255775e-05
        3.81123009486e-05
        3.83192944592e-05
        3.85274121819e-05
        3.87366602226e-05
        3.89470447202e-05
        3.91585718469e-05
        3.93712478086e-05
        3.95850788446e-05
        3.98000712285e-05
        4.00162312676e-05
        4.02335653037e-05
        4.04520797129e-05
        4.06717809059e-05
        4.08926753285e-05
        4.11147694611e-05
        4.13380698197e-05
        4.15625829553e-05
        4.17883154548e-05
        4.20152739406e-05
        4.22434650714e-05
        4.24728955417e-05
        4.27035720827e-05
        4.29355014619e-05
        4.31686904837e-05
        4.34031459893e-05
        4.36388748572e-05
        4.38758840033e-05
        4.41141803809e-05
        4.43537709812e-05
        4.45946628333e-05
        4.48368630044e-05
        4.50803786003e-05
        4.53252167651e-05
        4.55713846821e-05
        4.58188895732e-05
        4.60677386998e-05
        4.63179393625e-05
        4.65694989019e-05
        4.68224246981e-05
        4.70767241715e-05
        4.73324047827e-05
        4.75894740329e-05
        4.7847939464e-05
        4.81078086589e-05
        4.83690892416e-05
        4.86317888775e-05
        4.88959152738e-05
        4.91614761794e-05
        4.94284793853e-05
        4.96969327249e-05
        4.99668440741e-05
        5.02382213515e-05
        5.05110725187e-05
        5.07854055808e-05
        5.10612285861e-05
        5.13385496267e-05
        5.16173768386e-05
        5.18977184022e-05
        5.21795825419e-05
        5.24629775273e-05
        5.27479116725e-05
        5.30343933369e-05
        5.33224309254e-05
        5.36120328884e-05
        5.39032077222e-05
        5.41959639694e-05
        5.44903102188e-05
        5.47862551059e-05
        5.50838073133e-05
        5.53829755704e-05
        5.56837686544e-05
        5.59861953898e-05
        5.62902646492e-05
        5.65959853536e-05
        5.6903366472e-05
        5.72124170225e-05
        5.75231460719e-05
        5.78355627366e-05
        5.8149676182e-05
        5.84654956238e-05
        5.87830303274e-05
        5.91022896087e-05
        5.94232828341e-05
        5.97460194208e-05
        6.00705088375e-05
        6.03967606038e-05
        6.07247842915e-05
        6.10545895241e-05
        6.13861859774e-05
        6.17195833798e-05
        6.20547915124e-05
        6.23918202098e-05
        6.27306793596e-05
        6.30713789032e-05
        6.34139288361e-05
        6.37583392082e-05
        6.41046201235e-05
        6.44527817415e-05
        6.48028342764e-05
        6.5154787998e-05
        6.55086532321e-05
        6.58644403604e-05
        6.62221598208e-05
        6.65818221082e-05
        6.69434377744e-05
        6.73070174284e-05
        6.7672571737e-05
        6.80401114248e-05
        6.84096472747e-05
        6.87811901281e-05
        6.91547508854e-05
        6.95303405061e-05
        6.99079700093e-05
        7.02876504738e-05
        7.06693930387e-05
        7.10532089037e-05
        7.1439109329e-05
        7.18271056363e-05
        7.22172092086e-05
        7.26094314908e-05
        7.30037839898e-05
        7.34002782753e-05
        7.37989259795e-05
        7.4199738798e-05
        7.46027284899e-05
        7.5007906878e-05
        7.54152858496e-05
        7.58248773562e-05
        7.62366934146e-05
        7.66507461065e-05
        7.70670475795e-05
        7.74856100469e-05
        7.79064457887e-05
        7.83295671513e-05
        7.87549865482e-05
        7.91827164604e-05
        7.96127694367e-05
        8.00451580939e-05
        8.04798951175e-05
        8.09169932618e-05
        8.13564653504e-05
        8.17983242765e-05
        8.22425830034e-05
        8.26892545648e-05
        8.31383520651e-05
        8.358988868e-05
        8.40438776566e-05
        8.45003323142e-05
        8.4959266044e-05
        8.54206923105e-05
        8.58846246508e-05
        8.63510766759e-05
        8.68200620706e-05
        8.72915945939e-05
        8.77656880796e-05
        8.82423564368e-05
        8.87216136499e-05
        8.92034737794e-05
        8.96879509622e-05
        9.01750594117e-05
        9.06648134189e-05
        9.11572273521e-05
        9.16523156578e-05
        9.21500928608e-05
        9.26505735651e-05
        9.31537724536e-05
        9.36597042893e-05
        9.41683839152e-05
        9.46798262549e-05
        9.51940463132e-05
        9.57110591762e-05
        9.62308800121e-05
        9.67535240714e-05
        9.72790066875e-05
        9.78073432769e-05
        9.833854934e-05
        9.88726404613e-05
        9.94096323101e-05
        9.99495406405e-05
        0.000100492381292
        0.000101038170192
        0.000101586923351
        0.000102138656869
        0.000102693386933
        0.000103251129818
        0.000103811901886
        0.00010437571959
        0.000104942599471
        0.000105512558159
        0.000106085612378
        0.000106661778937
        0.000107241074743
        0.000107823516788
        0.000108409122163
        0.000108997908046
        0.000109589891712
        0.000110185090528
        0.000110783521956
        0.000111385203554
        0.000111990152973
        0.000112598387961
        0.000113209926362
        0.000113824786119
        0.000114442985269
        0.00011506454195
        0.000115689474397
        0.000116317800944
        0.000116949540024
        0.000117584710172
        0.000118223330023
        0.000118865418312
        0.000119510993877
        0.000120160075658
        0.000120812682698
        0.000121468834142
        0.000122128549241
        0.00012279184735
        0.000123458747929
        0.000124129270542
        0.000124803434863
        0.000125481260669
        0.000126162767846
        0.00012684797639
        0.000127536906402
        0.000128229578093
        0.000128926011787
        0.000129626227915
        0.000130330247019
        0.000131038089755
        0.000131749776888
        0.000132465329299
        0.00013318476798
        0.000133908114039
        0.000134635388697
        0.00013536661329
        0.000136101809271
        0.00013684099821
        0.000137584201792
        0.000138331441823
        0.000139082740224
        0.000139838119037
        0.000140597600424
        0.000141361206665
        0.000142128960165
        0.000142900883446
        0.000143676999157
        0.000144457330065
        0.000145241899066
        0.000146030729177
        0.00014682384354
        0.000147621265423
        0.000148423018222
        0.000149229125458
        0.000150039610782
        0.00015085449797
        0.00015167381093
        0.0001524975737
        0.000153325810446
        0.000154158545468
        0.000154995803196
        0.000155837608194
        0.000156683985159
        0.000157534958921
        0.000158390554448
        0.000159250796839
        0.000160115711333
        0.000160985323305
        0.000161859658267
        0.000162738741872
        0.000163622599908
        0.000164511258308
        0.000165404743141
        0.000166303080623
        0.000167206297107
        0.000168114419093
        0.000169027473223
        0.000169945486284
        0.000170868485209
        0.000171796497077
        0.000172729549114
        0.000173667668694
        0.000174610883339
        0.000175559220721
        0.000176512708664
        0.000177471375139
        0.000178435248273
        0.000179404356344
        0.000180378727783
        0.000181358391177
        0.000182343375267
        0.00018333370895
        0.000184329421281
        0.000185330541472
        0.000186337098894
        0.000187349123078
        0.000188366643713
        0.000189389690653
        0.000190418293911
        0.000191452483665
        0.000192492290255
        0.000193537744188
        0.000194588876135
        0.000195645716934
        0.000196708297591
        0.000197776649279
        0.000198850803343
        0.000199930791295
        0.000201016644821
        0.000202108395777
        0.000203206076193
        0.000204309718272
        0.000205419354394
        0.000206535017113
        0.00020765673916
        0.000208784553445
        0.000209918493055
        0.000211058591257
        0.000212204881501
        0.000213357397415
        0.000214516172813
        0.00021568124169
        0.000216852638228
        0.000218030396793
        0.000219214551937
        0.000220405138403
        0.000221602191118
        0.000222805745203
        0.000224015835967
        0.000225232498912
        0.000226455769732
        0.000227685684316
        0.000228922278746
        0.000230165589304
        0.000231415652463
        0.000232672504899
        0.000233936183486
        0.000235206725297
        0.000236484167607
        0.000237768547895
        0.00023905990384
        0.00024035827333
        0.000241663694455
        0.000242976205514
        0.000244295845014
        0.00024562265167
        0.000246956664408
        0.000248297922365
        0.000249646464892
        0.000251002331551
        0.000252365562121
        0.000253736196598
        0.000255114275191
        0.000256499838332
        0.00025789292667
        0.000259293581076
        0.000260701842642
        0.000262117752683
        0.00026354135274
        0.000264972684579
        0.000266411790191
        0.000267858711797
        0.000269313491847
        0.000270776173022
        0.000272246798233
        0.000273725410626
        0.00027521205358
        0.000276706770711
        0.00027820960587
        0.000279720603148
        0.000281239806874
        0.000282767261619
        0.000284303012196
        0.000285847103659
        0.000287399581311
        0.000288960490697
        0.000290529877611
        0.000292107788096
        0.000293694268445
        0.000295289365203
        0.000296893125165
        0.000298505595383
        0.000300126823165
        0.000301756856072
        0.000303395741929
        0.000305043528815
        0.000306700265074
        0.000308365999311
        0.000310040780396
        0.000311724657464
        0.000313417679915
        0.00031511989742
        0.000316831359919
        0.000318552117622
        0.000320282221013
        0.00032202172085
        0.000323770668167
        0.000325529114274
        0.00032729711076
        0.000329074709494
        0.000330861962629
        0.000332658922599
        0.000334465642122
        0.000336282174205
        0.000338108572141
        0.000339944889512
        0.000341791180193
        0.00034364749835
        0.000345513898445
        0.000347390435232
        0.000349277163767
        0.000351174139401
        0.00035308141779
        0.000354999054887
        0.000356927106954
        0.000358865630555
        0.000360814682563
        0.000362774320159
        0.000364744600835
        0.000366725582395
        0.000368717322957
        0.000370719880954
        0.000372733315139
        0.000374757684581
        0.000376793048671
        0.000378839467123
        0.000380896999974
        0.000382965707588
        0.000385045650658
        0.000387136890205
        0.000389239487581
        0.000391353504472
        0.000393479002901
        0.000395616045223
        0.000397764694137
        0.000399925012679
        0.000402097064228
        0.000404280912509
        0.000406476621591
        0.000408684255892
        0.00041090388018
        0.000413135559573
        0.000415379359545
        0.000417635345925
        0.000419903584898
        0.000422184143011
        0.000424477087171
        0.000426782484647
        0.000429100403076
        0.000431430910461
        0.000433774075174
        0.000436129965959
        0.000438498651934
        0.00044088020259
        0.000443274687798
        0.000445682177807
        0.000448102743249
        0.000450536455137
        0.000452983384873
        0.000455443604244
        0.000457917185427
        0.000460404200994
        0.000462904723909
        0.000465418827531
        0.000467946585619
        0.000470488072333
        0.000473043362235
        0.000475612530293
        0.00047819565188
        0.00048079280278
        0.000483404059188
        0.000486029497714
        0.000488669195383
        0.000491323229638
        0.000493991678343
        0.000496674619786
        0.000499372132678
        0.000502084296159
        0.000504811189799
        0.000507552893599
        0.000510309487995
        0.000513081053862
        0.000515867672509
        0.000518669425693
        0.00052148639561
        0.000524318664905
        0.000527166316671
        0.000530029434452
        0.000532908102247
        0.00053580240451
        0.000538712426154
        0.000541638252554
        0.000544579969547
        0.000547537663438
        0.000550511420999
        0.000553501329474
        0.000556507476583
        0.000559529950518
        0.000562568839953
        0.000565624234044
        0.00056869622243
        0.000571784895236
        0.000574890343078
        0.000578012657064
        0.000581151928797
        0.000584308250376
        0.000587481714401
        0.000590672413976
        0.00059388044271
        0.00059710589472
        0.000600348864634
        0.000603609447594
        0.00060688773926
        0.000610183835809
        0.000613497833944
        0.00061682983089
        0.000620179924401
        0.000623548212763
        0.000626934794794
        0.000630339769851
        0.000633763237827
        0.000637205299161
        0.000640666054837
        0.000644145606385
        0.00064764405589
        0.000651161505988
        0.000654698059875
        0.000658253821306
        0.000661828894601
        0.000665423384644
        0.000669037396891
        0.00067267103737
        0.000676324412684
        0.000679997630018
        0.000683690797134
        0.000687404022385
        0.000691137414707
        0.000694891083633
        0.000698665139286
        0.00070245969239
        0.000706274854271
        0.000710110736856
        0.000713967452684
        0.000717845114903
        0.000721743837275
        0.000725663734182
        0.000729604920625
        0.000733567512231
        0.000737551625255
        0.000741557376583
        0.000745584883735
        0.000749634264871
        0.000753705638791
        0.000757799124941
        0.000761914843417
        0.000766052914965
        0.000770213460988
        0.000774396603548
        0.00077860246537
        0.000782831169847
        0.000787082841039
        0.000791357603683
        0.000795655583191
        0.000799976905658
        0.000804321697863
        0.000808690087273
        0.000813082202048
        0.000817498171044
        0.000821938123818
        0.000826402190628
        0.00083089050244
        0.000835403190935
        0.000839940388504
        0.00084450222826
        0.000849088844039
        0.000853700370403
        0.000858336942644
        0.000862998696791
        0.00086768576961
        0.000872398298611
        0.00087713642205
        0.000881900278933
        0.000886690009024
        0.000891505752844
        0.000896347651676
        0.000901215847573
        0.000906110483358
        0.000911031702629
        0.000915979649766
        0.000920954469931
        0.000925956309076
        0.000930985313945
        0.000936041632078
        0.000941125411819
        0.000946236802316
        0.000951375953525
        0.000956543016221
        0.000961738141994
        0.000966961483259
        0.000972213193258
        0.000977493426067
        0.000982802336596
        0.000988140080599
        0.000993506814675
        0.000998902696272
        0.0010043278837
        0.00100978253611
        0.00101526681354
        0.0010207808769
        0.00102632488794
        0.00103189900931
        0.00103750340457
        0.00104313823811
        0.00104880367527
        0.00105449988225
        0.00106022702616
        0.00106598527504
        0.00107177479781
        0.00107759576434
        0.00108344834538
        0.00108933271266
        0.0010952490388
        0.00110119749738
        0.00110717826291
        0.00111319151085
        0.00111923741764
        0.00112531616063
        0.00113142791816
        0.00113757286955
        0.00114375119508
        0.001149963076
        0.00115620869456
        0.00116248823399
        0.00116880187852
        0.00117514981339
        0.00118153222482
        0.00118794930007
        0.00119440122739
        0.00120088819609
        0.00120741039646
        0.00121396801986
        0.00122056125868
        0.00122719030635
        0.00123385535735
        0.00124055660723
        0.00124729425257
        0.00125406849106
        0.00126087952144
        0.00126772754352
        0.00127461275822
        0.00128153536753
        0.00128849557455
        0.00129549358348
        0.00130252959962
        0.00130960382941
        0.00131671648037
        0.00132386776119
        0.00133105788166
        0.00133828705274
        0.00134555548651
        0.00135286339621
        0.00136021099624
        0.00136759850217
        0.00137502613073
        0.00138249409983
        0.00139000262857
        0.00139755193723
        0.0014051422473
        0.00141277378146
        0.00142044676361
        0.00142816141884
        0.00143591797351
        0.00144371665516
        0.0014515576926
        0.00145944131587
        0.00146736775626
        0.00147533724631
        0.00148335001983
        0.0014914063119
        0.00149950635888
        0.0015076503984
        0.00151583866941
        0.00152407141211
        0.00153234886805
        0.00154067128007
        0.00154903889234
        0.00155745195034
        0.00156591070089
        0.00157441539216
        0.00158296627366
        0.00159156359625
        0.00160020761217
        0.00160889857501
        0.00161763673975
        0.00162642236274
        0.00163525570175
        0.00164413701591
        0.0016530665658
        0.00166204461339
        0.00167107142208
        0.00168014725669
        0.00168927238349
        0.0016984470702
        0.00170767158598
        0.00171694620146
        0.00172627118875
        0.00173564682141
        0.0017450733745
        0.0017545511246
        0.00176408034975
        0.00177366132952
        0.00178329434501
        0.00179297967881
        0.00180271761509
        0.00181250843953
        0.00182235243938
        0.00183224990344
        0.00184220112209
        0.00185220638726
        0.0018622659925
        0.00187238023294
        0.0018825494053
        0.00189277380794
        0.0019030537408
        0.0019133895055
        0.00192378140525
        0.00193422974494
        0.0019447348311
        0.00195529697192
        0.00196591647729
        0.00197659365875
        0.00198732882955
        0.00199812230464
        0.00200897440069
        0.00201988543606
        0.00203085573087
        0.00204188560697
        0.00205297538794
        0.00206412539914
        0.0020753359677
        0.0020866074225
        0.00209794009423
        0.00210933431537
        0.00212079042019
        0.00213230874481
        0.00214388962714
        0.00215553340695
        0.00216724042584
        0.00217901102726
        0.00219084555656
        0.00220274436092
        0.00221470778944
        0.0022267361931
        0.00223882992479
        0.00225098933931
        0.0022632147934
        0.00227550664573
