aces_0.7.1/luts/acesproxy.spi1d
Version 1
From 0.0 1.0
Length 4096
Components 1
{
        0.00048828125
        0.000489976439702
        0.000491677514676
        0.000493384495355
        0.000495097402241
        0.00049681625591
        0.000498541077005
        0.000500271886246
        0.000502008704422
        0.000503751552393
        0.000505500451094
        0.000507255421532
        0.000509016484786
        0.000510783662008
        0.000512556974425
        0.000514336443337
        0.000516122090118
        0.000517913936215
        0.000519712003151
        0.000521516312523
        0.000523326886004
        0.000525143745341
        0.000526966912356
        0.000528796408948
        0.000530632257093
        0.00053247447884
        0.000534323096319
        0.000536178131732
        0.000538039607362
        0.000539907545567
        0.000541781968783
        0.000543662899526
        0.000545550360387
        0.000547444374037
        0.000549344963227
        0.000551252150784
        0.000553165959617
        0.000555086412713
        0.000557013533139
        0.000558947344042
        0.000560887868651
        0.000562835130273
        0.000564789152298
        0.000566749958195
        0.000568717571518
        0.000570692015899
        0.000572673315055
        0.000574661492783
        0.000576656572964
        0.000578658579561
        0.000580667536622
        0.000582683468277
        0.00058470639874
        0.000586736352308
        0.000588773353365
        0.000590817426377
        0.000592868595896
        0.00059492688656
        0.000596992323092
        0.0005990649303
        0.000601144733079
        0.00060323175641
        0.000605326025361
        0.000607427565087
        0.000609536400831
        0.000611652557922
        0.000613776061778
        0.000615906937906
        0.0006180452119
        0.000620190909443
        0.000622344056308
        0.000624504678358
        0.000626672801544
        0.000628848451909
        0.000631031655585
        0.000633222438794
        0.000635420827853
        0.000637626849165
        0.000639840529228
        0.000642061894631
        0.000644290972057
        0.000646527788279
        0.000648772370164
        0.000651024744673
        0.00065328493886
        0.000655552979873
        0.000657828894954
        0.00066011271144
        0.000662404456762
        0.000664704158447
        0.000667011844118
        0.000669327541494
        0.000671651278389
        0.000673983082713
        0.000676322982476
        0.000678671005782
        0.000681027180835
        0.000683391535935
        0.000685764099481
        0.000688144899972
        0.000690533966002
        0.00069293132627
        0.000695337009569
        0.000697751044795
        0.000700173460945
        0.000702604287115
        0.000705043552501
        0.000707491286404
        0.000709947518223
        0.000712412277461
        0.000714885593723
        0.000717367496718
        0.000719858016255
        0.00072235718225
        0.000724865024721
        0.00072738157379
        0.000729906859685
        0.000732440912737
        0.000734983763384
        0.000737535442169
        0.000740095979741
        0.000742665406856
        0.000745243754375
        0.000747831053269
        0.000750427334613
        0.000753032629594
        0.000755646969503
        0.000758270385743
        0.000760902909825
        0.000763544573368
        0.000766195408102
        0.000768855445868
        0.000771524718617
        0.000774203258408
        0.000776891097417
        0.000779588267926
        0.000782294802334
        0.000785010733148
        0.00078773609299
        0.000790470914597
        0.000793215230817
        0.000795969074612
        0.00079873247906
        0.000801505477354
        0.0008042881028
        0.000807080388822
        0.000809882368959
        0.000812694076867
        0.000815515546317
        0.000818346811199
        0.000821187905521
        0.000824038863408
        0.000826899719104
        0.000829770506971
        0.000832651261492
        0.000835542017268
        0.000838442809021
        0.000841353671594
        0.000844274639949
        0.000847205749172
        0.000850147034469
        0.000853098531169
        0.000856060274723
        0.000859032300706
        0.000862014644815
        0.000865007342873
        0.000868010430827
        0.000871023944746
        0.000874047920828
        0.000877082395394
        0.000880127404893
        0.0008831829859
        0.000886249175114
        0.000889326009367
        0.000892413525615
        0.000895511760942
        0.000898620752563
        0.000901740537822
        0.00090487115419
        0.000908012639271
        0.000911165030798
        0.000914328366635
        0.000917502684779
        0.000920688023358
        0.00092388442063
        0.000927091914991
        0.000930310544965
        0.000933540349213
        0.000936781366529
        0.000940033635842
        0.000943297196216
        0.000946572086851
        0.000949858347082
        0.000953156016383
        0.000956465134362
        0.000959785740767
        0.000963117875482
        0.00096646157853
        0.000969816890075
        0.000973183850418
        0.0009765625
        0.000979952879404
        0.000983355029352
        0.00098676899071
        0.000990194804482
        0.000993632511819
        0.000997082154011
        0.00100054377249
        0.00100401740884
        0.00100750310479
        0.00101100090219
        0.00101451084306
        0.00101803296957
        0.00102156732402
        0.00102511394885
        0.00102867288667
        0.00103224418024
        0.00103582787243
        0.0010394240063
        0.00104303262505
        0.00104665377201
        0.00105028749068
        0.00105393382471
        0.0010575928179
        0.00106126451419
        0.00106494895768
        0.00106864619264
        0.00107235626346
        0.00107607921472
        0.00107981509113
        0.00108356393757
        0.00108732579905
        0.00109110072077
        0.00109488874807
        0.00109868992645
        0.00110250430157
        0.00110633191923
        0.00111017282543
        0.00111402706628
        0.00111789468808
        0.0011217757373
        0.00112567026055
        0.0011295783046
        0.00113349991639
        0.00113743514304
        0.0011413840318
        0.00114534663011
        0.00114932298557
        0.00115331314593
        0.00115731715912
        0.00116133507324
        0.00116536693655
        0.00116941279748
        0.00117347270462
        0.00117754670673
        0.00118163485275
        0.00118573719179
        0.00118985377312
        0.00119398464618
        0.0011981298606
        0.00120228946616
        0.00120646351282
        0.00121065205072
        0.00121485513017
        0.00121907280166
        0.00122330511584
        0.00122755212356
        0.00123181387581
        0.0012360904238
        0.00124038181889
        0.00124468811262
        0.00124900935672
        0.00125334560309
        0.00125769690382
        0.00126206331117
        0.00126644487759
        0.00127084165571
        0.00127525369833
        0.00127968105846
        0.00128412378926
        0.00128858194411
        0.00129305557656
        0.00129754474033
        0.00130204948935
        0.00130656987772
        0.00131110595975
        0.00131565778991
        0.00132022542288
        0.00132480891352
        0.00132940831689
        0.00133402368824
        0.00133865508299
        0.00134330255678
        0.00134796616543
        0.00135264596495
        0.00135734201156
        0.00136205436167
        0.00136678307187
        0.00137152819896
        0.00137628979994
        0.001381067932
        0.00138586265254
        0.00139067401914
        0.00139550208959
        0.00140034692189
        0.00140520857423
        0.001410087105
        0.00141498257281
        0.00141989503645
        0.00142482455492
        0.00142977118745
        0.00143473499344
        0.00143971603251
        0.0014447143645
        0.00144973004944
        0.00145476314758
        0.00145981371937
        0.00146488182547
        0.00146996752677
        0.00147507088434
        0.00148019195948
        0.00148533081371
        0.00149048750875
        0.00149566210654
        0.00150085466923
        0.00150606525919
        0.00151129393901
        0.00151654077149
        0.00152180581965
        0.00152708914674
        0.0015323908162
        0.00153771089174
        0.00154304943723
        0.00154840651682
        0.00155378219483
        0.00155917653585
        0.00156458960467
        0.0015700214663
        0.00157547218598
        0.00158094182919
        0.00158643046163
        0.00159193814922
        0.00159746495812
        0.00160301095471
        0.0016085762056
        0.00161416077764
        0.00161976473792
        0.00162538815373
        0.00163103109263
        0.0016366936224
        0.00164237581104
        0.00164807772682
        0.00165379943821
        0.00165954101394
        0.00166530252298
        0.00167108403454
        0.00167688561804
        0.00168270734319
        0.0016885492799
        0.00169441149834
        0.00170029406894
        0.00170619706234
        0.00171212054945
        0.00171806460141
        0.00172402928963
        0.00173001468575
        0.00173602086165
        0.00174204788949
        0.00174809584166
        0.00175416479079
        0.00176025480979
        0.0017663659718
        0.00177249835023
        0.00177865201873
        0.00178482705123
        0.00179102352188
        0.00179724150513
        0.00180348107564
        0.00180974230838
        0.00181602527854
        0.0018223300616
        0.00182865673327
        0.00183500536956
        0.00184137604672
        0.00184776884126
        0.00185418382998
        0.00186062108993
        0.00186708069843
        0.00187356273306
        0.00188006727168
        0.00188659439243
        0.0018931441737
        0.00189971669416
        0.00190631203277
        0.00191293026872
        0.00191957148153
        0.00192623575096
        0.00193292315706
        0.00193963378015
        0.00194636770084
        0.001953125
        0.00195990575881
        0.0019667100587
        0.00197353798142
        0.00198038960896
        0.00198726502364
        0.00199416430802
        0.00200108754499
        0.00200803481769
        0.00201500620957
        0.00202200180438
        0.00202902168613
        0.00203606593914
        0.00204313464803
        0.0020502278977
        0.00205734577335
        0.00206448836047
        0.00207165574486
        0.0020788480126
        0.00208606525009
        0.00209330754402
        0.00210057498136
        0.00210786764942
        0.00211518563579
        0.00212252902837
        0.00212989791536
        0.00213729238527
        0.00214471252693
        0.00215215842945
        0.00215963018227
        0.00216712787513
        0.0021746515981
        0.00218220144155
        0.00218977749615
        0.00219737985291
        0.00220500860314
        0.00221266383847
        0.00222034565085
        0.00222805413256
        0.00223578937617
        0.0022435514746
        0.00225134052109
        0.00225915660919
        0.00226699983278
        0.00227487028607
        0.0022827680636
        0.00229069326022
        0.00229864597113
        0.00230662629185
        0.00231463431825
        0.00232267014649
        0.00233073387311
        0.00233882559496
        0.00234694540923
        0.00235509341346
        0.00236326970551
        0.00237147438358
        0.00237970754624
        0.00238796929237
        0.0023962597212
        0.00240457893231
        0.00241292702564
        0.00242130410144
        0.00242971026035
        0.00243814560332
        0.00244661023169
        0.00245510424711
        0.00246362775162
        0.0024721808476
        0.00248076363777
        0.00248937622523
        0.00249801871343
        0.00250669120618
        0.00251539380764
        0.00252412662234
        0.00253288975518
        0.00254168331141
        0.00255050739666
        0.00255936211691
        0.00256824757853
        0.00257716388823
        0.00258611115312
        0.00259508948066
        0.00260409897869
        0.00261313975544
        0.00262221191949
        0.00263131557982
        0.00264045084576
        0.00264961782705
        0.00265881663379
        0.00266804737647
        0.00267731016598
        0.00268660511355
        0.00269593233085
        0.0027052919299
        0.00271468402313
        0.00272410872334
        0.00273356614374
        0.00274305639793
        0.00275257959989
        0.00276213586401
        0.00277172530508
        0.00278134803828
        0.00279100417918
        0.00280069384378
        0.00281041714846
        0.00282017421
        0.00282996514561
        0.00283979007289
        0.00284964910984
        0.00285954237489
        0.00286946998687
        0.00287943206502
        0.002889428729
        0.00289946009888
        0.00290952629516
        0.00291962743874
        0.00292976365095
        0.00293993505354
        0.00295014176868
        0.00296038391897
        0.00297066162742
        0.0029809750175
        0.00299132421307
        0.00300170933845
        0.00301213051837
        0.00302258787801
        0.00303308154297
        0.0030436116393
        0.00305417829347
        0.00306478163241
        0.00307542178347
        0.00308609887447
        0.00309681303363
        0.00310756438967
        0.00311835307171
        0.00312917920933
        0.00314004293259
        0.00315094437196
        0.00316188365839
        0.00317286092327
        0.00318387629845
        0.00319492991624
        0.00320602190942
        0.0032171524112
        0.00322832155529
        0.00323952947584
        0.00325077630747
        0.00326206218527
        0.0032733872448
        0.00328475162208
        0.00329615545363
        0.00330759887642
        0.00331908202789
        0.00333060504597
        0.00334216806907
        0.00335377123608
        0.00336541468638
        0.0033770985598
        0.00338882299669
        0.00340058813788
        0.00341239412467
        0.00342424109889
        0.00343612920282
        0.00344805857926
        0.00346002937149
        0.00347204172331
        0.00348409577898
        0.00349619168331
        0.00350832958158
        0.00352050961957
        0.0035327319436
        0.00354499670046
        0.00355730403747
        0.00356965410246
        0.00358204704377
        0.00359448301025
        0.00360696215129
        0.00361948461676
        0.00363205055708
        0.00364466012319
        0.00365731346654
        0.00367001073912
        0.00368275209343
        0.00369553768252
        0.00370836765996
        0.00372124217986
        0.00373416139685
        0.00374712546611
        0.00376013454337
        0.00377318878486
        0.0037862883474
        0.00379943338833
        0.00381262406553
        0.00382586053745
        0.00383914296307
        0.00385247150193
        0.00386584631412
        0.0038792675603
        0.00389273540167
        0.00390625
        0.00391981151762
        0.00393342011741
        0.00394707596284
        0.00396077921793
        0.00397453004728
        0.00398832861604
        0.00400217508997
        0.00401606963538
        0.00403001241915
        0.00404400360876
        0.00405804337226
        0.00407213187829
        0.00408626929606
        0.0041004557954
        0.0041146915467
        0.00412897672094
        0.00414331148972
        0.00415769602521
        0.00417213050019
        0.00418661508803
        0.00420114996272
        0.00421573529885
        0.00423037127159
        0.00424505805674
        0.00425979583072
        0.00427458477055
        0.00428942505386
        0.00430431685889
        0.00431926036453
        0.00433425575027
        0.00434930319621
        0.00436440288309
        0.0043795549923
        0.00439475970582
        0.00441001720627
        0.00442532767694
        0.0044406913017
        0.00445610826511
        0.00447157875234
        0.00448710294921
        0.00450268104218
        0.00451831321838
        0.00453399966556
        0.00454974057214
        0.00456553612719
        0.00458138652044
        0.00459729194226
        0.00461325258371
        0.00462926863649
        0.00464534029298
        0.00466146774622
        0.00467765118992
        0.00469389081846
        0.00471018682692
        0.00472653941101
        0.00474294876717
        0.00475941509248
        0.00477593858473
        0.0047925194424
        0.00480915786463
        0.00482585405128
        0.00484260820289
        0.0048594205207
        0.00487629120665
        0.00489322046338
        0.00491020849423
        0.00492725550325
        0.0049443616952
        0.00496152727554
        0.00497875245047
        0.00499603742686
        0.00501338241236
        0.00503078761527
        0.00504825324468
        0.00506577951036
        0.00508336662282
        0.00510101479332
        0.00511872423382
        0.00513649515705
        0.00515432777646
        0.00517222230623
        0.00519017896131
        0.00520819795739
        0.00522627951088
        0.00524442383899
        0.00526263115963
        0.00528090169152
        0.00529923565409
        0.00531763326758
        0.00533609475295
        0.00535462033195
        0.00537321022711
        0.00539186466171
        0.00541058385981
        0.00542936804626
        0.00544821744668
        0.00546713228748
        0.00548611279585
        0.00550515919977
        0.00552427172802
        0.00554345061016
        0.00556269607655
        0.00558200835836
        0.00560138768756
        0.00562083429692
        0.00564034842001
        0.00565993029123
        0.00567958014578
        0.00569929821969
        0.00571908474979
        0.00573893997374
        0.00575886413004
        0.005778857458
        0.00579892019777
        0.00581905259032
        0.00583925487748
        0.0058595273019
        0.00587987010707
        0.00590028353735
        0.00592076783793
        0.00594132325485
        0.005961950035
        0.00598264842615
        0.00600341867691
        0.00602426103675
        0.00604517575602
        0.00606616308595
        0.0060872232786
        0.00610835658694
        0.00612956326482
        0.00615084356695
        0.00617219774893
        0.00619362606727
        0.00621512877934
        0.00623670614341
        0.00625835841867
        0.00628008586518
        0.00630188874392
        0.00632376731678
        0.00634572184653
        0.0063677525969
        0.00638985983248
        0.00641204381883
        0.0064343048224
        0.00645664311058
        0.00647905895168
        0.00650155261493
        0.00652412437053
        0.00654677448959
        0.00656950324417
        0.00659231090727
        0.00661519775283
        0.00663816405577
        0.00666121009194
        0.00668433613815
        0.00670754247217
        0.00673082937275
        0.00675419711959
        0.00677764599338
        0.00680117627575
        0.00682478824935
        0.00684848219778
        0.00687225840564
        0.00689611715852
        0.00692005874299
        0.00694408344661
        0.00696819155797
        0.00699238336662
        0.00701665916316
        0.00704101923915
        0.0070654638872
        0.00708999340092
        0.00711460807494
        0.00713930820492
        0.00716409408754
        0.00718896602051
        0.00721392430257
        0.00723896923352
        0.00726410111417
        0.00728932024638
        0.00731462693308
        0.00734002147823
        0.00736550418686
        0.00739107536504
        0.00741673531993
        0.00744248435972
        0.0074683227937
        0.00749425093223
        0.00752026908673
        0.00754637756973
        0.00757257669481
        0.00759886677666
        0.00762524813106
        0.0076517210749
        0.00767828592613
        0.00770494300385
        0.00773169262824
        0.0077585351206
        0.00778547080334
        0.0078125
        0.00783962303523
        0.00786684023482
        0.00789415192568
        0.00792155843586
        0.00794906009455
        0.00797665723209
        0.00800435017994
        0.00803213927075
        0.00806002483829
        0.00808800721751
        0.00811608674451
        0.00814426375657
        0.00817253859213
        0.00820091159081
        0.0082293830934
        0.00825795344189
        0.00828662297944
        0.00831539205042
        0.00834426100037
        0.00837323017606
        0.00840229992545
        0.00843147059769
        0.00846074254317
        0.00849011611348
        0.00851959166145
        0.0085491695411
        0.00857885010771
        0.00860863371779
        0.00863852072906
        0.00866851150053
        0.00869860639241
        0.00872880576619
        0.0087591099846
        0.00878951941163
        0.00882003441255
        0.00885065535387
        0.00888138260341
        0.00891221653022
        0.00894315750468
        0.00897420589841
        0.00900536208437
        0.00903662643676
        0.00906799933112
        0.00909948114428
        0.00913107225438
        0.00916277304087
        0.00919458388452
        0.00922650516742
        0.00925853727298
        0.00929068058596
        0.00932293549244
        0.00935530237984
        0.00938778163693
        0.00942037365383
        0.00945307882203
        0.00948589753434
        0.00951883018496
        0.00955187716947
        0.0095850388848
        0.00961831572926
        0.00965170810255
        0.00968521640577
        0.00971884104139
        0.00975258241329
        0.00978644092675
        0.00982041698845
        0.00985451100649
        0.00988872339039
        0.00992305455108
        0.00995750490093
        0.00999207485373
        0.0100267648247
        0.0100615752305
        0.0100965064894
        0.0101315590207
        0.0101667332456
        0.0102020295866
        0.0102374484676
        0.0102729903141
        0.0103086555529
        0.0103444446125
        0.0103803579226
        0.0104163959148
        0.0104525590218
        0.010488847678
        0.0105252623193
        0.010561803383
        0.0105984713082
        0.0106352665352
        0.0106721895059
        0.0107092406639
        0.0107464204542
        0.0107837293234
        0.0108211677196
        0.0108587360925
        0.0108964348934
        0.010934264575
        0.0109722255917
        0.0110103183995
        0.011048543456
        0.0110869012203
        0.0111253921531
        0.0111640167167
        0.0112027753751
        0.0112416685938
        0.01128069684
        0.0113198605825
        0.0113591602916
        0.0113985964394
        0.0114381694996
        0.0114778799475
        0.0115177282601
        0.011557714916
        0.0115978403955
        0.0116381051806
        0.011678509755
        0.0117190546038
        0.0117597402141
        0.0118005670747
        0.0118415356759
        0.0118826465097
        0.01192390007
        0.0119652968523
        0.0120068373538
        0.0120485220735
        0.012090351512
        0.0121323261719
        0.0121744465572
        0.0122167131739
        0.0122591265296
        0.0123016871339
        0.0123443954979
        0.0123872521345
        0.0124302575587
        0.0124734122868
        0.0125167168373
        0.0125601717304
        0.0126037774878
        0.0126475346336
        0.0126914436931
        0.0127355051938
        0.012779719665
        0.0128240876377
        0.0128686096448
        0.0129132862212
        0.0129581179034
        0.0130031052299
        0.0130482487411
        0.0130935489792
        0.0131390064883
        0.0131846218145
        0.0132303955057
        0.0132763281115
        0.0133224201839
        0.0133686722763
        0.0134150849443
        0.0134616587455
