aces_1.0.3/luts/Canon-Log2_to_linear.spi1d
Version 1
From 0.000000 1.000000
Length 4096
Components 1
{
         -0.00607238197699
         -0.00606244476512
         -0.00605248380452
         -0.00604250002652
         -0.00603249296546
         -0.00602246215567
         -0.00601240852848
         -0.00600233115256
         -0.00599223002791
         -0.00598210562021
         -0.00597195792943
         -0.00596178602427
         -0.00595159037039
         -0.00594137143344
         -0.0059311282821
         -0.00592086138204
         -0.00591057073325
         -0.00590025540441
         -0.00588991679251
         -0.00587955350056
         -0.00586916645989
         -0.00585875473917
         -0.00584831926972
         -0.00583785912022
         -0.00582737475634
         -0.0058168657124
         -0.00580633245409
         -0.00579577405006
         -0.00578519143164
         -0.00577458413318
         -0.00576395215467
         -0.00575329549611
         -0.00574261369184
         -0.00573190720752
         -0.00572117557749
         -0.00571041880175
         -0.00569963688031
         -0.00568883027881
         -0.00567799806595
         -0.00566714070737
         -0.00565625820309
         -0.00564535008743
         -0.00563441682607
         -0.00562345748767
         -0.00561247300357
         -0.00560146290809
         -0.00559042720124
         -0.00557936541736
         -0.00556827802211
         -0.00555716501549
         -0.00554602593184
         -0.00553486077115
         -0.00552366953343
         -0.00551245221868
         -0.0055012088269
         -0.00548993889242
         -0.00547864288092
         -0.00546732079238
         -0.00545597216114
         -0.00544459698722
         -0.0054331952706
         -0.00542176701128
         -0.00541031174362
         -0.00539882993326
         -0.0053873215802
         -0.00537578621879
         -0.00536422431469
         -0.00535263493657
         -0.0053410185501
         -0.00532937562093
         -0.00531770521775
         -0.00530600734055
         -0.005294282455
         -0.00528253009543
         -0.00527075026184
         -0.00525894295424
         -0.00524710817263
         -0.00523524591699
         -0.00522335618734
         -0.00521143851802
         -0.00519949290901
         -0.00518751936033
         -0.00517551787198
         -0.0051634889096
         -0.00515143154189
         -0.00513934576884
         -0.00512723205611
         -0.00511509040371
         -0.0051029198803
         -0.00509072141722
         -0.00507849408314
         -0.00506623880938
         -0.00505395466462
         -0.00504164164886
         -0.00502930022776
         -0.00501692993566
         -0.00500453030691
         -0.00499210227281
         -0.00497964536771
         -0.00496715912595
         -0.0049546440132
         -0.00494209909812
         -0.0049295257777
         -0.00491692265496
         -0.00490429019555
         -0.00489162793383
         -0.00487893680111
         -0.0048662154004
         -0.00485346512869
         -0.004840684589
         -0.00482787424698
         -0.00481503410265
         -0.00480216369033
         -0.00478926394135
         -0.00477633345872
         -0.00476337317377
         -0.00475038262084
         -0.00473736179993
         -0.00472431024536
         -0.00471122888848
         -0.00469811633229
         -0.00468497350812
         -0.00467180041596
         -0.0046585961245
         -0.00464536109939
         -0.00463209534064
         -0.00461879838258
         -0.00460547069088
         -0.00459211179987
         -0.00457872170955
         -0.00456530041993
         -0.004551847931
         -0.0045383637771
         -0.0045248484239
         -0.00451130140573
         -0.00449772318825
         -0.00448411284015
         -0.00447047082707
         -0.00445679714903
         -0.00444309134036
         -0.00442935386673
         -0.00441558426246
         -0.00440178252757
         -0.00438794866204
         -0.00437408220023
         -0.00436018360779
         -0.00434625288472
         -0.00433228909969
         -0.00431829318404
         -0.0043042646721
         -0.00429020309821
         -0.00427610892802
         -0.00426198169589
         -0.00424782186747
         -0.00423362851143
         -0.0042194025591
         -0.00420514307916
         -0.00419085053727
         -0.00417652446777
         -0.00416216533631
         -0.00414777221158
         -0.0041333460249
         -0.00411888584495
         -0.00410439213738
         -0.00408986443654
         -0.00407530320808
         -0.00406070752069
         -0.00404607830569
         -0.00403141463175
         -0.00401671649888
         -0.00400198437274
         -0.00398721825331
         -0.0039724172093
         -0.00395758170635
         -0.00394271174446
         -0.00392780732363
         -0.00391286751255
         -0.00389789324254
         -0.00388288404793
         -0.00386783992872
         -0.00385276041925
         -0.00383764598519
         -0.0038224963937
         -0.00380731117912
         -0.00379209057428
         -0.00377683457918
         -0.00376154319383
         -0.00374621595256
         -0.00373085285537
         -0.00371545390226
         -0.00370001932606
         -0.00368454842828
         -0.00366904167458
         -0.00365349859931
         -0.00363791943528
         -0.00362230371684
         -0.00360665167682
         -0.00359096331522
         -0.00357523816638
         -0.00355947646312
         -0.0035436777398
         -0.00352784246206
         -0.00351197016425
         -0.00349606061354
         -0.00348011427559
         -0.00346413068473
         -0.00344810960814
         -0.00343205127865
         -0.00341595569625
         -0.00339982239529
         -0.00338365137577
         -0.00336744263768
         -0.00335119618103
         -0.00333491200581
         -0.00331858964637
         -0.0033022291027
         -0.00328583060764
         -0.00326939392835
         -0.003252918832
         -0.00323640508577
         -0.00321985315531
         -0.00320326234214
         -0.00318663311191
         -0.00316996476613
         -0.00315325777046
         -0.00313651165925
         -0.00311972666532
         -0.00310290255584
         -0.00308603909798
         -0.00306913629174
         -0.0030521939043
         -0.00303521216847
         -0.00301819085144
         -0.00300112995319
         -0.00298402900808
         -0.00296688824892
         -0.00294970767573
         -0.00293248682283
         -0.00291522592306
         -0.00289792474359
         -0.00288058328442
         -0.00286320107989
         -0.00284577859566
         -0.00282831536606
         -0.00281081162393
         -0.00279326690361
         -0.00277568120509
         -0.00275805452839
         -0.00274038664065
         -0.00272267777473
         -0.00270492746495
         -0.00268713571131
         -0.00266930251382
         -0.00265142787248
         -0.00263351132162
         -0.00261555309407
         -0.00259755295701
         -0.00257951067761
         -0.00256142648868
         -0.00254330015741
         -0.00252513145097
         -0.00250692036934
         -0.00248866691254
         -0.00247037084773
         -0.00245203194208
         -0.00243365042843
         -0.00241522607394
         -0.00239675864577
         -0.00237824814394
         -0.00235969456844
         -0.00234109768644
         -0.00232245749794
         -0.00230377353728
         -0.00228504627012
         -0.0022662752308
         -0.00224746041931
         -0.00222860183567
         -0.0022096990142
         -0.00219075242057
         -0.00217176135629
         -0.00215272605419
         -0.00213364651427
         -0.00211452227086
         -0.0020953535568
         -0.00207614013925
         -0.00205688178539
         -0.00203757872805
         -0.00201823050156
         -0.00199883710593
         -0.00197939854115
         -0.0019599145744
         -0.00194038532209
         -0.00192081043497
         -0.00190118991304
         -0.00188152352348
         -0.0018618113827
         -0.00184205314144
         -0.00182224891614
         -0.00180239847396
         -0.00178250169847
         -0.00176255858969
         -0.00174256891478
         -0.00172253267374
         -0.00170244963374
         -0.00168231979478
         -0.00166214292403
         -0.00164191902149
         -0.00162164797075
         -0.00160132965539
         -0.00158096395899
         -0.00156055076513
         -0.00154008995742
         -0.00151958141942
         -0.00149902503472
         -0.00147842068691
         -0.00145776825957
         -0.0014370677527
         -0.00141631893348
         -0.00139552168548
         -0.00137467589229
         -0.00135378155392
         -0.00133283843752
         -0.0013118465431
         -0.00129080563784
         -0.0012697156053
         -0.00124857644551
         -0.00122738804203
         -0.00120615016203
         -0.00118486268912
         -0.00116352562327
         -0.00114213873167
         -0.0011207020143
         -0.00109921535477
         -0.00107767852023
         -0.00105609139428
         -0.0010344539769
         -0.00101276615169
         -0.000991027685814
         -0.000969238462858
         -0.000947398482822
         -0.000925507512875
         -0.000903565553017
         -0.000881572370417
         -0.000859527906869
         -0.000837431987748
         -0.000815284613054
         -0.00079308549175
         -0.000770834682044
         -0.000748531892896
         -0.000726177124307
         -0.000703770201653
         -0.000681311066728
         -0.0006587994867
         -0.00063623546157
         -0.000613618758507
         -0.000590949319303
         -0.000568226969335
         -0.000545451650396
         -0.00052262324607
         -0.000499741581734
         -0.00047680651187
         -0.000453817978268
         -0.000430775835412
         -0.00040767993778
         -0.000384530139854
         -0.000361326383427
         -0.000338068493875
         -0.000314756383887
         -0.000291389878839
         -0.000267968862318
         -0.00024449324701
         -0.000220962858293
         -0.000197377579752
         -0.000173737309524
         -0.000150041887537
         -0.000126291211927
         -0.000102485129901
         -7.86235323176e-05
         -5.47062700207e-05
         -3.07332302327e-05
         -6.70427243676e-06
         1.73807293322e-05
         4.15219074057e-05
         6.57193886582e-05
         8.99733131519e-05
         0.00011428380094
         0.000138650997542
         0.000163075019373
         0.000187556011952
         0.000212094106246
         0.000236689433223
         0.000261342123849
         0.000286052323645
         0.000310820149025
         0.000335645716405
         0.000360529229511
         0.000385470746551
         0.000410470471252
         0.000435528461821
         0.000460644921986
         0.000485819968162
         0.000511053716764
         0.000536346342415
         0.000561697932426
         0.000587108719628
         0.000612578704022
         0.000638108118437
         0.00066369707929
         0.000689345702995
         0.000715054164175
         0.000740822579246
         0.000766651122831
         0.000792539853137
         0.000818489002995
         0.000844498688821
         0.000870569027029
         0.000896700192243
         0.000922892300878
         0.000949145469349
         0.000975459872279
         0.00100183568429
         0.0010282730218
         0.00105477194302
         0.00108133268077
         0.00110795546789
         0.00113464030437
         0.00116138730664
         0.00118819682393
         0.00121506873984
         0.0012420034036
         0.00126900093164
         0.00129606132396
         0.00132318492979
         0.00135037174914
         0.00137762189843
         0.0014049357269
         0.00143231323455
         0.00145975453779
         0.00148725998588
         0.00151482946239
         0.00154246320017
         0.00157016154844
         0.00159792439081
         0.00162575196009
         0.00165364448912
         0.00168160209432
         0.0017096248921
         0.00173771299887
         0.00176586664747
         0.00179408607073
         0.00182237115223
         0.00185072224122
         0.00187913957052
         0.00190762302373
         0.0019361730665
         0.00196478958242
         0.00199347292073
         0.00202222308144
         0.00205104029737
         0.00207992480136
         0.00210887659341
         0.00213789590634
         0.00216698297299
         0.00219613779336
         0.00222536083311
         0.0022546518594
         0.00228401110508
         0.00231343903579
         0.00234293541871
         0.0023725007195
         0.00240213493817
         0.00243183830753
         0.00246161106043
         0.00249145319685
         0.00252136471681
         0.0025513463188
         0.00258139753714
         0.00261151907034
         0.00264171068557
         0.00267197284847
         0.00270230555907
         0.00273270905018
         0.00276318355463
         0.00279372883961
         0.00282434560359
         0.00285503384657
         0.00288579333574
         0.00291662476957
         0.00294752814807
         0.00297850370407
         0.00300955120474
         0.00304067134857
         0.00307186413556
         0.00310312956572
         0.00313446787186
         0.00316587928683
         0.00319736404344
         0.00322892214172
         0.00326055381447
         0.00329225929454
         0.00332403881475
         0.00335589237511
         0.00338782020845
         0.00341982254758
         0.00345189962536
         0.00348405144177
         0.00351627822965
         0.00354858022183
         0.00358095765114
         0.00361341028474
         0.00364593882114
         0.00367854326032
         0.00371122360229
         0.00374398031272
         0.0037768133916
         0.00380972307175
         0.00384270935319
         0.00387577270158
         0.0039089131169
         0.00394213106483
         0.00397542631254
         0.00400879932567
         0.00404224963859
         0.00407577864826
         0.00410938542336
         0.00414307089522
         0.00417683459818
         0.00421067746356
         0.0042445990257
         0.00427859975025
         0.00431267963722
         0.00434683915228
         0.00438107829541
         0.00441539706662
         0.00444979639724
         0.0044842758216
         0.0045188353397
         0.00455347588286
         0.00458819698542
         0.00462299911305
         0.00465788226575
         0.00469284690917
         0.00472789304331
         0.00476302113384
         0.0047982307151
         0.0048335227184
         0.00486889714375
         0.00490435399115
         0.0049398932606
         0.00497551588342
         0.00501122139394
         0.00504700979218
         0.00508288200945
         0.00511883804575
         0.00515487790108
         0.00519100157544
         0.00522721000016
         0.00526350224391
         0.00529987970367
         0.00533634144813
         0.0053728884086
         0.00540952105075
         0.00544623844326
         0.0054830419831
         0.00551993120462
         0.00555690657347
         0.00559396808967
         0.0056311157532
         0.0056683504954
         0.00570567185059
         0.00574308028445
         0.00578057626262
         0.00581815931946
         0.00585583038628
         0.00589358899742
         0.00593143561855
         0.00596937071532
         0.00600739428774
         0.00604550680146
         0.00608370779082
         0.00612199772149
         0.00616037752479
         0.0061988462694
         0.00623740535229
         0.00627605384216
         0.00631479267031
         0.00635362183675
         0.00639254180714
         0.00643155211583
         0.00647065369412
         0.00650984654203
         0.00654913065955
         0.00658850651234
         0.00662797410041
         0.00666753388941
         0.00670718541369
         0.00674693007022
         0.00678676692769
         0.00682669691741
         0.00686672050506
         0.0069068367593
         0.00694704707712
         0.0069873505272
         0.00702774850652
         0.00706824054942
         0.00710882712156
         0.00714950822294
         0.00719028431922
         0.00723115587607
         0.00727212196216
         0.00731318444014
         0.00735434191301
         0.00739559577778
         0.00743694603443
         0.00747839221731
         0.00751993572339
         0.00756157562137
         0.00760331284255
         0.00764514738694
         0.00768707925454
         0.00772910937667
         0.00777123728767
         0.00781346391886
         0.00785578787327
         0.00789821147919
         0.0079407338053
         0.00798335578293
         0.00802607648075
         0.00806889683008
         0.00811181776226
         0.00815483834594
         0.00819795858115
         0.00824118033051
         0.00828450266272
         0.00832792557776
         0.00837145093828
         0.00841507688165
         0.00845880433917
         0.00850263424218
         0.00854656659067
         0.00859060138464
         0.0086347386241
         0.00867897830904
         0.0087233223021
         0.00876776874065
         0.00881231948733
         0.00885697361082
         0.00890173204243
         0.00894659478217
         0.00899156276137
         0.00903663504869
         0.00908181257546
         0.00912709534168
         0.00917248427868
         0.00921797845513
         0.00926357973367
         0.00930928625166
         0.00935509987175
         0.00940101966262
         0.0094470474869
         0.00949318241328
         0.00953942444175
         0.00958577543497
         0.00963223353028
         0.00967880059034
         0.00972547568381
         0.00977225974202
         0.0098191536963
         0.00986615568399
         0.00991326849908
         0.0099604902789
         0.0100078228861
         0.0100552653894
         0.01010281872
         0.0101504838094
         0.0101982587948
         0.010246145539
         0.0102941449732
         0.0103422552347
         0.0103904781863
         0.0104388128966
         0.0104872612283
         0.0105358222499
         0.010584496893
         0.0106332842261
         0.0106821861118
         0.0107312016189
         0.0107803316787
         0.0108295762911
         0.0108789354563
         0.0109284101054
         0.0109780002385
         0.0110277058557
         0.0110775269568
         0.0111274654046
         0.0111775193363
         0.0112276906148
         0.0112779783085
         0.0113283833489
         0.0113789066672
         0.0114295473322
         0.0114803062752
         0.0115311825648
         0.011582178995
         0.0116332937032
         0.0116845276207
         0.0117358807474
         0.0117873540148
         0.0118389474228
         0.0118906619027
         0.0119424955919
         0.0119944512844
         0.0120465271175
         0.0120987249538
         0.0121510447934
         0.0122034866363
         0.0122560504824
         0.0123087372631
         0.012361546047
         0.0124144786969
         0.0124675352126
         0.012520714663
         0.0125740179792
         0.012627447024
         0.0126809990034
         0.0127346767113
         0.0127884801477
         0.0128424083814
         0.0128964623436
         0.0129506429657
         0.0130049493164
         0.0130593823269
         0.0131139429286
         0.0131686301902
         0.013223445043
         0.0132783874869
         0.0133334593847
         0.0133886588737
         0.0134439868852
         0.0134994434193
         0.0135550303385
         0.0136107467115
         0.0136665925384
         0.0137225696817
         0.0137786762789
         0.0138349141926
         0.0138912834227
         0.0139477839693
         0.0140044158325
         0.0140611808747
         0.0141180772334
         0.0141751067713
         0.0142322694883
         0.0142895653844
         0.0143469944596
         0.0144045576453
         0.0144622558728
         0.0145200882107
         0.0145780546591
         0.0146361570805
         0.0146943954751
         0.0147527689114
         0.0148112792522
         0.014869925566
         0.014928707853
         0.014987628907
         0.0150466859341
         0.0151058817282
         0.0151652144268
         0.0152246868238
         0.0152842970565
         0.0153440469876
         0.0154039356858
         0.0154639640823
         0.0155241331086
         0.0155844418332
         0.0156448911875
         0.0157054830343
         0.0157662145793
         0.0158270876855
         0.0158881042153
         0.0159492604434
         0.016010561958
         0.0160720050335
         0.0161335915327
         0.0161953233182
         0.0162571966648
         0.0163192152977
         0.0163813792169
         0.0164436865598
         0.0165061410517
         0.0165687408298
         0.0166314858943
         0.0166943781078
         0.0167574156076
         0.016820602119
         0.0168839339167
         0.016947414726
         0.017011044547
         0.0170748215169
         0.0171387456357
         0.0172028206289
         0.0172670464963
         0.0173314195126
         0.0173959434032
         0.0174606181681
         0.0175254438072
         0.0175904203206
         0.0176555495709
         0.0177208296955
         0.0177862625569
         0.0178518481553
         0.0179175846279
         0.0179834775627
         0.0180495213717
         0.018115721643
         0.0181820746511
         0.0182485822588
         0.0183152463287
         0.0183820649981
         0.0184490401298
         0.0185161717236
         0.018583457917
         0.0186509024352
         0.0187185052782
         0.0187862645835
         0.0188541822135
         0.0189222581685
         0.0189904924482
         0.0190588869154
         0.0191274397075
         0.0191961526871
         0.0192650258541
         0.0193340610713
         0.0194032564759
         0.0194726120681
         0.019542131573
         0.0196118112653
         0.0196816548705
         0.0197516605258
         0.0198218300939
         0.0198921617121
         0.0199626591057
         0.020033320412
         0.0201041474938
         0.0201751384884
         0.0202462952584
         0.0203176178038
         0.0203891079873
         0.0204607639462
         0.0205325856805
         0.0206045769155
         0.0206767357886
         0.0207490622997
         0.0208215583116
         0.0208942219615
         0.0209670569748
         0.0210400614887
         0.0211132355034
         0.0211865790188
         0.0212600957602
         0.021333783865
         0.0214076433331
         0.0214816741645
         0.021555878222
         0.0216302555054
         0.0217048060149
         0.021779531613
         0.0218544304371
         0.0219295043498
         0.0220047533512
         0.0220801774412
         0.0221557766199
         0.0222315546125
         0.0223075076938
         0.0223836377263
         0.0224599465728
         0.0225364323705
         0.0226130951196
         0.0226899385452
         0.0227669607848
         0.0228441637009
         0.022921545431
         0.0229991078377
         0.0230768527836
         0.0231547765434
         0.0232328828424
         0.0233111716807
         0.0233896430582
         0.0234682969749
         0.0235471352935
         0.0236261580139
         0.0237053632736
         0.0237847547978
         0.0238643307239
         0.0239440910518
         0.0240240395069
         0.0241041742265
         0.0241844952106
         0.0242650024593
         0.0243456996977
         0.0244265832007
         0.0245076566935
         0.0245889183134
         0.0246703699231
         0.0247520115227
         0.024833843112
         0.0249158665538
         0.0249980799854
         0.0250804852694
         0.0251630842686
         0.0252458751202
         0.0253288578242
         0.025412036106
         0.0254954081029
         0.0255789738148
