aces_1.0.3/luts/Canon-Log3_to_linear.spi1d
Version 1
From 0.000000 1.000000
Length 4096
Components 1
{
         -0.073813341558
         -0.0736085250974
         -0.0734040215611
         -0.0731998383999
         -0.0729959607124
         -0.0727923959494
         -0.0725891366601
         -0.0723861977458
         -0.0721835643053
         -0.0719812437892
         -0.0717792287469
         -0.071577526629
         -0.0713761299849
         -0.0711750462651
         -0.0709742680192
         -0.0707737952471
         -0.0705736279488
         -0.0703737661242
         -0.0701742172241
         -0.0699749663472
         -0.0697760209441
         -0.0695773810148
         -0.0693790465593
         -0.0691810175776
         -0.0689832866192
         -0.0687858611345
         -0.0685887336731
         -0.0683919116855
         -0.0681953951716
         -0.0679991692305
         -0.0678032487631
         -0.0676076337695
         -0.0674123093486
         -0.0672172829509
         -0.067022562027
         -0.0668281316757
         -0.0666340067983
         -0.0664401724935
         -0.0662466362119
         -0.0660533979535
         -0.0658604502678
         -0.0656678080559
         -0.065475448966
         -0.0652833878994
         -0.065091624856
         -0.0649001523852
         -0.0647089704871
         -0.0645180866122
         -0.06432749331
         -0.0641371831298
         -0.0639471709728
         -0.0637574493885
         -0.0635680183768
         -0.0633788779378
         -0.0631900280714
         -0.0630014613271
         -0.0628131851554
         -0.0626251995564
         -0.0624375008047
         -0.0622500889003
         -0.0620629638433
         -0.0618761219084
         -0.0616895705462
         -0.0615033023059
         -0.0613173171878
         -0.061131618917
         -0.0609462074935
         -0.0607610754669
         -0.0605762265623
         -0.0603916607797
         -0.0602073818445
         -0.0600233785808
         -0.0598396621644
         -0.0596562214196
         -0.0594730637968
         -0.059290189296
         -0.0591075904667
         -0.0589252710342
         -0.0587432347238
         -0.0585614740849
         -0.0583799891174
         -0.0581987835467
         -0.0580178573728
         -0.0578372068703
         -0.0576568320394
         -0.0574767328799
         -0.0572969093919
         -0.0571173615754
         -0.0569380894303
         -0.0567590892315
         -0.0565803647041
         -0.056401912123
         -0.0562237352133
         -0.0560458265245
         -0.0558681935072
         -0.0556908324361
         -0.0555137395859
         -0.0553369186819
         -0.055160369724
         -0.0549840927124
         -0.0548080801964
         -0.0546323396266
         -0.0544568710029
         -0.0542816668749
         -0.0541067309678
         -0.0539320632815
         -0.0537576638162
         -0.0535835288465
         -0.0534096620977
         -0.0532360598445
         -0.0530627258122
         -0.0528896562755
         -0.0527168512344
         -0.0525443069637
         -0.0523720309138
         -0.0522000156343
         -0.0520282685757
         -0.0518567785621
         -0.0516855530441
         -0.0515145882964
         -0.0513438880444
         -0.0511734485626
         -0.0510032661259
         -0.0508333481848
         -0.0506636872888
         -0.050494287163
         -0.0503251478076
         -0.0501562654972
         -0.0499876402318
         -0.0498192757368
         -0.0496511645615
         -0.0494833141565
         -0.0493157207966
         -0.0491483807564
         -0.0489813014865
         -0.0488144718111
         -0.0486479029059
         -0.0484815873206
         -0.0483155250549
         -0.048149716109
         -0.0479841604829
         -0.0478188619018
         -0.0476538129151
         -0.0474890172482
         -0.047324474901
         -0.0471601821482
         -0.0469961427152
         -0.0468323528767
         -0.0466688126326
         -0.0465055219829
         -0.046342484653
         -0.0461796969175
         -0.0460171550512
         -0.0458548627794
         -0.045692820102
         -0.0455310232937
         -0.0453694760799
         -0.0452081747353
         -0.0450471192598
         -0.0448863133788
         -0.0447257496417
         -0.044565435499
         -0.0444053635001
         -0.0442455373704
         -0.0440859571099
         -0.0439266189933
         -0.0437675267458
         -0.0436086766422
         -0.0434500686824
         -0.0432917028666
         -0.0431335829198
         -0.0429757013917
         -0.0428180620074
         -0.042660664767
         -0.0425035059452
         -0.0423465892673
         -0.0421899147332
         -0.0420334786177
         -0.0418772809207
         -0.0417213216424
         -0.0415656007826
         -0.0414101220667
         -0.0412548780441
         -0.0410998687148
         -0.0409451015294
         -0.0407905690372
         -0.0406362712383
         -0.040482211858
         -0.040328387171
         -0.0401748009026
         -0.0400214456022
         -0.039868324995
         -0.0397154428065
         -0.0395627915859
         -0.0394103713334
         -0.0392581894994
         -0.0391062349081
         -0.0389545187354
         -0.0388030298054
         -0.0386517755687
         -0.0385007523
         -0.038349956274
         -0.0381993949413
         -0.0380490645766
         -0.0378989614546
         -0.0377490893006
         -0.0375994481146
         -0.0374500341713
         -0.0373008474708
         -0.0371518917382
         -0.037003159523
         -0.0368546582758
         -0.0367063842714
         -0.0365583375096
         -0.0364105142653
         -0.0362629182637
         -0.0361155495048
         -0.0359684079885
         -0.0358214862645
         -0.0356747917831
         -0.0355283245444
         -0.0353820770979
         -0.0352360568941
         -0.0350902564824
         -0.0349446833134
         -0.0347993299365
         -0.0346542000771
         -0.0345092900097
         -0.0343646034598
         -0.0342201404274
         -0.0340758934617
         -0.0339318700135
         -0.0337880700827
         -0.0336444862187
         -0.0335011221468
         -0.0333579778671
         -0.0332150533795
         -0.0330723449588
         -0.0329298563302
         -0.0327875874937
         -0.032645534724
         -0.0325036980212
         -0.0323620811105
         -0.0322206765413
         -0.0320794917643
         -0.0319385230541
         -0.0317977704108
         -0.031657230109
         -0.0315169095993
         -0.0313767977059
         -0.0312369056046
         -0.0310972239822
         -0.0309577584267
         -0.03081850335
         -0.0306794643402
         -0.0305406358093
         -0.0304020214826
         -0.0302636176348
         -0.0301254261285
         -0.0299874469638
         -0.029849678278
         -0.0297121200711
         -0.029574772343
         -0.0294376350939
         -0.0293007064611
         -0.0291639883071
         -0.0290274787694
         -0.028891177848
         -0.0287550874054
         -0.0286192037165
         -0.0284835267812
         -0.0283480584621
         -0.0282127987593
         -0.0280777439475
         -0.0279428977519
         -0.0278082564473
         -0.0276738200337
         -0.0275395903736
         -0.0274055674672
         -0.0272717475891
         -0.0271381344646
         -0.0270047243685
         -0.0268715173006
         -0.0267385151237
         -0.0266057178378
         -0.0264731217176
         -0.0263407286257
         -0.0262085385621
         -0.0260765515268
         -0.0259447656572
         -0.0258131809533
         -0.0256817992777
         -0.0255506169051
         -0.0254196356982
         -0.0252888537943
         -0.0251582730561
         -0.025027891621
         -0.0248977113515
         -0.0247677285224
         -0.0246379449964
         -0.0245083589107
         -0.024378972128
         -0.0242497846484
         -0.0241207927465
         -0.0239919982851
         -0.023863401264
         -0.0237350016832
         -0.0236067976803
         -0.0234787911177
         -0.0233509782702
         -0.0232233628631
         -0.0230959411711
         -0.0229687150568
         -0.0228416845202
         -0.0227148476988
         -0.0225882045925
         -0.0224617552012
         -0.0223354995251
         -0.0222094357014
         -0.0220835674554
         -0.0219578891993
         -0.0218324046582
         -0.0217071119696
         -0.0215820092708
         -0.0214571002871
         -0.0213323812932
         -0.0212078522891
         -0.0210835151374
         -0.0209593679756
         -0.0208354108036
         -0.0207116436213
         -0.0205880645663
         -0.020464675501
         -0.0203414745629
         -0.0202184617519
         -0.0200956389308
         -0.0199730023742
         -0.0198505539447
         -0.0197282936424
         -0.0196062196046
         -0.0194843318313
         -0.0193626303226
         -0.019241116941
         -0.0191197879612
         -0.0189986433834
         -0.0188776869327
         -0.0187569130212
         -0.0186363253742
         -0.0185159221292
         -0.0183957032859
         -0.0182756669819
         -0.0181558150798
         -0.0180361475796
         -0.0179166607559
         -0.0177973583341
         -0.0176782384515
         -0.0175593011081
         -0.0174405444413
         -0.0173219703138
         -0.0172035787255
         -0.0170853659511
         -0.0169673357159
         -0.0168494861573
         -0.0167318154126
         -0.0166143253446
         -0.0164970159531
         -0.0163798853755
         -0.0162629336119
         -0.0161461606622
         -0.0160295665264
         -0.0159131512046
         -0.015796912834
         -0.0156808532774
         -0.0155649716035
         -0.0154492668808
         -0.0153337391093
         -0.0152183882892
         -0.0151032134891
         -0.0149882147089
         -0.0148733919486
         -0.0147587452084
         -0.0146442735568
         -0.0145299779251
         -0.0144158564508
         -0.0143019091338
         -0.0141881369054
         -0.0140745379031
         -0.013961113058
         -0.0138478623703
         -0.0137347839773
         -0.0136218788102
         -0.0135091468692
         -0.0133965872228
         -0.0132841998711
         -0.0131719838828
         -0.0130599401891
         -0.0129480678588
         -0.0128363659605
         -0.0127248354256
         -0.0126134753227
         -0.0125022204593
         -0.0123909665272
         -0.0122797116637
         -0.0121684577316
         -0.0120572037995
         -0.0119459498674
         -0.0118346959352
         -0.0117234410718
         -0.0116121871397
         -0.0115009332076
         -0.0113896792755
         -0.0112784253433
         -0.0111671714112
         -0.0110559165478
         -0.0109446626157
         -0.0108334086835
         -0.0107221547514
         -0.0106109008193
         -0.0104996468872
         -0.0103883920237
         -0.0102771380916
         -0.0101658841595
         -0.0100546302274
         -0.00994337629527
         -0.00983212143183
         -0.00972086749971
         -0.00960961356759
         -0.00949835963547
         -0.00938710570335
         -0.00927585177124
         -0.00916459690779
         -0.00905334297568
         -0.00894208904356
         -0.00883083511144
         -0.00871958117932
         -0.00860832631588
         -0.00849707238376
         -0.00838581845164
         -0.00827456451952
         -0.00816331058741
         -0.00805205665529
         -0.00794080179185
         -0.00782954785973
         -0.00771829392761
         -0.00760703999549
         -0.00749578559771
         -0.00738453166559
         -0.00727327773347
         -0.0071620233357
         -0.00705076940358
         -0.00693951547146
         -0.00682826107368
         -0.00671700714156
         -0.00660575320944
         -0.00649449881166
         -0.00638324487954
         -0.00627199048176
         -0.00616073654965
         -0.00604948261753
         -0.00593822821975
         -0.00582697428763
         -0.00571572035551
         -0.00560446595773
         -0.00549321202561
         -0.00538195809349
         -0.00527070369571
         -0.0051594497636
         -0.00504819583148
         -0.0049369414337
         -0.00482568750158
         -0.0047144331038
         -0.00460317917168
         -0.00449192523956
         -0.00438067084178
         -0.00426941690966
         -0.00415816297755
         -0.00404690857977
         -0.00393565464765
         -0.0038244004827
         -0.00371314631775
         -0.00360189238563
         -0.00349063822068
         -0.00337938405573
         -0.00326813012362
         -0.00315687595867
         -0.00304562179372
         -0.00293436762877
         -0.00282311369665
         -0.0027118595317
         -0.00260060536675
         -0.00248935143463
         -0.00237809726968
         -0.00226684310474
         -0.00215558893979
         -0.00204433500767
         -0.00193308084272
         -0.00182182679418
         -0.00171057262924
         -0.0015993185807
         -0.00148806441575
         -0.00137681036722
         -0.00126555620227
         -0.00115430215374
         -0.0010430481052
         -0.000931793940254
         -0.00082053989172
         -0.000709285784978
         -0.000598031678237
         -0.000486777571496
         -0.000375523464754
         -0.000264269358013
         -0.000153015265823
         -4.17611736339e-05
         6.94929258316e-05
         0.000180747025297
         0.000292001117487
         0.000403255224228
         0.000514509330969
         0.000625763437711
         0.000737017486244
         0.000848271592986
         0.000959525699727
         0.00107077986468
         0.00118203391321
         0.00129328796174
         0.00140454212669
         0.00151579617523
         0.00162705034018
         0.00173830438871
         0.00184955855366
         0.00196081260219
         0.00207206676714
         0.00218332069926
         0.00229457486421
         0.00240582902916
         0.00251708319411
         0.00262833712623
         0.00273959129117
         0.00285084545612
         0.00296209938824
         0.00307335355319
         0.00318460771814
         0.00329586188309
         0.00340711581521
         0.00351836998016
         0.00362962414511
         0.00374087807722
         0.00385213224217
         0.00396338617429
         0.00407464057207
         0.00418589450419
         0.00429714843631
         0.00440840283409
         0.00451965676621
         0.00463091116399
         0.0047421650961
         0.00485341902822
         0.004964673426
         0.00507592735812
         0.00518718129024
         0.00529843568802
         0.00540968962014
         0.00552094355226
         0.00563219795004
         0.00574345188215
         0.00585470581427
         0.00596596021205
         0.00607721414417
         0.00618846854195
         0.00629972247407
         0.00641097640619
         0.00652223080397
         0.00663348473608
         0.0067447386682
         0.00685599306598
         0.0069672469981
         0.00707850093022
         0.007189755328
         0.00730100926012
         0.0074122636579
         0.00752351759002
         0.00763477152213
         0.00774602591991
         0.00785727985203
         0.00796853378415
         0.00807978771627
         0.00819104257971
         0.00830229651183
         0.00841355044395
         0.00852480437607
         0.00863605830818
         0.0087473122403
         0.00885856710374
         0.00896982103586
         0.00908107496798
         0.0091923289001
         0.00930358283222
         0.00941483676434
         0.00952609162778
         0.0096373455599
         0.00974859949201
         0.00985985342413
         0.00997110735625
         0.0100823622197
         0.0101936161518
         0.0103048700839
         0.010416124016
         0.0105273779482
         0.0106386318803
         0.0107498867437
         0.0108611406758
         0.010972394608
         0.0110836485401
         0.0111949024722
         0.0113061573356
         0.0114174112678
         0.0115286651999
         0.011639919132
         0.0117511730641
         0.0118624269962
         0.0119736818597
         0.0120849357918
         0.0121961897239
         0.012307443656
         0.0124186975881
         0.0125299515203
         0.0126412175596
         0.0127526205033
         0.0128641929477
         0.0129759376869
         0.013087852858
         0.0131999393925
         0.0133121982217
         0.0134246284142
         0.0135372309014
         0.0136500066146
         0.0137629546225
         0.0138760758564
         0.0139893703163
         0.0141028380021
         0.0142164798453
         0.0143302958459
         0.0144442860037
         0.0145584512502
         0.0146727915853
         0.0147873060778
         0.0149019965902
         0.0150168631226
         0.0151319056749
         0.0152471242473
         0.0153625197709
         0.0154780913144
         0.0155938407406
         0.0157097671181
         0.0158258713782
         0.0159421525896
         0.0160586126149
         0.0161752514541
         0.0162920691073
         0.0164090637118
         0.0165262408555
         0.0166435949504
         0.016761129722
         0.0168788451701
         0.0169967394322
         0.0171148162335
         0.0172330718488
         0.0173515100032
         0.0174701306969
         0.0175889320672
         0.017707914114
         0.0178270805627
         0.017946427688
         0.0180659592152
         0.0181856732816
         0.0183055698872
         0.0184256527573
         0.018545916304
         0.0186663661152
         0.0187870003283
         0.0189078189433
         0.0190288238227
         0.0191500131041
         0.0192713886499
         0.0193929485977
         0.0195146966726
         0.019636631012
         0.0197587516159
         0.0198810584843
         0.0200035534799
         0.0201262366027
         0.0202491078526
         0.0203721672297
         0.0204954147339
         0.0206188503653
         0.0207424759865
         0.0208662915975
         0.0209902953357
         0.0211144909263
         0.0212388765067
         0.0213634520769
         0.0214882176369
         0.0216131750494
         0.0217383243144
         0.0218636654317
         0.0219891984016
         0.0221149232239
         0.0222408417612
         0.0223669521511
         0.022493256256
         0.022619754076
         0.0227464456111
         0.0228733308613
         0.0230004098266
         0.0231276843697
         0.0232551544905
         0.023382820189
         0.0235106796026
         0.0236387364566
         0.0237669888884
         0.0238954387605
         0.0240240842104
         0.0241529271007
         0.0242819674313
         0.0244112052023
         0.0245406422764
         0.0246702767909
         0.0248001106083
         0.0249301418662
         0.0250603724271
         0.0251908041537
         0.0253214351833
         0.0254522655159
         0.0255832970142
         0.0257145296782
         0.0258459616452
         0.0259775966406
         0.0261094328016
         0.0262414701283
         0.0263737104833
         0.0265061538666
         0.0266388002783
         0.0267716497183
         0.0269047021866
         0.0270379595459
         0.0271714199334
         0.027305085212
         0.0274389553815
         0.027573030442
         0.0277073122561
         0.0278417970985
         0.0279764905572
         0.0281113889068
         0.0282464940101
         0.0283818077296
         0.0285173263401
         0.0286530554295
         0.0287889894098
         0.0289251338691
         0.0290614869446
         0.0291980467737
         0.0293348189443
         0.0294717978686
         0.0296089872718
         0.0297463890165
         0.0298839993775
         0.0300218202174
         0.0301598533988
         0.0302980970591
         0.030436553061
         0.0305752214044
         0.0307141020894
         0.0308531951159
         0.0309925023466
         0.0311320219189
         0.0312717556953
         0.031411703676
         0.0315518639982
         0.0316922441125
         0.0318328328431
         0.0319736413658
         0.0321146659553
         0.0322559028864
         0.0323973596096
         0.0325390323997
         0.0326809212565
         0.0328230299056
         0.0329653546214
         0.0331078954041
         0.0332506559789
         0.0333936363459
         0.0335368365049
         0.0336802564561
         0.0338238924742
         0.0339677520096
         0.0341118276119
         0.0342561304569
         0.0344006493688
         0.034545391798
         0.0346903540194
         0.0348355397582
         0.0349809490144
         0.0351265780628
         0.0352724343538
         0.035418510437
         0.0355648137629
         0.0357113368809
         0.0358580872416
         0.0360050648451
         0.0361522622406
         0.0362996906042
         0.0364473387599
         0.0365952178836
         0.03674332425
         0.0368916541338
         0.0370402112603
         0.0371889993548
         0.0373380109668
         0.0374872535467
         0.0376367270947
         0.0377864278853
         0.0379363559186
         0.03808651492
         0.0382369048893
         0.0383875221014
         0.0385383740067
         0.0386894568801
         0.0388407707214
         0.0389923155308
         0.0391440913081
         0.0392961017787
         0.0394483432174
         0.0396008193493
         0.0397535301745
         0.0399064719677
         0.0400596484542
         0.0402130633593
         0.0403667092323
         0.040520593524
         0.0406747125089
         0.0408290661871
         0.0409836582839
         0.041138485074
         0.0412935502827
         0.04144885391
         0.0416043959558
         0.0417601726949
         0.0419161915779
         0.0420724488795
         0.0422289445996
         0.0423856824636
         0.0425426587462
         0.0426998771727
         0.0428573340178
         0.0430150330067
         0.0431729741395
         0.0433311574161
         0.0434895791113
         0.0436482466757
         0.0438071601093
         0.0439663119614
         0.044125713408
         0.0442853532732
         0.0444452427328
         0.0446053743362
         0.0447657518089
         0.0449263751507
         0.0450872443616
         0.0452483594418
         0.045409720391
         0.0455713309348
         0.0457331873477
         0.045895293355
         0.0460576489568
         0.0462202504277
         0.0463831014931
         0.046546202153
         0.0467095524073
         0.0468731559813
         0.0470370054245
         0.0472011081874
         0.0473654642701
         0.0475300699472
         0.0476949289441
         0.0478600412607
         0.0480254031718
         0.0481910221279
         0.0483568944037
         0.0485230199993
         0.0486893989146
         0.0488560348749
         0.049022924155
         0.0491900704801
         0.049357470125
         0.0495251305401
         0.049693044275
         0.0498612187803
         0.0500296466053
         0.0501983352005
         0.0503672845662
         0.0505364872515
         0.0507059544325
         0.0508756786585
         0.0510456636548
         0.0512159094214
         0.0513864122331
         0.0515571795404
         0.0517282113433
         0.0518995001912
         0.0520710535347
         0.0522428713739
         0.0524149499834
         0.0525872930884
         0.0527599006891
         0.0529327727854
         0.053105905652
         0.0532793104649
         0.053452976048
         0.053626909852
         0.053801111877
         0.0539755783975
         0.0541503094137
         0.054325312376
         0.0545005835593
         0.0546761229634
         0.0548519305885
         0.0550280064344
         0.0552043542266
         0.0553809702396
         0.0555578581989
         0.055735014379
         0.0559124462306
         0.0560901463032
