aces_1.0.3/luts/V3_LogC_320_to_linear.spi1d
Version 1
From 0.000000 1.000000
Length 65536
Components 1
{
         -0.0164589509368
         -0.0164562445134
         -0.01645353809
         -0.0164508316666
         -0.0164481252432
         -0.0164454188198
         -0.0164427123964
         -0.016440005973
         -0.0164372995496
         -0.0164345931262
         -0.0164318867028
         -0.0164291784167
         -0.0164264719933
         -0.0164237655699
         -0.0164210591465
         -0.0164183527231
         -0.0164156462997
         -0.0164129398763
         -0.0164102334529
         -0.0164075270295
         -0.0164048206061
         -0.0164021141827
         -0.0163994058967
         -0.0163966994733
         -0.0163939930499
         -0.0163912866265
         -0.0163885802031
         -0.0163858737797
         -0.0163831673563
         -0.0163804609329
         -0.0163777545094
         -0.016375048086
         -0.0163723416626
         -0.0163696333766
         -0.0163669269532
         -0.0163642205298
         -0.0163615141064
         -0.016358807683
         -0.0163561012596
         -0.0163533948362
         -0.0163506884128
         -0.0163479819894
         -0.016345275566
         -0.0163425691426
         -0.0163398627192
         -0.0163371544331
         -0.0163344480097
         -0.0163317415863
         -0.0163290351629
         -0.0163263287395
         -0.0163236223161
         -0.0163209158927
         -0.0163182094693
         -0.0163155030459
         -0.0163127966225
         -0.0163100901991
         -0.0163073819131
         -0.0163046754897
         -0.0163019690663
         -0.0162992626429
         -0.0162965562195
         -0.0162938497961
         -0.0162911433727
         -0.0162884369493
         -0.0162857305259
         -0.0162830241024
         -0.016280317679
         -0.016277609393
         -0.0162749029696
         -0.0162721965462
         -0.0162694901228
         -0.0162667836994
         -0.016264077276
         -0.0162613708526
         -0.0162586644292
         -0.0162559580058
         -0.0162532515824
         -0.016250545159
         -0.0162478368729
         -0.0162451304495
         -0.0162424240261
         -0.0162397176027
         -0.0162370111793
         -0.0162343047559
         -0.0162315983325
         -0.0162288919091
         -0.0162261854857
         -0.0162234790623
         -0.0162207726389
         -0.0162180662155
         -0.0162153579295
         -0.0162126515061
         -0.0162099450827
         -0.0162072386593
         -0.0162045322359
         -0.0162018258125
         -0.0161991193891
         -0.0161964129657
         -0.0161937065423
         -0.0161910001189
         -0.0161882936954
         -0.0161855854094
         -0.016182878986
         -0.0161801725626
         -0.0161774661392
         -0.0161747597158
         -0.0161720532924
         -0.016169346869
         -0.0161666404456
         -0.0161639340222
         -0.0161612275988
         -0.0161585211754
         -0.0161558128893
         -0.0161531064659
         -0.0161504000425
         -0.0161476936191
         -0.0161449871957
         -0.0161422807723
         -0.0161395743489
         -0.0161368679255
         -0.0161341615021
         -0.0161314550787
         -0.0161287486553
         -0.0161260403693
         -0.0161233339459
         -0.0161206275225
         -0.0161179210991
         -0.0161152146757
         -0.0161125082523
         -0.0161098018289
         -0.0161070954055
         -0.0161043889821
         -0.0161016825587
         -0.0160989761353
         -0.0160962697119
         -0.0160935614258
         -0.0160908550024
         -0.016088148579
         -0.0160854421556
         -0.0160827357322
         -0.0160800293088
         -0.0160773228854
         -0.016074616462
         -0.0160719100386
         -0.0160692036152
         -0.0160664971918
         -0.0160637889057
         -0.0160610824823
         -0.0160583760589
         -0.0160556696355
         -0.0160529632121
         -0.0160502567887
         -0.0160475503653
         -0.0160448439419
         -0.0160421375185
         -0.0160394310951
         -0.0160367246717
         -0.0160340163857
         -0.0160313099623
         -0.0160286035389
         -0.0160258971155
         -0.0160231906921
         -0.0160204842687
         -0.0160177778453
         -0.0160150714219
         -0.0160123649985
         -0.0160096585751
         -0.0160069521517
         -0.0160042438656
         -0.0160015374422
         -0.0159988310188
         -0.0159961245954
         -0.015993418172
         -0.0159907117486
         -0.0159880053252
         -0.0159852989018
         -0.0159825924784
         -0.015979886055
         -0.0159771796316
         -0.0159744732082
         -0.0159717649221
         -0.0159690584987
         -0.0159663520753
         -0.0159636456519
         -0.0159609392285
         -0.0159582328051
         -0.0159555263817
         -0.0159528199583
         -0.0159501135349
         -0.0159474071115
         -0.0159447006881
         -0.0159419924021
         -0.0159392859787
         -0.0159365795553
         -0.0159338731319
         -0.0159311667085
         -0.0159284602851
         -0.0159257538617
         -0.0159230474383
         -0.0159203410149
         -0.0159176345915
         -0.0159149281681
         -0.015912219882
         -0.0159095134586
         -0.0159068070352
         -0.0159041006118
         -0.0159013941884
         -0.015898687765
         -0.0158959813416
         -0.0158932749182
         -0.0158905684948
         -0.0158878620714
         -0.015885155648
         -0.0158824473619
         -0.0158797409385
         -0.0158770345151
         -0.0158743280917
         -0.0158716216683
         -0.0158689152449
         -0.0158662088215
         -0.0158635023981
         -0.0158607959747
         -0.0158580895513
         -0.0158553831279
         -0.0158526767045
         -0.0158499684185
         -0.0158472619951
         -0.0158445555717
         -0.0158418491483
         -0.0158391427249
         -0.0158364363015
         -0.0158337298781
         -0.0158310234547
         -0.0158283170313
         -0.0158256106079
         -0.0158229041845
         -0.0158201958984
         -0.015817489475
         -0.0158147830516
         -0.0158120766282
         -0.0158093702048
         -0.0158066637814
         -0.015803957358
         -0.0158012509346
         -0.0157985445112
         -0.0157958380878
         -0.0157931316644
         -0.0157904233783
         -0.0157877169549
         -0.0157850105315
         -0.0157823041081
         -0.0157795976847
         -0.0157768912613
         -0.0157741848379
         -0.0157714784145
         -0.0157687719911
         -0.0157660655677
         -0.0157633591443
         -0.0157606508583
         -0.0157579444349
         -0.0157552380115
         -0.0157525315881
         -0.0157498251647
         -0.0157471187413
         -0.0157444123179
         -0.0157417058945
         -0.0157389994711
         -0.0157362930477
         -0.0157335866243
         -0.0157308802009
         -0.0157281719148
         -0.0157254654914
         -0.015722759068
         -0.0157200526446
         -0.0157173462212
         -0.0157146397978
         -0.0157119333744
         -0.015709226951
         -0.0157065205276
         -0.0157038141042
         -0.0157011076808
         -0.0156983993948
         -0.0156956929713
         -0.0156929865479
         -0.0156902801245
         -0.0156875737011
         -0.0156848672777
         -0.0156821608543
         -0.0156794544309
         -0.0156767480075
         -0.0156740415841
         -0.0156713351607
         -0.0156686268747
         -0.0156659204513
         -0.0156632140279
         -0.0156605076045
         -0.0156578011811
         -0.0156550947577
         -0.0156523883343
         -0.0156496819109
         -0.0156469754875
         -0.0156442690641
         -0.0156415626407
         -0.0156388543546
         -0.0156361479312
         -0.0156334415078
         -0.0156307350844
         -0.015628028661
         -0.0156253222376
         -0.0156226158142
         -0.0156199093908
         -0.0156172029674
         -0.0156144956127
         -0.0156117891893
         -0.0156090827659
         -0.0156063763425
         -0.0156036699191
         -0.0156009625643
         -0.0155982561409
         -0.0155955497175
         -0.0155928432941
         -0.0155901368707
         -0.0155874304473
         -0.0155847230926
         -0.0155820166692
         -0.0155793102458
         -0.0155766038224
         -0.015573897399
         -0.0155711909756
         -0.0155684836209
         -0.0155657771975
         -0.0155630707741
         -0.0155603643507
         -0.0155576579273
         -0.0155549505726
         -0.0155522441491
         -0.0155495377257
         -0.0155468313023
         -0.0155441248789
         -0.0155414184555
         -0.0155387111008
         -0.0155360046774
         -0.015533298254
         -0.0155305918306
         -0.0155278854072
         -0.0155251789838
         -0.0155224716291
         -0.0155197652057
         -0.0155170587823
         -0.0155143523589
         -0.0155116459355
         -0.0155089385808
         -0.0155062321573
         -0.0155035257339
         -0.0155008193105
         -0.0154981128871
         -0.0154954064637
         -0.015492699109
         -0.0154899926856
         -0.0154872862622
         -0.0154845798388
         -0.0154818734154
         -0.0154791660607
         -0.0154764596373
         -0.0154737532139
         -0.0154710467905
         -0.0154683403671
         -0.0154656339437
         -0.015462926589
         -0.0154602201656
         -0.0154575137421
         -0.0154548073187
         -0.0154521008953
         -0.0154493944719
         -0.0154466871172
         -0.0154439806938
         -0.0154412742704
         -0.015438567847
         -0.0154358614236
         -0.0154331540689
         -0.0154304476455
         -0.0154277412221
         -0.0154250347987
         -0.0154223283753
         -0.0154196219519
         -0.0154169145972
         -0.0154142081738
         -0.0154115017503
         -0.0154087953269
         -0.0154060889035
         -0.0154033824801
         -0.0154006751254
         -0.015397968702
         -0.0153952622786
         -0.0153925558552
         -0.0153898494318
         -0.0153871420771
         -0.0153844356537
         -0.0153817292303
         -0.0153790228069
         -0.0153763163835
         -0.0153736099601
         -0.0153709026054
         -0.015368196182
         -0.0153654897586
         -0.0153627833351
         -0.0153600769117
         -0.015357369557
         -0.0153546631336
         -0.0153519567102
         -0.0153492502868
         -0.0153465438634
         -0.01534383744
         -0.0153411300853
         -0.0153384236619
         -0.0153357172385
         -0.0153330108151
         -0.0153303043917
         -0.0153275979683
         -0.0153248906136
         -0.0153221841902
         -0.0153194777668
         -0.0153167713434
         -0.0153140649199
         -0.0153113575652
         -0.0153086511418
         -0.0153059447184
         -0.015303238295
         -0.0153005318716
         -0.0152978254482
         -0.0152951180935
         -0.0152924116701
         -0.0152897052467
         -0.0152869988233
         -0.0152842923999
         -0.0152815859765
         -0.0152788786218
         -0.0152761721984
         -0.015273465775
         -0.0152707593516
         -0.0152680529281
         -0.0152653455734
         -0.01526263915
         -0.0152599327266
         -0.0152572263032
         -0.0152545198798
         -0.0152518134564
         -0.0152491061017
         -0.0152463996783
         -0.0152436932549
         -0.0152409868315
         -0.0152382804081
         -0.0152355730534
         -0.01523286663
         -0.0152301602066
         -0.0152274537832
         -0.0152247473598
         -0.0152220409364
         -0.0152193335816
         -0.0152166271582
         -0.0152139207348
         -0.0152112143114
         -0.015208507888
         -0.0152058014646
         -0.0152030941099
         -0.0152003876865
         -0.0151976812631
         -0.0151949748397
         -0.0151922684163
         -0.0151895610616
         -0.0151868546382
         -0.0151841482148
         -0.0151814417914
         -0.015178735368
         -0.0151760289446
         -0.0151733215898
         -0.0151706151664
         -0.015167908743
         -0.0151652023196
         -0.0151624958962
         -0.0151597894728
         -0.0151570821181
         -0.0151543756947
         -0.0151516692713
         -0.0151489628479
         -0.0151462564245
         -0.0151435490698
         -0.0151408426464
         -0.015138136223
         -0.0151354297996
         -0.0151327233762
         -0.0151300169528
         -0.015127309598
         -0.0151246031746
         -0.0151218967512
         -0.0151191903278
         -0.0151164839044
         -0.0151137765497
         -0.0151110701263
         -0.0151083637029
         -0.0151056572795
         -0.0151029508561
         -0.0151002444327
         -0.015097537078
         -0.0150948306546
         -0.0150921242312
         -0.0150894178078
         -0.0150867113844
         -0.015084004961
         -0.0150812976062
         -0.0150785911828
         -0.0150758847594
         -0.015073178336
         -0.0150704719126
         -0.0150677645579
         -0.0150650581345
         -0.0150623517111
         -0.0150596452877
         -0.0150569388643
         -0.0150542324409
         -0.0150515250862
         -0.0150488186628
         -0.0150461122394
         -0.015043405816
         -0.0150406993926
         -0.0150379929692
         -0.0150352856144
         -0.015032579191
         -0.0150298727676
         -0.0150271663442
         -0.0150244599208
         -0.0150217525661
         -0.0150190461427
         -0.0150163397193
         -0.0150136332959
         -0.0150109268725
         -0.0150082204491
         -0.0150055130944
         -0.015002806671
         -0.0150001002476
         -0.0149973938242
         -0.0149946874008
         -0.014991980046
         -0.0149892736226
         -0.0149865671992
         -0.0149838607758
         -0.0149811543524
         -0.014978447929
         -0.0149757405743
         -0.0149730341509
         -0.0149703277275
         -0.0149676213041
         -0.0149649148807
         -0.0149622084573
         -0.0149595011026
         -0.0149567946792
         -0.0149540882558
         -0.0149513818324
         -0.014948675409
         -0.0149459680542
         -0.0149432616308
         -0.0149405552074
         -0.014937848784
         -0.0149351423606
         -0.0149324359372
         -0.0149297285825
         -0.0149270221591
         -0.0149243157357
         -0.0149216093123
         -0.0149189028889
         -0.0149161964655
         -0.0149134891108
         -0.0149107826874
         -0.014908076264
         -0.0149053698406
         -0.0149026634172
         -0.0148999560624
         -0.014897249639
         -0.0148945432156
         -0.0148918367922
         -0.0148891303688
         -0.0148864239454
         -0.0148837165907
         -0.0148810101673
         -0.0148783037439
         -0.0148755973205
         -0.0148728908971
         -0.0148701835424
         -0.014867477119
         -0.0148647706956
         -0.0148620642722
         -0.0148593578488
         -0.0148566514254
         -0.0148539440706
         -0.0148512376472
         -0.0148485312238
         -0.0148458248004
         -0.014843118377
         -0.0148404119536
         -0.0148377045989
         -0.0148349981755
         -0.0148322917521
         -0.0148295853287
         -0.0148268789053
         -0.0148241715506
         -0.0148214651272
         -0.0148187587038
         -0.0148160522804
         -0.014813345857
         -0.0148106394336
         -0.0148079320788
         -0.0148052256554
         -0.014802519232
         -0.0147998128086
         -0.0147971063852
         -0.0147943999618
         -0.0147916926071
         -0.0147889861837
         -0.0147862797603
         -0.0147835733369
         -0.0147808669135
         -0.0147781595588
         -0.0147754531354
         -0.014772746712
         -0.0147700402886
         -0.0147673338652
         -0.0147646274418
         -0.014761920087
         -0.0147592136636
         -0.0147565072402
         -0.0147538008168
         -0.0147510943934
         -0.01474838797
         -0.0147456806153
         -0.0147429741919
         -0.0147402677685
         -0.0147375613451
         -0.0147348549217
         -0.014732147567
         -0.0147294411436
         -0.0147267347202
         -0.0147240282968
         -0.0147213218734
         -0.01471861545
         -0.0147159080952
         -0.0147132016718
         -0.0147104952484
         -0.014707788825
         -0.0147050824016
         -0.0147023750469
         -0.0146996686235
         -0.0146969622001
         -0.0146942557767
         -0.0146915493533
         -0.0146888429299
         -0.0146861355752
         -0.0146834291518
         -0.0146807227284
         -0.014678016305
         -0.0146753098816
         -0.0146726034582
         -0.0146698961034
         -0.01466718968
         -0.0146644832566
         -0.0146617768332
         -0.0146590704098
         -0.0146563630551
         -0.0146536566317
         -0.0146509502083
         -0.0146482437849
         -0.0146455373615
         -0.0146428309381
         -0.0146401235834
         -0.01463741716
         -0.0146347107366
         -0.0146320043132
         -0.0146292978898
         -0.0146265914664
         -0.0146238841116
         -0.0146211776882
         -0.0146184712648
         -0.0146157648414
         -0.014613058418
         -0.0146103510633
         -0.0146076446399
         -0.0146049382165
         -0.0146022317931
         -0.0145995253697
         -0.0145968189463
         -0.0145941115916
         -0.0145914051682
         -0.0145886987448
         -0.0145859923214
         -0.014583285898
         -0.0145805785432
         -0.0145778721198
         -0.0145751656964
         -0.014572459273
         -0.0145697528496
         -0.0145670464262
         -0.0145643390715
         -0.0145616326481
         -0.0145589262247
         -0.0145562198013
         -0.0145535133779
         -0.0145508069545
         -0.0145480995998
         -0.0145453931764
         -0.014542686753
         -0.0145399803296
         -0.0145372739062
         -0.0145345665514
         -0.014531860128
         -0.0145291537046
         -0.0145264472812
         -0.0145237408578
         -0.0145210344344
         -0.0145183270797
         -0.0145156206563
         -0.0145129142329
         -0.0145102078095
         -0.0145075013861
         -0.0145047949627
         -0.014502087608
         -0.0144993811846
         -0.0144966747612
         -0.0144939683378
         -0.0144912619144
         -0.0144885545596
         -0.0144858481362
         -0.0144831417128
         -0.0144804352894
         -0.014477728866
         -0.0144750224426
         -0.0144723150879
         -0.0144696086645
         -0.0144669022411
         -0.0144641958177
         -0.0144614893943
         -0.0144587820396
         -0.0144560756162
         -0.0144533691928
         -0.0144506627694
         -0.014447956346
         -0.0144452499226
         -0.0144425425678
         -0.0144398361444
         -0.014437129721
         -0.0144344232976
         -0.0144317168742
         -0.0144290104508
         -0.0144263030961
         -0.0144235966727
         -0.0144208902493
         -0.0144181838259
         -0.0144154774025
         -0.0144127700478
         -0.0144100636244
         -0.014407357201
         -0.0144046507776
         -0.0144019443542
         -0.0143992379308
         -0.0143965305761
         -0.0143938241526
         -0.0143911177292
         -0.0143884113058
         -0.0143857048824
         -0.014382998459
         -0.0143802911043
         -0.0143775846809
         -0.0143748782575
         -0.0143721718341
         -0.0143694654107
         -0.014366758056
         -0.0143640516326
         -0.0143613452092
         -0.0143586387858
         -0.0143559323624
         -0.014353225939
         -0.0143505185843
         -0.0143478121608
         -0.0143451057374
         -0.014342399314
         -0.0143396928906
         -0.0143369855359
         -0.0143342791125
         -0.0143315726891
         -0.0143288662657
         -0.0143261598423
         -0.0143234534189
         -0.0143207460642
         -0.0143180396408
         -0.0143153332174
         -0.014312626794
         -0.0143099203706
         -0.0143072139472
         -0.0143045065925
         -0.0143018001691
         -0.0142990937456
         -0.0142963873222
         -0.0142936808988
         -0.0142909735441
         -0.0142882671207
         -0.0142855606973
         -0.0142828542739
         -0.0142801478505
         -0.0142774414271
         -0.0142747340724
         -0.014272027649
         -0.0142693212256
         -0.0142666148022
         -0.0142639083788
         -0.0142612019554
         -0.0142584946007
         -0.0142557881773
         -0.0142530817538
         -0.0142503753304
         -0.014247668907
         -0.0142449615523
         -0.0142422551289
         -0.0142395487055
         -0.0142368422821
         -0.0142341358587
         -0.0142314294353
         -0.0142287220806
         -0.0142260156572
         -0.0142233092338
         -0.0142206028104
         -0.014217896387
         -0.0142151890323
         -0.0142124826089
         -0.0142097761855
         -0.0142070697621
         -0.0142043633386
         -0.0142016569152
         -0.0141989495605
         -0.0141962431371
         -0.0141935367137
         -0.0141908302903
         -0.0141881238669
         -0.0141854174435
         -0.0141827100888
         -0.0141800036654
         -0.014177297242
         -0.0141745908186
         -0.0141718843952
         -0.0141691770405
         -0.0141664706171
         -0.0141637641937
         -0.0141610577703
         -0.0141583513469
         -0.0141556449234
         -0.0141529375687
         -0.0141502311453
         -0.0141475247219
         -0.0141448182985
         -0.0141421118751
         -0.0141394054517
         -0.014136698097
         -0.0141339916736
         -0.0141312852502
         -0.0141285788268
         -0.0141258724034
         -0.0141231650487
         -0.0141204586253
         -0.0141177522019
         -0.0141150457785
         -0.0141123393551
         -0.0141096329316
         -0.0141069255769
         -0.0141042191535
         -0.0141015127301
         -0.0140988063067
         -0.0140960998833
         -0.0140933925286
         -0.0140906861052
         -0.0140879796818
         -0.0140852732584
         -0.014082566835
         -0.0140798604116
         -0.0140771530569
         -0.0140744466335
         -0.0140717402101
         -0.0140690337867
         -0.0140663273633
         -0.0140636209399
         -0.0140609135851
         -0.0140582071617
         -0.0140555007383
         -0.0140527943149
         -0.0140500878915
         -0.0140473805368
         -0.0140446741134
         -0.01404196769
         -0.0140392612666
         -0.0140365548432
         -0.0140338484198
         -0.0140311410651
         -0.0140284346417
         -0.0140257282183
         -0.0140230217949
         -0.0140203153715
         -0.0140176089481
         -0.0140149015933
         -0.0140121951699
         -0.0140094887465
         -0.0140067823231
         -0.0140040758997
         -0.014001368545
         -0.0139986621216
         -0.0139959556982
         -0.0139932492748
         -0.0139905428514
         -0.013987836428
         -0.0139851290733
         -0.0139824226499
         -0.0139797162265
         -0.0139770098031
         -0.0139743033797
         -0.0139715960249
         -0.0139688896015
         -0.0139661831781
         -0.0139634767547
         -0.0139607703313
