aces_1.0.3/luts/V3_LogC_160_to_linear.spi1d
Version 1
From 0.000000 1.000000
Length 65536
Components 1
{
         -0.0158811211586
         -0.0158785097301
         -0.015875896439
         -0.0158732850105
         -0.015870673582
         -0.0158680621535
         -0.0158654488623
         -0.0158628374338
         -0.0158602260053
         -0.0158576127142
         -0.0158550012857
         -0.0158523898572
         -0.0158497784287
         -0.0158471651375
         -0.015844553709
         -0.0158419422805
         -0.015839330852
         -0.0158367175609
         -0.0158341061324
         -0.0158314947039
         -0.0158288814127
         -0.0158262699842
         -0.0158236585557
         -0.0158210471272
         -0.0158184338361
         -0.0158158224076
         -0.0158132109791
         -0.0158105995506
         -0.0158079862595
         -0.015805374831
         -0.0158027634025
         -0.0158001501113
         -0.0157975386828
         -0.0157949272543
         -0.0157923158258
         -0.0157897025347
         -0.0157870911062
         -0.0157844796777
         -0.0157818682492
         -0.015779254958
         -0.0157766435295
         -0.015774032101
         -0.0157714188099
         -0.0157688073814
         -0.0157661959529
         -0.0157635845244
         -0.0157609712332
         -0.0157583598047
         -0.0157557483763
         -0.0157531369478
         -0.0157505236566
         -0.0157479122281
         -0.0157453007996
         -0.0157426875085
         -0.01574007608
         -0.0157374646515
         -0.015734853223
         -0.0157322399318
         -0.0157296285033
         -0.0157270170748
         -0.0157244056463
         -0.0157217923552
         -0.0157191809267
         -0.0157165694982
         -0.0157139580697
         -0.0157113447785
         -0.01570873335
         -0.0157061219215
         -0.0157035086304
         -0.0157008972019
         -0.0156982857734
         -0.0156956743449
         -0.0156930610538
         -0.0156904496253
         -0.0156878381968
         -0.0156852267683
         -0.0156826134771
         -0.0156800020486
         -0.0156773906201
         -0.015674777329
         -0.0156721659005
         -0.015669554472
         -0.0156669430435
         -0.0156643297523
         -0.0156617183238
         -0.0156591068953
         -0.0156564954668
         -0.0156538821757
         -0.0156512707472
         -0.0156486593187
         -0.0156460460275
         -0.015643434599
         -0.0156408231705
         -0.015638211742
         -0.0156355984509
         -0.0156329870224
         -0.0156303755939
         -0.0156277641654
         -0.0156251508743
         -0.0156225394458
         -0.0156199270859
         -0.0156173156574
         -0.0156147032976
         -0.0156120918691
         -0.0156094795093
         -0.0156068680808
         -0.015604255721
         -0.0156016442925
         -0.0155990319327
         -0.0155964205042
         -0.0155938081443
         -0.0155911957845
         -0.015588584356
         -0.0155859719962
         -0.0155833605677
         -0.0155807482079
         -0.0155781367794
         -0.0155755244195
         -0.015572912991
         -0.0155703006312
         -0.0155676892027
         -0.0155650768429
         -0.0155624644831
         -0.0155598530546
         -0.0155572406948
         -0.0155546292663
         -0.0155520169064
         -0.0155494054779
         -0.0155467931181
         -0.0155441816896
         -0.0155415693298
         -0.0155389579013
         -0.0155363455415
         -0.0155337331817
         -0.0155311217532
         -0.0155285093933
         -0.0155258979648
         -0.015523285605
         -0.0155206741765
         -0.0155180618167
         -0.0155154503882
         -0.0155128380284
         -0.0155102265999
         -0.0155076142401
         -0.0155050018802
         -0.0155023904517
         -0.0154997780919
         -0.0154971666634
         -0.0154945543036
         -0.0154919428751
         -0.0154893305153
         -0.0154867190868
         -0.0154841067269
         -0.0154814952984
         -0.0154788829386
         -0.0154762705788
         -0.0154736591503
         -0.0154710467905
         -0.015468435362
         -0.0154658230022
         -0.0154632115737
         -0.0154605992138
         -0.0154579877853
         -0.0154553754255
         -0.015452763997
         -0.0154501516372
         -0.0154475392774
         -0.0154449278489
         -0.0154423154891
         -0.0154397040606
         -0.0154370917007
         -0.0154344802722
         -0.0154318679124
         -0.0154292564839
         -0.0154266441241
         -0.0154240326956
         -0.0154214203358
         -0.0154188089073
         -0.0154161965474
         -0.0154135841876
         -0.0154109727591
         -0.0154083603993
         -0.0154057489708
         -0.015403136611
         -0.0154005251825
         -0.0153979128227
         -0.0153953013942
         -0.0153926890343
         -0.0153900776058
         -0.015387465246
         -0.0153848528862
         -0.0153822414577
         -0.0153796290979
         -0.0153770176694
         -0.0153744053096
         -0.0153717938811
         -0.0153691815212
         -0.0153665700927
         -0.0153639577329
         -0.0153613463044
         -0.0153587339446
         -0.0153561215848
         -0.0153535101563
         -0.0153508977965
         -0.015348286368
         -0.0153456740081
         -0.0153430625796
         -0.0153404502198
         -0.0153378387913
         -0.0153352264315
         -0.015332615003
         -0.0153300026432
         -0.0153273902833
         -0.0153247788548
         -0.015322166495
         -0.0153195550665
         -0.0153169427067
         -0.0153143312782
         -0.0153117189184
         -0.0153091074899
         -0.0153064951301
         -0.0153038837016
         -0.0153012713417
         -0.0152986589819
         -0.0152960475534
         -0.0152934351936
         -0.0152908237651
         -0.0152882114053
         -0.0152855999768
         -0.015282987617
         -0.0152803761885
         -0.0152777638286
         -0.0152751524001
         -0.0152725400403
         -0.0152699276805
         -0.015267316252
         -0.0152647038922
         -0.0152620924637
         -0.0152594801039
         -0.0152568686754
         -0.0152542563155
         -0.015251644887
         -0.0152490325272
         -0.0152464210987
         -0.0152438087389
         -0.0152411973104
         -0.0152385849506
         -0.0152359725907
         -0.0152333611622
         -0.0152307488024
         -0.0152281373739
         -0.0152255250141
         -0.0152229135856
         -0.0152203012258
         -0.0152176897973
         -0.0152150774375
         -0.015212466009
         -0.0152098536491
         -0.0152072412893
         -0.0152046298608
         -0.015202017501
         -0.0151994060725
         -0.0151967937127
         -0.0151941822842
         -0.0151915699244
         -0.0151889584959
         -0.015186346136
         -0.0151837347075
         -0.0151811223477
         -0.0151785099879
         -0.0151758985594
         -0.0151732861996
         -0.0151706747711
         -0.0151680624112
         -0.0151654509827
         -0.0151628386229
         -0.0151602271944
         -0.0151576148346
         -0.0151550034061
         -0.0151523910463
         -0.0151497786865
         -0.015147167258
         -0.0151445548981
         -0.0151419434696
         -0.0151393311098
         -0.0151367196813
         -0.0151341073215
         -0.015131495893
         -0.0151288835332
         -0.0151262721047
         -0.0151236597449
         -0.015121047385
         -0.0151184359565
         -0.0151158235967
         -0.0151132121682
         -0.0151105998084
         -0.0151079883799
         -0.0151053760201
         -0.0151027645916
         -0.0151001522318
         -0.0150975408033
         -0.0150949284434
         -0.0150923160836
         -0.0150897046551
         -0.0150870922953
         -0.0150844808668
         -0.015081868507
         -0.0150792570785
         -0.0150766447186
         -0.0150740332901
         -0.0150714209303
         -0.0150688095018
         -0.015066197142
         -0.0150635857135
         -0.0150609733537
         -0.0150583609939
         -0.0150557495654
         -0.0150531372055
         -0.015050525777
         -0.0150479134172
         -0.0150453019887
         -0.0150426896289
         -0.0150400782004
         -0.0150374658406
         -0.0150348544121
         -0.0150322420523
         -0.0150296296924
         -0.0150270182639
         -0.0150244059041
         -0.0150217944756
         -0.0150191821158
         -0.0150165706873
         -0.0150139583275
         -0.015011346899
         -0.0150087345392
         -0.0150061231107
         -0.0150035107508
         -0.015000898391
         -0.0149982869625
         -0.0149956746027
         -0.0149930631742
         -0.0149904508144
         -0.0149878393859
         -0.014985227026
         -0.0149826155975
         -0.0149800032377
         -0.0149773918092
         -0.0149747794494
         -0.0149721670896
         -0.0149695556611
         -0.0149669433013
         -0.0149643318728
         -0.0149617195129
         -0.0149591080844
         -0.0149564957246
         -0.0149538842961
         -0.0149512719363
         -0.0149486605078
         -0.014946048148
         -0.0149434357882
         -0.0149408243597
         -0.0149382119998
         -0.0149356005713
         -0.0149329882115
         -0.014930376783
         -0.0149277644232
         -0.0149251529947
         -0.0149225406349
         -0.0149199292064
         -0.0149173168465
         -0.0149147044867
         -0.0149120930582
         -0.0149094806984
         -0.0149068692699
         -0.0149042569101
         -0.0149016454816
         -0.0148990331218
         -0.0148964216933
         -0.0148938093334
         -0.0148911979049
         -0.0148885855451
         -0.0148859741166
         -0.0148833617568
         -0.014880749397
         -0.0148781379685
         -0.0148755256087
         -0.0148729141802
         -0.0148703018203
         -0.0148676903918
         -0.014865078032
         -0.0148624666035
         -0.0148598542437
         -0.0148572428152
         -0.0148546304554
         -0.0148520180956
         -0.0148494066671
         -0.0148467943072
         -0.0148441828787
         -0.0148415705189
         -0.0148389590904
         -0.0148363467306
         -0.0148337353021
         -0.0148311229423
         -0.0148285115138
         -0.0148258991539
         -0.0148232867941
         -0.0148206753656
         -0.0148180630058
         -0.0148154515773
         -0.0148128392175
         -0.014810227789
         -0.0148076154292
         -0.0148050040007
         -0.0148023916408
         -0.0147997802123
         -0.0147971678525
         -0.0147945554927
         -0.0147919440642
         -0.0147893317044
         -0.0147867202759
         -0.0147841079161
         -0.0147814964876
         -0.0147788841277
         -0.0147762726992
         -0.0147736603394
         -0.0147710489109
         -0.0147684365511
         -0.0147658241913
         -0.0147632127628
         -0.014760600403
         -0.0147579889745
         -0.0147553766146
         -0.0147527651861
         -0.0147501528263
         -0.0147475413978
         -0.014744929038
         -0.0147423176095
         -0.0147397052497
         -0.0147370928898
         -0.0147344814613
         -0.0147318691015
         -0.014729257673
         -0.0147266453132
         -0.0147240338847
         -0.0147214215249
         -0.0147188100964
         -0.0147161977366
         -0.0147135863081
         -0.0147109739482
         -0.0147083625197
         -0.0147057501599
         -0.0147031378001
         -0.0147005263716
         -0.0146979140118
         -0.0146953025833
         -0.0146926902235
         -0.014690078795
         -0.0146874664351
         -0.0146848550066
         -0.0146822426468
         -0.0146796312183
         -0.0146770188585
         -0.0146744064987
         -0.0146717950702
         -0.0146691827103
         -0.0146665712819
         -0.014663958922
         -0.0146613474935
         -0.0146587351337
         -0.0146561237052
         -0.0146535113454
         -0.0146508999169
         -0.0146482875571
         -0.0146456751972
         -0.0146430637687
         -0.0146404514089
         -0.0146378399804
         -0.0146352276206
         -0.0146326161921
         -0.0146300038323
         -0.0146273924038
         -0.014624780044
         -0.0146221686155
         -0.0146195562556
         -0.0146169438958
         -0.0146143324673
         -0.0146117201075
         -0.014609108679
         -0.0146064963192
         -0.0146038848907
         -0.0146012725309
         -0.0145986611024
         -0.0145960487425
         -0.014593437314
         -0.0145908249542
         -0.0145882125944
         -0.0145856011659
         -0.0145829888061
         -0.0145803773776
         -0.0145777650177
         -0.0145751535892
         -0.0145725412294
         -0.0145699298009
         -0.0145673174411
         -0.0145647060126
         -0.0145620936528
         -0.014559481293
         -0.0145568698645
         -0.0145542575046
         -0.0145516460761
         -0.0145490337163
         -0.0145464222878
         -0.014543809928
         -0.0145411984995
         -0.0145385861397
         -0.0145359747112
         -0.0145333623514
         -0.0145307509229
         -0.014528138563
         -0.0145255262032
         -0.0145229147747
         -0.0145203024149
         -0.0145176909864
         -0.0145150786266
         -0.0145124671981
         -0.0145098548383
         -0.0145072434098
         -0.0145046310499
         -0.0145020196214
         -0.0144994072616
         -0.0144967949018
         -0.0144941834733
         -0.0144915711135
         -0.014488959685
         -0.0144863473251
         -0.0144837358966
         -0.0144811235368
         -0.0144785121083
         -0.0144758997485
         -0.01447328832
         -0.0144706759602
         -0.0144680636004
         -0.0144654521719
         -0.014462839812
         -0.0144602283835
         -0.0144576160237
         -0.0144550045952
         -0.0144523922354
         -0.0144497808069
         -0.0144471684471
         -0.0144445570186
         -0.0144419446588
         -0.0144393322989
         -0.0144367208704
         -0.0144341085106
         -0.0144314970821
         -0.0144288847223
         -0.0144262732938
         -0.014423660934
         -0.0144210495055
         -0.0144184371457
         -0.0144158257172
         -0.0144132133573
         -0.0144106009975
         -0.014407989569
         -0.0144053772092
         -0.0144027657807
         -0.0144001534209
         -0.0143975419924
         -0.0143949296325
         -0.014392318204
         -0.0143897058442
         -0.0143870944157
         -0.0143844820559
         -0.0143818696961
         -0.0143792582676
         -0.0143766459078
         -0.0143740344793
         -0.0143714221194
         -0.0143688106909
         -0.0143661983311
         -0.0143635869026
         -0.0143609745428
         -0.0143583631143
         -0.0143557507545
         -0.014353139326
         -0.0143505269662
         -0.0143479146063
         -0.0143453031778
         -0.014342690818
         -0.0143400793895
         -0.0143374670297
         -0.0143348556012
         -0.0143322432414
         -0.0143296318129
         -0.014327019453
         -0.0143244080245
         -0.0143217956647
         -0.0143191833049
         -0.0143165718764
         -0.0143139595166
         -0.0143113480881
         -0.0143087357283
         -0.0143061242998
         -0.0143035119399
         -0.0143009005114
         -0.0142982881516
         -0.0142956767231
         -0.0142930643633
         -0.0142904520035
         -0.014287840575
         -0.0142852282152
         -0.0142826167867
         -0.0142800044268
         -0.0142773929983
         -0.0142747806385
         -0.01427216921
         -0.0142695568502
         -0.0142669454217
         -0.0142643330619
         -0.0142617207021
         -0.0142591092736
         -0.0142564969137
         -0.0142538854852
         -0.0142512731254
         -0.0142486616969
         -0.0142460493371
         -0.0142434379086
         -0.0142408255488
         -0.0142382141203
         -0.0142356017604
         -0.0142329894006
         -0.0142303779721
         -0.0142277656123
         -0.0142251541838
         -0.014222541824
         -0.0142199303955
         -0.0142173180357
         -0.0142147066072
         -0.0142120942473
         -0.0142094828188
         -0.014206870459
         -0.0142042580992
         -0.0142016466707
         -0.0141990343109
         -0.0141964228824
         -0.0141938105226
         -0.0141911990941
         -0.0141885867342
         -0.0141859753057
         -0.0141833629459
         -0.0141807515174
         -0.0141781391576
         -0.0141755277291
         -0.0141729153693
         -0.0141703030095
         -0.014167691581
         -0.0141650792211
         -0.0141624677926
         -0.0141598554328
         -0.0141572440043
         -0.0141546316445
         -0.014152020216
         -0.0141494078562
         -0.0141467964277
         -0.0141441840678
         -0.014141571708
         -0.0141389602795
         -0.0141363479197
         -0.0141337364912
         -0.0141311241314
         -0.0141285127029
         -0.0141259003431
         -0.0141232889146
         -0.0141206765547
         -0.0141180651262
         -0.0141154527664
         -0.0141128404066
         -0.0141102289781
         -0.0141076166183
         -0.0141050051898
         -0.01410239283
         -0.0140997814015
         -0.0140971690416
         -0.0140945576131
         -0.0140919452533
         -0.0140893338248
         -0.014086721465
         -0.0140841091052
         -0.0140814976767
         -0.0140788853168
         -0.0140762738883
         -0.0140736615285
         -0.0140710501
         -0.0140684377402
         -0.0140658263117
         -0.0140632139519
         -0.0140606025234
         -0.0140579901636
         -0.0140553778037
         -0.0140527663752
         -0.0140501540154
         -0.0140475425869
         -0.0140449302271
         -0.0140423187986
         -0.0140397064388
         -0.0140370950103
         -0.0140344826505
         -0.014031871222
         -0.0140292588621
         -0.0140266465023
         -0.0140240350738
         -0.014021422714
         -0.0140188112855
         -0.0140161989257
         -0.0140135874972
         -0.0140109751374
         -0.0140083637089
         -0.014005751349
         -0.0140031399205
         -0.0140005275607
         -0.0139979161322
         -0.0139953037724
         -0.0139926914126
         -0.0139900799841
         -0.0139874676242
         -0.0139848561957
         -0.0139822438359
         -0.0139796324074
         -0.0139770200476
         -0.0139744086191
         -0.0139717962593
         -0.0139691848308
         -0.013966572471
         -0.0139639601111
         -0.0139613486826
         -0.0139587363228
         -0.0139561248943
         -0.0139535125345
         -0.013950901106
         -0.0139482887462
         -0.0139456773177
         -0.0139430649579
         -0.0139404535294
         -0.0139378411695
         -0.0139352288097
         -0.0139326173812
         -0.0139300050214
         -0.0139273935929
         -0.0139247812331
         -0.0139221698046
         -0.0139195574448
         -0.0139169460163
         -0.0139143336564
         -0.0139117222279
         -0.0139091098681
         -0.0139064975083
         -0.0139038860798
         -0.01390127372
         -0.0138986622915
         -0.0138960499316
         -0.0138934385031
         -0.0138908261433
         -0.0138882147148
         -0.013885602355
         -0.0138829909265
         -0.0138803785667
         -0.0138777662069
         -0.0138751547784
         -0.0138725424185
         -0.01386993099
         -0.0138673186302
         -0.0138647072017
         -0.0138620948419
         -0.0138594834134
         -0.0138568710536
         -0.0138542596251
         -0.0138516472653
         -0.0138490349054
         -0.0138464234769
         -0.0138438111171
         -0.0138411996886
         -0.0138385873288
         -0.0138359759003
         -0.0138333635405
         -0.013830752112
         -0.0138281397521
         -0.0138255283237
         -0.0138229159638
         -0.0138203045353
         -0.0138176921755
         -0.0138150798157
         -0.0138124683872
         -0.0138098560274
         -0.0138072445989
         -0.013804632239
         -0.0138020208105
         -0.0137994084507
         -0.0137967970222
         -0.0137941846624
         -0.0137915732339
         -0.0137889608741
         -0.0137863485143
         -0.0137837370858
         -0.0137811247259
         -0.0137785132974
         -0.0137759009376
         -0.0137732895091
         -0.0137706771493
         -0.0137680657208
         -0.013765453361
         -0.0137628419325
         -0.0137602295727
         -0.0137576172128
         -0.0137550057843
         -0.0137523934245
         -0.013749781996
         -0.0137471696362
         -0.0137445582077
         -0.0137419458479
         -0.0137393344194
         -0.0137367220595
         -0.013734110631
         -0.0137314982712
         -0.0137288859114
         -0.0137262744829
         -0.0137236621231
         -0.0137210506946
         -0.0137184383348
         -0.0137158269063
         -0.0137132145464
         -0.0137106031179
         -0.0137079907581
         -0.0137053793296
         -0.0137027669698
         -0.01370015461
         -0.0136975431815
         -0.0136949308217
         -0.0136923193932
         -0.0136897070333
         -0.0136870956048
         -0.013684483245
         -0.0136818718165
         -0.0136792594567
         -0.0136766480282
         -0.0136740356684
         -0.0136714233086
         -0.0136688118801
         -0.0136661995202
         -0.0136635880917
         -0.0136609757319
         -0.0136583643034
         -0.0136557519436
         -0.0136531405151
         -0.0136505281553
         -0.0136479167268
         -0.0136453043669
         -0.0136426920071
         -0.0136400805786
         -0.0136374682188
         -0.0136348567903
         -0.0136322444305
         -0.013629633002
         -0.0136270206422
         -0.0136244092137
         -0.0136217968538
         -0.0136191854253
         -0.0136165730655
         -0.013613961637
         -0.0136113492772
         -0.0136087369174
         -0.0136061254889
         -0.0136035131291
         -0.0136009017006
         -0.0135982893407
         -0.0135956779122
         -0.0135930655524
         -0.0135904541239
         -0.0135878417641
         -0.0135852303356
         -0.0135826179758
         -0.0135800056159
         -0.0135773941875
         -0.0135747818276
         -0.0135721703991
         -0.0135695580393
         -0.0135669466108
         -0.013564334251
         -0.0135617228225
         -0.0135591104627
         -0.0135564990342
         -0.0135538866743
         -0.0135512743145
         -0.013548662886
         -0.0135460505262
         -0.0135434390977
         -0.0135408267379
         -0.0135382153094
         -0.0135356029496
         -0.0135329915211
         -0.0135303791612
         -0.0135277677327
         -0.0135251553729
         -0.0135225430131
         -0.0135199315846
         -0.0135173192248
         -0.0135147077963
         -0.0135120954365
         -0.013509484008
         -0.0135068716481
         -0.0135042602196
         -0.0135016478598
         -0.0134990364313
         -0.0134964240715
         -0.0134938117117
         -0.0134912002832
         -0.0134885879233
         -0.0134859764948
         -0.013483364135
         -0.0134807527065
         -0.0134781403467
         -0.0134755289182
         -0.0134729165584
         -0.0134703051299
