aces_1.0.3/luts/V3_LogC_2000_to_linear.spi1d
Version 1
From 0.000000 1.000000
Length 65536
Components 1
{
         -0.0182103905827
         -0.0182073973119
         -0.0182044040412
         -0.0182014107704
         -0.0181984174997
         -0.0181954242289
         -0.0181924309582
         -0.0181894376874
         -0.0181864444166
         -0.0181834511459
         -0.0181804560125
         -0.0181774627417
         -0.018174469471
         -0.0181714762002
         -0.0181684829295
         -0.0181654896587
         -0.018162496388
         -0.0181595031172
         -0.0181565098464
         -0.0181535165757
         -0.0181505233049
         -0.0181475300342
         -0.0181445367634
         -0.0181415434927
         -0.0181385502219
         -0.0181355569512
         -0.0181325636804
         -0.018129568547
         -0.0181265752763
         -0.0181235820055
         -0.0181205887347
         -0.018117595464
         -0.0181146021932
         -0.0181116089225
         -0.0181086156517
         -0.018105622381
         -0.0181026291102
         -0.0180996358395
         -0.0180966425687
         -0.018093649298
         -0.0180906560272
         -0.0180876627564
         -0.0180846694857
         -0.0180816743523
         -0.0180786810815
         -0.0180756878108
         -0.01807269454
         -0.0180697012693
         -0.0180667079985
         -0.0180637147278
         -0.018060721457
         -0.0180577281862
         -0.0180547349155
         -0.0180517416447
         -0.018048748374
         -0.0180457551032
         -0.0180427618325
         -0.0180397685617
         -0.018036775291
         -0.0180337801576
         -0.0180307868868
         -0.0180277936161
         -0.0180248003453
         -0.0180218070745
         -0.0180188138038
         -0.018015820533
         -0.0180128272623
         -0.0180098339915
         -0.0180068407208
         -0.01800384745
         -0.0180008541793
         -0.0179978609085
         -0.0179948676378
         -0.017991874367
         -0.0179888810962
         -0.0179858859628
         -0.0179828926921
         -0.0179798994213
         -0.0179769061506
         -0.0179739128798
         -0.0179709196091
         -0.0179679263383
         -0.0179649330676
         -0.0179619397968
         -0.0179589465261
         -0.0179559532553
         -0.0179529599845
         -0.0179499667138
         -0.017946973443
         -0.0179439801723
         -0.0179409869015
         -0.0179379917681
         -0.0179349984974
         -0.0179320052266
         -0.0179290119559
         -0.0179260186851
         -0.0179230254143
         -0.0179200321436
         -0.0179170388728
         -0.0179140456021
         -0.0179110523313
         -0.0179080590606
         -0.0179050657898
         -0.0179020725191
         -0.0178990792483
         -0.0178960859776
         -0.0178930927068
         -0.0178900975734
         -0.0178871043026
         -0.0178841110319
         -0.0178811177611
         -0.0178781244904
         -0.0178751312196
         -0.0178721379489
         -0.0178691446781
         -0.0178661514074
         -0.0178631581366
         -0.0178601648659
         -0.0178571715951
         -0.0178541783243
         -0.0178511850536
         -0.0178481917828
         -0.0178451985121
         -0.0178422033787
         -0.0178392101079
         -0.0178362168372
         -0.0178332235664
         -0.0178302302957
         -0.0178272370249
         -0.0178242437541
         -0.0178212504834
         -0.0178182572126
         -0.0178152639419
         -0.0178122706711
         -0.0178092774004
         -0.0178062841296
         -0.0178032908589
         -0.0178002975881
         -0.0177973043174
         -0.017794309184
         -0.0177913159132
         -0.0177883226424
         -0.0177853293717
         -0.0177823361009
         -0.0177793428302
         -0.0177763495594
         -0.0177733562887
         -0.0177703630179
         -0.0177673697472
         -0.0177643764764
         -0.0177613832057
         -0.0177583899349
         -0.0177553966641
         -0.0177524033934
         -0.0177494101226
         -0.0177464149892
         -0.0177434217185
         -0.0177404284477
         -0.017737435177
         -0.0177344419062
         -0.0177314486355
         -0.0177284553647
         -0.0177254620939
         -0.0177224688232
         -0.0177194755524
         -0.0177164822817
         -0.0177134890109
         -0.0177104957402
         -0.0177075024694
         -0.0177045091987
         -0.0177015159279
         -0.0176985207945
         -0.0176955275238
         -0.017692534253
         -0.0176895409822
         -0.0176865477115
         -0.0176835544407
         -0.01768056117
         -0.0176775678992
         -0.0176745746285
         -0.0176715813577
         -0.017668588087
         -0.0176655948162
         -0.0176626015455
         -0.0176596082747
         -0.0176566150039
         -0.0176536217332
         -0.0176506265998
         -0.017647633329
         -0.0176446400583
         -0.0176416467875
         -0.0176386535168
         -0.017635660246
         -0.0176326669753
         -0.0176296737045
         -0.0176266804338
         -0.017623687163
         -0.0176206938922
         -0.0176177006215
         -0.0176147073507
         -0.01761171408
         -0.0176087208092
         -0.0176057275385
         -0.0176027324051
         -0.0175997391343
         -0.0175967458636
         -0.0175937525928
         -0.017590759322
         -0.0175877660513
         -0.0175847727805
         -0.0175817795098
         -0.017578786239
         -0.0175757929683
         -0.0175727996975
         -0.0175698064268
         -0.017566813156
         -0.0175638198853
         -0.0175608266145
         -0.0175578333437
         -0.0175548382103
         -0.0175518449396
         -0.0175488516688
         -0.0175458583981
         -0.0175428651273
         -0.0175398718566
         -0.0175368785858
         -0.0175338853151
         -0.0175308920443
         -0.0175278987736
         -0.0175249055028
         -0.017521912232
         -0.0175189189613
         -0.0175159256905
         -0.0175129324198
         -0.017509939149
         -0.0175069440156
         -0.0175039507449
         -0.0175009574741
         -0.0174979642034
         -0.0174949709326
         -0.0174919776618
         -0.0174889843911
         -0.0174859911203
         -0.0174829978496
         -0.0174800045788
         -0.0174770113081
         -0.0174740180373
         -0.0174710247666
         -0.0174680314958
         -0.0174650382251
         -0.0174620449543
         -0.0174590516835
         -0.0174560565501
         -0.0174530632794
         -0.0174500700086
         -0.0174470767379
         -0.0174440834671
         -0.0174410901964
         -0.0174380969256
         -0.0174351036549
         -0.0174321103841
         -0.0174291171134
         -0.0174261238426
         -0.0174231305718
         -0.0174201373011
         -0.0174171440303
         -0.0174141507596
         -0.0174111574888
         -0.0174081623554
         -0.0174051690847
         -0.0174021758139
         -0.0173991825432
         -0.0173961892724
         -0.0173931960016
         -0.0173902027309
         -0.0173872094601
         -0.0173842161894
         -0.0173812229186
         -0.0173782296479
         -0.0173752363771
         -0.0173722431064
         -0.0173692498356
         -0.0173662565649
         -0.0173632632941
         -0.0173602681607
         -0.0173572748899
         -0.0173542816192
         -0.0173512883484
         -0.0173482950777
         -0.0173453018069
         -0.0173423085362
         -0.0173393152654
         -0.0173363219947
         -0.0173333287239
         -0.0173303354532
         -0.0173273421824
         -0.0173243489116
         -0.0173213556409
         -0.0173183623701
         -0.0173153690994
         -0.017312373966
         -0.0173093806952
         -0.0173063874245
         -0.0173033941537
         -0.017300400883
         -0.0172974076122
         -0.0172944143414
         -0.0172914210707
         -0.0172884277999
         -0.0172854345292
         -0.0172824412584
         -0.0172794479877
         -0.0172764547169
         -0.0172734614462
         -0.0172704681754
         -0.0172674749047
         -0.0172644797713
         -0.0172614865005
         -0.0172584932297
         -0.017255499959
         -0.0172525066882
         -0.0172495134175
         -0.0172465201467
         -0.017243526876
         -0.0172405336052
         -0.0172375403345
         -0.0172345470637
         -0.017231553793
         -0.0172285605222
         -0.0172255672514
         -0.0172225739807
         -0.0172195807099
         -0.0172165855765
         -0.0172135923058
         -0.017210599035
         -0.0172076057643
         -0.0172046124935
         -0.0172016192228
         -0.017198625952
         -0.0171956326813
         -0.0171926394105
         -0.0171896461397
         -0.017186652869
         -0.0171836595982
         -0.0171806663275
         -0.0171776730567
         -0.017174679786
         -0.0171716865152
         -0.0171686913818
         -0.0171656981111
         -0.0171627048403
         -0.0171597115695
         -0.0171567182988
         -0.017153725028
         -0.0171507317573
         -0.0171477384865
         -0.0171447452158
         -0.017141751945
         -0.0171387586743
         -0.0171357654035
         -0.0171327721328
         -0.017129778862
         -0.0171267855912
         -0.0171237923205
         -0.0171207971871
         -0.0171178039163
         -0.0171148106456
         -0.0171118173748
         -0.0171088241041
         -0.0171058308333
         -0.0171028375626
         -0.0170998442918
         -0.0170968510211
         -0.0170938577503
         -0.0170908644795
         -0.0170878712088
         -0.017084877938
         -0.0170818846673
         -0.0170788913965
         -0.0170758981258
         -0.0170729029924
         -0.0170699097216
         -0.0170669164509
         -0.0170639231801
         -0.0170609299093
         -0.0170579366386
         -0.0170549433678
         -0.0170519500971
         -0.0170489568263
         -0.0170459635556
         -0.0170429702848
         -0.0170399770141
         -0.0170369837433
         -0.0170339904726
         -0.0170309972018
         -0.017028003931
         -0.0170250087976
         -0.0170220155269
         -0.0170190222561
         -0.0170160289854
         -0.0170130357146
         -0.0170100424439
         -0.0170070491731
         -0.0170040559024
         -0.0170010626316
         -0.0169980693609
         -0.0169950760901
         -0.0169920828193
         -0.0169890895486
         -0.0169860962778
         -0.0169831030071
         -0.0169801097363
         -0.0169771146029
         -0.0169741213322
         -0.0169711280614
         -0.0169681347907
         -0.0169651415199
         -0.0169621482491
         -0.0169591549784
         -0.0169561617076
         -0.0169531684369
         -0.0169501751661
         -0.0169471818954
         -0.0169441886246
         -0.0169411953539
         -0.0169382020831
         -0.0169352088124
         -0.0169322155416
         -0.0169292204082
         -0.0169262271374
         -0.0169232338667
         -0.0169202405959
         -0.0169172473252
         -0.0169142540544
         -0.0169112607837
         -0.0169082675129
         -0.0169052742422
         -0.0169022809714
         -0.0168992877007
         -0.0168962944299
         -0.0168933011591
         -0.0168903078884
         -0.0168873146176
         -0.0168843213469
         -0.0168813262135
         -0.0168783329427
         -0.016875339672
         -0.0168723464012
         -0.0168693531305
         -0.0168663598597
         -0.016863366589
         -0.0168603733182
         -0.0168573800474
         -0.0168543867767
         -0.0168513935059
         -0.0168484002352
         -0.0168454069644
         -0.0168424136937
         -0.0168394204229
         -0.0168364271522
         -0.0168334320188
         -0.016830438748
         -0.0168274454772
         -0.0168244522065
         -0.0168214589357
         -0.016818465665
         -0.0168154723942
         -0.0168124791235
         -0.0168094858527
         -0.016806492582
         -0.0168034993112
         -0.0168005060405
         -0.0167975127697
         -0.0167945194989
         -0.0167915262282
         -0.0167885329574
         -0.0167855396867
         -0.0167825445533
         -0.0167795512825
         -0.0167765580118
         -0.016773564741
         -0.0167705714703
         -0.0167675781995
         -0.0167645849288
         -0.016761591658
         -0.0167585983872
         -0.0167556051165
         -0.0167526118457
         -0.016749618575
         -0.0167466253042
         -0.0167436320335
         -0.0167406387627
         -0.016737645492
         -0.0167346503586
         -0.0167316570878
         -0.016728663817
         -0.0167256705463
         -0.0167226772755
         -0.0167196840048
         -0.016716690734
         -0.0167136974633
         -0.0167107041925
         -0.0167077109218
         -0.016704717651
         -0.0167017243803
         -0.0166987311095
         -0.0166957378387
         -0.016692744568
         -0.0166897512972
         -0.0166867561638
         -0.0166837628931
         -0.0166807696223
         -0.0166777763516
         -0.0166747830808
         -0.0166717898101
         -0.0166687965393
         -0.0166658032686
         -0.0166628099978
         -0.016659816727
         -0.0166568234563
         -0.0166538301855
         -0.0166508369148
         -0.016647843644
         -0.0166448503733
         -0.0166418571025
         -0.0166388619691
         -0.0166358686984
         -0.0166328754276
         -0.0166298821568
         -0.0166268888861
         -0.0166238956153
         -0.0166209023446
         -0.0166179090738
         -0.0166149158031
         -0.0166119225323
         -0.0166089292616
         -0.0166059359908
         -0.0166029427201
         -0.0165999494493
         -0.0165969561785
         -0.0165939629078
         -0.0165909677744
         -0.0165879745036
         -0.0165849812329
         -0.0165819879621
         -0.0165789946914
         -0.0165760014206
         -0.0165730081499
         -0.0165700148791
         -0.0165670216084
         -0.0165640283376
         -0.0165610350668
         -0.0165580417961
         -0.0165550485253
         -0.0165520552546
         -0.0165490619838
         -0.0165460687131
         -0.0165430735797
         -0.0165400803089
         -0.0165370870382
         -0.0165340937674
         -0.0165311004966
         -0.0165281072259
         -0.0165251139551
         -0.0165221206844
         -0.0165191274136
         -0.0165161341429
         -0.0165131408721
         -0.0165101476014
         -0.0165071543306
         -0.0165041610599
         -0.0165011677891
         -0.0164981745183
         -0.0164951793849
         -0.0164921861142
         -0.0164891928434
         -0.0164861995727
         -0.0164832063019
         -0.0164802130312
         -0.0164772197604
         -0.0164742264897
         -0.0164712332189
         -0.0164682399482
         -0.0164652466774
         -0.0164622534066
         -0.0164592601359
         -0.0164562668651
         -0.0164532735944
         -0.0164502803236
         -0.0164472851902
         -0.0164442919195
         -0.0164412986487
         -0.016438305378
         -0.0164353121072
         -0.0164323188365
         -0.0164293255657
         -0.0164263322949
         -0.0164233390242
         -0.0164203457534
         -0.0164173524827
         -0.0164143592119
         -0.0164113659412
         -0.0164083726704
         -0.0164053793997
         -0.0164023861289
         -0.0163993909955
         -0.0163963977247
         -0.016393404454
         -0.0163904111832
         -0.0163874179125
         -0.0163844246417
         -0.016381431371
         -0.0163784381002
         -0.0163754448295
         -0.0163724515587
         -0.016369458288
         -0.0163664650172
         -0.0163634717464
         -0.0163604784757
         -0.0163574852049
         -0.0163544919342
         -0.0163514968008
         -0.01634850353
         -0.0163455102593
         -0.0163425169885
         -0.0163395237178
         -0.016336530447
         -0.0163335371763
         -0.0163305439055
         -0.0163275506347
         -0.016324557364
         -0.0163215640932
         -0.0163185708225
         -0.0163155775517
         -0.016312584281
         -0.0163095910102
         -0.0163065977395
         -0.0163036026061
         -0.0163006093353
         -0.0162976160645
         -0.0162946227938
         -0.016291629523
         -0.0162886362523
         -0.0162856429815
         -0.0162826497108
         -0.01627965644
         -0.0162766631693
         -0.0162736698985
         -0.0162706766278
         -0.016267683357
         -0.0162646900862
         -0.0162616968155
         -0.0162587035447
         -0.0162557084113
         -0.0162527151406
         -0.0162497218698
         -0.0162467285991
         -0.0162437353283
         -0.0162407420576
         -0.0162377487868
         -0.0162347555161
         -0.0162317622453
         -0.0162287689745
         -0.0162257757038
         -0.016222782433
         -0.0162197891623
         -0.0162167958915
         -0.0162138026208
         -0.01621080935
         -0.0162078142166
         -0.0162048209459
         -0.0162018276751
         -0.0161988344043
         -0.0161958411336
         -0.0161928478628
         -0.0161898545921
         -0.0161868613213
         -0.0161838680506
         -0.0161808747798
         -0.0161778815091
         -0.0161748882383
         -0.0161718949676
         -0.0161689016968
         -0.016165908426
         -0.0161629151553
         -0.0161599218845
         -0.0161569267511
         -0.0161539334804
         -0.0161509402096
         -0.0161479469389
         -0.0161449536681
         -0.0161419603974
         -0.0161389671266
         -0.0161359738559
         -0.0161329805851
         -0.0161299873143
         -0.0161269940436
         -0.0161240007728
         -0.0161210075021
         -0.0161180142313
         -0.0161150209606
         -0.0161120276898
         -0.0161090325564
         -0.0161060392857
         -0.0161030460149
         -0.0161000527442
         -0.0160970594734
         -0.0160940662026
         -0.0160910729319
         -0.0160880796611
         -0.0160850863904
         -0.0160820931196
         -0.0160790998489
         -0.0160761065781
         -0.0160731133074
         -0.0160701200366
         -0.0160671267658
         -0.0160641334951
         -0.0160611383617
         -0.0160581450909
         -0.0160551518202
         -0.0160521585494
         -0.0160491652787
         -0.0160461720079
         -0.0160431787372
         -0.0160401854664
         -0.0160371921957
         -0.0160341989249
         -0.0160312056541
         -0.0160282123834
         -0.0160252191126
         -0.0160222258419
         -0.0160192325711
         -0.0160162393004
         -0.016013244167
         -0.0160102508962
         -0.0160072576255
         -0.0160042643547
         -0.016001271084
         -0.0159982778132
         -0.0159952845424
         -0.0159922912717
         -0.0159892980009
         -0.0159863047302
         -0.0159833114594
         -0.0159803181887
         -0.0159773249179
         -0.0159743316472
         -0.0159713383764
         -0.0159683451056
         -0.0159653499722
         -0.0159623567015
         -0.0159593634307
         -0.01595637016
         -0.0159533768892
         -0.0159503836185
         -0.0159473903477
         -0.015944397077
         -0.0159414038062
         -0.0159384105355
         -0.0159354172647
         -0.0159324239939
         -0.0159294307232
         -0.0159264374524
         -0.0159234441817
         -0.0159204509109
         -0.0159174557775
         -0.0159144625068
         -0.015911469236
         -0.0159084759653
         -0.0159054826945
         -0.0159024894238
         -0.015899496153
         -0.0158965028822
         -0.0158935096115
         -0.0158905163407
         -0.01588752307
         -0.0158845297992
         -0.0158815365285
         -0.0158785432577
         -0.015875549987
         -0.0158725567162
         -0.0158695615828
         -0.015866568312
         -0.0158635750413
         -0.0158605817705
         -0.0158575884998
         -0.015854595229
         -0.0158516019583
         -0.0158486086875
         -0.0158456154168
         -0.015842622146
         -0.0158396288753
         -0.0158366356045
         -0.0158336423337
         -0.015830649063
         -0.0158276557922
         -0.0158246625215
         -0.0158216673881
         -0.0158186741173
         -0.0158156808466
         -0.0158126875758
         -0.0158096943051
         -0.0158067010343
         -0.0158037077636
         -0.0158007144928
         -0.015797721222
         -0.0157947279513
         -0.0157917346805
         -0.0157887414098
         -0.015785748139
         -0.0157827548683
         -0.0157797615975
         -0.0157767683268
         -0.0157737731934
         -0.0157707799226
         -0.0157677866518
         -0.0157647933811
         -0.0157618001103
         -0.0157588068396
         -0.0157558135688
         -0.0157528202981
         -0.0157498270273
         -0.0157468337566
         -0.0157438404858
         -0.0157408472151
         -0.0157378539443
         -0.0157348606735
         -0.0157318674028
         -0.015728874132
         -0.0157258789986
         -0.0157228857279
         -0.0157198924571
         -0.0157168991864
         -0.0157139059156
         -0.0157109126449
         -0.0157079193741
         -0.0157049261034
         -0.0157019328326
         -0.0156989395618
         -0.0156959462911
         -0.0156929530203
         -0.0156899597496
         -0.0156869664788
         -0.0156839732081
         -0.0156809799373
         -0.0156779848039
         -0.0156749915332
         -0.0156719982624
         -0.0156690049917
         -0.0156660117209
         -0.0156630184501
         -0.0156600251794
         -0.0156570319086
         -0.0156540386379
         -0.0156510453671
         -0.0156480520964
         -0.0156450588256
         -0.0156420655549
         -0.0156390722841
         -0.0156360790133
         -0.0156330857426
         -0.0156300906092
         -0.0156270973384
         -0.015624104999
         -0.0156211117283
         -0.0156181175262
         -0.0156151242554
         -0.0156121309847
         -0.0156091377139
         -0.0156061444432
         -0.0156031511724
         -0.0156001579016
         -0.0155971646309
         -0.0155941704288
         -0.0155911771581
         -0.0155881838873
         -0.0155851906165
         -0.0155821973458
         -0.015579204075
         -0.0155762108043
         -0.0155732175335
         -0.0155702233315
         -0.0155672300607
         -0.0155642367899
         -0.0155612435192
         -0.0155582502484
         -0.0155552569777
         -0.0155522637069
         -0.0155492704362
         -0.0155462762341
         -0.0155432829633
         -0.0155402896926
         -0.0155372964218
         -0.0155343031511
         -0.0155313098803
         -0.0155283166096
         -0.0155253233388
         -0.0155223300681
         -0.015519335866
         -0.0155163425952
         -0.0155133493245
         -0.0155103560537
         -0.015507362783
         -0.0155043695122
         -0.0155013762414
         -0.0154983829707
         -0.0154953887686
         -0.0154923954979
         -0.0154894022271
         -0.0154864089563
         -0.0154834156856
         -0.0154804224148
         -0.0154774291441
         -0.0154744358733
         -0.0154714416713
         -0.0154684484005
         -0.0154654551297
         -0.015462461859
         -0.0154594685882
         -0.0154564753175
         -0.0154534820467
         -0.015450488776
         -0.0154474945739
