aces_1.0.3/luts/V3_LogC_500_to_linear.spi1d
Version 1
From 0.000000 1.000000
Length 65536
Components 1
{
         -0.0168537404388
         -0.0168509688228
         -0.0168481990695
         -0.0168454274535
         -0.0168426558375
         -0.0168398842216
         -0.0168371126056
         -0.0168343428522
         -0.0168315712363
         -0.0168287996203
         -0.0168260280043
         -0.0168232563883
         -0.016820486635
         -0.016817715019
         -0.016814943403
         -0.016812171787
         -0.016809400171
         -0.0168066304177
         -0.0168038588017
         -0.0168010871857
         -0.0167983155698
         -0.0167955439538
         -0.0167927742004
         -0.0167900025845
         -0.0167872309685
         -0.0167844593525
         -0.0167816877365
         -0.0167789161205
         -0.0167761463672
         -0.0167733747512
         -0.0167706031352
         -0.0167678315192
         -0.0167650599033
         -0.0167622901499
         -0.0167595185339
         -0.016756746918
         -0.016753975302
         -0.016751203686
         -0.0167484339327
         -0.0167456623167
         -0.0167428907007
         -0.0167401190847
         -0.0167373474687
         -0.0167345777154
         -0.0167318060994
         -0.0167290344834
         -0.0167262628675
         -0.0167234912515
         -0.0167207214981
         -0.0167179498821
         -0.0167151782662
         -0.0167124066502
         -0.0167096350342
         -0.0167068652809
         -0.0167040936649
         -0.0167013220489
         -0.0166985504329
         -0.0166957788169
         -0.0166930090636
         -0.0166902374476
         -0.0166874658316
         -0.0166846942157
         -0.0166819225997
         -0.0166791528463
         -0.0166763812304
         -0.0166736096144
         -0.0166708379984
         -0.0166680663824
         -0.0166652966291
         -0.0166625250131
         -0.0166597533971
         -0.0166569817811
         -0.0166542101651
         -0.0166514404118
         -0.0166486687958
         -0.0166458971798
         -0.0166431255639
         -0.0166403539479
         -0.0166375841945
         -0.0166348125786
         -0.0166320409626
         -0.0166292693466
         -0.0166264977306
         -0.0166237279773
         -0.0166209563613
         -0.0166181847453
         -0.0166154131293
         -0.0166126415133
         -0.0166098698974
         -0.016607100144
         -0.016604328528
         -0.0166015569121
         -0.0165987852961
         -0.0165960136801
         -0.0165932439268
         -0.0165904723108
         -0.0165877006948
         -0.0165849290788
         -0.0165821574628
         -0.0165793877095
         -0.0165766160935
         -0.0165738444775
         -0.0165710728616
         -0.0165683012456
         -0.0165655314922
         -0.0165627598763
         -0.0165599882603
         -0.0165572166443
         -0.0165544450283
         -0.016551675275
         -0.016548903659
         -0.016546132043
         -0.016543360427
         -0.016540588811
         -0.0165378190577
         -0.0165350474417
         -0.0165322758257
         -0.0165295042098
         -0.0165267325938
         -0.0165239628404
         -0.0165211912245
         -0.0165184196085
         -0.0165156479925
         -0.0165128763765
         -0.0165101066232
         -0.0165073350072
         -0.0165045633912
         -0.0165017917752
         -0.0164990201592
         -0.0164962504059
         -0.0164934787899
         -0.0164907071739
         -0.016487935558
         -0.016485163942
         -0.0164823941886
         -0.0164796225727
         -0.0164768509567
         -0.0164740793407
         -0.0164713077247
         -0.0164685379714
         -0.0164657663554
         -0.0164629947394
         -0.0164602231234
         -0.0164574515074
         -0.0164546817541
         -0.0164519101381
         -0.0164491385221
         -0.0164463669062
         -0.0164435952902
         -0.0164408236742
         -0.0164380539209
         -0.0164352823049
         -0.0164325106889
         -0.0164297390729
         -0.0164269674569
         -0.0164241977036
         -0.0164214260876
         -0.0164186544716
         -0.0164158828557
         -0.0164131112397
         -0.0164103414863
         -0.0164075698704
         -0.0164047982544
         -0.0164020266384
         -0.0163992550224
         -0.0163964852691
         -0.0163937136531
         -0.0163909420371
         -0.0163881704211
         -0.0163853988051
         -0.0163826290518
         -0.0163798574358
         -0.0163770858198
         -0.0163743142039
         -0.0163715425879
         -0.0163687728345
         -0.0163660012186
         -0.0163632296026
         -0.0163604579866
         -0.0163576863706
         -0.0163549166173
         -0.0163521450013
         -0.0163493733853
         -0.0163466017693
         -0.0163438301533
         -0.0163410604
         -0.016338288784
         -0.016335517168
         -0.0163327455521
         -0.0163299739361
         -0.0163272041827
         -0.0163244325668
         -0.0163216609508
         -0.0163188893348
         -0.0163161177188
         -0.0163133479655
         -0.0163105763495
         -0.0163078047335
         -0.0163050331175
         -0.0163022615016
         -0.0162994917482
         -0.0162967201322
         -0.0162939485162
         -0.0162911769003
         -0.0162884052843
         -0.0162856355309
         -0.016282863915
         -0.016280092299
         -0.016277320683
         -0.016274549067
         -0.016271777451
         -0.0162690076977
         -0.0162662360817
         -0.0162634644657
         -0.0162606928498
         -0.0162579212338
         -0.0162551514804
         -0.0162523798645
         -0.0162496082485
         -0.0162468366325
         -0.0162440650165
         -0.0162412952632
         -0.0162385236472
         -0.0162357520312
         -0.0162329804152
         -0.0162302087992
         -0.0162274390459
         -0.0162246674299
         -0.0162218958139
         -0.016219124198
         -0.016216352582
         -0.0162135828286
         -0.0162108112127
         -0.0162080395967
         -0.0162052679807
         -0.0162024963647
         -0.0161997266114
         -0.0161969549954
         -0.0161941833794
         -0.0161914117634
         -0.0161886401474
         -0.0161858703941
         -0.0161830987781
         -0.0161803271621
         -0.0161775555462
         -0.0161747839302
         -0.0161720141768
         -0.0161692425609
         -0.0161664709449
         -0.0161636993289
         -0.0161609277129
         -0.0161581579596
         -0.0161553863436
         -0.0161526147276
         -0.0161498431116
         -0.0161470714957
         -0.0161443017423
         -0.0161415301263
         -0.0161387585104
         -0.0161359868944
         -0.0161332152784
         -0.0161304455251
         -0.0161276739091
         -0.0161249022931
         -0.0161221306771
         -0.0161193590611
         -0.0161165893078
         -0.0161138176918
         -0.0161110460758
         -0.0161082744598
         -0.0161055028439
         -0.0161027330905
         -0.0160999614745
         -0.0160971898586
         -0.0160944182426
         -0.0160916466266
         -0.0160888750106
         -0.0160861052573
         -0.0160833336413
         -0.0160805620253
         -0.0160777904093
         -0.0160750187933
         -0.01607224904
         -0.016069477424
         -0.016066705808
         -0.0160639341921
         -0.0160611625761
         -0.0160583928227
         -0.0160556212068
         -0.0160528495908
         -0.0160500779748
         -0.0160473063588
         -0.0160445366055
         -0.0160417649895
         -0.0160389933735
         -0.0160362217575
         -0.0160334501415
         -0.0160306803882
         -0.0160279087722
         -0.0160251371562
         -0.0160223655403
         -0.0160195939243
         -0.0160168241709
         -0.016014052555
         -0.016011280939
         -0.016008509323
         -0.016005737707
         -0.0160029679537
         -0.0160001963377
         -0.0159974247217
         -0.0159946531057
         -0.0159918814898
         -0.0159891117364
         -0.0159863401204
         -0.0159835685045
         -0.0159807968885
         -0.0159780252725
         -0.0159752555192
         -0.0159724839032
         -0.0159697122872
         -0.0159669406712
         -0.0159641690552
         -0.0159613993019
         -0.0159586276859
         -0.0159558560699
         -0.0159530844539
         -0.015950312838
         -0.0159475430846
         -0.0159447714686
         -0.0159419998527
         -0.0159392282367
         -0.0159364566207
         -0.0159336868674
         -0.0159309152514
         -0.0159281436354
         -0.0159253720194
         -0.0159226004034
         -0.0159198287874
         -0.0159170590341
         -0.0159142874181
         -0.0159115158021
         -0.0159087441862
         -0.0159059725702
         -0.0159032028168
         -0.0159004312009
         -0.0158976595849
         -0.0158948879689
         -0.0158921163529
         -0.0158893465996
         -0.0158865749836
         -0.0158838033676
         -0.0158810317516
         -0.0158782601357
         -0.0158754903823
         -0.0158727187663
         -0.0158699471503
         -0.0158671755344
         -0.0158644039184
         -0.015861634165
         -0.0158588625491
         -0.0158560909331
         -0.0158533193171
         -0.0158505477011
         -0.0158477779478
         -0.0158450063318
         -0.0158422347158
         -0.0158394630998
         -0.0158366914839
         -0.0158339217305
         -0.0158311501145
         -0.0158283784986
         -0.0158256068826
         -0.0158228352666
         -0.0158200655133
         -0.0158172938973
         -0.0158145222813
         -0.0158117506653
         -0.0158089790493
         -0.015806209296
         -0.01580343768
         -0.015800666064
         -0.015797894448
         -0.0157951228321
         -0.0157923530787
         -0.0157895814627
         -0.0157868098468
         -0.0157840382308
         -0.0157812666148
         -0.0157784968615
         -0.0157757252455
         -0.0157729536295
         -0.0157701820135
         -0.0157674103975
         -0.0157646406442
         -0.0157618690282
         -0.0157590974122
         -0.0157563257962
         -0.0157535541803
         -0.0157507825643
         -0.0157480128109
         -0.015745241195
         -0.015742469579
         -0.015739697963
         -0.015736926347
         -0.0157341565937
         -0.0157313849777
         -0.0157286133617
         -0.0157258417457
         -0.0157230701298
         -0.0157203003764
         -0.0157175287604
         -0.0157147571445
         -0.0157119855285
         -0.0157092139125
         -0.0157064441592
         -0.0157036725432
         -0.0157009009272
         -0.0156981293112
         -0.0156953576952
         -0.0156925879419
         -0.0156898163259
         -0.0156870447099
         -0.0156842730939
         -0.015681501478
         -0.0156787317246
         -0.0156759601086
         -0.0156731884927
         -0.0156704168767
         -0.0156676452607
         -0.0156648755074
         -0.0156621038914
         -0.0156593322754
         -0.0156565606594
         -0.0156537890434
         -0.0156510192901
         -0.0156482476741
         -0.0156454760581
         -0.0156427044421
         -0.0156399328262
         -0.0156371630728
         -0.0156343914568
         -0.0156316198409
         -0.0156288482249
         -0.0156260766089
         -0.0156233059242
         -0.0156205343083
         -0.0156177636236
         -0.0156149920076
         -0.015612221323
         -0.015609449707
         -0.015606678091
         -0.0156039074063
         -0.0156011357903
         -0.0155983651057
         -0.0155955934897
         -0.0155928218737
         -0.0155900511891
         -0.0155872795731
         -0.0155845088884
         -0.0155817372724
         -0.0155789656565
         -0.0155761949718
         -0.0155734233558
         -0.0155706526712
         -0.0155678810552
         -0.0155651094392
         -0.0155623387545
         -0.0155595671386
         -0.0155567964539
         -0.0155540248379
         -0.0155512532219
         -0.0155484825373
         -0.0155457109213
         -0.0155429393053
         -0.0155401686206
         -0.0155373970047
         -0.01553462632
         -0.015531854704
         -0.015529083088
         -0.0155263124034
         -0.0155235407874
         -0.0155207701027
         -0.0155179984868
         -0.0155152268708
         -0.0155124561861
         -0.0155096845701
         -0.0155069138855
         -0.0155041422695
         -0.0155013706535
         -0.0154985999689
         -0.0154958283529
         -0.0154930576682
         -0.0154902860522
         -0.0154875144362
         -0.0154847437516
         -0.0154819721356
         -0.0154792014509
         -0.015476429835
         -0.015473658219
         -0.0154708875343
         -0.0154681159183
         -0.0154653452337
         -0.0154625736177
         -0.0154598020017
         -0.0154570313171
         -0.0154542597011
         -0.0154514880851
         -0.0154487174004
         -0.0154459457844
         -0.0154431750998
         -0.0154404034838
         -0.0154376318678
         -0.0154348611832
         -0.0154320895672
         -0.0154293188825
         -0.0154265472665
         -0.0154237756506
         -0.0154210049659
         -0.0154182333499
         -0.0154154626653
         -0.0154126910493
         -0.0154099194333
         -0.0154071487486
         -0.0154043771327
         -0.015401606448
         -0.015398834832
         -0.015396063216
         -0.0153932925314
         -0.0153905209154
         -0.0153877502307
         -0.0153849786147
         -0.0153822069988
         -0.0153794363141
         -0.0153766646981
         -0.0153738930821
         -0.0153711223975
         -0.0153683507815
         -0.0153655800968
         -0.0153628084809
         -0.0153600368649
         -0.0153572661802
         -0.0153544945642
         -0.0153517238796
         -0.0153489522636
         -0.0153461806476
         -0.015343409963
         -0.015340638347
         -0.0153378676623
         -0.0153350960463
         -0.0153323244303
         -0.0153295537457
         -0.0153267821297
         -0.015324011445
         -0.0153212398291
         -0.0153184682131
         -0.0153156975284
         -0.0153129259124
         -0.0153101552278
         -0.0153073836118
         -0.0153046119958
         -0.0153018413112
         -0.0152990696952
         -0.0152962990105
         -0.0152935273945
         -0.0152907557786
         -0.0152879850939
         -0.0152852134779
         -0.0152824418619
         -0.0152796711773
         -0.0152768995613
         -0.0152741288766
         -0.0152713572606
         -0.0152685856447
         -0.01526581496
         -0.015263043344
         -0.0152602726594
         -0.0152575010434
         -0.0152547294274
         -0.0152519587427
         -0.0152491871268
         -0.0152464164421
         -0.0152436448261
         -0.0152408732101
         -0.0152381025255
         -0.0152353309095
         -0.0152325602248
         -0.0152297886088
         -0.0152270169929
         -0.0152242463082
         -0.0152214746922
         -0.0152187040076
         -0.0152159323916
         -0.0152131607756
         -0.0152103900909
         -0.015207618475
         -0.015204846859
         -0.0152020761743
         -0.0151993045583
         -0.0151965338737
         -0.0151937622577
         -0.0151909906417
         -0.0151882199571
         -0.0151854483411
         -0.0151826776564
         -0.0151799060404
         -0.0151771344244
         -0.0151743637398
         -0.0151715921238
         -0.0151688214391
         -0.0151660498232
         -0.0151632782072
         -0.0151605075225
         -0.0151577359065
         -0.0151549652219
         -0.0151521936059
         -0.0151494219899
         -0.0151466513053
         -0.0151438796893
         -0.0151411090046
         -0.0151383373886
         -0.0151355657727
         -0.015132795088
         -0.015130023472
         -0.0151272527874
         -0.0151244811714
         -0.0151217095554
         -0.0151189388707
         -0.0151161672547
         -0.0151133956388
         -0.0151106249541
         -0.0151078533381
         -0.0151050826535
         -0.0151023110375
         -0.0150995394215
         -0.0150967687368
         -0.0150939971209
         -0.0150912264362
         -0.0150884548202
         -0.0150856832042
         -0.0150829125196
         -0.0150801409036
         -0.0150773702189
         -0.015074598603
         -0.015071826987
         -0.0150690563023
         -0.0150662846863
         -0.0150635140017
         -0.0150607423857
         -0.0150579707697
         -0.015055200085
         -0.0150524284691
         -0.0150496577844
         -0.0150468861684
         -0.0150441145524
         -0.0150413438678
         -0.0150385722518
         -0.0150358006358
         -0.0150330299512
         -0.0150302583352
         -0.0150274876505
         -0.0150247160345
         -0.0150219444185
         -0.0150191737339
         -0.0150164021179
         -0.0150136314332
         -0.0150108598173
         -0.0150080882013
         -0.0150053175166
         -0.0150025459006
         -0.014999775216
         -0.0149970036
         -0.014994231984
         -0.0149914612994
         -0.0149886896834
         -0.0149859189987
         -0.0149831473827
         -0.0149803757668
         -0.0149776050821
         -0.0149748334661
         -0.0149720627815
         -0.0149692911655
         -0.0149665195495
         -0.0149637488648
         -0.0149609772488
         -0.0149582065642
         -0.0149554349482
         -0.0149526633322
         -0.0149498926476
         -0.0149471210316
         -0.0149443494156
         -0.0149415787309
         -0.014938807115
         -0.0149360364303
         -0.0149332648143
         -0.0149304931983
         -0.0149277225137
         -0.0149249508977
         -0.014922180213
         -0.0149194085971
         -0.0149166369811
         -0.0149138662964
         -0.0149110946804
         -0.0149083239958
         -0.0149055523798
         -0.0149027807638
         -0.0149000100791
         -0.0148972384632
         -0.0148944677785
         -0.0148916961625
         -0.0148889245465
         -0.0148861538619
         -0.0148833822459
         -0.0148806115612
         -0.0148778399453
         -0.0148750683293
         -0.0148722976446
         -0.0148695260286
         -0.014866755344
         -0.014863983728
         -0.014861212112
         -0.0148584414274
         -0.0148556698114
         -0.0148528981954
         -0.0148501275107
         -0.0148473558947
         -0.0148445852101
         -0.0148418135941
         -0.0148390419781
         -0.0148362712935
         -0.0148334996775
         -0.0148307289928
         -0.0148279573768
         -0.0148251857609
         -0.0148224150762
         -0.0148196434602
         -0.0148168727756
         -0.0148141011596
         -0.0148113295436
         -0.0148085588589
         -0.0148057872429
         -0.0148030165583
         -0.0148002449423
         -0.0147974733263
         -0.0147947026417
         -0.0147919310257
         -0.014789160341
         -0.014786388725
         -0.0147836171091
         -0.0147808464244
         -0.0147780748084
         -0.0147753031924
         -0.0147725325078
         -0.0147697608918
         -0.0147669902071
         -0.0147642185912
         -0.0147614469752
         -0.0147586762905
         -0.0147559046745
         -0.0147531339899
         -0.0147503623739
         -0.0147475907579
         -0.0147448200732
         -0.0147420484573
         -0.0147392777726
         -0.0147365061566
         -0.0147337345406
         -0.014730963856
         -0.01472819224
         -0.0147254215553
         -0.0147226499394
         -0.0147198783234
         -0.0147171076387
         -0.0147143360227
         -0.0147115653381
         -0.0147087937221
         -0.0147060221061
         -0.0147032514215
         -0.0147004798055
         -0.0146977091208
         -0.0146949375048
         -0.0146921658888
         -0.0146893952042
         -0.0146866235882
         -0.0146838519722
         -0.0146810812876
         -0.0146783096716
         -0.0146755389869
         -0.0146727673709
         -0.014669995755
         -0.0146672250703
         -0.0146644534543
         -0.0146616827697
         -0.0146589111537
         -0.0146561395377
         -0.014653368853
         -0.0146505972371
         -0.0146478265524
         -0.0146450549364
         -0.0146422833204
         -0.0146395126358
         -0.0146367410198
         -0.0146339703351
         -0.0146311987191
         -0.0146284271032
         -0.0146256564185
         -0.0146228848025
         -0.0146201141179
         -0.0146173425019
         -0.0146145708859
         -0.0146118002012
         -0.0146090285853
         -0.0146062569693
         -0.0146034862846
         -0.0146007146686
         -0.014597943984
         -0.014595172368
         -0.014592400752
         -0.0145896300673
         -0.0145868584514
         -0.0145840877667
         -0.0145813161507
         -0.0145785445347
         -0.0145757738501
         -0.0145730022341
         -0.0145702315494
         -0.0145674599335
         -0.0145646883175
         -0.0145619176328
         -0.0145591460168
         -0.0145563753322
         -0.0145536037162
         -0.0145508321002
         -0.0145480614156
         -0.0145452897996
         -0.0145425191149
         -0.0145397474989
         -0.0145369758829
         -0.0145342051983
         -0.0145314335823
         -0.0145286628976
         -0.0145258912817
         -0.0145231196657
         -0.014520348981
         -0.014517577365
         -0.0145148057491
         -0.0145120350644
         -0.0145092634484
         -0.0145064927638
         -0.0145037211478
         -0.0145009495318
         -0.0144981788471
         -0.0144954072312
         -0.0144926365465
         -0.0144898649305
         -0.0144870933145
         -0.0144843226299
         -0.0144815510139
         -0.0144787803292
         -0.0144760087132
         -0.0144732370973
         -0.0144704664126
         -0.0144676947966
         -0.014464924112
         -0.014462152496
         -0.01445938088
         -0.0144566101953
         -0.0144538385794
         -0.0144510678947
         -0.0144482962787
         -0.0144455246627
         -0.0144427539781
         -0.0144399823621
         -0.0144372107461
         -0.0144344400615
         -0.0144316684455
         -0.0144288977608
         -0.0144261261448
         -0.0144233545288
         -0.0144205838442
         -0.0144178122282
         -0.0144150415435
         -0.0144122699276
         -0.0144094983116
         -0.0144067276269
         -0.0144039560109
         -0.0144011853263
         -0.0143984137103
         -0.0143956420943
         -0.0143928714097
         -0.0143900997937
         -0.014387329109
         -0.014384557493
         -0.014381785877
         -0.0143790151924
         -0.0143762435764
         -0.0143734728917
         -0.0143707012758
         -0.0143679296598
         -0.0143651589751
         -0.0143623873591
         -0.0143596166745
         -0.0143568450585
         -0.0143540734425
         -0.0143513027579
         -0.0143485311419
         -0.0143457595259
         -0.0143429888412
         -0.0143402172253
         -0.0143374465406
         -0.0143346749246
         -0.0143319033086
         -0.014329132624
         -0.014326361008
         -0.0143235903233
         -0.0143208187073
         -0.0143180470914
         -0.0143152764067
         -0.0143125047907
         -0.0143097341061
         -0.0143069624901
         -0.0143041908741
         -0.0143014201894
         -0.0142986485735
         -0.0142958778888
