aces_1.0.3/luts/V3_LogC_640_to_linear.spi1d
Version 1
From 0.000000 1.000000
Length 65536
Components 1
{
         -0.017080347985
         -0.0170775391161
         -0.0170747321099
         -0.017071923241
         -0.0170691143721
         -0.0170663055032
         -0.017063498497
         -0.0170606896281
         -0.0170578807592
         -0.0170550718904
         -0.0170522648841
         -0.0170494560152
         -0.0170466471463
         -0.0170438401401
         -0.0170410312712
         -0.0170382224023
         -0.0170354135334
         -0.0170326065272
         -0.0170297976583
         -0.0170269887894
         -0.0170241799206
         -0.0170213729143
         -0.0170185640454
         -0.0170157551765
         -0.0170129481703
         -0.0170101393014
         -0.0170073304325
         -0.0170045215636
         -0.0170017145574
         -0.0169989056885
         -0.0169960968196
         -0.0169932879508
         -0.0169904809445
         -0.0169876720756
         -0.0169848632067
         -0.0169820562005
         -0.0169792473316
         -0.0169764384627
         -0.0169736295938
         -0.0169708225876
         -0.0169680137187
         -0.0169652048498
         -0.016962395981
         -0.0169595889747
         -0.0169567801058
         -0.0169539712369
         -0.0169511642307
         -0.0169483553618
         -0.0169455464929
         -0.016942737624
         -0.0169399306178
         -0.0169371217489
         -0.01693431288
         -0.0169315040112
         -0.0169286970049
         -0.016925888136
         -0.0169230792671
         -0.0169202722609
         -0.016917463392
         -0.0169146545231
         -0.0169118456542
         -0.016909038648
         -0.0169062297791
         -0.0169034209102
         -0.0169006120414
         -0.0168978050351
         -0.0168949961662
         -0.0168921872973
         -0.0168893802911
         -0.0168865714222
         -0.0168837625533
         -0.0168809536844
         -0.0168781466782
         -0.0168753378093
         -0.0168725289404
         -0.0168697200716
         -0.0168669130653
         -0.0168641041964
         -0.0168612953275
         -0.0168584883213
         -0.0168556794524
         -0.0168528705835
         -0.0168500617146
         -0.0168472547084
         -0.0168444458395
         -0.0168416369706
         -0.0168388281018
         -0.0168360210955
         -0.0168332122266
         -0.0168304033577
         -0.0168275963515
         -0.0168247874826
         -0.0168219786137
         -0.0168191697448
         -0.0168163627386
         -0.0168135538697
         -0.0168107450008
         -0.016807936132
         -0.0168051291257
         -0.0168023202568
         -0.0167995113879
         -0.0167967043817
         -0.0167938955128
         -0.0167910866439
         -0.016788277775
         -0.0167854707688
         -0.0167826618999
         -0.016779853031
         -0.0167770441622
         -0.0167742371559
         -0.016771428287
         -0.0167686194181
         -0.0167658124119
         -0.016763003543
         -0.0167601946741
         -0.0167573858052
         -0.016754578799
         -0.0167517699301
         -0.0167489610612
         -0.0167461521924
         -0.0167433451861
         -0.0167405363172
         -0.0167377274483
         -0.0167349204421
         -0.0167321115732
         -0.0167293027043
         -0.0167264938354
         -0.0167236868292
         -0.0167208779603
         -0.0167180690914
         -0.0167152602226
         -0.0167124532163
         -0.0167096443474
         -0.0167068354785
         -0.0167040284723
         -0.0167012196034
         -0.0166984107345
         -0.0166956018656
         -0.0166927948594
         -0.0166899859905
         -0.0166871771216
         -0.0166843682528
         -0.0166815612465
         -0.0166787523776
         -0.0166759435087
         -0.0166731365025
         -0.0166703276336
         -0.0166675187647
         -0.0166647098958
         -0.0166619028896
         -0.0166590940207
         -0.0166562851518
         -0.016653476283
         -0.0166506692767
         -0.0166478604078
         -0.0166450515389
         -0.0166422445327
         -0.0166394356638
         -0.0166366267949
         -0.016633817926
         -0.0166310109198
         -0.0166282020509
         -0.016625393182
         -0.0166225843132
         -0.0166197773069
         -0.016616968438
         -0.0166141595691
         -0.0166113525629
         -0.016608543694
         -0.0166057348251
         -0.0166029259562
         -0.01660011895
         -0.0165973100811
         -0.0165945012122
         -0.0165916923434
         -0.0165888853371
         -0.0165860764682
         -0.0165832675993
         -0.0165804605931
         -0.0165776517242
         -0.0165748428553
         -0.0165720339864
         -0.0165692269802
         -0.0165664181113
         -0.0165636092424
         -0.0165608003736
         -0.0165579933673
         -0.0165551844984
         -0.0165523756295
         -0.0165495686233
         -0.0165467597544
         -0.0165439508855
         -0.0165411420166
         -0.0165383350104
         -0.0165355261415
         -0.0165327172726
         -0.0165299084038
         -0.0165271013975
         -0.0165242925286
         -0.0165214836597
         -0.0165186766535
         -0.0165158677846
         -0.0165130589157
         -0.0165102500468
         -0.0165074430406
         -0.0165046341717
         -0.0165018253028
         -0.016499016434
         -0.0164962094277
         -0.0164934005588
         -0.0164905916899
         -0.0164877846837
         -0.0164849758148
         -0.0164821669459
         -0.016479358077
         -0.0164765510708
         -0.0164737422019
         -0.016470933333
         -0.0164681244642
         -0.0164653174579
         -0.016462508589
         -0.0164596997201
         -0.0164568927139
         -0.016454083845
         -0.0164512749761
         -0.0164484661072
         -0.016445659101
         -0.0164428502321
         -0.0164400413632
         -0.0164372324944
         -0.0164344254881
         -0.0164316166192
         -0.0164288077503
         -0.0164260007441
         -0.0164231918752
         -0.0164203830063
         -0.0164175741374
         -0.0164147671312
         -0.0164119582623
         -0.0164091493934
         -0.0164063405246
         -0.0164035335183
         -0.0164007246494
         -0.0163979157805
         -0.0163951087743
         -0.0163922999054
         -0.0163894910365
         -0.0163866821676
         -0.0163838751614
         -0.0163810662925
         -0.0163782574236
         -0.0163754485548
         -0.0163726415485
         -0.0163698326796
         -0.0163670238107
         -0.0163642168045
         -0.0163614079356
         -0.0163585990667
         -0.0163557901978
         -0.0163529831916
         -0.0163501743227
         -0.0163473654538
         -0.016344556585
         -0.0163417495787
         -0.0163389407098
         -0.0163361318409
         -0.0163333248347
         -0.0163305159658
         -0.0163277070969
         -0.016324898228
         -0.0163220912218
         -0.0163192823529
         -0.016316473484
         -0.0163136646152
         -0.0163108576089
         -0.01630804874
         -0.0163052398711
         -0.0163024328649
         -0.016299623996
         -0.0162968151271
         -0.0162940062582
         -0.016291199252
         -0.0162883903831
         -0.0162855815142
         -0.0162827726454
         -0.0162799656391
         -0.0162771567702
         -0.0162743479013
         -0.0162715408951
         -0.0162687320262
         -0.0162659231573
         -0.0162631142884
         -0.0162603072822
         -0.0162574984133
         -0.0162546895444
         -0.0162518806756
         -0.0162490736693
         -0.0162462648004
         -0.0162434559315
         -0.0162406489253
         -0.0162378400564
         -0.0162350311875
         -0.0162322223186
         -0.0162294153124
         -0.0162266064435
         -0.0162237975746
         -0.0162209887058
         -0.0162181816995
         -0.0162153728306
         -0.0162125639617
         -0.0162097569555
         -0.0162069480866
         -0.0162041392177
         -0.0162013303488
         -0.0161985233426
         -0.0161957144737
         -0.0161929056048
         -0.016190096736
         -0.0161872897297
         -0.0161844808608
         -0.0161816719919
         -0.0161788649857
         -0.0161760561168
         -0.0161732472479
         -0.016170438379
         -0.0161676313728
         -0.0161648225039
         -0.016162013635
         -0.0161592047662
         -0.0161563977599
         -0.016153588891
         -0.0161507800221
         -0.0161479730159
         -0.016145164147
         -0.0161423552781
         -0.0161395464092
         -0.016136739403
         -0.0161339305341
         -0.0161311216652
         -0.0161283127964
         -0.0161255057901
         -0.0161226969212
         -0.0161198880523
         -0.0161170810461
         -0.0161142721772
         -0.0161114633083
         -0.0161086544394
         -0.0161058474332
         -0.0161030385643
         -0.0161002296954
         -0.0160974208266
         -0.0160946138203
         -0.0160918049514
         -0.0160889960825
         -0.0160861890763
         -0.0160833802074
         -0.0160805713385
         -0.0160777624696
         -0.0160749554634
         -0.0160721465945
         -0.0160693377256
         -0.0160665288568
         -0.0160637218505
         -0.0160609129816
         -0.0160581041127
         -0.0160552971065
         -0.0160524882376
         -0.0160496793687
         -0.0160468704998
         -0.0160440634936
         -0.0160412546247
         -0.0160384457558
         -0.016035636887
         -0.0160328298807
         -0.0160300210118
         -0.0160272121429
         -0.0160244051367
         -0.0160215962678
         -0.0160187873989
         -0.01601597853
         -0.0160131715238
         -0.0160103626549
         -0.016007553786
         -0.0160047449172
         -0.0160019379109
         -0.015999129042
         -0.0159963201731
         -0.0159935131669
         -0.015990704298
         -0.0159878954291
         -0.0159850865602
         -0.015982279554
         -0.0159794706851
         -0.0159766618162
         -0.0159738529474
         -0.0159710459411
         -0.0159682370722
         -0.0159654282033
         -0.0159626211971
         -0.0159598123282
         -0.0159570034593
         -0.0159541945904
         -0.0159513875842
         -0.0159485787153
         -0.0159457698464
         -0.0159429609776
         -0.0159401539713
         -0.0159373451024
         -0.0159345362335
         -0.0159317292273
         -0.0159289203584
         -0.0159261114895
         -0.0159233026206
         -0.0159204956144
         -0.0159176867455
         -0.0159148778766
         -0.0159120690078
         -0.0159092620015
         -0.0159064531326
         -0.0159036442637
         -0.0159008372575
         -0.0158980283886
         -0.0158952195197
         -0.0158924106508
         -0.0158896036446
         -0.0158867947757
         -0.0158839859068
         -0.015881177038
         -0.0158783700317
         -0.0158755611628
         -0.0158727522939
         -0.0158699452877
         -0.0158671364188
         -0.0158643275499
         -0.015861518681
         -0.0158587116748
         -0.0158559028059
         -0.015853093937
         -0.0158502850682
         -0.0158474780619
         -0.015844669193
         -0.0158418603241
         -0.0158390533179
         -0.015836244449
         -0.0158334355801
         -0.0158306267112
         -0.015827819705
         -0.0158250108361
         -0.0158222019672
         -0.0158193930984
         -0.0158165860921
         -0.0158137772232
         -0.0158109683543
         -0.0158081613481
         -0.0158053524792
         -0.0158025436103
         -0.0157997347414
         -0.0157969277352
         -0.0157941188663
         -0.0157913099974
         -0.0157885011286
         -0.0157856941223
         -0.0157828852534
         -0.0157800763845
         -0.0157772693783
         -0.0157744605094
         -0.0157716516405
         -0.0157688427716
         -0.0157660357654
         -0.0157632268965
         -0.0157604180276
         -0.0157576091588
         -0.0157548021525
         -0.0157519932836
         -0.0157491844147
         -0.0157463774085
         -0.0157435685396
         -0.0157407596707
         -0.0157379508018
         -0.0157351437956
         -0.0157323349267
         -0.0157295260578
         -0.015726717189
         -0.0157239101827
         -0.0157211013138
         -0.0157182924449
         -0.0157154854387
         -0.0157126765698
         -0.0157098677009
         -0.015707058832
         -0.0157042518258
         -0.0157014429569
         -0.015698634088
         -0.0156958252192
         -0.0156930182129
         -0.015690209344
         -0.0156874004751
         -0.0156845934689
         -0.0156817846
         -0.0156789757311
         -0.0156761668622
         -0.015673359856
         -0.0156705509871
         -0.0156677421182
         -0.0156649332494
         -0.0156621262431
         -0.0156593173742
         -0.0156565085053
         -0.0156537014991
         -0.0156508926302
         -0.0156480837613
         -0.0156452748924
         -0.0156424678862
         -0.0156396590173
         -0.0156368501484
         -0.0156340412796
         -0.0156312342733
         -0.0156284254044
         -0.0156256165355
         -0.015622808598
         -0.0156200006604
         -0.0156171917915
         -0.015614383854
         -0.0156115749851
         -0.0156087670475
         -0.0156059581786
         -0.0156031502411
         -0.0156003413722
         -0.0155975334346
         -0.0155947254971
         -0.0155919166282
         -0.0155891086906
         -0.0155862998217
         -0.0155834918842
         -0.0155806830153
         -0.0155778750777
         -0.0155750662088
         -0.0155722582713
         -0.0155694494024
         -0.0155666414648
         -0.0155638335273
         -0.0155610246584
         -0.0155582167208
         -0.0155554078519
         -0.0155525999144
         -0.0155497910455
         -0.0155469831079
         -0.015544174239
         -0.0155413663015
         -0.0155385574326
         -0.015535749495
         -0.0155329415575
         -0.0155301326886
         -0.015527324751
         -0.0155245158821
         -0.0155217079446
         -0.0155188990757
         -0.0155160911381
         -0.0155132822692
         -0.0155104743317
         -0.0155076654628
         -0.0155048575252
         -0.0155020495877
         -0.0154992407188
         -0.0154964327812
         -0.0154936239123
         -0.0154908159748
         -0.0154880071059
         -0.0154851991683
         -0.0154823902994
         -0.0154795823619
         -0.015476773493
         -0.0154739655554
         -0.0154711576179
         -0.015468348749
         -0.0154655408114
         -0.0154627319425
         -0.015459924005
         -0.0154571151361
         -0.0154543071985
         -0.0154514983296
         -0.0154486903921
         -0.0154458815232
         -0.0154430735856
         -0.0154402656481
         -0.0154374567792
         -0.0154346488416
         -0.0154318399727
         -0.0154290320352
         -0.0154262231663
         -0.0154234152287
         -0.0154206063598
         -0.0154177984223
         -0.0154149895534
         -0.0154121816158
         -0.0154093736783
         -0.0154065648094
         -0.0154037568718
         -0.0154009480029
         -0.0153981400654
         -0.0153953311965
         -0.0153925232589
         -0.01538971439
         -0.0153869064525
         -0.0153840975836
         -0.015381289646
         -0.0153784817085
         -0.0153756728396
         -0.015372864902
         -0.0153700560331
         -0.0153672480956
         -0.0153644392267
         -0.0153616312891
         -0.0153588224202
         -0.0153560144827
         -0.0153532056138
         -0.0153503976762
         -0.0153475897387
         -0.0153447808698
         -0.0153419729322
         -0.0153391640633
         -0.0153363561258
         -0.0153335472569
         -0.0153307393193
         -0.0153279304504
         -0.0153251225129
         -0.015322313644
         -0.0153195057064
         -0.0153166977689
         -0.0153138889
         -0.0153110809624
         -0.0153082720935
         -0.015305464156
         -0.0153026552871
         -0.0152998473495
         -0.0152970384806
         -0.0152942305431
         -0.0152914216742
         -0.0152886137366
         -0.0152858057991
         -0.0152829969302
         -0.0152801889926
         -0.0152773801237
         -0.0152745721862
         -0.0152717633173
         -0.0152689553797
         -0.0152661465108
         -0.0152633385733
         -0.0152605297044
         -0.0152577217668
         -0.0152549138293
         -0.0152521049604
         -0.0152492970228
         -0.0152464881539
         -0.0152436802164
         -0.0152408713475
         -0.0152380634099
         -0.015235254541
         -0.0152324466035
         -0.0152296377346
         -0.015226829797
         -0.0152240218595
         -0.0152212129906
         -0.015218405053
         -0.0152155961841
         -0.0152127882466
         -0.0152099793777
         -0.0152071714401
         -0.0152043625712
         -0.0152015546337
         -0.0151987457648
         -0.0151959378272
         -0.0151931298897
         -0.0151903210208
         -0.0151875130832
         -0.0151847042143
         -0.0151818962768
         -0.0151790874079
         -0.0151762794703
         -0.0151734706014
         -0.0151706626639
         -0.015167853795
         -0.0151650458574
         -0.0151622379199
         -0.015159429051
         -0.0151566211134
         -0.0151538122445
         -0.015151004307
         -0.0151481954381
         -0.0151453875005
         -0.0151425786316
         -0.0151397706941
         -0.0151369618252
         -0.0151341538876
         -0.0151313459501
         -0.0151285370812
         -0.0151257291436
         -0.0151229202747
         -0.0151201123372
         -0.0151173034683
         -0.0151144955307
         -0.0151116866618
         -0.0151088787243
         -0.0151060698554
         -0.0151032619178
         -0.0151004539803
         -0.0150976451114
         -0.0150948371738
         -0.0150920283049
         -0.0150892203674
         -0.0150864114985
         -0.0150836035609
         -0.015080794692
         -0.0150779867545
         -0.0150751778856
         -0.015072369948
         -0.0150695620105
         -0.0150667531416
         -0.015063945204
         -0.0150611363351
         -0.0150583283976
         -0.0150555195287
         -0.0150527115911
         -0.0150499027222
         -0.0150470947847
         -0.0150442859158
         -0.0150414779782
         -0.0150386700407
         -0.0150358611718
         -0.0150330532342
         -0.0150302443653
         -0.0150274364278
         -0.0150246275589
         -0.0150218196213
         -0.0150190107524
         -0.0150162028149
         -0.015013393946
         -0.0150105860084
         -0.0150077780709
         -0.015004969202
         -0.0150021612644
         -0.0149993523955
         -0.014996544458
         -0.0149937355891
         -0.0149909276515
         -0.0149881187826
         -0.0149853108451
         -0.0149825019762
         -0.0149796940386
         -0.0149768861011
         -0.0149740772322
         -0.0149712692946
         -0.0149684604257
         -0.0149656524882
         -0.0149628436193
         -0.0149600356817
         -0.0149572268128
         -0.0149544188753
         -0.0149516100064
         -0.0149488020688
         -0.0149459941313
         -0.0149431852624
         -0.0149403773248
         -0.0149375684559
         -0.0149347605184
         -0.0149319516495
         -0.0149291437119
         -0.014926334843
         -0.0149235269055
         -0.0149207180366
         -0.014917910099
         -0.0149151021615
         -0.0149122932926
         -0.014909485355
         -0.0149066764861
         -0.0149038685486
         -0.0149010596797
         -0.0148982517421
         -0.0148954428732
         -0.0148926349357
         -0.0148898260668
         -0.0148870181292
         -0.0148842101917
         -0.0148814013228
         -0.0148785933852
         -0.0148757845163
         -0.0148729765788
         -0.0148701677099
         -0.0148673597723
         -0.0148645509034
         -0.0148617429659
         -0.014858934097
         -0.0148561261594
         -0.0148533182219
         -0.014850509353
         -0.0148477014154
         -0.0148448925465
         -0.014842084609
         -0.0148392757401
         -0.0148364678025
         -0.0148336589336
         -0.0148308509961
         -0.0148280421272
         -0.0148252341896
         -0.0148224262521
         -0.0148196173832
         -0.0148168094456
         -0.0148140005767
         -0.0148111926392
         -0.0148083837703
         -0.0148055758327
         -0.0148027669638
         -0.0147999590263
         -0.0147971501574
         -0.0147943422198
         -0.0147915342823
         -0.0147887254134
         -0.0147859174758
         -0.0147831086069
         -0.0147803006694
         -0.0147774918005
         -0.0147746838629
         -0.014771874994
         -0.0147690670565
         -0.0147662581876
         -0.01476345025
         -0.0147606423125
         -0.0147578334436
         -0.014755025506
         -0.0147522166371
         -0.0147494086996
         -0.0147465998307
         -0.0147437918931
         -0.0147409830242
         -0.0147381750867
         -0.0147353662178
         -0.0147325582802
         -0.0147297503427
         -0.0147269414738
         -0.0147241335362
         -0.0147213246673
         -0.0147185167298
         -0.0147157078609
         -0.0147128999233
         -0.0147100910544
         -0.0147072831169
         -0.014704474248
         -0.0147016663104
         -0.0146988583729
         -0.014696049504
         -0.0146932415664
         -0.0146904326975
         -0.01468762476
         -0.0146848158911
         -0.0146820079535
         -0.0146791990846
         -0.0146763911471
         -0.0146735822782
         -0.0146707743406
         -0.0146679664031
         -0.0146651575342
         -0.0146623495966
         -0.0146595407277
         -0.0146567327902
         -0.0146539239213
         -0.0146511159837
         -0.0146483071148
         -0.0146454991773
         -0.0146426903084
         -0.0146398823708
         -0.0146370744333
         -0.0146342655644
         -0.0146314576268
         -0.0146286487579
         -0.0146258408204
         -0.0146230319515
         -0.0146202240139
         -0.014617415145
         -0.0146146072075
         -0.0146117983386
         -0.014608990401
         -0.0146061824635
         -0.0146033735946
         -0.014600565657
         -0.0145977567881
         -0.0145949488506
         -0.0145921399817
         -0.0145893320441
         -0.0145865231752
         -0.0145837152377
         -0.0145809063688
         -0.0145780984312
         -0.0145752904937
         -0.0145724816248
         -0.0145696736872
         -0.0145668648183
         -0.0145640568808
         -0.0145612480119
         -0.0145584400743
         -0.0145556312054
         -0.0145528232679
         -0.014550014399
         -0.0145472064614
         -0.0145443985239
         -0.014541589655
         -0.0145387817174
         -0.0145359728485
         -0.014533164911
         -0.0145303560421
         -0.0145275481045
         -0.0145247392356
         -0.0145219312981
         -0.0145191224292
         -0.0145163144916
         -0.0145135065541
         -0.0145106976852
         -0.0145078897476
         -0.0145050808787
         -0.0145022729412
         -0.0144994640723
         -0.0144966561347
         -0.0144938472658
         -0.0144910393283
         -0.0144882304594
         -0.0144854225218
