aces_1.0.3/luts/V3_LogC_1280_to_linear.spi1d
Version 1
From 0.000000 1.000000
Length 65536
Components 1
{
         -0.0177504383028
         -0.0177475195378
         -0.0177446007729
         -0.0177416838706
         -0.0177387651056
         -0.0177358463407
         -0.0177329294384
         -0.0177300106734
         -0.0177270937711
         -0.0177241750062
         -0.0177212562412
         -0.0177183393389
         -0.0177154205739
         -0.017712501809
         -0.0177095849067
         -0.0177066661417
         -0.0177037473768
         -0.0177008304745
         -0.0176979117095
         -0.0176949948072
         -0.0176920760423
         -0.0176891572773
         -0.017686240375
         -0.0176833216101
         -0.0176804028451
         -0.0176774859428
         -0.0176745671779
         -0.0176716484129
         -0.0176687315106
         -0.0176658127457
         -0.0176628958434
         -0.0176599770784
         -0.0176570583135
         -0.0176541414112
         -0.0176512226462
         -0.0176483038813
         -0.017645386979
         -0.017642468214
         -0.0176395494491
         -0.0176366325468
         -0.0176337137818
         -0.0176307968795
         -0.0176278781146
         -0.0176249593496
         -0.0176220424473
         -0.0176191236824
         -0.0176162049174
         -0.0176132880151
         -0.0176103692502
         -0.0176074504852
         -0.0176045335829
         -0.017601614818
         -0.0175986979157
         -0.0175957791507
         -0.0175928603858
         -0.0175899434835
         -0.0175870247185
         -0.0175841059536
         -0.0175811890513
         -0.0175782702863
         -0.017575353384
         -0.0175724346191
         -0.0175695158541
         -0.0175665989518
         -0.0175636801869
         -0.0175607614219
         -0.0175578445196
         -0.0175549257547
         -0.0175520069897
         -0.0175490900874
         -0.0175461713225
         -0.0175432544202
         -0.0175403356552
         -0.0175374168903
         -0.017534499988
         -0.017531581223
         -0.0175286624581
         -0.0175257455558
         -0.0175228267908
         -0.0175199080259
         -0.0175169911236
         -0.0175140723586
         -0.0175111554563
         -0.0175082366914
         -0.0175053179264
         -0.0175024010241
         -0.0174994822592
         -0.0174965634942
         -0.0174936465919
         -0.017490727827
         -0.017487809062
         -0.0174848921597
         -0.0174819733948
         -0.0174790564924
         -0.0174761377275
         -0.0174732189626
         -0.0174703020602
         -0.0174673832953
         -0.0174644645303
         -0.017461547628
         -0.0174586288631
         -0.0174557100981
         -0.0174527931958
         -0.0174498744309
         -0.0174469575286
         -0.0174440387636
         -0.0174411199987
         -0.0174382030964
         -0.0174352843314
         -0.0174323655665
         -0.0174294486642
         -0.0174265298992
         -0.0174236111343
         -0.017420694232
         -0.017417775467
         -0.0174148585647
         -0.0174119397998
         -0.0174090210348
         -0.0174061041325
         -0.0174031853676
         -0.0174002666026
         -0.0173973497003
         -0.0173944309354
         -0.0173915121704
         -0.0173885952681
         -0.0173856765032
         -0.0173827596009
         -0.0173798408359
         -0.017376922071
         -0.0173740051687
         -0.0173710864037
         -0.0173681676388
         -0.0173652507365
         -0.0173623319715
         -0.0173594132066
         -0.0173564963043
         -0.0173535775393
         -0.017350660637
         -0.0173477418721
         -0.0173448231071
         -0.0173419062048
         -0.0173389874399
         -0.0173360686749
         -0.0173331517726
         -0.0173302330077
         -0.0173273161054
         -0.0173243973404
         -0.0173214785755
         -0.0173185616732
         -0.0173156429082
         -0.0173127241433
         -0.017309807241
         -0.017306888476
         -0.0173039697111
         -0.0173010528088
         -0.0172981340438
         -0.0172952171415
         -0.0172922983766
         -0.0172893796116
         -0.0172864627093
         -0.0172835439444
         -0.0172806251794
         -0.0172777082771
         -0.0172747895122
         -0.0172718707472
         -0.0172689538449
         -0.01726603508
         -0.0172631181777
         -0.0172601994127
         -0.0172572806478
         -0.0172543637455
         -0.0172514449805
         -0.0172485262156
         -0.0172456093132
         -0.0172426905483
         -0.0172397717834
         -0.017236854881
         -0.0172339361161
         -0.0172310192138
         -0.0172281004488
         -0.0172251816839
         -0.0172222647816
         -0.0172193460166
         -0.0172164272517
         -0.0172135103494
         -0.0172105915844
         -0.0172076728195
         -0.0172047559172
         -0.0172018371522
         -0.0171989202499
         -0.017196001485
         -0.01719308272
         -0.0171901658177
         -0.0171872470528
         -0.0171843282878
         -0.0171814113855
         -0.0171784926206
         -0.0171755738556
         -0.0171726569533
         -0.0171697381884
         -0.0171668212861
         -0.0171639025211
         -0.0171609837562
         -0.0171580668539
         -0.0171551480889
         -0.017152229324
         -0.0171493124217
         -0.0171463936567
         -0.0171434748918
         -0.0171405579895
         -0.0171376392245
         -0.0171347223222
         -0.0171318035573
         -0.0171288847923
         -0.01712596789
         -0.0171230491251
         -0.0171201303601
         -0.0171172134578
         -0.0171142946929
         -0.0171113777906
         -0.0171084590256
         -0.0171055402607
         -0.0171026233584
         -0.0170997045934
         -0.0170967858285
         -0.0170938689262
         -0.0170909501612
         -0.0170880313963
         -0.017085114494
         -0.017082195729
         -0.0170792788267
         -0.0170763600618
         -0.0170734412968
         -0.0170705243945
         -0.0170676056296
         -0.0170646868646
         -0.0170617699623
         -0.0170588511974
         -0.0170559324324
         -0.0170530155301
         -0.0170500967652
         -0.0170471798629
         -0.0170442610979
         -0.017041342333
         -0.0170384254307
         -0.0170355066657
         -0.0170325879008
         -0.0170296709985
         -0.0170267522335
         -0.0170238334686
         -0.0170209165663
         -0.0170179978013
         -0.017015080899
         -0.0170121621341
         -0.0170092433691
         -0.0170063264668
         -0.0170034077018
         -0.0170004889369
         -0.0169975720346
         -0.0169946532696
         -0.0169917345047
         -0.0169888176024
         -0.0169858988374
         -0.0169829819351
         -0.0169800631702
         -0.0169771444052
         -0.0169742275029
         -0.016971308738
         -0.016968389973
         -0.0169654730707
         -0.0169625543058
         -0.0169596355408
         -0.0169567186385
         -0.0169537998736
         -0.0169508829713
         -0.0169479642063
         -0.0169450454414
         -0.0169421285391
         -0.0169392097741
         -0.0169362910092
         -0.0169333741069
         -0.0169304553419
         -0.016927536577
         -0.0169246196747
         -0.0169217009097
         -0.0169187840074
         -0.0169158652425
         -0.0169129464775
         -0.0169100295752
         -0.0169071108103
         -0.0169041920453
         -0.016901275143
         -0.0168983563781
         -0.0168954394758
         -0.0168925207108
         -0.0168896019459
         -0.0168866850436
         -0.0168837662786
         -0.0168808475137
         -0.0168779306114
         -0.0168750118464
         -0.0168720930815
         -0.0168691761792
         -0.0168662574142
         -0.0168633405119
         -0.016860421747
         -0.016857502982
         -0.0168545860797
         -0.0168516673148
         -0.0168487485498
         -0.0168458316475
         -0.0168429128826
         -0.0168399941176
         -0.0168370772153
         -0.0168341584504
         -0.0168312415481
         -0.0168283227831
         -0.0168254040182
         -0.0168224871159
         -0.0168195683509
         -0.016816649586
         -0.0168137326837
         -0.0168108139187
         -0.0168078951538
         -0.0168049782515
         -0.0168020594865
         -0.0167991425842
         -0.0167962238193
         -0.0167933050543
         -0.016790388152
         -0.0167874693871
         -0.0167845506221
         -0.0167816337198
         -0.0167787149549
         -0.0167757961899
         -0.0167728792876
         -0.0167699605227
         -0.0167670436203
         -0.0167641248554
         -0.0167612060905
         -0.0167582891881
         -0.0167553704232
         -0.0167524516582
         -0.0167495347559
         -0.016746615991
         -0.016743697226
         -0.0167407803237
         -0.0167378615588
         -0.0167349446565
         -0.0167320258915
         -0.0167291071266
         -0.0167261902243
         -0.0167232714593
         -0.0167203526944
         -0.0167174357921
         -0.0167145170271
         -0.0167115982622
         -0.0167086813599
         -0.0167057625949
         -0.0167028456926
         -0.0166999269277
         -0.0166970081627
         -0.0166940912604
         -0.0166911724955
         -0.0166882537305
         -0.0166853368282
         -0.0166824180633
         -0.016679501161
         -0.016676582396
         -0.0166736636311
         -0.0166707467288
         -0.0166678279638
         -0.0166649091989
         -0.0166619922966
         -0.0166590735316
         -0.0166561547667
         -0.0166532378644
         -0.0166503190994
         -0.0166474021971
         -0.0166444834322
         -0.0166415646672
         -0.0166386477649
         -0.016635729
         -0.016632810235
         -0.0166298933327
         -0.0166269745678
         -0.0166240558028
         -0.0166211389005
         -0.0166182201356
         -0.0166153032333
         -0.0166123844683
         -0.0166094657034
         -0.0166065488011
         -0.0166036300361
         -0.0166007112712
         -0.0165977943689
         -0.0165948756039
         -0.016591956839
         -0.0165890399367
         -0.0165861211717
         -0.0165832042694
         -0.0165802855045
         -0.0165773667395
         -0.0165744498372
         -0.0165715310723
         -0.0165686123073
         -0.016565695405
         -0.0165627766401
         -0.0165598578751
         -0.0165569409728
         -0.0165540222079
         -0.0165511053056
         -0.0165481865406
         -0.0165452677757
         -0.0165423508734
         -0.0165394321084
         -0.0165365133435
         -0.0165335964411
         -0.0165306776762
         -0.0165277589113
         -0.0165248420089
         -0.016521923244
         -0.0165190063417
         -0.0165160875767
         -0.0165131688118
         -0.0165102519095
         -0.0165073331445
         -0.0165044143796
         -0.0165014974773
         -0.0164985787123
         -0.0164956599474
         -0.0164927430451
         -0.0164898242801
         -0.0164869073778
         -0.0164839886129
         -0.0164810698479
         -0.0164781529456
         -0.0164752341807
         -0.0164723154157
         -0.0164693985134
         -0.0164664797485
         -0.0164635628462
         -0.0164606440812
         -0.0164577253163
         -0.016454808414
         -0.016451889649
         -0.0164489708841
         -0.0164460539818
         -0.0164431352168
         -0.0164402164519
         -0.0164372995496
         -0.0164343807846
         -0.0164314638823
         -0.0164285451174
         -0.0164256263524
         -0.0164227094501
         -0.0164197906852
         -0.0164168719202
         -0.0164139550179
         -0.016411036253
         -0.016408117488
         -0.0164052005857
         -0.0164022818208
         -0.0163993649185
         -0.0163964461535
         -0.0163935273886
         -0.0163906104863
         -0.0163876917213
         -0.0163847729564
         -0.0163818560541
         -0.0163789372891
         -0.0163760185242
         -0.0163731016219
         -0.0163701828569
         -0.0163672659546
         -0.0163643471897
         -0.0163614284247
         -0.0163585115224
         -0.0163555927575
         -0.0163526739925
         -0.0163497570902
         -0.0163468383253
         -0.0163439195603
         -0.016341002658
         -0.0163380838931
         -0.0163351669908
         -0.0163322482258
         -0.0163293294609
         -0.0163264125586
         -0.0163234937936
         -0.0163205750287
         -0.0163176581264
         -0.0163147393614
         -0.0163118205965
         -0.0163089036942
         -0.0163059849292
         -0.0163030680269
         -0.016300149262
         -0.016297230497
         -0.0162943135947
         -0.0162913948298
         -0.0162884760648
         -0.0162855591625
         -0.0162826403975
         -0.0162797216326
         -0.0162768047303
         -0.0162738859653
         -0.016270969063
         -0.0162680502981
         -0.0162651315331
         -0.0162622146308
         -0.0162592958659
         -0.0162563771009
         -0.0162534601986
         -0.0162505414337
         -0.0162476245314
         -0.0162447057664
         -0.0162417870015
         -0.0162388700992
         -0.0162359513342
         -0.0162330325693
         -0.016230115667
         -0.016227196902
         -0.0162242781371
         -0.0162213612348
         -0.0162184424698
         -0.0162155255675
         -0.0162126068026
         -0.0162096880376
         -0.0162067711353
         -0.0162038523704
         -0.0162009336054
         -0.0161980167031
         -0.0161950979382
         -0.0161921791732
         -0.0161892622709
         -0.016186343506
         -0.0161834266037
         -0.0161805078387
         -0.0161775890738
         -0.0161746721715
         -0.0161717534065
         -0.0161688346416
         -0.0161659177393
         -0.0161629989743
         -0.0161600802094
         -0.0161571633071
         -0.0161542445421
         -0.0161513276398
         -0.0161484088749
         -0.0161454901099
         -0.0161425732076
         -0.0161396544427
         -0.0161367356777
         -0.0161338187754
         -0.0161309000105
         -0.0161279812455
         -0.0161250643432
         -0.0161221455783
         -0.016119228676
         -0.016116309911
         -0.0161133911461
         -0.0161104742438
         -0.0161075554788
         -0.0161046367139
         -0.0161017198116
         -0.0160988010466
         -0.0160958822817
         -0.0160929653794
         -0.0160900466144
         -0.0160871297121
         -0.0160842109472
         -0.0160812921822
         -0.0160783752799
         -0.016075456515
         -0.01607253775
         -0.0160696208477
         -0.0160667020828
         -0.0160637833178
         -0.0160608664155
         -0.0160579476506
         -0.0160550307482
         -0.0160521119833
         -0.0160491932184
         -0.016046276316
         -0.0160433575511
         -0.0160404387861
         -0.0160375218838
         -0.0160346031189
         -0.0160316862166
         -0.0160287674516
         -0.0160258486867
         -0.0160229317844
         -0.0160200130194
         -0.0160170942545
         -0.0160141773522
         -0.0160112585872
         -0.0160083398223
         -0.01600542292
         -0.016002504155
         -0.0159995872527
         -0.0159966684878
         -0.0159937497228
         -0.0159908328205
         -0.0159879140556
         -0.0159849952906
         -0.0159820783883
         -0.0159791596234
         -0.0159762408584
         -0.0159733239561
         -0.0159704051912
         -0.0159674882889
         -0.0159645695239
         -0.015961650759
         -0.0159587338567
         -0.0159558150917
         -0.0159528963268
         -0.0159499794245
         -0.0159470606595
         -0.0159441418946
         -0.0159412249923
         -0.0159383062273
         -0.015935389325
         -0.0159324705601
         -0.0159295517951
         -0.0159266348928
         -0.0159237161279
         -0.0159207973629
         -0.0159178804606
         -0.0159149616957
         -0.0159120429307
         -0.0159091260284
         -0.0159062072635
         -0.0159032903612
         -0.0159003715962
         -0.0158974528313
         -0.015894535929
         -0.015891617164
         -0.0158886983991
         -0.0158857814968
         -0.0158828627318
         -0.0158799439669
         -0.0158770270646
         -0.0158741082996
         -0.0158711913973
         -0.0158682726324
         -0.0158653538674
         -0.0158624369651
         -0.0158595182002
         -0.0158565994352
         -0.0158536825329
         -0.015850763768
         -0.015847845003
         -0.0158449281007
         -0.0158420093358
         -0.0158390924335
         -0.0158361736685
         -0.0158332549036
         -0.0158303380013
         -0.0158274192363
         -0.0158245004714
         -0.015821583569
         -0.0158186648041
         -0.0158157479018
         -0.0158128291368
         -0.0158099103719
         -0.0158069934696
         -0.0158040747046
         -0.0158011559397
         -0.0157982390374
         -0.0157953202724
         -0.0157924015075
         -0.0157894846052
         -0.0157865658402
         -0.0157836489379
         -0.015780730173
         -0.015777811408
         -0.0157748945057
         -0.0157719757408
         -0.0157690569758
         -0.0157661400735
         -0.0157632213086
         -0.0157603025436
         -0.0157573856413
         -0.0157544668764
         -0.0157515499741
         -0.0157486312091
         -0.0157457124442
         -0.0157427955419
         -0.0157398767769
         -0.015736958012
         -0.0157340411097
         -0.0157311223447
         -0.0157282035798
         -0.0157252866775
         -0.0157223679125
         -0.0157194510102
         -0.0157165322453
         -0.0157136134803
         -0.015710696578
         -0.0157077778131
         -0.0157048590481
         -0.0157019421458
         -0.0156990233809
         -0.0156961046159
         -0.0156931877136
         -0.0156902689487
         -0.0156873520464
         -0.0156844332814
         -0.0156815145165
         -0.0156785976142
         -0.0156756788492
         -0.0156727600843
         -0.015669843182
         -0.015666924417
         -0.0156640056521
         -0.0156610887498
         -0.0156581699848
         -0.0156552530825
         -0.0156523343176
         -0.0156494155526
         -0.0156464986503
         -0.0156435798854
         -0.0156406611204
         -0.0156377442181
         -0.0156348254532
         -0.0156319066882
         -0.0156289897859
         -0.015626071021
         -0.0156231531873
         -0.0156202353537
         -0.0156173175201
         -0.0156143987551
         -0.0156114809215
         -0.0156085630879
         -0.0156056452543
         -0.0156027264893
         -0.0155998086557
         -0.0155968908221
         -0.0155939720571
         -0.0155910542235
         -0.0155881363899
         -0.0155852185562
         -0.0155822997913
         -0.0155793819577
         -0.015576464124
         -0.0155735462904
         -0.0155706275254
         -0.0155677096918
         -0.0155647918582
         -0.0155618740246
         -0.0155589552596
         -0.015556037426
         -0.0155531195924
         -0.0155502008274
         -0.0155472829938
         -0.0155443651602
         -0.0155414473265
         -0.0155385285616
         -0.015535610728
         -0.0155326928943
         -0.0155297750607
         -0.0155268562958
         -0.0155239384621
         -0.0155210206285
         -0.0155181018636
         -0.0155151840299
         -0.0155122661963
         -0.0155093483627
         -0.0155064295977
         -0.0155035117641
         -0.0155005939305
         -0.0154976760969
         -0.0154947573319
         -0.0154918394983
         -0.0154889216647
         -0.0154860028997
         -0.0154830850661
         -0.0154801672325
         -0.0154772493988
         -0.0154743306339
         -0.0154714128003
         -0.0154684949666
         -0.015465577133
         -0.0154626583681
         -0.0154597405344
         -0.0154568227008
         -0.0154539048672
         -0.0154509861022
         -0.0154480682686
         -0.015445150435
         -0.01544223167
         -0.0154393138364
         -0.0154363960028
         -0.0154334781691
         -0.0154305594042
         -0.0154276415706
         -0.0154247237369
         -0.0154218059033
         -0.0154188871384
         -0.0154159693047
         -0.0154130514711
         -0.0154101327062
         -0.0154072148725
         -0.0154042970389
         -0.0154013792053
         -0.0153984604403
         -0.0153955426067
         -0.0153926247731
         -0.0153897069395
         -0.0153867881745
         -0.0153838703409
         -0.0153809525073
         -0.0153780337423
         -0.0153751159087
         -0.0153721980751
         -0.0153692802414
         -0.0153663614765
         -0.0153634436429
         -0.0153605258092
         -0.0153576079756
         -0.0153546892107
         -0.015351771377
         -0.0153488535434
         -0.0153459357098
         -0.0153430169448
         -0.0153400991112
         -0.0153371812776
         -0.0153342625126
         -0.015331344679
         -0.0153284268454
         -0.0153255090117
         -0.0153225902468
         -0.0153196724132
         -0.0153167545795
         -0.0153138367459
         -0.015310917981
         -0.0153080001473
         -0.0153050823137
         -0.0153021635488
         -0.0152992457151
         -0.0152963278815
         -0.0152934100479
         -0.0152904912829
         -0.0152875734493
         -0.0152846556157
         -0.0152817377821
         -0.0152788190171
         -0.0152759011835
         -0.0152729833499
         -0.0152700645849
         -0.0152671467513
         -0.0152642289177
         -0.015261311084
         -0.0152583923191
         -0.0152554744855
         -0.0152525566518
         -0.0152496388182
         -0.0152467200533
         -0.0152438022196
         -0.015240884386
         -0.0152379665524
         -0.0152350477874
         -0.0152321299538
         -0.0152292121202
         -0.0152262933552
         -0.0152233755216
         -0.015220457688
         -0.0152175398543
         -0.0152146210894
         -0.0152117032558
         -0.0152087854221
         -0.0152058675885
         -0.0152029488236
         -0.0152000309899
         -0.0151971131563
         -0.0151941943914
         -0.0151912765577
         -0.0151883587241
         -0.0151854408905
         -0.0151825221255
         -0.0151796042919
         -0.0151766864583
         -0.0151737686247
         -0.0151708498597
         -0.0151679320261
         -0.0151650141925
         -0.0151620954275
         -0.0151591775939
         -0.0151562597603
         -0.0151533419266
         -0.0151504231617
         -0.0151475053281
         -0.0151445874944
         -0.0151416696608
         -0.0151387508959
         -0.0151358330622
         -0.0151329152286
         -0.015129997395
         -0.01512707863
         -0.0151241607964
         -0.0151212429628
         -0.0151183241978
         -0.0151154063642
         -0.0151124885306
         -0.0151095706969
         -0.015106651932
         -0.0151037340984
         -0.0151008162647
         -0.0150978984311
         -0.0150949796662
         -0.0150920618325
         -0.0150891439989
         -0.015086225234
         -0.0150833074003
         -0.0150803895667
         -0.0150774717331
         -0.0150745529681
         -0.0150716351345
         -0.0150687173009
         -0.0150657994673
         -0.0150628807023
         -0.0150599628687
         -0.0150570450351
