aces_1.0.3/luts/V3_LogC_1000_to_linear.spi1d
Version 1
From 0.000000 1.000000
Length 65536
Components 1
{
         -0.0175058506429
         -0.0175029728562
         -0.0175000950694
         -0.0174972172827
         -0.0174943394959
         -0.0174914617091
         -0.0174885839224
         -0.017485704273
         -0.0174828264862
         -0.0174799486995
         -0.0174770709127
         -0.017474193126
         -0.0174713153392
         -0.0174684375525
         -0.0174655579031
         -0.0174626801163
         -0.0174598023295
         -0.0174569245428
         -0.017454046756
         -0.0174511689693
         -0.0174482911825
         -0.0174454133958
         -0.0174425337464
         -0.0174396559596
         -0.0174367781729
         -0.0174339003861
         -0.0174310225993
         -0.0174281448126
         -0.0174252670258
         -0.0174223873764
         -0.0174195095897
         -0.0174166318029
         -0.0174137540162
         -0.0174108762294
         -0.0174079984426
         -0.0174051206559
         -0.0174022410065
         -0.0173993632197
         -0.017396485433
         -0.0173936076462
         -0.0173907298595
         -0.0173878520727
         -0.017384974286
         -0.0173820964992
         -0.0173792168498
         -0.017376339063
         -0.0173734612763
         -0.0173705834895
         -0.0173677057028
         -0.017364827916
         -0.0173619501293
         -0.0173590704799
         -0.0173561926931
         -0.0173533149064
         -0.0173504371196
         -0.0173475593328
         -0.0173446815461
         -0.0173418037593
         -0.0173389259726
         -0.0173360463232
         -0.0173331685364
         -0.0173302907497
         -0.0173274129629
         -0.0173245351762
         -0.0173216573894
         -0.0173187796026
         -0.0173158999532
         -0.0173130221665
         -0.0173101443797
         -0.017307266593
         -0.0173043888062
         -0.0173015110195
         -0.0172986332327
         -0.0172957535833
         -0.0172928757966
         -0.0172899980098
         -0.017287120223
         -0.0172842424363
         -0.0172813646495
         -0.0172784868628
         -0.017275609076
         -0.0172727294266
         -0.0172698516399
         -0.0172669738531
         -0.0172640960664
         -0.0172612182796
         -0.0172583404928
         -0.0172554627061
         -0.0172525830567
         -0.0172497052699
         -0.0172468274832
         -0.0172439496964
         -0.0172410719097
         -0.0172381941229
         -0.0172353163362
         -0.0172324385494
         -0.0172295589
         -0.0172266811132
         -0.0172238033265
         -0.0172209255397
         -0.017218047753
         -0.0172151699662
         -0.0172122921795
         -0.0172094125301
         -0.0172065347433
         -0.0172036569566
         -0.0172007791698
         -0.017197901383
         -0.0171950235963
         -0.0171921458095
         -0.0171892680228
         -0.0171863883734
         -0.0171835105866
         -0.0171806327999
         -0.0171777550131
         -0.0171748772264
         -0.0171719994396
         -0.0171691216528
         -0.0171662420034
         -0.0171633642167
         -0.0171604864299
         -0.0171576086432
         -0.0171547308564
         -0.0171518530697
         -0.0171489752829
         -0.0171460956335
         -0.0171432178468
         -0.01714034006
         -0.0171374622732
         -0.0171345844865
         -0.0171317066997
         -0.017128828913
         -0.0171259511262
         -0.0171230714768
         -0.0171201936901
         -0.0171173159033
         -0.0171144381166
         -0.0171115603298
         -0.017108682543
         -0.0171058047563
         -0.0171029251069
         -0.0171000473201
         -0.0170971695334
         -0.0170942917466
         -0.0170914139599
         -0.0170885361731
         -0.0170856583863
         -0.0170827805996
         -0.0170799009502
         -0.0170770231634
         -0.0170741453767
         -0.0170712675899
         -0.0170683898032
         -0.0170655120164
         -0.0170626342297
         -0.0170597545803
         -0.0170568767935
         -0.0170539990067
         -0.01705112122
         -0.0170482434332
         -0.0170453656465
         -0.0170424878597
         -0.0170396082103
         -0.0170367304236
         -0.0170338526368
         -0.0170309748501
         -0.0170280970633
         -0.0170252192765
         -0.0170223414898
         -0.017019463703
         -0.0170165840536
         -0.0170137062669
         -0.0170108284801
         -0.0170079506934
         -0.0170050729066
         -0.0170021951199
         -0.0169993173331
         -0.0169964376837
         -0.0169935598969
         -0.0169906821102
         -0.0169878043234
         -0.0169849265367
         -0.0169820487499
         -0.0169791709632
         -0.0169762931764
         -0.016973413527
         -0.0169705357403
         -0.0169676579535
         -0.0169647801667
         -0.01696190238
         -0.0169590245932
         -0.0169561468065
         -0.0169532671571
         -0.0169503893703
         -0.0169475115836
         -0.0169446337968
         -0.0169417560101
         -0.0169388782233
         -0.0169360004365
         -0.0169331207871
         -0.0169302430004
         -0.0169273652136
         -0.0169244874269
         -0.0169216096401
         -0.0169187318534
         -0.0169158540666
         -0.0169129762799
         -0.0169100966305
         -0.0169072188437
         -0.0169043410569
         -0.0169014632702
         -0.0168985854834
         -0.0168957076967
         -0.0168928299099
         -0.0168899502605
         -0.0168870724738
         -0.016884194687
         -0.0168813169003
         -0.0168784391135
         -0.0168755613267
         -0.01687268354
         -0.0168698057532
         -0.0168669261038
         -0.0168640483171
         -0.0168611705303
         -0.0168582927436
         -0.0168554149568
         -0.0168525371701
         -0.0168496593833
         -0.0168467797339
         -0.0168439019471
         -0.0168410241604
         -0.0168381463736
         -0.0168352685869
         -0.0168323908001
         -0.0168295130134
         -0.0168266352266
         -0.0168237555772
         -0.0168208777905
         -0.0168180000037
         -0.0168151222169
         -0.0168122444302
         -0.0168093666434
         -0.0168064888567
         -0.0168036092073
         -0.0168007314205
         -0.0167978536338
         -0.016794975847
         -0.0167920980603
         -0.0167892202735
         -0.0167863424867
         -0.0167834628373
         -0.0167805850506
         -0.0167777072638
         -0.0167748294771
         -0.0167719516903
         -0.0167690739036
         -0.0167661961168
         -0.01676331833
         -0.0167604386806
         -0.0167575608939
         -0.0167546831071
         -0.0167518053204
         -0.0167489275336
         -0.0167460497469
         -0.0167431719601
         -0.0167402923107
         -0.016737414524
         -0.0167345367372
         -0.0167316589504
         -0.0167287811637
         -0.0167259033769
         -0.0167230255902
         -0.0167201478034
         -0.016717268154
         -0.0167143903673
         -0.0167115125805
         -0.0167086347938
         -0.016705757007
         -0.0167028792202
         -0.0167000014335
         -0.0166971217841
         -0.0166942439973
         -0.0166913662106
         -0.0166884884238
         -0.0166856106371
         -0.0166827328503
         -0.0166798550636
         -0.0166769754142
         -0.0166740976274
         -0.0166712198406
         -0.0166683420539
         -0.0166654642671
         -0.0166625864804
         -0.0166597086936
         -0.0166568309069
         -0.0166539512575
         -0.0166510734707
         -0.016648195684
         -0.0166453178972
         -0.0166424401104
         -0.0166395623237
         -0.0166366845369
         -0.0166338048875
         -0.0166309271008
         -0.016628049314
         -0.0166251715273
         -0.0166222937405
         -0.0166194159538
         -0.016616538167
         -0.0166136603802
         -0.0166107807308
         -0.0166079029441
         -0.0166050251573
         -0.0166021473706
         -0.0165992695838
         -0.0165963917971
         -0.0165935140103
         -0.0165906343609
         -0.0165877565742
         -0.0165848787874
         -0.0165820010006
         -0.0165791232139
         -0.0165762454271
         -0.0165733676404
         -0.016570487991
         -0.0165676102042
         -0.0165647324175
         -0.0165618546307
         -0.016558976844
         -0.0165560990572
         -0.0165532212704
         -0.0165503434837
         -0.0165474638343
         -0.0165445860475
         -0.0165417082608
         -0.016538830474
         -0.0165359526873
         -0.0165330749005
         -0.0165301971138
         -0.0165273174644
         -0.0165244396776
         -0.0165215618908
         -0.0165186841041
         -0.0165158063173
         -0.0165129285306
         -0.0165100507438
         -0.0165071729571
         -0.0165042933077
         -0.0165014155209
         -0.0164985377342
         -0.0164956599474
         -0.0164927821606
         -0.0164899043739
         -0.0164870265871
         -0.0164841469377
         -0.016481269151
         -0.0164783913642
         -0.0164755135775
         -0.0164726357907
         -0.016469758004
         -0.0164668802172
         -0.0164640005678
         -0.016461122781
         -0.0164582449943
         -0.0164553672075
         -0.0164524894208
         -0.016449611634
         -0.0164467338473
         -0.0164438560605
         -0.0164409764111
         -0.0164380986243
         -0.0164352208376
         -0.0164323430508
         -0.0164294652641
         -0.0164265874773
         -0.0164237096906
         -0.0164208300412
         -0.0164179522544
         -0.0164150744677
         -0.0164121966809
         -0.0164093188941
         -0.0164064411074
         -0.0164035633206
         -0.0164006855339
         -0.0163978058845
         -0.0163949280977
         -0.016392050311
         -0.0163891725242
         -0.0163862947375
         -0.0163834169507
         -0.0163805391639
         -0.0163776595145
         -0.0163747817278
         -0.016371903941
         -0.0163690261543
         -0.0163661483675
         -0.0163632705808
         -0.016360392794
         -0.0163575150073
         -0.0163546353579
         -0.0163517575711
         -0.0163488797843
         -0.0163460019976
         -0.0163431242108
         -0.0163402464241
         -0.0163373686373
         -0.0163344889879
         -0.0163316112012
         -0.0163287334144
         -0.0163258556277
         -0.0163229778409
         -0.0163201000541
         -0.0163172222674
         -0.016314342618
         -0.0163114648312
         -0.0163085870445
         -0.0163057092577
         -0.016302831471
         -0.0162999536842
         -0.0162970758975
         -0.0162941981107
         -0.0162913184613
         -0.0162884406745
         -0.0162855628878
         -0.016282685101
         -0.0162798073143
         -0.0162769295275
         -0.0162740517408
         -0.0162711720914
         -0.0162682943046
         -0.0162654165179
         -0.0162625387311
         -0.0162596609443
         -0.0162567831576
         -0.0162539053708
         -0.0162510275841
         -0.0162481479347
         -0.0162452701479
         -0.0162423923612
         -0.0162395145744
         -0.0162366367877
         -0.0162337590009
         -0.0162308812141
         -0.0162280015647
         -0.016225123778
         -0.0162222459912
         -0.0162193682045
         -0.0162164904177
         -0.016213612631
         -0.0162107348442
         -0.0162078551948
         -0.0162049774081
         -0.0162020996213
         -0.0161992218345
         -0.0161963440478
         -0.016193466261
         -0.0161905884743
         -0.0161877106875
         -0.0161848310381
         -0.0161819532514
         -0.0161790754646
         -0.0161761976779
         -0.0161733198911
         -0.0161704421043
         -0.0161675643176
         -0.0161646846682
         -0.0161618068814
         -0.0161589290947
         -0.0161560513079
         -0.0161531735212
         -0.0161502957344
         -0.0161474179476
         -0.0161445401609
         -0.0161416605115
         -0.0161387827247
         -0.016135904938
         -0.0161330271512
         -0.0161301493645
         -0.0161272715777
         -0.016124393791
         -0.0161215141416
         -0.0161186363548
         -0.016115758568
         -0.0161128807813
         -0.0161100029945
         -0.0161071252078
         -0.016104247421
         -0.0161013677716
         -0.0160984899849
         -0.0160956121981
         -0.0160927344114
         -0.0160898566246
         -0.0160869788378
         -0.0160841010511
         -0.0160812232643
         -0.0160783436149
         -0.0160754658282
         -0.0160725880414
         -0.0160697102547
         -0.0160668324679
         -0.0160639546812
         -0.0160610768944
         -0.016058197245
         -0.0160553194582
         -0.0160524416715
         -0.0160495638847
         -0.016046686098
         -0.0160438083112
         -0.0160409305245
         -0.0160380527377
         -0.0160351730883
         -0.0160322953016
         -0.0160294175148
         -0.016026539728
         -0.0160236619413
         -0.0160207841545
         -0.0160179063678
         -0.0160150267184
         -0.0160121489316
         -0.0160092711449
         -0.0160063933581
         -0.0160035155714
         -0.0160006377846
         -0.0159977599978
         -0.0159948822111
         -0.0159920025617
         -0.0159891247749
         -0.0159862469882
         -0.0159833692014
         -0.0159804914147
         -0.0159776136279
         -0.0159747358412
         -0.0159718561918
         -0.015968978405
         -0.0159661006182
         -0.0159632228315
         -0.0159603450447
         -0.015957467258
         -0.0159545894712
         -0.0159517098218
         -0.0159488320351
         -0.0159459542483
         -0.0159430764616
         -0.0159401986748
         -0.015937320888
         -0.0159344431013
         -0.0159315653145
         -0.0159286856651
         -0.0159258078784
         -0.0159229300916
         -0.0159200523049
         -0.0159171745181
         -0.0159142967314
         -0.0159114189446
         -0.0159085392952
         -0.0159056615084
         -0.0159027837217
         -0.0158999059349
         -0.0158970281482
         -0.0158941503614
         -0.0158912725747
         -0.0158883947879
         -0.0158855151385
         -0.0158826373518
         -0.015879759565
         -0.0158768817782
         -0.0158740039915
         -0.0158711262047
         -0.015868248418
         -0.0158653687686
         -0.0158624909818
         -0.0158596131951
         -0.0158567354083
         -0.0158538576216
         -0.0158509798348
         -0.015848102048
         -0.0158452223986
         -0.0158423446119
         -0.0158394668251
         -0.0158365890384
         -0.0158337112516
         -0.0158308334649
         -0.0158279556781
         -0.0158250778913
         -0.0158221982419
         -0.0158193204552
         -0.0158164426684
         -0.0158135648817
         -0.0158106870949
         -0.0158078093082
         -0.0158049315214
         -0.015802051872
         -0.0157991740853
         -0.0157962962985
         -0.0157934185117
         -0.015790540725
         -0.0157876629382
         -0.0157847851515
         -0.0157819073647
         -0.0157790277153
         -0.0157761499286
         -0.0157732721418
         -0.0157703943551
         -0.0157675165683
         -0.0157646387815
         -0.0157617609948
         -0.0157588813454
         -0.0157560035586
         -0.0157531257719
         -0.0157502479851
         -0.0157473701984
         -0.0157444924116
         -0.0157416146249
         -0.0157387349755
         -0.0157358571887
         -0.0157329794019
         -0.0157301016152
         -0.0157272238284
         -0.0157243460417
         -0.0157214682549
         -0.0157185904682
         -0.0157157108188
         -0.015712833032
         -0.0157099552453
         -0.0157070774585
         -0.0157041996717
         -0.015701321885
         -0.0156984440982
         -0.0156955644488
         -0.0156926866621
         -0.0156898088753
         -0.0156869310886
         -0.0156840533018
         -0.0156811755151
         -0.0156782977283
         -0.0156754199415
         -0.0156725402921
         -0.0156696625054
         -0.0156667847186
         -0.0156639069319
         -0.0156610291451
         -0.0156581513584
         -0.0156552735716
         -0.0156523939222
         -0.0156495161355
         -0.0156466383487
         -0.0156437605619
         -0.0156408827752
         -0.0156380049884
         -0.0156351272017
         -0.0156322494149
         -0.0156293697655
         -0.0156264919788
         -0.015623614192
         -0.0156207364053
         -0.0156178586185
         -0.0156149799004
         -0.0156121021137
         -0.0156092243269
         -0.0156063465402
         -0.0156034678221
         -0.0156005900353
         -0.0155977122486
         -0.0155948335305
         -0.0155919557437
         -0.015589077957
         -0.0155862001702
         -0.0155833214521
         -0.0155804436654
         -0.0155775658786
         -0.0155746880919
         -0.0155718093738
         -0.015568931587
         -0.0155660538003
         -0.0155631760135
         -0.0155602972955
         -0.0155574195087
         -0.0155545417219
         -0.0155516630039
         -0.0155487852171
         -0.0155459074304
         -0.0155430296436
         -0.0155401509255
         -0.0155372731388
         -0.015534395352
         -0.0155315175653
         -0.0155286388472
         -0.0155257610604
         -0.0155228832737
         -0.0155200045556
         -0.0155171267688
         -0.0155142489821
         -0.0155113711953
         -0.0155084924772
         -0.0155056146905
         -0.0155027369037
         -0.015499859117
         -0.0154969803989
         -0.0154941026121
         -0.0154912248254
         -0.0154883470386
         -0.0154854683205
         -0.0154825905338
         -0.015479712747
         -0.015476834029
         -0.0154739562422
         -0.0154710784554
         -0.0154682006687
         -0.0154653219506
         -0.0154624441639
         -0.0154595663771
         -0.0154566885903
         -0.0154538098723
         -0.0154509320855
         -0.0154480542988
         -0.0154451755807
         -0.0154422977939
         -0.0154394200072
         -0.0154365422204
         -0.0154336635023
         -0.0154307857156
         -0.0154279079288
         -0.0154250301421
         -0.015422151424
         -0.0154192736372
         -0.0154163958505
         -0.0154135171324
         -0.0154106393456
         -0.0154077615589
         -0.0154048837721
         -0.0154020050541
         -0.0153991272673
         -0.0153962494805
         -0.0153933716938
         -0.0153904929757
         -0.015387615189
         -0.0153847374022
         -0.0153818596154
         -0.0153789808974
         -0.0153761031106
         -0.0153732253239
         -0.0153703466058
         -0.015367468819
         -0.0153645910323
         -0.0153617132455
         -0.0153588345274
         -0.0153559567407
         -0.0153530789539
         -0.0153502011672
         -0.0153473224491
         -0.0153444446623
         -0.0153415668756
         -0.0153386881575
         -0.0153358103707
         -0.015332932584
         -0.0153300547972
         -0.0153271760792
         -0.0153242982924
         -0.0153214205056
         -0.0153185427189
         -0.0153156640008
         -0.0153127862141
         -0.0153099084273
         -0.0153070306405
         -0.0153041519225
         -0.0153012741357
         -0.015298396349
         -0.0152955176309
         -0.0152926398441
         -0.0152897620574
         -0.0152868842706
         -0.0152840055525
         -0.0152811277658
         -0.015278249979
         -0.0152753721923
         -0.0152724934742
         -0.0152696156874
         -0.0152667379007
         -0.0152638591826
         -0.0152609813958
         -0.0152581036091
         -0.0152552258223
         -0.0152523471043
         -0.0152494693175
         -0.0152465915307
         -0.015243713744
         -0.0152408350259
         -0.0152379572392
         -0.0152350794524
         -0.0152322007343
         -0.0152293229476
         -0.0152264451608
         -0.0152235673741
         -0.015220688656
         -0.0152178108692
         -0.0152149330825
         -0.0152120552957
         -0.0152091765776
         -0.0152062987909
         -0.0152034210041
         -0.0152005432174
         -0.0151976644993
         -0.0151947867125
         -0.0151919089258
         -0.0151890302077
         -0.0151861524209
         -0.0151832746342
         -0.0151803968474
         -0.0151775181293
         -0.0151746403426
         -0.0151717625558
         -0.0151688847691
         -0.015166006051
         -0.0151631282642
         -0.0151602504775
         -0.0151573717594
         -0.0151544939727
         -0.0151516161859
         -0.0151487383991
         -0.0151458596811
         -0.0151429818943
         -0.0151401041076
         -0.0151372263208
         -0.0151343476027
         -0.015131469816
         -0.0151285920292
         -0.0151257142425
         -0.0151228355244
         -0.0151199577376
         -0.0151170799509
         -0.0151142012328
         -0.015111323446
         -0.0151084456593
         -0.0151055678725
         -0.0151026891544
         -0.0150998113677
         -0.0150969335809
         -0.0150940557942
         -0.0150911770761
         -0.0150882992893
         -0.0150854215026
         -0.0150825427845
         -0.0150796649978
         -0.015076787211
         -0.0150739094242
         -0.0150710307062
         -0.0150681529194
         -0.0150652751327
         -0.0150623973459
         -0.0150595186278
         -0.0150566408411
         -0.0150537630543
         -0.0150508843362
         -0.0150480065495
         -0.0150451287627
         -0.015042250976
         -0.0150393722579
         -0.0150364944711
         -0.0150336166844
         -0.0150307388976
         -0.0150278601795
         -0.0150249823928
         -0.015022104606
         -0.0150192268193
         -0.0150163481012
         -0.0150134703144
         -0.0150105925277
         -0.0150077138096
         -0.0150048360229
         -0.0150019582361
         -0.0149990804493
         -0.0149962017313
         -0.0149933239445
         -0.0149904461578
         -0.014987568371
         -0.0149846896529
         -0.0149818118662
         -0.0149789340794
         -0.0149760553613
         -0.0149731775746
         -0.0149702997878
         -0.0149674220011
         -0.014964543283
         -0.0149616654962
         -0.0149587877095
         -0.0149559099227
         -0.0149530312046
         -0.0149501534179
         -0.0149472756311
         -0.0149443969131
         -0.0149415191263
         -0.0149386413395
         -0.0149357635528
         -0.0149328848347
         -0.014930007048
         -0.0149271292612
         -0.0149242514744
         -0.0149213727564
         -0.0149184949696
         -0.0149156171829
         -0.0149127393961
         -0.014909860678
         -0.0149069828913
         -0.0149041051045
         -0.0149012263864
         -0.0148983485997
         -0.0148954708129
         -0.0148925930262
         -0.0148897143081
         -0.0148868365213
         -0.0148839587346
         -0.0148810809478
         -0.0148782022297
         -0.014875324443
         -0.0148724466562
         -0.0148695679381
         -0.0148666901514
         -0.0148638123646
         -0.0148609345779
         -0.0148580558598
         -0.014855178073
         -0.0148523002863
         -0.0148494224995
